BAEK26/lfd/robot_data_5.csv
timestamp,x,y,z,roll,pitch,yaw,joint1,joint2,joint3,joint4,joint5,joint6
1716279426.165335,-66.170364,177.837173,224.005432,-179.24681,-76.726898,117.864237,107.871452,0.033976,12.140976,-191.78834,65.423587,183.361792
1716279426.2732227,-66.170364,177.837173,224.005432,-179.24681,-76.726898,117.864237,107.871452,0.033976,12.140976,-191.78834,65.423587,183.361792
1716279426.3835776,-66.170364,177.837173,224.005432,-179.24681,-76.726898,117.864237,107.871452,0.033976,12.140976,-191.78834,65.423587,183.361792
1716279426.4923134,-66.170364,177.837173,224.005432,-179.24681,-76.726898,117.864237,107.871452,0.033976,12.140976,-191.78834,65.423587,183.361792
1716279426.6023946,-66.170364,177.837173,224.005432,-179.24681,-76.726898,117.864237,107.871452,0.033976,12.140976,-191.78834,65.423587,183.361792
1716279426.7118077,-66.170364,177.837173,224.005432,-179.24681,-76.726898,117.864237,107.871452,0.033976,12.140976,-191.78834,65.423587,183.361792
1716279426.8217263,-66.170364,177.837173,224.005432,-179.24681,-76.726898,117.864237,107.871452,0.033976,12.140976,-191.78834,65.423587,183.361792
1716279426.9306679,-66.170364,177.837173,224.005432,-179.24681,-76.726898,117.864237,107.871452,0.033976,12.140976,-191.78834,65.423587,183.361792
1716279427.0399,-66.170364,177.837173,224.005432,-179.24681,-76.726898,117.864237,107.871452,0.033976,12.140976,-191.78834,65.423587,183.361792
1716279427.1495717,-64.939171,178.525604,224.19989,-178.91203,-76.913167,116.255772,107.838392,0.035065,12.140976,-190.458963,65.551758,183.164065
1716279427.2595837,-60.523239,180.627792,224.854691,179.685122,-77.531102,114.085351,107.364441,0.035065,12.142179,-187.075189,66.036996,182.142309
1716279427.369894,-52.785511,184.040558,228.561096,175.106273,-80.98472,114.897289,105.439991,0.035294,12.142637,-184.921899,69.456465,180.966772
1716279427.4796293,-41.010582,187.526855,230.744354,169.788995,-82.923723,116.196987,101.828408,0.03581,12.143096,-184.262711,71.44778,180.340586
1716279427.5897768,-27.082685,190.241623,230.792679,170.687393,-82.957127,110.694587,97.918086,0.036268,12.143325,-183.691415,71.434029,180.340586
1716279427.6985762,-12.474143,191.953629,230.798111,171.140373,-82.94074,105.516137,93.710857,0.037815,12.143325,-183.153064,71.383666,180.285639
1716279427.80847,4.140366,192.537079,230.719894,170.819001,-82.825633,100.242461,89.078894,0.039248,12.143325,-182.142309,71.241744,180.021964
1716279427.916083,19.271399,191.799591,230.754471,169.558723,-82.795266,97.209452,84.48257,0.040336,12.143497,-182.44993,71.22805,179.923072
1716279428.025753,34.881626,189.787033,230.811935,169.235174,-82.80323,92.94974,79.760653,0.040852,12.144528,-182.592768,71.22805,179.912128
1716279428.1350281,49.015793,186.848175,230.881638,170.465888,-82.853192,87.368673,75.493435,0.040966,12.149455,-182.515878,71.22805,180.054909
1716279428.2445343,60.240967,184.200714,231.357483,178.133553,-83.088277,76.158238,72.103816,0.040966,12.279517,-182.416985,71.223467,180.999774
1716279428.3536284,68.103149,186.30159,235.526154,-178.033285,-84.286905,70.177647,70.174725,0.040966,13.495391,-182.208256,71.195965,181.417231
1716279428.4625993,74.264244,195.485718,246.186676,-178.664455,-87.185269,70.219645,69.34766,0.040565,16.522212,-182.438987,71.067794,181.450176
1716279428.5741377,79.674866,208.739853,260.526306,161.655458,-89.630423,89.791425,69.212328,0.040336,20.837558,-182.493876,69.218458,181.450176
1716279428.6824455,84.247627,221.376953,276.953705,7.198814,-87.077381,-115.670725,69.211869,0.040222,25.219024,-182.592768,68.092367,181.40623
1716279428.7923338,88.10939,232.622131,290.474976,14.606585,-86.742544,-122.845818,69.211869,0.040222,29.397204,-182.97728,64.178492,181.296394
1716279428.9022489,90.135719,239.420853,298.209412,31.678034,-87.52297,-139.510525,69.211755,0.040222,32.05315,-183.592523,60.498041,181.252448
1716279429.012825,91.170609,239.361862,298.720673,18.447293,-87.630686,-127.186718,69.211755,0.040623,32.160178,-182.537822,60.498041,181.252448
1716279429.1220403,91.400261,238.132553,298.152832,5.629883,-86.976311,-114.951147,69.211468,0.041081,31.72072,-181.834745,61.766054,181.318338
1716279429.2325768,89.374954,233.953903,296.550629,2.336293,-83.388449,-111.233396,69.211468,0.041081,30.116381,-182.131366,66.892994,181.461177
1716279429.3426163,87.141182,227.606079,286.404572,-2.210013,-85.271017,-106.7602,69.212442,0.041081,27.614446,-182.032473,67.510987,181.790799
1716279429.4533565,82.720093,219.257431,273.569305,-0.059645,-87.848639,-107.822693,69.234959,0.041081,24.373281,-183.19701,68.206787,181.988527
1716279429.5641441,76.311768,209.849457,261.726654,13.273026,-89.182829,-119.704978,69.654078,0.040336,20.826443,-184.24071,70.426941,181.988527
1716279429.675138,68.379982,201.156845,249.457321,175.384788,-87.695832,79.95288,70.705398,0.039305,17.448799,-185.086682,70.619225,182.021472
1716279429.784055,55.675682,194.539444,239.473526,177.808915,-85.233603,80.973432,73.16969,0.038216,14.706394,-186.031489,71.040349,182.032473
1716279429.894227,39.817284,192.373459,234.911316,176.245943,-84.562096,87.823257,76.980547,0.036784,13.130073,-187.525649,72.010825,182.032473
1716279430.00502,22.525995,193.533417,233.708023,172.672634,-84.149796,97.787108,81.427387,0.033747,12.804575,-189.536158,72.052021,182.032473
1716279430.114782,6.371509,194.366241,233.596481,172.040662,-84.06855,104.059449,85.938799,0.031971,12.804461,-190.909423,72.056605,182.241202
1716279430.2251768,-8.147809,194.176041,233.516541,173.107223,-84.040991,106.936728,90.207106,0.030768,12.804461,-190.382072,72.006242,182.241202
1716279430.3342826,-20.85313,193.193695,233.515442,175.589792,-84.096167,107.492612,94.276424,0.02945,12.804461,-189.316428,72.001658,182.274147
1716279430.443239,-34.237099,191.235931,233.544159,-178.575131,-84.16899,104.850417,98.599963,0.026814,12.804575,-188.162835,72.024519,182.625714
1716279430.554059,-47.300426,188.37207,233.590393,-172.373436,-84.18446,101.880261,102.836757,0.021658,12.805435,-187.141137,72.061131,183.032227
1716279430.6640286,-60.257881,184.567413,233.628189,-168.346287,-84.175178,101.147391,107.103745,0.018908,12.807326,-186.141383,72.0978,183.219011
1716279430.773998,-70.286766,180.992477,233.953079,-162.667302,-84.351076,97.854087,110.559827,0.015814,12.812482,-185.031735,72.381586,183.482687
1716279430.8970368,-72.973335,179.930344,233.757141,-158.110683,-84.000196,93.457839,111.71193,0.015814,12.813227,-184.031981,72.184775,183.823253
1716279431.008658,-72.973335,179.930344,233.757141,-158.110683,-84.000196,93.457839,111.71193,0.015814,12.813227,-184.031981,72.184775,183.823253
1716279431.1201417,-72.973335,179.930344,233.757141,-158.110683,-84.000196,93.457839,111.71193,0.015814,12.813227,-184.031981,72.184775,183.823253
1716279431.2298696,-72.973335,179.930344,233.757141,-158.110683,-84.000196,93.457839,111.71193,0.015814,12.813227,-184.031981,72.184775,183.823253
1716279431.34071,-72.973335,179.930344,233.757141,-158.110683,-84.000196,93.457839,111.71193,0.015814,12.813227,-184.031981,72.184775,183.823253
1716279431.4503763,-72.973335,179.930344,233.757141,-158.110683,-84.000196,93.457839,111.71193,0.015814,12.813227,-184.031981,72.184775,183.823253
1716279431.560143,-72.973335,179.930344,233.757141,-158.110683,-84.000196,93.457839,111.71193,0.015814,12.813227,-184.031981,72.184775,183.823253
1716279431.669695,-71.386871,180.091858,230.026749,-172.0013,-80.865029,105.981378,111.698867,0.022746,12.813112,-182.702662,68.682857,182.592768
1716279431.7810762,-64.809326,182.166672,227.491882,-178.811992,-78.565291,108.592462,110.705702,0.029908,12.812826,-179.25294,66.256725,180.81299
1716279431.890988,-54.233173,185.722046,227.548721,174.092539,-78.536184,112.169323,107.441447,0.031971,12.812826,-178.703588,66.279586,179.230939
1716279431.9985526,-41.297337,189.212723,227.673157,168.979406,-78.468805,114.273854,103.256563,0.034607,12.812826,-179.978018,66.357394,178.505861
1716279432.1096404,-27.45178,191.895493,227.770981,164.803116,-78.328029,114.58984,99.00407,0.035294,12.812826,-180.307641,66.40323,177.714835
1716279432.2197738,-14.147696,193.520996,227.946121,160.381257,-78.176138,115.621909,94.68712,0.035581,12.812826,-181.076665,66.549678,176.945811
1716279432.3316455,-0.281288,194.427505,229.177979,156.422176,-79.077515,116.12107,90.309837,0.035924,12.812826,-182.032473,67.721549,176.770028
1716279432.4392586,13.898982,194.570679,232.10376,148.769408,-81.470015,119.588152,86.091951,0.036268,12.812826,-182.076419,70.399496,176.737083
1716279432.5499132,28.125177,193.213272,232.367416,146.906952,-81.544385,117.847105,81.776605,0.036383,12.812826,-182.97728,70.564279,176.737083
1716279432.6595569,40.597221,191.123184,232.399078,146.243237,-81.476661,115.169502,77.777073,0.036612,12.813112,-183.548577,70.555112,176.737083
1716279432.770863,50.984211,189.128372,232.737045,149.555736,-81.909989,107.749469,75.239786,0.036383,12.897738,-182.054417,70.545944,177.055647
1716279432.8802953,55.242085,192.280121,236.552002,146.777005,-82.876512,109.385894,74.340644,0.03495,14.032309,-181.845689,70.417774,177.242431
1716279432.9900863,58.143097,202.763351,247.379517,129.186685,-85.034099,126.835839,74.340644,0.033289,17.119979,-181.790799,70.147681,177.374269
1716279433.10062,62.151588,217.039581,262.445435,99.916391,-86.158586,155.907889,74.340644,0.031398,21.633053,-181.691907,68.106061,177.528051
1716279433.2114313,65.129791,230.250153,273.551514,125.361103,-85.084061,131.075956,74.340644,0.029908,26.331937,-182.526878,61.138894,177.780782
1716279433.3195117,66.785927,241.601517,284.925812,133.834003,-83.31534,123.956268,74.341102,0.029106,30.390598,-184.25171,55.54505,177.967509
1716279433.4295895,68.330841,249.39386,298.118256,108.302832,-84.410893,149.85184,74.341389,0.028361,33.245532,-184.790062,55.494687,177.967509
1716279433.5410645,69.98761,250.000778,299.900787,106.368813,-85.373404,150.420501,74.341389,0.029335,33.622424,-183.164065,55.508438,177.967509
1716279433.6492803,70.013023,248.811066,298.011261,111.123503,-85.57944,145.361283,74.342935,0.029335,33.166063,-182.779553,55.664053,178.055401
1716279433.7592497,68.689484,244.329254,291.011719,121.275857,-85.407037,135.338361,74.344597,0.029335,31.238748,-182.867444,56.758116,178.242185
1716279433.8688753,66.377007,235.963257,281.338867,114.028399,-86.197719,142.591548,74.34941,0.029335,28.147182,-182.746608,60.726937,178.49486
1716279433.9770875,63.540821,227.188049,269.302795,138.363177,-85.216242,118.565422,74.408195,0.029335,25.003363,-182.944335,61.848445,178.747534
1716279434.0858793,59.287395,218.073807,259.080597,145.609832,-84.900084,112.117756,74.715931,0.029335,21.79096,-183.394795,64.439417,179.066156
1716279434.1950388,55.162315,208.364929,253.069138,118.907364,-87.43949,138.730271,75.302181,0.029335,18.378595,-182.570824,70.857232,179.274884
1716279434.3053374,50.403305,198.123062,242.218781,151.284464,-86.034827,107.298838,75.721758,0.029335,15.251907,-183.054171,71.699537,179.593506
1716279434.4146779,45.467735,188.401474,231.995316,165.663527,-83.389767,93.799608,76.398823,0.029335,12.323577,-183.240956,71.704121,179.758289
1716279434.5244172,41.152023,183.024094,226.474945,169.801543,-81.82353,90.214669,77.490536,0.028877,10.671568,-182.669659,71.704121,179.758289
1716279434.63328,31.086121,184.802979,226.305206,166.309824,-81.572116,97.416863,80.352575,0.025611,10.668933,-183.515632,71.589644,179.362776
1716279434.7430825,16.194908,186.49234,226.228928,166.067348,-81.517227,102.376443,85.10612,0.023491,10.670594,-183.713359,71.562199,179.351833
1716279434.85138,-0.289823,186.967636,226.171448,167.297717,-81.538827,106.350191,89.841329,0.021772,10.671568,-183.977034,71.562199,179.582506
1716279434.9634793,-15.036676,186.172012,226.122009,169.626046,-81.594003,108.530869,94.51867,0.02097,10.672886,-183.977034,71.562199,179.934072
1716279435.0725346,-29.454811,184.282364,226.107071,177.214929,-81.735581,105.127786,98.893547,0.019652,10.676725,-183.713359,71.580534,180.999774
1716279435.1820464,-43.466099,181.378311,226.323547,-176.33521,-81.931131,103.163457,103.185803,0.015928,10.690247,-183.977034,71.786512,181.966526
1716279435.2912097,-56.496399,177.952087,227.757309,-172.876837,-83.150214,104.076867,107.293223,0.010772,10.742672,-184.361546,73.132333,182.362038
1716279435.398982,-64.072884,175.709778,231.192001,-166.340706,-86.293575,99.526092,109.782667,0.009912,10.752642,-183.592523,76.185625,182.230201
1716279435.5111063,-64.161278,175.675552,231.103363,-159.584216,-86.071382,92.694716,109.85463,0.010084,10.752642,-183.460685,76.103234,182.702662
1716279435.6249704,-64.161278,175.675552,231.103363,-159.584216,-86.071382,92.694716,109.85463,0.010084,10.752642,-183.460685,76.103234,182.702662
1716279435.7330027,-64.161278,175.675552,231.103363,-159.584216,-86.071382,92.694716,109.85463,0.010084,10.752642,-183.460685,76.103234,182.702662
1716279435.8424337,-64.161278,175.675552,231.103363,-159.584216,-86.071382,92.694716,109.85463,0.010084,10.752642,-183.460685,76.103234,182.702662
1716279435.9511786,-64.161278,175.675552,231.103363,-159.584216,-86.071382,92.694716,109.85463,0.010084,10.752642,-183.460685,76.103234,182.702662
1716279436.059932,-64.161278,175.675552,231.103363,-159.584216,-86.071382,92.694716,109.85463,0.010084,10.752642,-183.460685,76.103234,182.702662
1716279436.1699653,-64.161278,175.675552,231.103363,-159.584216,-86.071382,92.694716,109.85463,0.010084,10.752642,-183.460685,76.103234,182.702662
1716279436.2781703,-64.161278,175.675552,231.103363,-159.584216,-86.071382,92.694716,109.85463,0.010084,10.752642,-183.460685,76.103234,182.702662
1716279436.3875551,-64.161278,175.675552,231.103363,-159.584216,-86.071382,92.694716,109.85463,0.010084,10.752642,-183.460685,76.103234,182.702662
