BAEK26/lfd/robot_data_3.csv
timestamp,x,y,z,roll,pitch,yaw,joint1,joint2,joint3,joint4,joint5,joint6
1716279408.6983202,-53.762897,185.317841,228.700974,165.839425,-79.86665,122.849944,106.376662,0.024694,12.577913,-182.416985,68.119812,178.747534
1716279408.7999892,-53.762897,185.317841,228.700974,165.839425,-79.86665,122.849944,106.376662,0.024694,12.577913,-182.416985,68.119812,178.747534
1716279408.9101405,-53.762897,185.317841,228.700974,165.839425,-79.86665,122.849944,106.376662,0.024694,12.577913,-182.416985,68.119812,178.747534
1716279409.0205472,-53.762897,185.317841,228.700974,165.839425,-79.86665,122.849944,106.376662,0.024694,12.577913,-182.416985,68.119812,178.747534
1716279409.1302083,-53.762897,185.317841,228.700974,165.839425,-79.86665,122.849944,106.376662,0.024694,12.577913,-182.416985,68.119812,178.747534
1716279409.2408516,-53.762897,185.317841,228.700974,165.839425,-79.86665,122.849944,106.376662,0.024694,12.577913,-182.416985,68.119812,178.747534
1716279409.3504908,-53.762897,185.317841,228.700974,165.839425,-79.86665,122.849944,106.376662,0.024694,12.577913,-182.416985,68.119812,178.747534
1716279409.458989,-53.762897,185.317841,228.700974,165.839425,-79.86665,122.849944,106.376662,0.024694,12.577913,-182.416985,68.119812,178.747534
1716279409.569605,-53.762897,185.317841,228.700974,165.839425,-79.86665,122.849944,106.376662,0.024694,12.577913,-182.416985,68.119812,178.747534
1716279409.6800437,-53.626728,185.367004,228.754028,165.921988,-79.933743,122.629641,106.375803,0.027788,12.575851,-182.274147,68.183926,178.747534
1716279409.7888396,-52.008175,185.877655,228.774567,166.661734,-79.985596,120.293578,106.374026,0.027788,12.575965,-180.59326,68.179342,178.527805
1716279409.898676,-48.19524,186.894058,228.793793,167.230567,-80.027364,116.179168,106.302063,0.027903,12.575965,-176.912866,68.179342,177.846673
1716279410.0064309,-41.73661,188.423721,228.798233,165.465857,-79.945832,114.728553,104.93109,0.028648,12.575965,-174.924301,68.179342,177.099593
1716279410.1156926,-31.96579,190.523148,228.843094,162.895912,-79.835366,115.296526,101.421035,0.030997,12.575965,-176.40746,68.179342,176.93481
1716279410.22402,-18.827221,192.442032,228.822906,161.768216,-79.72553,112.866383,97.471466,0.03518,12.575965,-176.879864,68.124395,176.824974
1716279410.3346796,-4.511994,193.483109,228.855286,161.092928,-79.684277,109.26775,93.248652,0.037013,12.575965,-176.813973,68.110644,176.682136
1716279410.442615,9.15926,193.526382,228.902985,159.127397,-79.565217,107.932071,88.881797,0.037987,12.575965,-177.91262,68.106061,176.539297
1716279410.5526443,23.789211,192.47847,228.90033,156.967288,-79.36027,106.653,84.152546,0.039133,12.575965,-179.241939,68.055698,176.374515
1716279410.6620312,38.209221,190.332611,228.94194,155.43497,-79.233761,104.72471,79.465866,0.039305,12.575965,-180.516369,68.051171,176.330569
1716279410.7752242,52.387062,187.096191,228.978943,153.589817,-79.060842,103.296556,74.711405,0.039649,12.576252,-182.054417,68.051171,176.264622
1716279410.884409,65.673744,183.02951,229.024078,153.05731,-79.016839,100.078939,70.444989,0.039763,12.57734,-182.592768,68.051171,176.264622
1716279410.995193,75.27993,179.536713,229.148651,154.633287,-79.207347,95.444799,67.428595,0.039763,12.603754,-182.581768,68.051171,176.616188
1716279411.1040928,80.569214,180.84819,232.150879,156.205598,-80.308916,92.160147,66.302275,0.039763,13.471957,-182.054417,68.051171,177.253432
1716279411.2141736,85.022362,190.331009,242.139023,148.238907,-82.60619,99.761692,66.282279,0.039763,16.38115,-181.779799,67.716965,177.297378
1716279411.3244112,90.329163,202.538956,255.009888,136.77511,-84.227661,111.108663,66.282279,0.039763,20.337252,-181.757797,65.840127,177.341324
1716279411.4346068,94.493233,213.232986,264.973877,140.803118,-83.632644,107.474736,66.282279,0.039419,24.036668,-182.285147,61.422737,177.582997
1716279411.5452354,98.625282,223.376099,277.435669,133.858812,-84.147103,114.574485,66.282279,0.039305,27.751555,-182.581768,58.593758,177.648945
1716279411.6563056,101.113861,230.332962,288.807922,107.503957,-85.210971,141.245097,66.282279,0.039133,30.431335,-183.087174,58.593758,177.626943
1716279411.7661586,100.949333,231.481445,289.871552,108.158503,-84.754782,141.160643,66.282279,0.039534,30.760844,-183.72436,58.03988,177.571997
1716279411.875424,100.389687,230.960007,286.116821,131.024848,-83.056993,118.726252,66.282279,0.039878,30.559449,-184.284656,55.293292,177.571997
1716279411.9839754,99.101624,228.782303,282.115845,135.685688,-82.246373,114.429813,66.282279,0.039992,29.688267,-184.625222,55.233762,177.528051
1716279412.089774,97.083717,223.817841,274.323425,143.926196,-81.101546,106.176929,66.282508,0.039992,27.827815,-184.515386,55.444324,177.528051
1716279412.1996813,93.266739,217.127792,264.747253,148.096011,-79.76896,102.916856,66.283367,0.039992,25.279299,-185.427248,56.533803,177.571997
1716279412.3163953,89.068169,209.758194,258.135559,143.01124,-81.373872,108.765438,66.286003,0.039992,22.432902,-186.10838,61.198424,177.802727
1716279412.4258432,85.104561,202.400803,251.63559,140.424564,-82.297079,111.951312,66.293165,0.039992,19.791337,-186.602785,64.805595,177.989511
1716279412.5349808,79.517624,194.976379,242.811798,147.51337,-80.962833,106.733156,66.420132,0.039878,17.099983,-188.42651,65.798932,178.27513
1716279412.6443615,71.741356,188.709152,234.713379,154.206892,-79.49692,102.094375,67.466181,0.039534,14.781967,-189.316428,66.389479,178.461915
1716279412.7546537,61.8918,185.404007,231.733841,153.478491,-81.138215,104.685577,69.927895,0.039305,12.889488,-188.569349,69.767753,178.615697
1716279412.864045,49.968781,186.16861,230.310745,155.854547,-81.716215,104.918828,73.7089,0.038675,12.125735,-187.327864,70.861816,178.824482
1716279412.9746115,35.193233,189.311401,230.255249,156.306553,-81.724293,109.033754,78.175221,0.037471,12.125506,-187.437757,70.861816,178.912374
1716279413.0840673,18.39539,191.471527,230.199661,157.188737,-81.765718,113.074023,83.273629,0.037013,12.125506,-187.261973,70.861816,179.011209
1716279413.1960752,3.113459,192.247147,230.188278,159.76951,-81.94196,114.074751,88.273831,0.036268,12.125506,-185.800759,70.861816,179.121103
1716279413.306355,-11.097269,191.85994,230.172363,162.019,-82.074657,115.093355,92.945443,0.035695,12.125506,-184.350603,70.861816,179.165048
1716279413.4168408,-25.739779,190.305664,230.139725,163.478438,-82.140891,117.474052,97.573452,0.035065,12.12648,-183.537576,70.861816,179.208994
1716279413.527311,-39.880657,187.680969,230.097427,164.217038,-82.159168,120.936264,102.080109,0.033747,12.127912,-183.42774,70.861816,179.285885
1716279413.6358366,-53.46093,184.100632,230.066971,164.570381,-82.159398,124.936026,105.978857,0.029966,12.131522,-183.702416,70.861816,179.384778
1716279413.7463925,-61.331318,181.540695,230.043625,166.081557,-82.205349,125.801421,108.47363,0.029335,12.133642,-183.592523,70.857232,179.571562
1716279413.8545613,-62.072956,181.261963,230.001236,168.049209,-82.228153,124.215474,108.632683,0.029335,12.133756,-183.845197,70.825204,179.890127
1716279413.968241,-62.072956,181.261963,230.001236,168.049209,-82.228153,124.215474,108.632683,0.029335,12.133756,-183.845197,70.825204,179.890127
1716279414.0790577,-62.072956,181.261963,230.001236,168.049209,-82.228153,124.215474,108.632683,0.029335,12.133756,-183.845197,70.825204,179.890127
1716279414.1878922,-62.072956,181.261963,230.001236,168.049209,-82.228153,124.215474,108.632683,0.029335,12.133756,-183.845197,70.825204,179.890127
1716279414.2979383,-62.072956,181.261963,230.001236,168.049209,-82.228153,124.215474,108.632683,0.029335,12.133756,-183.845197,70.825204,179.890127
1716279414.4090927,-62.072956,181.261963,230.001236,168.049209,-82.228153,124.215474,108.632683,0.029335,12.133756,-183.845197,70.825204,179.890127
1716279414.5186172,-62.072956,181.261963,230.001236,168.049209,-82.228153,124.215474,108.632683,0.029335,12.133756,-183.845197,70.825204,179.890127
1716279414.6290405,-62.072956,181.261963,230.001236,168.049209,-82.228153,124.215474,108.632683,0.029335,12.133756,-183.845197,70.825204,179.890127
1716279414.737463,-62.072956,181.261963,230.001236,168.049209,-82.228153,124.215474,108.632683,0.029335,12.133756,-183.845197,70.825204,179.890127
1716279414.8479633,-62.072956,181.261963,230.001236,168.049209,-82.228153,124.215474,108.632683,0.029335,12.133756,-183.845197,70.825204,179.890127
1716279414.9600873,-62.072956,181.261963,230.001236,168.049209,-82.228153,124.215474,108.632683,0.029335,12.133756,-183.845197,70.825204,179.890127
1716279415.0692153,-62.072956,181.261963,230.001236,168.049209,-82.228153,124.215474,108.632683,0.029335,12.133756,-183.845197,70.825204,179.890127
