BAEK26/lfd/robot_data_9.csv
timestamp,x,y,z,roll,pitch,yaw,joint1,joint2,joint3,joint4,joint5,joint6
1716279476.7217274,-43.175732,198.305161,236.680969,176.656983,-80.79868,112.070144,100.704323,-0.084053,15.460922,-188.843967,65.954604,182.526878
1716279476.8350797,-43.175732,198.305161,236.680969,176.656983,-80.79868,112.070144,100.704323,-0.084053,15.460922,-188.843967,65.954604,182.526878
1716279476.9425695,-43.175732,198.305161,236.680969,176.656983,-80.79868,112.070144,100.704323,-0.084053,15.460922,-188.843967,65.954604,182.526878
1716279477.053485,-43.175732,198.305161,236.680969,176.656983,-80.79868,112.070144,100.704323,-0.084053,15.460922,-188.843967,65.954604,182.526878
1716279477.1623976,-43.175732,198.305161,236.680969,176.656983,-80.79868,112.070144,100.704323,-0.084053,15.460922,-188.843967,65.954604,182.526878
1716279477.2704751,-43.175732,198.305161,236.680969,176.656983,-80.79868,112.070144,100.704323,-0.084053,15.460922,-188.843967,65.954604,182.526878
1716279477.3789344,-43.175732,198.305161,236.680969,176.656983,-80.79868,112.070144,100.704323,-0.084053,15.460922,-188.843967,65.954604,182.526878
1716279477.4918199,-43.175732,198.305161,236.680969,176.656983,-80.79868,112.070144,100.704323,-0.084053,15.460922,-188.843967,65.954604,182.526878
1716279477.602829,-41.021248,198.948761,235.926407,166.606387,-80.08403,119.71999,100.899186,0.031856,15.460865,-185.570086,65.428171,179.802235
1716279477.7114596,-31.189421,200.938675,235.49826,159.563016,-79.317011,119.411108,100.081174,0.048358,15.460865,-178.659642,65.016157,176.616188
1716279477.8209922,-22.162361,202.247253,235.594604,154.353398,-78.963668,124.321471,96.588308,0.051853,15.460865,-182.032473,65.107715,176.451406
1716279477.9316063,-6.476357,203.511353,235.645966,152.993826,-78.845009,121.992627,91.864042,0.054145,15.460865,-183.13112,65.12605,176.451406
1716279478.0409963,9.085186,203.543015,235.675751,151.552608,-78.679137,119.897377,87.146078,0.054374,15.460865,-184.383548,65.12605,176.451406
1716279478.1496477,23.889269,202.432617,235.703583,149.986199,-78.485363,118.287251,82.561385,0.054374,15.460865,-185.877707,65.139801,176.473407
1716279478.2593117,38.770367,200.314041,235.777252,152.131582,-78.757403,111.835517,78.204958,0.054374,15.463271,-185.822761,65.148911,177.022702
1716279478.3682206,51.852669,197.735153,236.108383,155.930865,-79.271748,104.203433,74.608158,0.053629,15.523031,-185.81176,65.213025,177.857673
1716279478.4774814,60.530739,199.101105,239.869995,152.976351,-80.224978,105.538998,72.12175,0.051853,16.534187,-186.800513,65.318277,178.165294
1716279478.586803,67.578842,208.269882,251.639984,137.140027,-82.326071,121.189626,70.665692,0.047785,19.838148,-188.272728,65.318277,178.242185
1716279478.6957195,74.919518,221.458389,269.706024,102.607001,-84.52812,154.175322,70.270008,0.045149,24.29066,-187.272974,65.121466,178.297132
1716279478.8074262,79.811218,234.413849,289.43042,61.628486,-83.435203,-165.372637,70.264737,0.043487,29.092448,-186.921407,64.631645,178.220241
1716279478.9171658,83.800049,245.345383,304.618042,62.292143,-82.760373,-166.229151,70.260955,0.041654,33.529605,-187.042244,60.456845,178.099347
1716279479.0277383,84.785133,253.81723,314.227081,85.701996,-81.587758,172.221373,70.253507,0.040451,37.076786,-189.76683,54.382346,178.088403
1716279479.1374416,87.819588,253.899414,316.908264,77.074856,-82.31805,179.472956,69.856676,0.043487,37.496765,-188.558348,54.954502,178.319076
1716279479.2459264,93.241646,251.684692,318.775269,59.596663,-82.603956,-164.246087,68.563797,0.043831,37.40744,-188.525403,57.069404,179.395779
1716279479.3546638,96.016922,248.884766,320.720306,39.669478,-80.608974,-143.807365,67.341563,0.043946,36.859349,-190.206289,61.285399,180.725098
1716279479.4639728,96.347015,242.706619,309.454895,42.895631,-83.064671,-147.965548,66.946853,0.043946,34.381364,-189.437265,61.505129,181.208502
1716279479.5742993,93.413216,232.908066,292.121307,64.314799,-85.728581,-169.677841,66.764996,0.044576,30.156831,-189.096699,62.41149,181.384286
1716279479.6830027,88.577187,220.591461,279.921204,31.013518,-84.849549,-136.589357,66.743682,0.045034,25.425461,-188.349619,69.808949,181.615016
1716279479.7920039,82.774467,207.292328,263.698029,37.691456,-86.913343,-143.028658,66.742593,0.045034,20.888838,-188.415509,72.198469,181.746854
1716279479.902137,75.073578,194.94043,247.467682,134.318095,-87.285823,122.565642,66.742192,0.045034,16.629241,-190.711695,72.203053,181.746854
1716279480.0134096,68.350746,181.982452,233.30574,165.746205,-84.000827,92.31771,66.741275,0.045034,12.597279,-191.876232,72.312946,181.746854
1716279480.122433,63.582031,170.370041,222.917328,174.674205,-81.460676,83.323075,66.738181,0.045034,9.145782,-191.634501,72.985828,181.746854
1716279480.2327652,61.057896,163.454575,219.707352,178.154637,-82.41614,79.421118,66.737895,0.045034,7.210674,-191.173098,75.810223,181.812744
1716279480.3416047,60.433636,162.814774,219.067978,-179.869099,-82.186155,77.741091,66.737895,0.045034,7.015524,-191.49172,75.778195,182.076419
1716279480.452556,60.433636,162.814774,219.067978,-179.869099,-82.186155,77.741091,66.737895,0.045034,7.015524,-191.49172,75.778195,182.076419
1716279480.5621355,60.433636,162.814774,219.067978,-179.869099,-82.186155,77.741091,66.737895,0.045034,7.015524,-191.49172,75.778195,182.076419
1716279480.6717746,60.433636,162.814774,219.067978,-179.869099,-82.186155,77.741091,66.737895,0.045034,7.015524,-191.49172,75.778195,182.076419
1716279480.7815616,60.433636,162.814774,219.067978,-179.869099,-82.186155,77.741091,66.737895,0.045034,7.015524,-191.49172,75.778195,182.076419
1716279480.896369,60.433636,162.814774,219.067978,-179.869099,-82.186155,77.741091,66.737895,0.045034,7.015524,-191.49172,75.778195,182.076419
1716279480.9978454,56.750797,163.307404,217.700043,177.192699,-80.88428,84.083963,66.787971,0.041196,7.015295,-194.941384,74.606324,182.010471
1716279481.1106563,55.903454,163.502106,217.689499,176.399324,-80.861877,85.460494,66.93717,0.037701,7.015295,-195.380843,74.606324,181.933581
1716279481.2212768,51.395348,164.916702,217.726212,175.430681,-80.880785,87.998926,68.499969,0.030309,7.015295,-195.369842,74.633769,181.779799
1716279481.3309946,41.294392,167.53685,217.779831,174.012554,-80.913558,93.094412,71.868044,0.020626,7.01541,-195.666519,74.702467,181.593014
1716279481.44327,26.80405,169.943634,217.705261,172.978995,-80.842053,100.007663,76.232378,0.015069,7.015754,-197.204567,74.725328,181.593014
1716279481.554257,11.097621,171.050598,217.690109,170.980747,-80.804696,108.534421,80.969021,0.010428,7.015983,-199.237078,74.835221,181.483178
1716279481.6613367,-3.932423,170.930344,217.727585,172.076816,-80.886228,113.106395,85.479573,0.004641,7.017071,-200.20383,74.949641,181.779799
1716279481.7717638,-18.350742,169.85231,217.875885,173.209553,-81.05823,116.726686,90.348569,-0.004068,7.022343,-200.093993,75.096146,181.966526
1716279481.881324,-30.806252,168.263901,218.034439,174.143303,-81.211897,119.087845,95.016112,-0.011746,7.0385,-198.698727,75.160202,181.977526
1716279481.991182,-40.970421,167.676865,219.107925,175.423061,-81.724637,119.366532,99.466161,-0.025038,7.334146,-195.809301,75.270096,181.977526
1716279482.0997324,-45.890175,167.907242,219.835541,177.373352,-81.914745,117.274892,101.802625,-0.025726,7.594842,-193.260498,75.068644,182.021472
1716279482.2108676,-45.836426,167.927017,219.794235,177.517107,-81.876929,117.068513,101.807209,-0.025726,7.594842,-193.19455,75.027448,182.032473
1716279482.3197598,-45.836426,167.927017,219.794235,177.517107,-81.876929,117.068513,101.807209,-0.025726,7.594842,-193.19455,75.027448,182.032473
1716279482.430611,-45.836426,167.927017,219.794235,177.517107,-81.876929,117.068513,101.807209,-0.025726,7.594842,-193.19455,75.027448,182.032473
1716279482.540675,-43.398224,168.83429,219.543655,175.750793,-81.640412,116.835548,101.587193,-0.01822,7.59341,-191.359882,74.748246,181.538068
1716279482.6503184,-35.062504,171.324463,219.629272,168.011623,-81.58157,119.329805,99.997235,0.002177,7.59341,-187.305919,74.748246,179.791234
1716279482.7608461,-23.799728,173.512543,219.644547,163.584779,-81.441023,119.192181,96.806605,0.020741,7.59341,-186.064434,74.748246,179.066156
1716279482.87174,-7.465366,175.260498,219.590363,163.530119,-81.36121,113.203454,91.822102,0.027044,7.59341,-184.976789,74.638353,178.901373
1716279482.9831,9.76494,175.411057,219.655899,162.974121,-81.362528,107.93866,86.113036,0.028648,7.59341,-184.647223,74.638353,178.780536
1716279483.0933003,27.867268,173.734467,219.726364,163.052673,-81.393582,101.77902,80.473297,0.028877,7.59341,-184.405492,74.638353,178.769536
1716279483.2024076,45.672104,170.239609,219.808655,165.778004,-81.547192,92.545174,74.671871,0.028877,7.594498,-183.504631,74.638353,179.121103
1716279483.311409,60.791019,166.645462,220.527649,176.421268,-82.010371,76.09315,70.173865,0.028648,7.819499,-182.482932,74.597157,180.549314
1716279483.4236355,71.86673,171.674225,227.683853,-175.750277,-84.219467,66.436634,66.992746,0.026585,10.076437,-183.933089,74.565129,181.812744
1716279483.5335355,81.386162,186.439651,242.444336,-179.476165,-87.526121,70.44963,65.607392,0.02372,14.871291,-185.690923,73.113998,182.15331
1716279483.642414,88.083221,202.963608,254.412552,165.990973,-85.156941,86.280225,65.343487,0.019423,20.475449,-187.789324,65.277082,182.164311
1716279483.7515745,93.827377,217.090225,269.984863,150.990078,-85.804842,101.800047,65.342972,0.016272,25.216617,-188.580349,61.747719,182.263203
1716279483.862654,99.351913,228.444565,288.238251,80.359107,-87.958361,171.969443,65.342972,0.001203,29.586395,-188.151834,61.376958,182.636714
1716279483.9739082,101.875023,234.451706,299.089355,38.421748,-86.585325,-145.997438,65.343258,-0.00636,32.072401,-188.294673,61.244204,182.90039
1716279484.083617,105.314507,233.031357,298.879578,-7.832448,-87.244627,-103.132059,65.343258,-0.004641,31.996885,-184.361546,61.148061,183.328847
1716279484.1950445,105.194824,230.05867,294.582947,-32.255117,-87.471117,-79.712352,65.343258,-0.004641,30.912448,-183.186009,61.596687,183.636468
1716279484.3022757,101.590271,223.073853,285.300354,-35.159211,-87.226407,-76.393666,65.343373,-0.004641,27.896055,-183.504631,64.750648,183.911144
1716279484.4133708,96.608406,210.465103,268.748474,-84.937269,-87.556316,-27.210797,65.345034,-0.004641,23.405154,-182.834499,67.16767,184.229709
1716279484.5237858,89.24733,197.222626,252.616913,-133.077699,-86.627609,21.870544,65.423816,-0.004641,18.687993,-183.768306,69.387825,184.350603
1716279484.6343963,79.787384,185.410706,240.142899,-142.194775,-85.435914,32.029945,66.505961,-0.005615,14.409889,-183.680414,72.358725,184.405492
1716279484.7466066,67.222221,177.407104,231.512726,-142.062593,-84.670614,33.504395,69.685705,-0.006016,10.918341,-182.109364,75.279263,184.405492
1716279484.8568842,50.958435,173.528854,225.344284,-146.060922,-83.76133,41.34366,74.217171,-0.007678,8.682832,-181.329339,76.496913,184.405492
1716279484.966683,34.138699,173.768509,222.400284,-150.512117,-82.973055,51.209879,79.601657,-0.008652,7.751317,-181.604015,76.496913,184.405492
1716279485.076725,16.303576,175.887619,222.127594,-150.728179,-82.839728,57.185199,85.260704,-0.013063,7.714705,-181.505123,76.432799,184.438495
1716279485.1868565,1.106862,176.427338,222.001938,-149.637554,-82.664804,60.313434,90.745743,-0.01484,7.714476,-180.329585,76.354991,184.504385
1716279485.2960243,-12.057822,175.804413,221.805237,-148.654186,-82.414593,62.412235,95.475051,-0.01484,7.714246,-178.560807,76.208486,184.504385
1716279485.4070697,-24.847422,174.25795,221.645401,-149.114615,-82.311919,66.886062,99.740608,-0.01484,7.714132,-178.308075,76.103234,184.47144
1716279485.517022,-29.949945,173.035431,219.400772,-153.896005,-80.326219,72.709376,101.737767,-0.01398,7.714132,-177.45116,74.02036,184.691169
1716279485.6325715,-29.947081,172.934769,218.806625,-155.256895,-79.819323,74.049065,101.744069,-0.01398,7.714132,-177.45116,73.461898,184.70217
1716279485.74343,-29.947081,172.934769,218.806625,-155.256895,-79.819323,74.049065,101.744069,-0.01398,7.714132,-177.45116,73.461898,184.70217
1716279485.8543313,-29.947081,172.934769,218.806625,-155.256895,-79.819323,74.049065,101.744069,-0.01398,7.714132,-177.45116,73.461898,184.70217
1716279485.9636583,-29.947081,172.934769,218.806625,-155.256895,-79.819323,74.049065,101.744069,-0.01398,7.714132,-177.45116,73.461898,184.70217
1716279486.0728593,-29.947081,172.934769,218.806625,-155.256895,-79.819323,74.049065,101.744069,-0.01398,7.714132,-177.45116,73.461898,184.70217
1716279486.1857686,-29.947081,172.934769,218.806625,-155.256895,-79.819323,74.049065,101.744069,-0.01398,7.714132,-177.45116,73.461898,184.70217
1716279486.2951696,-29.947081,172.934769,218.806625,-155.256895,-79.819323,74.049065,101.744069,-0.01398,7.714132,-177.45116,73.461898,184.70217
1716279486.4058592,-29.947081,172.934769,218.806625,-155.256895,-79.819323,74.049065,101.744069,-0.01398,7.714132,-177.45116,73.461898,184.70217
1716279486.5163398,-29.947081,172.934769,218.806625,-155.256895,-79.819323,74.049065,101.744069,-0.01398,7.714132,-177.45116,73.461898,184.70217
1716279486.6258678,-29.947081,172.934769,218.806625,-155.256895,-79.819323,74.049065,101.744069,-0.01398,7.714132,-177.45116,73.461898,184.70217
