BAEK26/lfd/scenarios/pouring/pouring_reference.csv
timestamp,x,y,z,roll,pitch,yaw,joint1,joint2,joint3,joint4,joint5,joint6,gripper
1721968624.6143525,14.551362,273.118286,189.300232,90.842745,-84.113642,-172.910183,84.583983,34.046184,38.218577,-12.843021,-86.21061,-4.976826,1
1721968624.7168117,15.691369,273.262756,189.215256,91.600883,-84.170479,-174.740038,84.583983,34.047043,38.218577,-11.887213,-86.054995,-4.976826,1
1721968624.8253238,15.889494,273.285461,189.208328,91.655715,-84.182454,-174.981081,84.583983,34.047387,38.218577,-11.700428,-86.045828,-4.976826,1
1721968624.9325626,15.4715,273.23645,189.128036,92.369506,-84.154666,-175.297755,84.583983,34.04773,38.218577,-12.095941,-85.981771,-4.976826,1
1721968625.0407352,14.88316,273.162903,188.845978,94.890405,-84.102928,-177.251026,84.583983,34.048189,38.218577,-12.667237,-85.716262,-4.976826,1
1721968625.150015,14.652725,273.131775,188.734131,95.863459,-84.079723,-178.001486,84.583983,34.04859,38.218577,-12.875966,-85.638455,-4.976826,1
1721968625.258299,14.443733,273.103119,188.728546,95.897894,-84.066717,-177.838479,84.583983,34.048705,38.218577,-13.073751,-85.638455,-4.976826,1
1721968625.3649077,13.886943,273.023407,188.714844,95.988422,-84.031938,-177.402344,84.583983,34.048705,38.218577,-13.601101,-85.638455,-4.976826,1
1721968625.4730566,13.898146,273.025085,188.734879,95.811263,-84.034517,-177.236759,84.583983,34.048705,38.218577,-13.590101,-85.656732,-4.976826,1
1721968625.582946,14.151843,273.061981,188.815186,95.128068,-84.078634,-176.797243,84.583983,34.048705,38.218577,-13.34837,-85.72543,-4.954824,1
1721968625.6919427,14.16347,273.06366,188.815338,95.164107,-84.123096,-176.844455,84.583983,34.048705,38.218577,-13.337426,-85.72543,-4.910879,1
1721968625.7988288,13.641756,272.986664,188.802353,95.255207,-84.090666,-176.441837,84.583983,34.048705,38.218577,-13.831774,-85.72543,-4.910879,1
1721968625.9089267,13.502748,272.965393,188.798828,95.279787,-84.082072,-176.334752,84.583983,34.048705,38.218577,-13.963612,-85.72543,-4.910879,1
1721968626.0176208,13.50274,272.965302,188.798309,95.280819,-84.082072,-176.335783,84.583983,34.048819,38.218577,-13.963612,-85.72543,-4.910879,1
1721968626.1268775,13.50274,272.965302,188.798309,95.280819,-84.082072,-176.335783,84.583983,34.048819,38.218577,-13.963612,-85.72543,-4.910879,1
1721968626.234629,13.549063,272.972321,188.79895,95.273657,-84.084937,-176.372509,84.583983,34.048934,38.218577,-13.919666,-85.72543,-4.910879,1
1721968626.3429134,13.59539,272.979309,188.799606,95.266552,-84.087859,-176.409236,84.583983,34.049048,38.218577,-13.87572,-85.72543,-4.910879,1
1721968626.4512358,13.653311,272.988007,188.800537,95.257385,-84.091469,-176.454958,84.583983,34.049163,38.218577,-13.820773,-85.72543,-4.910879,1
1721968626.5587516,13.815555,273.012421,188.804611,95.228851,-84.101553,-176.580035,84.583983,34.049163,38.218577,-13.666991,-85.72543,-4.910879,1
1721968626.6665437,13.838729,273.015747,188.804672,95.225872,-84.103042,-176.599,84.583983,34.049277,38.218577,-13.645047,-85.72543,-4.910879,1
1721968626.7748988,13.630122,272.984283,188.79892,95.263573,-84.090094,-176.439202,84.583983,34.049392,38.218577,-13.842775,-85.72543,-4.910879,1
1721968626.8837087,13.583782,272.977234,188.797745,95.271709,-84.087171,-176.403449,84.583983,34.049392,38.218577,-13.886721,-85.72543,-4.910879,1
1721968626.990658,13.583766,272.97702,188.796692,95.273829,-84.087229,-176.405569,84.583983,34.049621,38.218577,-13.886721,-85.72543,-4.910879,1
1721968627.104281,13.329283,272.937439,188.774887,95.452477,-84.070155,-176.342372,84.583983,34.049679,38.218577,-14.139395,-85.711679,-4.910879,1
1721968627.2077518,12.81607,272.855377,188.761719,95.543348,-84.038527,-175.949667,84.584843,34.049679,38.218577,-14.611799,-85.711679,-4.910879,1
1721968627.3153722,12.936451,272.876587,188.764999,95.520544,-84.046434,-176.046095,84.586275,34.049679,38.218577,-14.490962,-85.711679,-4.910879,1
1721968627.4244092,12.188643,272.880341,188.759125,95.547129,-84.039329,-175.830319,84.736447,34.049793,38.218577,-14.600855,-85.711679,-4.910879,1
1721968627.5321307,8.003424,273.119263,188.757309,95.472187,-84.078405,-175.339409,85.727091,34.049793,38.218577,-14.007558,-85.711679,-4.910879,1
1721968627.6387734,1.753011,273.42514,188.762695,95.29646,-84.163948,-174.863797,87.321289,34.049793,38.218577,-12.711183,-85.711679,-4.910879,1
1721968627.74619,-5.606537,273.46933,188.753922,95.203412,-84.225312,-173.94907,89.064169,34.049908,38.218577,-11.78832,-85.711679,-4.910879,1
1721968627.8539758,-13.179186,273.298737,188.742935,95.115864,-84.290571,-173.038239,90.863543,34.050137,38.218233,-10.810568,-85.711679,-4.910879,1
1721968627.9614263,-19.627903,273.03894,188.663528,95.692145,-84.36941,-173.254359,92.493436,34.050595,38.217374,-9.536138,-85.642981,-4.910879,1
1721968628.071954,-25.862751,272.593872,188.621262,95.913765,-84.436848,-172.98037,94.029651,34.051111,38.215827,-8.492438,-85.615536,-4.910879,1
1721968628.1791465,-32.14563,271.948425,188.55777,96.329847,-84.483028,-172.656305,95.513841,34.051569,38.213993,-7.745358,-85.574341,-4.910879,1
1721968628.2875574,-39.375782,271.053802,188.530548,96.390523,-84.566393,-172.168546,97.311725,34.052142,38.211873,-6.49293,-85.565173,-4.910879,1
1721968628.3950381,-47.545364,269.795227,188.503204,96.418942,-84.681157,-171.802369,99.416256,34.052543,38.207805,-4.779041,-85.56059,-4.910879,1
1721968628.502291,-56.885399,267.984131,188.462799,96.452861,-84.723498,-171.231875,101.795693,34.053002,38.203393,-2.999262,-85.55148,-4.987769,1
1721968628.6104937,-67.840431,265.350494,188.416367,96.502479,-84.772486,-169.996463,104.450321,34.053747,38.198581,-1.625997,-85.55148,-5.031715,1
1721968628.7203887,-79.318001,262.007263,188.338394,96.743179,-84.88003,-168.995792,107.40684,34.055179,38.184199,0.098893,-85.55148,-5.031715,1
1721968628.8291383,-90.472755,258.115967,188.227448,97.277978,-85.11735,-169.109639,110.353046,34.057643,38.16088,2.625751,-85.55148,-4.965825,1
1721968628.938862,-101.053467,253.752228,188.067902,98.025516,-85.293591,-169.51071,113.328359,34.062112,38.125528,5.262445,-85.55148,-4.954824,1
1721968629.047763,-111.564156,248.637619,187.852707,98.938868,-85.4468,-170.390715,116.575368,34.068472,38.067316,8.481437,-85.569757,-4.99877,1
1721968629.1564105,-122.526215,242.627029,187.657089,98.746239,-85.143075,-170.015657,119.888726,34.082796,38.028412,11.645482,-85.610953,-5.51512,1
1721968629.26441,-133.332657,236.047623,187.452347,98.64918,-84.972449,-169.498907,123.176071,34.117689,38.016208,14.501963,-85.665899,-5.822741,1
1721968629.3729794,-142.927094,229.485382,187.237411,99.65518,-85.113167,-170.231319,126.230165,34.146909,38.014317,17.259494,-85.665899,-5.833742,1
1721968629.482204,-150.813049,223.216568,187.092285,99.517956,-85.295711,-170.472133,128.935328,34.188048,38.014031,20.37965,-85.79407,-5.833742,1
1721968629.5902712,-157.293076,217.739151,187.207413,97.212603,-85.352549,-168.18225,131.223206,34.207013,38.014031,22.675779,-86.045828,-5.932634,1
1721968629.6990678,-162.794006,213.086105,187.221771,95.350777,-85.354783,-165.680258,132.991927,34.242078,38.014031,23.79637,-86.251806,-5.998524,1
1721968629.80545,-166.054214,209.749023,187.188431,95.28334,-85.406521,-165.98255,134.345081,34.251417,38.016093,25.521259,-86.302169,-6.04247,1
1721968629.9149709,-168.797882,207.121628,187.188782,95.454539,-85.472755,-166.176955,135.374171,34.257147,38.03884,26.575902,-86.302169,-6.04247,1
1721968630.021701,-172.223328,205.013702,187.760422,93.449416,-85.666243,-164.26064,136.440961,34.277257,38.310078,27.729496,-86.274724,-6.04247,1
1721968630.1298885,-179.269165,206.002365,187.699356,89.421466,-85.864028,-158.870081,137.174404,35.107702,39.853111,27.103253,-85.931408,-6.141363,1
1721968630.2374148,-186.653488,208.931305,181.384918,96.64102,-85.888493,-165.318664,137.726678,37.909294,42.498514,26.883524,-85.519394,-5.987524,1
1721968630.343452,-191.938126,210.769791,168.148148,128.571099,-86.953507,163.826166,138.000036,41.787474,44.835437,26.1255,-85.5057,-3.603503,1
1721968630.4598837,-194.422928,211.651901,155.96344,178.489187,-86.982384,114.54154,138.082084,45.467581,46.715541,25.499257,-85.922241,-0.428458,1
1721968630.5764117,-196.076141,212.61026,145.484238,-171.281665,-86.369721,104.675207,138.082084,48.345548,48.280518,25.037855,-86.599706,0.648187,1
1721968630.6869094,-196.130249,212.157593,135.667221,-160.509772,-85.001727,94.203372,138.082084,50.708255,49.207449,24.686288,-86.828603,2.373019,1
1721968630.7954803,-195.543121,211.632401,130.879883,-150.828447,-84.053482,84.443952,138.081797,51.872046,49.554948,24.675287,-87.094111,3.94407,1
1721968630.9049811,-194.990967,211.967636,132.461426,-139.076624,-85.14955,72.136647,138.080365,51.887115,49.555349,25.290529,-88.64591,4.251691,1
1721968631.0123856,-195.399902,211.797363,132.518311,-137.641307,-85.111906,71.117584,138.079448,51.887115,49.555349,24.862071,-88.682579,4.372585,1
1721968631.1221778,-194.997238,211.976944,132.515182,-126.519394,-83.929092,59.545727,138.075266,51.887115,49.555349,25.290529,-88.673412,5.998524,1
1721968631.2296019,-194.237778,212.319305,132.47934,-122.626948,-83.238965,54.895373,138.061343,51.887115,49.555349,25.982662,-88.623049,6.800551,1
1721968631.3370552,-194.113876,212.383163,132.47522,-114.00846,-81.032619,46.091361,138.054295,51.887115,49.555349,26.081554,-88.623049,9.305408,1
1721968631.4455562,-194.094299,212.400818,132.465286,-107.341179,-77.71737,39.305707,138.04891,51.887115,49.555349,26.081554,-88.623049,12.843021,1
1721968631.554453,-194.077225,212.434891,132.398743,-102.063321,-72.108515,33.860946,138.032695,51.887115,49.555349,26.037609,-88.57727,18.621816,1
1721968631.6631124,-193.861496,212.633133,132.368866,-100.003824,-68.201229,31.607561,137.974196,51.887115,49.555349,26.037609,-88.558935,22.598888,1
1721968631.7740085,-193.002762,213.523087,132.355286,-99.04349,-65.710983,30.474938,137.675742,51.887115,49.555349,25.817879,-88.554351,25.202637,1
1721968631.8805199,-191.348312,215.125,132.321426,-97.465163,-59.970461,28.394872,137.178701,51.887115,49.555349,25.620094,-88.536074,31.223163,1
1721968631.9917302,-190.955658,215.701233,132.29805,-96.467128,-54.629234,27.429839,136.970202,51.887115,49.555349,25.180636,-88.536074,36.485609,1
1721968632.0955384,-190.863602,215.746902,132.297363,-96.280573,-53.442524,27.119238,136.96642,51.887115,49.555349,25.268527,-88.536074,37.463361,1
1721968632.2039514,-190.428757,215.926041,132.322433,-96.426161,-54.619322,26.882836,136.964129,51.887115,49.555349,25.697043,-88.545241,36.298824,1
1721968632.3120198,-190.254913,216.005569,132.470398,-96.18741,-54.617145,26.51282,136.962811,51.887115,49.555349,25.872826,-88.677996,36.320826,1
1721968632.4188206,-190.30397,215.99556,132.603256,-95.924766,-54.276235,26.323858,136.962467,51.886771,49.555463,25.82888,-88.801583,36.672393,1
1721968632.5278413,-190.330917,215.98938,132.605087,-95.698849,-52.64617,26.065454,136.96241,51.885797,49.556151,25.806879,-88.801583,38.309333,1
1721968632.6368618,-190.120285,216.081482,132.600098,-95.031296,-46.726198,24.98434,136.958514,51.885568,49.556896,26.015607,-88.801583,44.505643,1
1721968632.744974,-190.057281,216.140289,132.593094,-94.729576,-43.201476,24.539725,136.93909,51.885454,49.556896,26.015607,-88.801583,47.922362,1
1721968632.8532507,-189.735504,216.436462,132.536911,-94.532765,-39.595509,24.119174,136.848334,51.885454,49.556896,25.993663,-88.755803,51.416029,1
1721968632.959484,-187.936584,218.201553,132.432571,-94.390328,-35.21708,23.560311,136.275376,51.885339,49.556896,25.620094,-88.668828,55.788557,1
1721968633.0669134,-184.839783,221.488739,132.399734,-94.235572,-31.240753,23.394211,135.12522,51.885339,49.556896,24.301776,-88.664245,59.721683,1
1721968633.1758451,-182.41214,224.083466,132.359787,-94.163895,-28.371151,23.500609,134.174512,51.885224,49.556896,23.027346,-88.650494,62.545162,1
1721968633.2835033,-180.09938,226.245361,132.19017,-94.350049,-28.326518,23.507312,133.416202,51.885224,49.556896,22.346213,-88.499462,62.556162,1
1721968633.3934562,-178.830597,227.314346,132.081879,-94.430549,-27.44084,23.270624,133.060796,51.885224,49.556896,22.203375,-88.398736,63.43508,1
1721968633.503267,-178.885681,227.36879,132.081345,-94.435419,-27.52919,23.474482,133.0141,51.885224,49.556896,21.961644,-88.40332,63.336187,1
1721968633.6124887,-179.441544,227.147659,132.06691,-94.449686,-27.504782,24.040564,133.013986,51.885224,49.556896,21.401349,-88.40332,63.336187,1
1721968633.721703,-178.88298,227.367249,132.037033,-94.482287,-27.538586,23.495853,133.013871,51.885224,49.556896,21.961644,-88.362124,63.325186,1
1721968633.8298137,-177.971329,227.727585,132.204315,-94.186126,-24.351394,22.225663,133.012897,51.885224,49.556896,22.884507,-88.499462,66.566179,1
1721968633.9393876,-178.243179,227.62442,132.187347,-93.977111,-16.220435,21.861434,133.012897,51.885224,49.556896,22.631833,-88.499462,74.70705,1
1721968634.0479574,-178.260513,227.617401,132.181,-93.868707,-9.282375,21.372586,133.012897,51.885224,49.556896,22.631833,-88.499462,81.661383,1
1721968634.156183,-178.299484,227.605179,132.221191,-93.783565,-3.384404,20.993116,133.012897,51.885224,49.556896,22.609889,-88.540658,87.802745,1
1721968634.2654805,-178.318573,227.597794,132.219131,-93.78517,3.839791,20.514238,133.012897,51.885224,49.556896,22.609889,-88.540658,94.812025,1
1721968634.373678,-178.075745,227.689743,132.225784,-93.802588,7.468562,20.019317,133.012897,51.885224,49.556896,22.862563,-88.540658,98.459474,1
1721968634.482492,-177.997406,227.719223,132.228714,-93.839486,11.060377,19.687976,133.012897,51.885224,49.556896,22.950455,-88.540658,102.062977,1
1721968634.5915658,-178.01564,227.712631,132.231613,-93.96101,17.943778,19.202222,133.012897,51.885224,49.556896,22.950455,-88.540658,108.962421,1
1721968634.6996725,-177.947021,227.73848,132.235809,-94.038417,21.14071,18.888069,133.012897,51.885224,49.556896,23.038346,-88.540658,112.302249,1
1721968634.8089712,-177.850052,227.774963,132.243164,-94.196038,26.220669,18.379111,133.012897,51.885224,49.556896,23.137182,-88.540658,117.268074,1
1721968634.9189215,-177.576019,227.876801,132.261139,-94.382306,31.084278,17.682967,133.012897,51.885224,49.556896,23.422858,-88.545241,122.156951,1
1721968635.0245364,-177.450958,227.92453,132.297455,-94.469281,33.599276,17.340224,133.012897,51.885224,49.556896,23.554696,-88.572686,124.815647,1
1721968635.1341622,-177.175278,228.024582,132.31218,-94.745046,38.449823,16.575211,133.012897,51.885224,49.556896,23.840315,-88.572686,129.561743,1
1721968635.2435718,-176.859772,228.137543,132.334213,-94.872357,40.605118,16.035141,133.012897,51.885224,49.556896,24.158937,-88.591021,131.78098,1
1721968635.3518445,-176.578644,228.240555,132.415283,-94.915443,42.436348,15.604448,133.012897,51.884995,49.556896,24.444557,-88.64591,133.582761,1
1721968635.4588645,-176.504471,228.266418,132.420181,-95.043557,44.031234,15.338195,133.012897,51.884995,49.556896,24.521505,-88.64591,135.186756,1
1721968635.5667326,-176.516647,228.262283,132.420761,-95.08756,44.535035,15.286399,133.012897,51.884995,49.556896,24.510504,-88.64591,135.692162,1
1721968635.6756558,-176.516647,228.262283,132.420761,-95.08756,44.535035,15.286399,133.012897,51.884995,49.556896,24.510504,-88.64591,135.692162,1
1721968635.7885504,-176.616486,228.227692,132.418015,-95.091571,44.538989,15.38237,133.012897,51.884995,49.556896,24.400611,-88.64591,135.692162,1
1721968635.8966436,-176.64978,228.21611,132.417114,-95.093863,44.55125,15.413023,133.012897,51.884995,49.556896,24.378667,-88.64591,135.703106,1
1721968636.0074265,-176.64978,228.21611,132.417114,-95.093863,44.55125,15.413023,133.012897,51.884995,49.556896,24.378667,-88.64591,135.703106,1
1721968636.1138718,-176.64978,228.21611,132.417114,-95.093863,44.55125,15.413023,133.012897,51.884995,49.556896,24.378667,-88.64591,135.703106,1
1721968636.2209086,-176.64978,228.21611,132.417114,-95.093863,44.55125,15.413023,133.012897,51.884995,49.556896,24.378667,-88.64591,135.703106,1
1721968636.3298805,-176.648651,228.216446,132.416183,-95.048312,44.025962,15.478283,133.012897,51.884995,49.556896,24.378667,-88.64591,135.175755,1
1721968636.4379935,-176.479309,228.274933,132.418442,-94.930684,42.673209,15.480059,133.012897,51.884995,49.556896,24.543449,-88.64591,133.824434,1
1721968636.546789,-176.41716,228.296249,132.419891,-94.697376,39.616938,15.772955,133.012897,51.884995,49.556896,24.598396,-88.650494,130.759282,1
1721968636.6579707,-175.954086,228.454758,132.459991,-94.175239,31.26539,16.164686,133.012897,51.884995,49.556896,25.037855,-88.687106,122.398682,1
1721968636.763506,-175.882339,228.484665,132.566177,-93.913226,27.660683,16.452426,133.012897,51.884995,49.556896,25.103745,-88.787832,118.784178,1
1721968636.872427,-175.881683,228.485168,132.572754,-93.642847,18.61792,17.130865,133.012897,51.884995,49.556896,25.0818,-88.801583,109.720444,1
1721968636.9820652,-175.965347,228.458115,132.586655,-93.515135,12.153008,17.655007,133.012897,51.884995,49.556896,24.982908,-88.81986,103.238515,1
1721968637.0914507,-175.36055,228.656982,132.602234,-93.425639,2.940018,17.649678,133.012897,51.884995,49.556896,25.554204,-88.81986,94.032,1
1721968637.1994915,-175.132736,228.730331,132.611877,-93.442025,-7.003779,18.049603,133.012897,51.884995,49.556896,25.751932,-88.81986,84.078348,1
1721968637.3080537,-175.30162,228.676361,132.609619,-93.483507,-10.834746,18.461674,133.012897,51.884995,49.556896,25.576148,-88.81986,80.233171,1
1721968637.4161427,-174.852356,228.819778,132.631805,-93.6413,-20.479288,18.665189,133.012897,51.884995,49.556896,25.993663,-88.81986,70.58714,1
1721968637.5243237,-174.620026,228.892426,132.642838,-93.725639,-23.919957,18.682607,133.012897,51.884995,49.556896,26.213392,-88.81986,67.148419,1
1721968637.6340256,-174.412064,228.957077,132.660477,-93.994528,-31.611629,19.080583,133.012897,51.884995,49.556896,26.400119,-88.81986,59.447007,1
1721968637.7426753,-174.212524,229.018112,132.673523,-94.186928,-35.761619,19.247658,133.012897,51.884995,49.556896,26.586903,-88.81986,55.294209,1
1721968637.8510299,-174.203308,229.022369,132.69696,-94.9956,-47.09587,20.473673,133.012897,51.884995,49.556896,26.575902,-88.81986,43.923346,1
1721968637.9587557,-174.266464,229.00502,132.722321,-96.509297,-58.429205,22.440408,133.012897,51.884995,49.556896,26.499012,-88.81986,32.530538,1
1721968638.0694845,-174.257904,229.009171,132.747101,-99.001607,-67.695365,25.226358,133.012897,51.884995,49.556896,26.499012,-88.81986,23.181128,1
1721968638.1768394,-174.355057,228.980988,132.764816,-103.284065,-75.004415,29.834485,133.012897,51.884995,49.556896,26.400119,-88.81986,15.732447,1
1721968638.28761,-174.061798,229.071091,132.801941,-113.220987,-81.367627,39.687068,133.012897,51.884995,49.556896,26.685796,-88.829027,9.074735,1
1721968638.3954608,-173.926773,229.111664,132.812607,-121.418523,-83.487628,47.823469,133.012897,51.884995,49.556896,26.817633,-88.829027,6.701658,1
1721968638.504136,-173.735641,229.168396,132.825607,-139.05107,-85.516644,65.346753,133.012897,51.884995,49.556896,27.015361,-88.829027,3.966071,1
1721968638.6136096,-173.511765,229.23436,132.84668,147.00063,-85.969395,139.226624,133.012897,51.884995,49.556896,27.224147,-88.829027,-1.0437,1
1721968638.7218478,-173.514587,229.234406,132.860901,114.946048,-81.963274,171.431665,133.012897,51.884995,49.556896,27.224147,-88.829027,-6.141363,1
1721968638.832722,-173.516144,229.234329,132.866791,109.812461,-79.980153,176.628679,133.012897,51.884995,49.556896,27.224147,-88.829027,-8.371601,1
1721968638.9416606,-173.392365,229.269974,132.871628,108.977088,-79.562123,177.355934,133.012897,51.884995,49.556896,27.344984,-88.829027,-8.723168,1
1721968639.0491135,-173.516068,229.234329,132.866516,110.003829,-80.073086,176.434389,133.012897,51.884995,49.556896,27.224147,-88.829027,-8.184817,1
1721968639.1552255,-173.65097,229.195129,132.861038,111.168709,-80.591098,175.385303,133.012897,51.884995,49.556896,27.092309,-88.829027,-7.624521,1
1721968639.2653818,-173.357239,229.279327,132.859573,111.318595,-80.651659,174.947392,133.012897,51.884995,49.556896,27.377929,-88.81986,-7.558574,1
1721968639.373135,-171.945267,229.669891,132.916336,111.672568,-80.913959,173.207662,133.012897,51.881959,49.556896,28.751194,-88.81986,-7.240009,1
1721968639.482311,-170.836731,230.148575,133.532257,112.11323,-81.463884,171.533594,133.011064,51.767138,49.556896,29.959734,-88.824444,-6.712659,1
1721968639.590229,-170.314087,231.517715,136.736511,109.489313,-82.054489,173.073189,132.92512,51.129149,49.556896,30.926486,-88.806166,-6.580821,1
1721968639.7005224,-168.910431,237.078156,144.675842,107.361748,-82.343202,175.032075,131.740701,49.210199,49.556896,29.926732,-87.492374,-7.327901,1
1721968639.8093004,-163.625229,246.434982,153.065735,124.826705,-82.559437,157.097694,129.492873,46.791744,49.556609,28.322736,-83.422827,-7.3169,1
1721968639.9242916,-154.092102,257.220734,161.175034,132.008559,-82.826722,149.396912,126.272564,44.747889,49.555807,25.740988,-80.978417,-7.3169,1
1721968640.0405385,-139.844788,269.260498,170.458054,122.145778,-84.113413,158.219316,122.033192,42.962667,49.553745,22.543941,-80.941748,-7.393791,1
1721968640.1491382,-124.417908,279.569702,177.678741,115.393929,-84.734614,163.390145,118.253848,41.569635,49.552312,20.258814,-80.374176,-7.393791,1
1721968640.2584774,-109.271515,288.304413,183.74205,109.0349,-84.911715,169.022893,114.409416,40.334682,49.550192,17.116713,-79.669208,-7.393791,1
1721968640.3645427,-93.779778,295.825531,189.995071,99.039995,-84.926612,178.342281,110.630358,39.127173,49.546697,13.952611,-79.243501,-7.393791,1
1721968640.474062,-76.659355,302.515198,196.357239,94.359331,-84.745099,-178.462774,106.799963,37.786395,49.541942,11.590592,-78.245523,-7.470682,1
1721968640.582465,-57.854897,308.155182,202.168549,91.649011,-84.441489,-177.431106,102.750527,36.537977,49.535926,9.195572,-77.178962,-7.503684,1
1721968640.6897528,-38.890999,312.516266,206.976791,101.491051,-83.735547,171.853992,98.581285,35.198459,49.529337,5.932634,-74.688716,-7.503684,1
1721968640.7984564,-20.532055,315.362122,213.953857,91.787438,-83.038487,-178.672992,94.442982,33.890053,49.525269,1.834725,-74.372844,-7.360846,1
1721968640.906563,-2.664618,316.660431,219.949554,84.507264,-82.335697,-171.905559,90.528535,32.785963,49.522633,-1.757835,-74.24009,-7.042224,1
1721968641.0140488,14.025206,316.516174,222.134232,81.851032,-82.277599,-170.276239,87.027304,32.393601,49.518794,-4.350583,-74.263008,-6.295145,1
1721968641.1210191,27.764395,315.458496,222.008026,82.908884,-82.249008,-171.727827,83.939291,32.393544,49.507278,-7.163061,-74.226396,-5.548122,1
1721968641.2282186,38.538559,314.163147,221.924973,83.830544,-81.95382,-173.142059,81.640699,32.393544,49.497996,-8.975842,-74.226396,-5.339336,1
1721968641.3380387,44.821358,313.229919,221.803711,84.040017,-82.087434,-174.327508,80.531453,32.393831,49.462988,-9.151626,-74.226396,-5.152609,1
1721968641.4464011,45.163864,312.259369,220.841141,85.35782,-82.97082,-175.52585,80.397839,32.39618,49.199943,-9.393299,-74.249257,-4.262691,1
1721968641.5544815,43.358833,306.995148,215.773911,94.916819,-84.860894,175.77331,80.420012,32.397555,47.633763,-10.184325,-74.830637,-2.427966,1
1721968641.663406,40.811905,296.190491,211.121445,63.682827,-85.152243,-152.745965,80.527041,32.398242,44.525811,-10.195326,-80.484012,-2.186292,1
1721968641.7723658,39.298,284.761383,204.434906,54.810117,-85.804555,-144.248943,80.554314,32.398357,41.259149,-9.70092,-83.885204,-1.85667,1
1721968641.880741,37.115135,275.882629,199.309341,49.020722,-86.717334,-137.742893,80.562507,32.398357,38.877306,-10.371109,-86.100774,-1.285374,1
1721968641.988127,35.922394,269.86734,197.082291,39.452556,-86.300335,-127.970238,80.565257,32.398357,37.365844,-10.546893,-88.247704,-1.428212,1
1721968642.0962806,36.509102,266.564911,195.18898,42.779894,-86.503564,-132.339614,80.565257,32.398873,36.489791,-9.503193,-88.796999,-1.680886,1
1721968642.2054245,36.644875,266.330414,195.115189,54.45706,-85.526499,-144.193137,80.560788,32.400992,36.430032,-9.360354,-88.888558,-2.966317,1
1721968642.3142748,35.998737,266.325348,195.103256,58.315816,-85.071341,-147.459455,80.560788,32.401107,36.430032,-9.964595,-88.888558,-3.482667,1
1721968642.4227135,35.998787,266.325348,195.102982,57.702923,-85.155222,-146.844327,80.560788,32.401107,36.430032,-9.964595,-88.888558,-3.383774,1
1721968642.5320632,36.14077,266.330963,195.031372,58.316618,-85.197334,-147.588428,80.560788,32.401222,36.430032,-9.832758,-88.81986,-3.383774,1
1721968642.6388643,36.164253,266.331207,195.031845,58.30344,-85.198308,-147.597194,80.560788,32.401222,36.430032,-9.810814,-88.81986,-3.383774,1
1721968642.7484808,36.187714,266.331268,195.031281,58.29221,-85.199397,-147.607965,80.560788,32.401451,36.430032,-9.788812,-88.81986,-3.383774,1
1721968642.8564928,35.96487,266.32962,195.006622,58.740493,-85.181292,-147.847634,80.560788,32.401565,36.430032,-10.008541,-88.801583,-3.405776,1
1721968642.964593,35.953526,266.331207,194.971878,60.180622,-85.036333,-149.280143,80.560788,32.401623,36.430032,-10.008541,-88.769554,-3.592503,1
1721968643.0712624,35.307812,266.319153,194.953232,60.8146,-84.973594,-149.310796,80.560788,32.401737,36.430032,-10.612783,-88.764971,-3.636449,1
1721968643.1801598,34.69838,266.304871,194.871124,62.525394,-84.852758,-150.451842,80.560788,32.401852,36.430032,-11.184079,-88.696273,-3.790288,1
1721968643.2887063,34.74551,266.307129,194.856949,62.861663,-84.822104,-150.832629,80.560788,32.401967,36.430032,-11.140133,-88.687106,-3.823233,1
1721968643.3944268,34.71106,266.308533,194.801086,63.649595,-84.794373,-151.587501,80.560788,32.402196,36.430032,-11.173078,-88.6368,-3.878179,1
1721968643.5037498,34.665619,266.311707,194.694473,64.632619,-84.834595,-152.524287,80.560788,32.402654,36.430032,-11.217024,-88.536074,-3.878179,1
