BAEK26/lfd/original_data/first_attempt_pouring/robot_data_2.csv
timestamp,x,y,z,roll,pitch,yaw,joint1,joint2,joint3,joint4,joint5,joint6,gripper
1721968520.4002178,6.610023,246.427704,198.17189,84.547543,-82.921431,-174.124624,88.719535,27.437917,29.497529,-1.351321,-88.838195,-6.921387,1
1721968520.5091536,6.610023,246.427704,198.17189,84.547543,-82.921431,-174.124624,88.719535,27.437917,29.497529,-1.351321,-88.838195,-6.921387,1
1721968520.6174994,6.58606,246.427582,198.171646,84.549835,-82.920801,-174.1048,88.71965,27.437917,29.497529,-1.373265,-88.838195,-6.921387,1
1721968520.725816,6.374652,246.426025,198.169495,84.570748,-82.915014,-173.927928,88.71965,27.437917,29.497529,-1.592995,-88.838195,-6.921387,1
1721968520.8356903,5.693035,246.416092,198.162445,84.639044,-82.896393,-173.358694,88.719764,27.437917,29.497529,-2.219237,-88.838195,-6.921387,1
1721968520.941601,5.422491,246.410049,198.159576,84.666489,-82.889059,-173.133235,88.719879,27.437917,29.497529,-2.460911,-88.838195,-6.921387,1
1721968521.0512362,5.422018,246.410065,198.159576,84.666489,-82.889059,-173.133121,88.719994,27.437917,29.497529,-2.460911,-88.838195,-6.921387,1
1721968521.1587572,5.480726,246.411469,198.160202,84.660473,-82.890664,-173.182109,88.719994,27.437917,29.497529,-2.406022,-88.838195,-6.921387,1
1721968521.2700243,5.480726,246.411469,198.160202,84.660473,-82.890664,-173.182109,88.719994,27.437917,29.497529,-2.406022,-88.838195,-6.921387,1
1721968521.3786361,5.480726,246.411469,198.160202,84.660473,-82.890664,-173.182109,88.719994,27.437917,29.497529,-2.406022,-88.838195,-6.921387,1
1721968521.4871252,5.609417,246.414307,198.161102,84.648269,-82.894159,-173.290627,88.720108,27.438032,29.497529,-2.285185,-88.838195,-6.921387,1
1721968521.5949914,5.57419,246.413544,198.160721,84.651821,-82.893242,-173.261234,88.720108,27.438032,29.497529,-2.31813,-88.838195,-6.921387,1
1721968521.7045345,5.984004,246.422012,198.163849,84.609709,-82.905446,-173.628271,88.728531,27.438376,29.497529,-1.900616,-88.838195,-6.921387,1
1721968521.8118625,6.4677,246.43721,198.200912,84.291144,-82.931057,-174.150636,88.856186,27.438548,29.497529,-0.933864,-88.865639,-6.921387,1
1721968521.920463,3.951867,246.471527,198.304779,83.396242,-82.951111,-173.461998,89.699408,27.439006,29.497529,0.109836,-88.966365,-6.921387,1
1721968522.0296564,0.139232,246.442276,198.302994,83.213182,-83.007089,-173.822847,91.056573,27.439694,29.497529,2.010509,-88.970949,-6.921387,1
1721968522.1391587,-4.518436,246.264511,198.47702,81.647288,-83.047024,-172.770668,92.66223,27.440897,29.497529,4.119853,-89.144899,-6.921387,1
1721968522.2471228,-10.622614,245.849945,198.456421,81.450362,-83.114862,-172.879701,94.652685,27.444277,29.497529,6.416039,-89.154066,-6.921387,1
1721968522.3558738,-17.399532,245.177872,198.615891,79.830439,-83.146088,-171.225057,96.74146,27.449205,29.497529,8.459493,-89.34171,-6.921387,1
1721968522.465208,-24.008636,244.287811,198.577347,79.59163,-83.200748,-170.916404,98.778611,27.45969,29.497529,10.425998,-89.369212,-6.921387,1
1721968522.5712993,-30.183195,243.159485,198.356583,80.109698,-83.272655,-171.632945,100.783849,27.496359,29.497529,12.634292,-89.3326,-6.921387,1
1721968522.679431,-35.581055,241.457779,195.803543,86.907671,-83.30686,-179.00187,102.726864,28.016261,29.497529,15.194096,-89.044173,-6.921387,1
1721968522.7886283,-40.715172,238.51059,188.853912,99.054662,-82.787589,168.339469,104.692338,29.677151,29.502342,17.753899,-89.131148,-6.921387,1
1721968522.8972137,-46.410042,234.778992,180.628693,105.31755,-81.860142,162.590984,106.594501,31.927156,29.522567,19.204113,-90.220627,-6.921387,1
1721968523.0036466,-51.111935,232.774551,173.106262,109.617655,-80.969192,158.72879,108.088316,34.20134,30.003107,20.324704,-91.007986,-6.921387,1
1721968523.1121016,-55.713078,234.846954,167.195572,110.214563,-80.581701,158.547678,109.123823,36.537118,31.512507,20.972891,-91.543587,-6.921387,1
1721968523.22057,-60.327229,240.345154,161.617996,108.529322,-80.643237,161.160595,109.602701,39.167681,33.915435,20.522489,-92.060853,-6.921387,1
1721968523.328662,-62.679966,246.05748,154.303436,110.125525,-80.440009,159.797242,109.622812,42.058082,36.420005,20.335705,-92.120383,-6.921387,1
1721968523.4390574,-65.500374,250.695602,146.220551,110.56189,-80.29293,160.373179,109.644641,45.079746,38.782482,19.368896,-92.669678,-6.921387,1
1721968523.5497262,-67.392532,251.906769,138.367371,109.025045,-80.054179,162.781378,109.796361,47.869764,40.295663,18.665762,-94.139086,-6.932388,1
1721968523.6580107,-70.604279,250.182175,132.675323,102.521172,-79.822818,169.560614,110.758643,49.992172,41.064286,19.368896,-96.308877,-6.943332,1
1721968523.767208,-75.578369,247.292923,126.29277,106.219099,-79.001025,165.888929,112.338288,51.593131,41.640682,21.027838,-96.372991,-6.943332,1
1721968523.8745768,-79.847641,246.362564,122.209564,105.798318,-78.63565,166.424644,113.554677,52.95465,42.504702,22.137428,-96.743752,-6.954333,1
1721968523.9843805,-82.493355,247.879776,122.142471,104.248811,-78.893939,168.452113,113.891748,53.191626,43.13805,21.994647,-96.743752,-6.954333,1
1721968524.0928345,-82.802261,248.723801,122.468956,103.597931,-78.991915,168.99774,113.899655,53.191626,43.359498,22.093482,-96.675111,-6.954333,1
1721968524.2018173,-82.778481,248.723145,122.03302,105.656626,-78.891762,166.94913,113.89977,53.191626,43.363451,22.093482,-96.258571,-6.954333,1
1721968524.3089237,-82.777573,248.728012,121.977295,105.922765,-78.878183,166.684252,113.89977,53.191626,43.365342,22.093482,-96.208208,-6.954333,1
1721968524.4189923,-82.69191,248.729172,121.918716,106.173033,-78.851483,166.358869,113.89977,53.191855,43.365571,22.17043,-96.148678,-6.954333,1
1721968524.5287142,-82.181374,248.749573,121.957352,105.885408,-78.786223,166.165381,113.89977,53.191969,43.366087,22.653834,-96.148678,-6.954333,1
1721968524.6362097,-81.894821,248.763229,122.011276,105.264035,-78.52398,166.518953,113.89977,53.191969,43.367118,22.928453,-96.176123,-7.196063,1
1721968524.7425435,-82.17028,248.761032,122.017723,100.469181,-73.19129,171.711555,113.89977,53.191969,43.368321,22.675779,-96.18529,-12.700182,1
1721968524.8520992,-82.456879,248.756042,122.031303,96.135271,-60.336638,176.655894,113.89977,53.191969,43.369066,22.423104,-96.18529,-25.718987,1
1721968524.960242,-82.342461,248.762222,122.05719,95.051865,-53.199475,177.822265,113.89977,53.191969,43.36941,22.543941,-96.18529,-32.871104,1
1721968525.0705762,-82.495399,248.758148,122.04789,94.994053,-52.554267,178.044228,113.89977,53.191969,43.369754,22.401103,-96.18529,-33.541236,1
1721968525.1786354,-83.384483,248.719666,121.989357,94.789794,-49.718871,179.183784,113.89977,53.191969,43.369868,21.566189,-96.18529,-36.518554,1
1721968525.2873054,-84.765129,248.634109,121.911942,94.14642,-39.791747,-178.540181,113.89977,53.191969,43.369868,20.280758,-96.18529,-46.680934,1
1721968525.3934922,-86.745506,248.456467,121.8078,94.076118,-36.205375,-176.43817,113.899655,53.191969,43.369868,18.347197,-96.203625,-50.745841,1
1721968525.5025191,-88.368828,248.262024,121.718552,93.87352,-29.212196,-174.404285,113.899541,53.192084,43.369868,16.864039,-96.203625,-57.98585,1
1721968525.609159,-89.191322,248.147003,121.68264,93.868191,-27.98303,-173.553156,113.899541,53.192084,43.369868,16.094957,-96.212792,-59.348114,1
1721968525.7175148,-89.378342,248.119675,121.681625,93.609443,-18.426896,-172.72718,113.899541,53.192084,43.369868,15.952176,-96.212792,-68.807361,1
1721968525.8248315,-89.131271,248.177002,122.163429,93.061008,-13.266036,-172.539766,113.899541,53.192084,43.369868,16.226795,-96.643083,-73.937969,1
1721968525.934096,-89.295044,248.158615,122.299782,92.875427,-7.002747,-172.051033,113.899541,53.192084,43.369868,16.094957,-96.775837,-80.661629,1
1721968526.04237,-89.242249,248.167007,122.318001,92.83744,-1.527219,-171.841617,113.899541,53.192084,43.369868,16.160905,-96.789531,-85.704345,1
1721968526.1520004,-89.386566,248.145462,122.308441,92.853025,4.849572,-171.405768,113.899541,53.192084,43.369868,16.040011,-96.789531,-92.109383,1
1721968526.259131,-89.388336,248.145081,122.305923,92.883162,9.701379,-171.172688,113.899541,53.192084,43.369868,16.051012,-96.789531,-96.965315,1
1721968526.369119,-89.531555,248.123352,122.2966,92.908888,11.643133,-170.94087,113.899541,53.192084,43.369868,15.919174,-96.789531,-98.931878,1
1721968526.4741738,-89.548317,248.1203,122.289581,92.996493,18.072693,-170.599158,113.899541,53.192198,43.369868,15.919174,-96.789531,-105.369861,1
1721968526.5827947,-90.076363,248.037033,122.255508,93.110913,22.453758,-169.850302,113.899541,53.192198,43.369868,15.424826,-96.789531,-109.841281,1
1721968526.691725,-90.569618,247.9552,122.229034,93.136295,22.384143,-169.375148,113.899541,53.192198,43.369868,14.952365,-96.789531,-109.852281,1
1721968526.8044229,-90.705307,247.930588,122.187279,93.177777,22.360938,-169.231163,113.899541,53.192198,43.369868,14.809584,-96.757503,-109.852281,1
1721968526.9093354,-90.80851,247.912704,122.181824,93.183679,22.376981,-169.129922,113.899541,53.192198,43.369868,14.721692,-96.757503,-109.885226,1
1721968527.0221894,-90.888947,247.898438,122.172432,93.197372,22.572131,-169.038535,113.899541,53.192198,43.369868,14.644801,-96.752919,-110.115957,1
1721968527.128503,-91.051636,247.869354,122.162209,93.229343,23.554983,-168.822645,113.899541,53.192256,43.369868,14.490962,-96.752919,-111.10471,1
1721968527.236084,-91.079201,247.864075,122.157646,93.281941,25.536614,-168.67677,113.899541,53.19237,43.369868,14.469018,-96.752919,-113.093274,1
1721968527.3448217,-91.089622,247.861649,122.149956,93.421743,30.077248,-168.377113,113.899541,53.192485,43.369868,14.469018,-96.752919,-117.641585,1
1721968527.4509435,-91.265053,247.829605,122.137672,93.493018,31.781682,-168.088743,113.899541,53.1926,43.369868,14.304178,-96.752919,-119.377418,1
1721968527.560736,-91.264595,247.82901,122.136284,93.490497,31.704963,-168.094014,113.899541,53.192943,43.369868,14.304178,-96.752919,-119.300527,1
1721968527.6683605,-91.264069,247.828888,122.136124,93.483221,31.507637,-168.108052,113.899541,53.193058,43.369868,14.304178,-96.752919,-119.1028,1
1721968527.777669,-91.361374,247.811066,122.134544,93.401861,29.012176,-168.18013,113.899541,53.193173,43.369868,14.205343,-96.752919,-116.619887,1
1721968527.8865435,-91.676392,247.752853,122.128212,93.225906,21.981755,-168.30555,113.899541,53.193173,43.369868,13.886721,-96.752919,-109.335932,1
1721968527.994066,-91.15229,247.849777,122.159004,93.125065,18.292938,-169.022721,113.899541,53.193173,43.369868,14.425072,-96.752919,-105.699483,1
1721968528.1038127,-90.698257,247.930084,122.188889,93.00314,11.156405,-169.83615,113.899541,53.193173,43.369868,14.798583,-96.752919,-98.635257,1
1721968528.211898,-90.635712,247.941452,122.206703,92.936333,0.684054,-170.413118,113.899541,53.193173,43.369868,14.831528,-96.762086,-88.143312,1
1721968528.3196666,-90.248123,248.006485,122.226204,92.970481,-10.712936,-171.336783,113.899541,53.193173,43.369868,15.172094,-96.762086,-76.673613,1
1721968528.4278083,-89.796158,248.078873,122.244682,93.092234,-20.463589,-172.26784,113.899541,53.193173,43.369868,15.578608,-96.762086,-66.840798,1
1721968528.5359507,-89.277512,248.157806,122.268951,93.17199,-25.176396,-173.015263,113.899541,53.193173,43.369868,16.062012,-96.762086,-62.039813,1
1721968528.6441903,-88.851318,248.224991,122.446007,93.227223,-33.297729,-173.820957,113.899541,53.193173,43.369868,16.457525,-96.913118,-53.843995,1
1721968528.7523012,-88.336182,248.295151,122.470825,93.328064,-36.661507,-174.515439,113.899541,53.193173,43.369868,16.94093,-96.913118,-50.394274,1
1721968528.861498,-88.151039,248.318527,122.463089,93.902282,-47.019839,-175.534616,113.899541,53.193173,43.369868,17.094711,-96.913118,-39.814436,1
1721968528.9695172,-88.148972,248.31871,122.46125,93.975449,-47.995299,-175.633795,113.899541,53.193173,43.369868,17.094711,-96.913118,-38.95752,1
1721968529.0776086,-88.019249,248.334793,122.457886,94.667467,-55.416363,-176.630627,113.899541,53.193173,43.369868,17.215548,-96.917702,-31.069324,1
1721968529.1865337,-87.724777,248.371445,122.476646,95.12188,-59.181727,-177.458264,113.899541,53.193173,43.369868,17.479223,-96.926869,-27.729496,1
1721968529.2945192,-87.15892,248.44249,122.654236,95.863803,-65.352024,-178.914093,113.899541,53.193173,43.369868,18.017575,-97.073374,-21.456295,1
1721968529.4043348,-86.683723,248.50267,122.985748,97.192091,-72.853417,179.103857,113.899541,53.193173,43.369868,18.478978,-97.370911,-13.864719,1
1721968529.5109184,-86.430573,248.529358,123.033447,97.505728,-73.963466,178.525341,113.899541,53.193173,43.369868,18.720708,-97.40294,-12.711183,1
1721968529.6186793,-85.690384,248.60083,123.16983,105.93875,-83.00537,169.227038,113.899541,53.193173,43.369868,19.423842,-97.508249,-3.416777,1
1721968529.727252,-85.562775,248.611832,123.176117,107.768377,-83.735203,167.264658,113.899541,53.193173,43.369868,19.544679,-97.508249,-2.636694,1
1721968529.8336916,-85.331779,248.63121,123.192497,106.68583,-83.389939,168.135095,113.899541,53.193173,43.369868,19.764408,-97.508249,-2.966317,1
1721968529.942337,-84.495804,248.692795,123.200394,106.103361,-83.182815,167.935133,113.899541,53.193173,43.369868,20.555434,-97.46247,-3.054209,1
1721968530.050905,-82.719841,248.786652,123.268501,104.992281,-82.935698,167.380223,113.899541,53.193173,43.369868,22.23632,-97.407523,-3.054209,1
1721968530.1601362,-79.682739,248.83049,123.507385,102.414372,-82.529356,167.104974,113.899426,53.192829,43.369868,25.114746,-97.407523,-3.06521,1
1721968530.2679021,-78.324257,248.823746,123.559578,102.026022,-82.328019,166.215629,113.898452,53.180396,43.369868,26.400119,-97.297687,-3.076153,1
1721968530.3758872,-78.188202,249.382736,124.687065,101.745272,-82.383023,166.137134,113.895129,52.879822,43.369868,26.740742,-97.045872,-3.109155,1
1721968530.4862094,-78.889671,251.78569,129.82814,98.951759,-82.974717,168.630073,113.870091,51.534001,43.369868,26.894524,-96.327212,-3.1311,1
1721968530.5920992,-78.885063,254.353394,134.922958,94.495294,-83.578843,173.013716,113.595472,50.370209,43.368722,26.685796,-95.83739,-3.164045,1
1721968530.700837,-75.041901,256.938843,137.937759,89.385656,-83.916144,177.36682,112.550855,49.721048,43.367863,26.367174,-95.83739,-3.164045,1
1721968530.8089635,-68.026276,261.105377,141.980286,83.069312,-84.379838,-177.094207,110.478639,48.767761,43.365571,24.982908,-95.681775,-3.164045,1
1721968530.9178805,-62.382393,266.429688,148.236877,78.813267,-85.19298,-171.952083,108.374509,47.160271,43.362019,21.950701,-94.541932,-3.164045,1
1721968531.026709,-55.070614,271.761414,155.42865,73.095148,-85.855663,-166.282665,106.207468,45.413723,43.356003,19.808354,-93.241891,-3.164045,1
1721968531.1365514,-47.038246,276.34314,161.051758,80.654524,-86.554041,-174.245576,103.995793,43.775007,43.348211,17.99563,-91.0721,-3.164045,1
1721968531.2454555,-39.332222,280.067505,167.255722,70.399439,-86.825337,-164.157164,101.818955,42.26681,43.321167,15.919174,-90.174848,-3.164045,1
1721968531.3560176,-32.726147,283.444519,173.321182,68.528388,-87.112331,-161.520584,99.868377,40.751795,43.274586,13.260478,-88.732885,-3.164045,1
1721968531.4640908,-26.373852,285.800873,178.311508,73.197306,-87.370391,-165.975675,98.130424,39.367071,43.171339,11.326917,-87.171919,-3.164045,1
1721968531.5733232,-20.267889,287.743134,184.282547,66.625595,-87.336472,-158.950467,96.418312,37.87887,43.018588,9.162626,-86.137386,-3.164045,1
1721968531.6831307,-12.918168,288.210754,188.305786,77.384195,-87.3842,-169.213173,94.43794,36.532419,42.574317,6.701658,-84.741203,-3.164045,1
1721968531.7921383,-5.324119,284.542267,191.031998,79.480247,-87.115826,-170.626144,92.388872,35.134058,41.122785,3.95507,-84.741203,-3.164045,1
1721968531.9009483,0.770113,278.081879,192.941666,88.932217,-86.967373,-179.898148,90.812779,33.459933,38.979407,2.197293,-84.741203,-3.164045,1
1721968532.0100396,5.088775,270.625488,194.06041,100.527451,-86.796918,168.489412,89.645378,31.769192,36.567198,1.021756,-84.791566,-3.164045,1
1721968532.1183937,8.277951,262.551147,194.388657,111.310344,-86.527055,157.83721,88.712316,30.272798,34.164098,-0.021944,-85.057074,-3.164045,1
1721968532.2281616,9.503966,254.44043,194.918808,105.141995,-86.639756,163.760448,88.408534,29.125851,31.90716,-0.076891,-86.553927,-3.164045,1
1721968532.3364813,10.701474,245.649979,196.21312,69.717676,-86.542525,-161.352593,88.134202,28.217713,29.491456,0.131838,-90.133652,-3.164045,1
1721968532.4429736,14.460624,237.568466,194.253967,78.214755,-86.689603,-170.438156,87.054119,27.636677,27.367959,-0.351567,-91.154491,-3.164045,1
1721968532.5524397,17.501659,234.767685,193.661301,85.866033,-86.775489,-177.93995,85.96441,27.334957,26.648095,-1.582051,-91.136157,-3.164045,1
1721968532.6613758,18.068138,234.712067,193.660507,85.927053,-86.786719,-177.675874,85.663264,27.334842,26.648095,-2.208237,-91.136157,-3.164045,1
1721968532.7714038,17.986002,234.714737,193.65979,85.937138,-86.788094,-177.609067,85.663264,27.334842,26.648095,-2.285185,-91.136157,-3.164045,1
1721968532.87842,17.809063,234.720108,193.663208,85.877092,-86.79073,-177.384124,85.663493,27.334842,26.648095,-2.449968,-91.14074,-3.164045,1
1721968532.9864566,17.760057,234.720642,193.726974,84.824052,-86.786547,-176.288113,85.663894,27.334842,26.648095,-2.493913,-91.200271,-3.164045,1
1721968533.0950775,17.759605,234.720673,193.726974,84.824052,-86.786547,-176.287998,85.664009,27.334842,26.648095,-2.493913,-91.200271,-3.164045,1
1721968533.2036273,17.71221,234.721909,193.72612,84.831386,-86.787407,-176.251329,85.664123,27.334957,26.648095,-2.537859,-91.200271,-3.164045,1
1721968533.3125,17.700018,234.722168,193.725571,84.834709,-86.787579,-176.243537,85.664238,27.335072,26.648095,-2.548803,-91.200271,-3.164045,1
1721968533.4209468,17.711929,234.722397,193.680786,85.568153,-86.790959,-176.986949,85.664238,27.335186,26.648095,-2.537859,-91.159075,-3.164045,1
1721968533.528317,18.15782,234.708405,193.684174,85.516587,-86.783396,-177.35284,85.664238,27.335301,26.648095,-2.120345,-91.159075,-3.164045,1
1721968533.638115,18.251678,234.705078,193.684998,85.505185,-86.781792,-177.42933,85.664238,27.335301,26.648095,-2.032453,-91.159075,-3.164045,1
1721968533.747772,18.404228,234.699387,193.675995,85.65106,-86.779958,-177.717814,85.664238,27.335415,26.648095,-1.889672,-91.149908,-3.164045,1
1721968533.8554065,18.404264,234.699432,193.66568,85.815556,-86.780703,-177.882081,85.664238,27.33553,26.648095,-1.889672,-91.14074,-3.164045,1
1721968533.9631047,18.192699,234.707397,193.648575,86.087711,-86.785287,-177.95605,85.664352,27.335645,26.648095,-2.0874,-91.126989,-3.164045,1
1721968534.0690012,18.145767,234.709045,193.648163,86.093555,-86.786032,-177.917891,85.664352,27.335645,26.648095,-2.131346,-91.126989,-3.164045,1
1721968534.1774127,18.134035,234.709442,193.648056,86.094987,-86.786261,-177.90838,85.664352,27.335645,26.648095,-2.142346,-91.126989,-3.164045,1
