BAEK26/lfd/data/first_attempt_pouring/robot_data_3.csv
timestamp,x,y,z,roll,pitch,yaw,joint1,joint2,joint3,joint4,joint5,joint6,gripper
1721968534.2384572,18.134071,234.709488,193.637741,86.259885,-86.786891,-178.073048,85.664352,27.335759,26.648095,-2.142346,-91.117879,-3.164045,1
1721968534.3500743,17.922882,234.716446,193.630966,86.367715,-86.79073,-177.983037,85.664352,27.335759,26.648095,-2.351075,-91.113296,-3.164045,1
1721968534.456445,17.617764,234.725128,193.628357,86.405531,-86.795887,-177.735232,85.664352,27.335759,26.648095,-2.625751,-91.113296,-3.164045,1
1721968534.563228,17.077393,234.736786,193.623795,86.471593,-86.805054,-177.295774,85.664467,27.335759,26.648095,-3.1311,-91.113296,-3.164045,1
1721968534.6712918,17.065668,234.736969,193.618301,86.556963,-86.805512,-177.370029,85.664467,27.335874,26.648095,-3.142101,-91.108712,-3.164045,1
1721968534.7796748,17.112621,234.736145,193.618698,86.551234,-86.80471,-177.408303,85.664467,27.335874,26.648095,-3.098155,-91.108712,-3.164045,1
1721968534.886507,17.147997,234.735992,193.574112,87.287026,-86.806486,-178.176009,85.664467,27.335988,26.648095,-3.06521,-91.067516,-3.164045,1
1721968534.9949925,17.312332,234.732758,193.5755,87.266285,-86.803679,-178.30905,85.664467,27.335988,26.648095,-2.91137,-91.067516,-3.164045,1
1721968535.1042798,17.382339,234.731308,193.565765,87.423275,-86.802934,-178.531644,85.664582,27.336046,26.648095,-2.84548,-91.058349,-3.164045,1
1721968535.215146,17.382372,234.731323,193.555435,87.589204,-86.803392,-178.697343,85.664582,27.33616,26.648095,-2.84548,-91.049182,-3.164045,1
1721968535.3225346,17.406008,234.73114,193.5103,88.328492,-86.804596,-179.457658,85.664582,27.336389,26.648095,-2.823479,-91.007986,-3.164045,1
1721968535.4351783,17.51182,234.729156,193.466766,89.053054,-86.803851,179.719958,85.664582,27.336389,26.648095,-2.724586,-90.96679,-3.164045,1
1721968535.5402653,17.664642,234.728775,193.470291,89.016385,-86.801272,179.613732,85.664582,27.336389,26.649012,-2.581805,-90.96679,-3.164045,1
1721968535.650427,18.627779,234.708405,193.466919,89.15229,-86.785573,178.577308,85.664582,27.336389,26.652622,-1.647941,-90.948456,-3.164045,1
1721968535.7583346,19.091665,234.774002,193.390182,90.910812,-86.777839,176.392849,85.664582,27.336848,26.675483,-1.252428,-90.811175,-3.164045,1
1721968535.8687117,19.112589,235.149261,193.46579,91.860375,-86.774515,175.446037,85.665899,27.337707,26.767614,-1.252428,-90.678421,-3.164045,1
1721968535.974607,19.368052,236.992157,194.532593,85.369909,-86.748102,-178.722267,85.849933,27.339483,27.230278,-0.417457,-90.577695,-3.164045,1
1721968536.083095,17.82209,239.388641,196.00592,75.441124,-86.64772,-169.104826,86.496115,27.343322,27.80759,0.52735,-90.577695,-3.164045,1
1721968536.1910715,14.341674,239.662109,195.928116,76.214559,-86.661986,-169.699385,87.552707,27.36011,27.832456,1.406268,-90.518164,-3.164045,1
1721968536.3024197,9.260542,239.787872,195.871155,76.239655,-86.668289,-170.03468,89.359701,27.37134,27.832456,3.504611,-90.513638,-3.164045,1
1721968536.409021,1.848844,239.782791,195.809113,76.287783,-86.673045,-169.509564,91.463029,27.381309,27.832456,5.053717,-90.513638,-3.164045,1
1721968536.5155537,-4.718452,239.48909,195.750473,76.256156,-86.678029,-169.514147,93.580108,27.392425,27.832456,7.207007,-90.513638,-3.164045,1
1721968536.6239948,-11.243423,238.956253,195.451828,78.559504,-86.707594,-171.700669,95.638287,27.433506,27.832456,9.151626,-90.408328,-3.164045,1
1721968536.7346265,-18.298859,237.975189,194.531921,82.205349,-86.707193,-175.17858,97.944328,27.672143,27.832456,11.315916,-90.403745,-3.164045,1
1721968536.841686,-25.123228,235.99025,190.35585,97.718124,-86.473713,169.37933,100.206537,28.726729,27.832743,13.51321,-90.472385,-3.164045,1
1721968536.9522498,-31.980417,232.971954,184.174622,106.812912,-85.835781,160.541915,102.416836,30.414892,27.839675,15.490716,-91.392498,-3.164045,1
1721968537.0599303,-38.121704,230.468674,179.839844,107.402829,-85.366643,160.571766,104.354866,31.790907,27.905394,16.831036,-92.445365,-3.164045,1
1721968537.172283,-43.217171,228.791138,175.326157,112.747724,-84.701268,155.059683,106.243507,33.210009,28.28389,18.929437,-92.729208,-3.164045,1
1721968537.2788084,-50.381725,231.717972,171.624695,109.550676,-84.560377,157.984575,108.19185,35.08868,30.016514,21.148674,-92.999243,-3.164045,1
1721968537.3885307,-57.348495,236.021805,165.719162,110.773999,-84.347523,157.535204,109.576459,37.678163,32.295167,21.774917,-93.086218,-3.164045,1
1721968537.4950602,-62.407379,239.652924,157.875626,113.947669,-83.888011,154.953113,110.468211,40.63812,34.498591,22.104483,-93.305948,-3.164045,1
1721968537.6061625,-66.966896,240.876724,149.645645,109.406234,-83.467919,159.801825,111.541762,43.844908,36.340593,22.917452,-94.848637,-3.164045,1
1721968537.7127726,-70.97451,239.877289,140.050552,113.133267,-82.549009,157.030944,112.460786,46.671767,37.534694,22.961398,-95.603967,-3.207991,1
1721968537.8217547,-73.967049,238.820175,131.17392,115.88037,-81.504507,154.649961,113.326526,49.44219,38.768788,23.521751,-96.167013,-3.350829,1
1721968537.931871,-75.658592,239.51857,124.4785,112.96201,-81.304831,157.975981,113.563501,51.691909,40.099082,23.433859,-97.384662,-3.350829,1
1721968538.0402105,-77.17083,241.662064,119.927475,109.784214,-81.391348,161.373506,113.645319,53.448483,41.545456,23.323966,-98.162854,-3.350829,1
1721968538.1494877,0.932852,0.725105,0.40708,-98.162854,-3.350829,0.0,113.647095,54.034618,42.586177,23.455804,-98.172021,-3.350829,1
1721968538.2599916,-78.689316,244.639664,119.046692,107.528365,-81.736497,163.781074,113.647439,54.034389,42.61322,23.148182,-98.15827,-3.350829,1
1721968538.3695204,-78.928001,244.632538,118.976372,108.052621,-81.757582,163.48434,113.647439,54.034389,42.61322,22.917452,-98.112491,-3.350829,1
1721968538.4783254,-80.709877,244.562927,118.846535,109.584825,-82.019711,163.625001,113.647496,54.034389,42.61322,21.170676,-98.130768,-3.350829,1
1721968538.5849385,-81.160538,244.536697,118.814987,109.981311,-82.086116,163.652044,113.647496,54.034389,42.613106,20.797107,-98.135352,-3.350829,1
1721968538.6920183,-80.838097,244.555725,118.855553,109.581903,-82.044004,163.747614,113.647496,54.034389,42.612991,21.104728,-98.149103,-3.350829,1
1721968538.8011901,-79.995903,244.615311,119.523994,104.95057,-82.074714,167.549131,113.647496,54.034389,42.612991,21.950701,-98.702981,-3.350829,1
1721968538.9089732,-79.359489,244.648453,122.1306,87.341457,-81.826796,-175.604861,113.647496,54.034389,42.612991,22.75267,-101.060473,-3.702396,1
1721968539.018105,-79.736336,244.632278,122.358139,86.858511,-79.323142,-174.79785,113.647496,54.034389,42.612991,22.401103,-101.293953,-6.306145,1
1721968539.12694,-80.344055,244.608963,122.311554,87.475071,-77.788761,-174.848499,113.647496,54.034389,42.612991,21.829807,-101.293953,-7.910141,1
1721968539.2356637,-80.941414,244.58075,122.237946,88.512526,-72.354485,-175.343878,113.647496,54.034389,42.612991,21.258568,-101.257341,-13.458263,1
1721968539.3436434,-81.096825,244.572647,122.213913,89.01077,-65.440604,-175.724895,113.647496,54.034389,42.612991,21.115729,-101.229839,-20.401595,1
1721968539.4531665,-81.188324,244.567474,122.206551,89.027156,-65.446333,-175.653848,113.647496,54.034389,42.612991,21.027838,-101.229839,-20.412595,1
1721968539.561975,-81.90036,244.522415,122.155571,89.216347,-63.357387,-175.172679,113.647496,54.034389,42.612991,20.313703,-101.229839,-22.818617,1
1721968539.6703668,-83.059616,244.430939,122.090576,89.547517,-53.592925,-174.436084,113.647496,54.034389,42.612991,19.215114,-101.229839,-32.947995,1
1721968539.7778237,-83.791199,244.361725,122.050407,89.677693,-47.321215,-173.88742,113.647496,54.034389,42.612991,18.555926,-101.229839,-39.012467,1
1721968539.8857653,-84.718544,244.2612,121.998116,89.79343,-40.361038,-173.132032,113.647496,54.034389,42.612991,17.666008,-101.229839,-46.175528,1
1721968539.9927316,-85.302177,244.190567,121.960526,89.845283,-39.052517,-172.620438,113.647496,54.034389,42.612991,17.116713,-101.229839,-47.559794,1
1721968540.101758,-85.668304,244.143265,121.951103,89.887853,-29.020198,-172.342783,113.647496,54.034389,42.612991,16.776147,-101.229839,-58.084742,1
1721968540.2100813,-85.984322,244.100662,121.938843,89.914611,-21.308472,-172.088103,113.647496,54.034389,42.612991,16.501471,-101.229839,-65.423587,1
1721968540.3191936,-86.473923,244.031342,121.91098,89.947212,-16.696391,-171.653285,113.647496,54.034389,42.612991,16.040011,-101.229839,-70.125737,1
1721968540.4272287,-87.302948,243.904739,121.859451,89.997861,-16.24914,-170.883058,113.647496,54.034389,42.612991,15.238042,-101.229839,-70.729978,1
1721968540.5347328,-87.779724,243.826736,121.821175,90.035333,-15.603646,-170.442167,113.647496,54.034389,42.612991,14.776639,-101.220729,-71.466057,1
1721968540.6433966,-88.23455,243.748566,121.794922,90.061059,-14.701409,-170.018121,113.647496,54.034389,42.612991,14.33718,-101.220729,-72.45481,1
1721968540.7534413,-88.382607,243.723434,121.685265,90.164134,-8.377445,-169.903701,113.647496,54.034389,42.612991,14.205343,-101.120003,-78.826903,1
1721968540.859474,-88.969284,243.61586,121.646957,90.200402,-8.457258,-169.349995,113.647496,54.034389,42.612991,13.634046,-101.120003,-78.837904,1
1721968540.9682183,-89.126854,243.586029,121.628326,90.217934,-8.410791,-169.202172,113.647496,54.034389,42.612991,13.480207,-101.110836,-78.914795,1
1721968541.0780442,-89.610237,243.49173,121.582146,90.261537,-8.504355,-168.747129,113.647496,54.034389,42.612991,12.952857,-101.092559,-78.914795,1
1721968541.187812,-91.047409,243.186768,121.508194,90.331838,-8.783959,-167.381255,113.647496,54.034389,42.612991,11.601536,-101.092559,-78.914795,1
1721968541.2959054,-90.956459,243.207352,121.502747,90.33688,-8.766426,-167.468688,113.647325,54.034389,42.612991,11.689428,-101.083391,-78.914795,1
1721968541.4042702,-90.383736,243.319565,119.792191,91.92489,-4.558395,-168.128506,113.647325,54.034389,42.612991,12.183833,-99.472062,-83.023704,1
1721968541.5123866,-91.597328,242.946381,117.381325,94.170541,-4.653048,-167.125544,113.647325,54.034389,42.612991,10.887459,-97.293104,-83.177486,1
1721968541.622015,-91.282097,242.995605,117.011162,94.515404,-4.648235,-167.451958,113.647325,54.034389,42.612991,11.173078,-96.936036,-83.12254,1
1721968541.7322338,-90.303253,243.272476,118.004929,93.589676,-4.455263,-168.319015,113.647325,54.033816,42.612991,12.172832,-97.81037,-83.12254,1
1721968541.8384082,-90.304543,243.272446,118.005386,93.587557,-4.027664,-168.2922,113.647325,54.033702,42.612991,12.172832,-97.81037,-83.551055,1
1721968541.9487102,-89.597099,243.420197,118.041344,93.547793,3.020003,-168.550891,113.647325,54.033702,42.612991,12.875966,-97.81037,-90.472385,1
1721968542.055988,-89.363083,243.46904,118.091255,93.529058,8.156169,-168.475432,113.647325,54.033702,42.612991,13.117697,-97.846982,-95.570048,1
1721968542.165197,-89.387642,243.465851,118.120071,93.502472,8.16293,-168.455722,113.647325,54.033644,42.612991,13.095695,-97.874427,-95.581049,1
1721968542.2720973,-89.513863,243.440567,118.113052,93.512499,8.566636,-168.310134,113.647325,54.033644,42.612991,12.974858,-97.874427,-96.009506,1
1721968542.383367,-89.590134,243.425552,118.117065,93.536678,11.360836,-168.071153,113.647325,54.033644,42.612991,12.908911,-97.883594,-98.822042,1
1721968542.4899647,-89.605759,243.428207,118.237144,93.465918,14.674022,-167.884827,113.647325,54.033644,42.612991,12.908911,-97.998071,-102.139868,1
1721968542.6057634,-89.613243,243.429153,118.289536,93.442426,16.396505,-167.788857,113.647325,54.033644,42.612991,12.908911,-98.057544,-103.864758,1
1721968542.708825,-89.625542,243.436615,118.511246,93.227968,16.399714,-167.839564,113.647325,54.033644,42.612991,12.908911,-98.254412,-103.864758,1
1721968542.8192098,-89.627411,243.446136,118.753304,92.993915,16.405214,-167.905683,113.647325,54.033644,42.612991,12.919912,-98.478725,-103.864758,1
1721968542.9269643,-89.633286,243.449066,118.861725,92.889064,16.406646,-167.930492,113.647325,54.033644,42.612991,12.919912,-98.579394,-103.864758,1
1721968543.034408,-89.633286,243.449066,118.861725,92.889064,16.406646,-167.930492,113.647325,54.033644,42.612991,12.919912,-98.579394,-103.864758,1
1721968543.1414452,-89.617836,243.452271,118.863998,92.86626,14.817777,-168.024113,113.647325,54.033644,42.612991,12.930913,-98.579394,-102.271706,1
1721968543.2496932,-89.600395,243.456009,118.869621,92.80037,8.244977,-168.35471,113.647325,54.033644,42.612991,12.919912,-98.579394,-95.592049,1
1721968543.357658,-89.643127,243.447388,118.867867,92.796187,7.259604,-168.359408,113.647325,54.033644,42.612991,12.886967,-98.579394,-94.61424,1
1721968543.4644096,-89.549362,243.466415,118.874855,92.771779,2.029531,-168.689833,113.647325,54.033644,42.612991,12.963858,-98.579394,-89.461687,1
1721968543.572675,-89.45739,243.485931,118.909645,92.760836,-7.12049,-169.192661,113.647325,54.033644,42.612991,13.029805,-98.606896,-80.28806,1
1721968543.6796021,-89.373238,243.502579,118.912178,92.806672,-12.868575,-169.539816,113.647325,54.033644,42.612991,13.095695,-98.606896,-74.520266,1
1721968543.7878685,-89.105843,243.567413,119.309929,92.562764,-22.854542,-170.140161,113.647325,54.033644,42.612991,13.34837,-98.96849,-64.47878,1
1721968543.8964603,-88.67437,243.658432,119.68203,92.324528,-30.176828,-170.707103,113.647325,54.03353,42.612991,13.765884,-99.298112,-57.073988,1
1721968544.004811,-88.368698,243.716705,119.813034,92.353062,-37.006083,-171.229411,113.647325,54.03353,42.612991,14.051503,-99.412532,-50.185545,1
1721968544.1118321,-88.17926,243.750366,119.814476,92.656271,-45.414583,-171.865795,113.647325,54.033415,42.612991,14.216286,-99.417116,-41.737053,1
1721968544.2215374,-88.11985,243.760773,119.815598,92.709155,-46.60009,-171.996372,113.647325,54.033415,42.612991,14.282234,-99.417116,-40.45168,1
1721968544.3288507,-87.645279,243.843613,119.883179,92.907685,-52.022849,-172.760412,113.647325,54.033071,42.612991,14.721692,-99.462895,-35.024394,1
1721968544.4362009,-87.124779,243.929977,119.974487,93.258679,-58.742956,-173.736273,113.647325,54.032842,42.612991,15.21604,-99.531535,-28.201899,1
1721968544.5458233,-86.758659,243.987122,119.995667,93.293629,-59.541774,-174.135682,113.647325,54.032728,42.612991,15.567607,-99.531535,-27.333983,1
1721968544.6539776,-86.263573,244.060669,120.025253,93.535761,-62.445295,-174.895768,113.647325,54.032613,42.612991,16.062012,-99.536119,-24.049044,1
1721968544.7626796,-85.817436,244.125931,120.219727,94.47461,-71.307291,-176.409981,113.647325,54.032498,42.612991,16.468526,-99.710069,-15.38088,1
1721968544.870523,-85.768425,244.132843,120.215454,95.339203,-74.451683,-177.358283,113.647325,54.032327,42.612991,16.512472,-99.710069,-12.216778,1
1721968544.979487,-85.133987,244.215576,120.244057,99.350251,-81.449618,177.944935,113.647325,54.032097,42.612991,17.116713,-99.714653,-5.053717,1
1721968545.0893404,-85.042801,244.226929,120.251488,98.845647,-80.999731,178.368179,113.647325,54.032097,42.612991,17.226549,-99.714653,-5.537121,1
1721968545.1968162,-84.551285,244.285873,120.287682,97.996982,-80.27259,178.758535,113.647325,54.031983,42.612991,17.677008,-99.714653,-6.141363,1
1721968545.3062077,-83.514404,244.397614,120.446289,96.996598,-80.100302,178.770853,113.647325,54.031868,42.612991,18.676763,-99.79246,-6.141363,1
1721968545.4165006,-81.8992,244.536758,120.598511,96.022398,-79.821615,178.215543,113.647325,54.030665,42.612991,20.225811,-99.815379,-6.141363,1
1721968545.5246427,-80.664246,244.685745,120.863007,95.213038,-79.662619,177.827708,113.646637,53.994282,42.612991,21.434351,-99.815379,-6.097417,1
1721968545.6340146,-80.187859,245.181931,121.850105,94.406256,-79.674652,177.986417,113.645205,53.738399,42.612991,22.104483,-99.678041,-6.064472,1
1721968545.7404418,-80.756462,247.051651,125.693344,92.194467,-80.018885,179.940661,113.639933,52.78855,42.612991,22.258322,-99.179052,-6.064472,1
1721968545.847073,-81.62616,250.326187,130.896713,97.903017,-80.560731,173.959211,113.587622,51.052602,42.612991,22.401103,-96.638499,-6.064472,1
1721968545.9551167,-81.564056,253.81337,138.275345,92.23148,-81.286153,179.158689,113.293638,49.300956,42.612476,22.478051,-95.960977,-6.064472,1
1721968546.0682232,-77.681374,258.04834,145.392532,83.839596,-81.850803,-173.5162,112.137008,47.722858,42.608579,22.291267,-95.713803,-6.064472,1
1721968546.173436,-70.726913,263.13092,152.022278,77.968097,-82.378382,-168.62698,110.050926,46.091819,42.599183,21.137674,-95.004252,-6.064472,1
1721968546.2810757,-63.197693,268.367401,158.872299,71.721711,-82.846546,-162.318084,107.697444,44.471437,42.576608,18.654761,-94.148253,-6.064472,1
1721968546.391812,-53.824558,273.183716,164.819321,71.172989,-83.360145,-162.221598,105.201697,42.918206,42.508541,16.567361,-92.655927,-6.064472,1
1721968546.499145,-44.078457,277.169861,170.345474,74.277618,-83.846013,-165.014423,102.41993,41.276395,42.304052,13.491208,-90.806591,-6.064472,1
1721968546.6066134,-31.862652,278.211731,176.014542,69.599876,-83.852144,-161.087256,99.452524,39.606395,41.482202,11.250026,-90.449524,-6.031469,1
1721968546.714491,-19.738903,276.242401,181.717621,66.468433,-83.830773,-157.850961,96.342509,37.545466,39.938481,8.020034,-90.257239,-5.899632,1
1721968546.8211396,-9.253927,272.98056,187.598053,65.864421,-84.008332,-157.035929,93.572201,35.207569,38.220009,5.042716,-89.630137,-5.646957,1
1721968546.9288552,0.532669,270.70047,195.5784,60.95125,-84.034001,-152.532767,91.056573,32.542055,36.879231,2.922371,-88.755803,-5.350337,1
1721968547.0357115,9.525504,268.869873,201.442413,68.584309,-84.315323,-160.477858,88.68934,30.193501,35.881024,0.900862,-86.590596,-5.295391,1
1721968547.1446984,16.440941,266.222626,203.008194,91.779932,-84.437249,177.408818,86.45406,28.596667,34.936216,-2.340074,-83.720421,-5.2295,1
1721968547.2521996,23.291298,262.329224,202.843201,101.031424,-84.521703,168.355569,84.405335,27.838243,33.921164,-4.570312,-83.129874,-4.833988,1
1721968547.3621848,28.699093,258.111633,200.642288,109.655356,-84.358811,160.858474,82.408462,27.7205,33.003458,-7.679468,-83.129874,-4.570312,1
1721968547.4720895,32.93129,255.915115,199.659012,121.756052,-85.957535,148.735833,81.108765,27.720271,32.597975,-8.986843,-83.322158,-2.647695,1
1721968547.581164,33.171482,255.917648,200.077164,116.997352,-86.168784,153.300702,81.095243,27.720271,32.597746,-8.81106,-83.70667,-2.636694,1
1721968547.6871448,33.213936,255.931427,201.327484,99.633751,-86.539545,170.584948,81.09679,27.720271,32.597746,-8.745112,-84.86479,-2.636694,1
1721968547.7925878,32.380985,255.925125,201.353638,99.083597,-86.483567,171.912491,81.097019,27.720271,32.597746,-9.569083,-84.905985,-2.636694,1
1721968547.9028795,32.052727,255.919556,201.346191,99.135163,-86.45893,172.167744,81.097134,27.720271,32.597746,-9.832758,-84.905985,-2.636694,1
1721968548.0125859,32.357079,255.924835,201.353104,99.087264,-86.481791,171.930883,81.097134,27.720271,32.597746,-9.547138,-84.905985,-2.636694,1
1721968548.1210947,32.47414,255.926468,201.355759,99.041026,-86.479786,171.867571,81.097134,27.720271,32.597746,-9.437245,-84.905985,-2.647695,1
1721968548.233795,31.841541,255.915054,201.341354,99.141065,-86.432288,172.359169,81.097248,27.720271,32.597746,-10.041486,-84.905985,-2.647695,1
1721968548.3410778,31.619169,255.90947,201.336166,99.177447,-86.415557,172.530885,81.097248,27.720271,32.597746,-10.239271,-84.905985,-2.647695,1
1721968548.450306,31.618677,255.909531,201.336166,99.177505,-86.415557,172.530999,81.097363,27.720271,32.597746,-10.239271,-84.905985,-2.647695,1
1721968548.5600138,31.87668,255.915771,201.3116,99.545344,-86.419683,171.922518,81.097363,27.7205,32.597746,-9.997541,-84.878541,-2.658696,1
1721968548.6697197,32.01757,255.918716,201.289658,99.88803,-86.426444,171.448682,81.097363,27.720615,32.597746,-9.865703,-84.85568,-2.658696,1
1721968548.779427,32.018009,255.918625,201.264481,100.251228,-86.42249,171.085771,81.097363,27.720729,32.597746,-9.865703,-84.832761,-2.658696,1
1721968548.8871384,31.924377,255.916641,201.262329,100.263947,-86.415443,171.160713,81.097363,27.720729,32.597746,-9.953595,-84.832761,-2.658696,1
1721968548.9960387,31.807344,255.913956,201.259613,100.280047,-86.406619,171.254163,81.097363,27.720729,32.597746,-10.063488,-84.832761,-2.658696,1
