BAEK26/lfd/rl/test.csv
timestamp,x,y,z,roll,pitch,yaw,joint1,joint2,joint3,joint4,joint5,joint6,gripper
1721968189.2042317,-29.895653,232.418884,193.816727,148.97149,-80.381338,154.599082,89.865966,25.064955,28.086334,-33.222671,-79.70582,-3.504611,1
1721968189.3119721,-29.917053,232.264023,192.982346,150.173269,-79.595411,153.546558,89.865966,25.064955,28.086334,-33.343508,-78.927629,-3.72434,1
1721968189.423021,-30.062645,232.153519,192.897964,150.362976,-79.523792,153.533438,89.865966,25.064955,28.086334,-33.519292,-78.849822,-3.72434,1
1721968189.5287304,-30.076097,232.134872,192.843552,150.396093,-79.468272,153.524843,89.865966,25.064955,28.086334,-33.541236,-78.804042,-3.746342,1
1721968189.637577,-30.034588,232.141144,192.727661,150.643954,-79.369093,153.246787,89.865966,25.064955,28.086334,-33.508291,-78.689565,-3.757343,1
1721968189.7474976,-30.155087,232.053619,192.683517,150.731846,-79.33059,153.30202,89.865966,25.064955,28.086334,-33.651129,-78.657537,-3.757343,1
1721968189.8592758,-30.173191,232.039703,192.672974,150.75465,-79.321595,153.301275,89.865966,25.064955,28.086334,-33.673073,-78.64837,-3.757343,1
1721968189.9677527,-30.316841,231.943298,192.667053,150.743305,-79.313917,153.477059,89.865966,25.064955,28.086334,-33.837913,-78.64837,-3.757343,1
1721968190.0788524,-30.211012,232.013504,192.666611,150.611582,-79.299421,153.490924,89.865966,25.064955,28.086334,-33.717019,-78.643786,-3.790288,1
1721968190.181286,-30.17314,232.023468,192.584976,150.668878,-79.217202,153.404809,89.865966,25.064955,28.086334,-33.684074,-78.561395,-3.823233,1
1721968190.2909102,-29.759504,232.231537,192.249313,151.547108,-78.949459,152.104882,89.865966,25.064955,28.086334,-33.255616,-78.236413,-3.823233,1
1721968190.3986216,-27.34082,233.62616,191.727707,153.143826,-78.561165,147.877886,89.865966,25.064955,28.086334,-30.607921,-77.659616,-3.823233,1
1721968190.5096207,-23.362919,234.973801,188.175659,159.797929,-75.544543,137.414531,89.865966,25.064955,28.086334,-26.718741,-74.180617,-3.823233,1
1721968190.6183603,-21.448895,234.795517,184.423203,163.801357,-72.120547,131.990339,89.865966,25.064955,28.086334,-25.202637,-70.536777,-3.922125,1
1721968190.726582,-20.874241,234.947464,184.087677,161.507349,-71.540828,133.865859,89.865966,25.064955,28.086334,-24.631341,-70.193461,-4.844988,1
1721968190.8366332,-19.579214,235.526886,184.128784,160.111681,-71.419533,133.946073,89.865966,25.064955,28.086334,-23.225073,-70.193461,-5.383282,1
1721968190.9460964,-17.31023,236.453262,184.195007,160.513954,-71.536646,131.11973,89.865966,25.064955,28.086792,-20.797107,-70.193461,-5.317392,1
1721968191.0546274,-15.402987,237.146454,184.246078,161.049498,-71.652154,128.567432,89.865966,25.064955,28.086964,-18.709708,-70.193461,-5.196555,1
1721968191.1611881,-13.631705,237.723755,184.29068,161.267337,-71.722914,126.513837,89.865966,25.064955,28.087193,-16.94093,-70.193461,-5.185555,1
1721968191.2769945,-12.216806,238.13945,184.32373,161.421061,-71.774538,124.908352,89.865966,25.064955,28.087193,-15.479715,-70.193461,-5.185555,1
1721968191.3807197,-11.853435,238.239929,184.331924,161.461168,-71.787486,124.49714,89.865966,25.064955,28.087193,-15.106204,-70.193461,-5.185555,1
1721968191.4911256,-11.73351,238.265182,184.310898,161.498353,-71.770069,124.340722,89.865966,25.064955,28.087193,-14.985367,-70.1706,-5.185555,1
1721968191.5976417,-11.904073,238.181854,184.18866,161.598162,-71.655534,124.430619,89.865966,25.064955,28.087193,-15.172094,-70.056123,-5.185555,1
1721968191.711627,-12.372617,238.014008,184.059677,161.664167,-71.530286,124.859822,89.865966,25.064955,28.087193,-15.6665,-69.937119,-5.185555,1
1721968191.8181376,-12.371618,238.01123,184.050034,161.892376,-71.545698,124.620097,89.865966,25.064955,28.087193,-15.6665,-69.932536,-5.108664,1
1721968191.9268064,-11.88108,238.147995,184.061142,161.946349,-71.563116,124.064156,89.865966,25.064955,28.087193,-15.161151,-69.932536,-5.108664,1
1721968192.033821,-11.346537,238.291733,184.072998,162.00565,-71.581909,123.45917,89.865966,25.064955,28.087193,-14.611799,-69.932536,-5.108664,1
1721968192.142485,-11.454398,238.266098,184.079941,162.141498,-71.603739,123.423703,89.865966,25.064955,28.087193,-14.721692,-69.941703,-5.053717,1
1721968192.251914,-11.591643,238.259079,184.171539,162.097381,-71.692777,123.592153,89.865966,25.064955,28.087193,-14.85353,-70.033262,-5.031715,1
1721968192.3601239,-11.815292,238.230957,184.270386,162.384089,-71.824385,123.498417,89.865966,25.064955,28.087193,-15.073259,-70.133988,-4.888934,1
1721968192.4680226,-11.699856,238.623413,185.480255,160.659658,-72.878283,124.978023,89.865966,25.064955,28.087193,-14.842529,-71.296691,-5.053717,1
1721968192.577202,-11.30359,239.136719,186.985291,158.845731,-74.227771,126.220253,89.865966,25.064955,28.087193,-14.315179,-72.729486,-5.075661,1
1721968192.6841195,-10.583418,239.992844,189.912827,154.862299,-76.832609,129.17746,89.865966,25.064955,28.087193,-13.392316,-75.494409,-4.976826,1
1721968192.7920961,-9.833195,240.995712,195.095047,136.364299,-80.251563,146.592398,89.865966,25.064955,28.087193,-12.403562,-80.337506,-6.108418,1
1721968192.9010434,-8.64802,241.634842,200.992783,99.740837,-80.72007,-178.289454,89.865966,25.064955,28.087193,-11.107188,-85.789486,-8.547384,1
1721968193.0107315,-6.620751,241.936081,205.037628,76.512612,-80.577404,-157.278691,89.865966,25.064955,28.087193,-9.140625,-89.50655,-8.64622,1
1721968193.1194081,-3.961699,242.188965,206.922211,65.716712,-80.380306,-149.10986,89.865966,25.064955,28.087193,-6.624767,-91.218548,-8.371601,1
1721968193.2284493,-1.671997,242.414169,206.954056,64.916405,-80.597973,-150.46078,89.865966,25.064955,28.087193,-4.47142,-91.218548,-8.217762,1
1721968193.3379796,-0.958337,242.466522,206.965118,66.41085,-80.012238,-152.649822,89.865966,25.064955,28.087193,-3.801288,-91.218548,-8.887951,1
1721968193.4452312,-0.642178,242.487076,206.969528,66.729644,-79.872265,-153.271424,89.865966,25.064955,28.087193,-3.504611,-91.218548,-9.052733,1
1721968193.5525665,-0.290516,242.512726,206.914932,67.082472,-79.855764,-153.952098,89.865966,25.064955,28.087193,-3.175046,-91.163659,-9.10768,1
1721968193.6615856,-0.290402,242.51622,206.870667,67.322197,-79.861493,-154.189188,89.865966,25.064955,28.087193,-3.175046,-91.122463,-9.118681,1
1721968193.7694678,-0.524401,242.513519,206.725052,68.058333,-79.903033,-154.695339,89.865966,25.064955,28.087193,-3.394775,-90.989709,-9.118681,1
1721968193.880081,-0.523425,242.537766,206.395157,69.70066,-80.012811,-156.314861,89.865966,25.064955,28.087193,-3.394775,-90.683004,-9.118681,1
1721968193.9877636,-0.521664,242.57254,205.873001,72.388634,-80.159145,-158.966911,89.865966,25.064955,28.087193,-3.394775,-90.197766,-9.129624,1
1721968194.0950391,-0.451127,242.580124,205.819672,72.660101,-80.176906,-159.300602,89.865966,25.064955,28.087193,-3.328885,-90.147403,-9.129624,1
1721968194.2040708,-0.474574,242.57872,205.819382,72.663424,-80.17599,-159.281923,89.865966,25.064955,28.087193,-3.350829,-90.147403,-9.129624,1
1721968194.3121297,-0.54491,242.574478,205.818512,72.673279,-80.173297,-159.225831,89.865966,25.064955,28.087193,-3.416777,-90.147403,-9.129624,1
1721968194.4241786,-0.580077,242.572311,205.818085,72.678207,-80.171922,-159.197756,89.865966,25.064955,28.087193,-3.449722,-90.147403,-9.129624,1
1721968194.5306506,-0.415964,242.582199,205.820129,72.674081,-80.167739,-159.347871,89.865966,25.064955,28.087193,-3.295882,-90.147403,-9.140625,1
1721968194.6398516,-0.099447,242.600021,205.824234,72.798872,-80.08552,-159.772146,89.865966,25.064955,28.087193,-2.999262,-90.147403,-9.239517,1
1721968194.748397,-0.158051,242.597748,205.808838,72.938559,-80.055783,-159.856657,89.865966,25.064955,28.087193,-3.054209,-90.133652,-9.272462,1
1721968194.857678,-0.697108,242.570328,205.728455,73.482066,-80.002097,-159.890462,89.865966,25.064955,28.087193,-3.559558,-90.065012,-9.327409,1
1721968194.9668124,-0.965412,242.570999,205.404724,75.190627,-80.06094,-161.323601,89.865966,25.064955,28.087193,-3.812232,-89.767475,-9.338353,1
1721968195.075856,-1.410569,242.539093,205.398987,75.233197,-80.054122,-160.948085,89.865966,25.064955,28.087193,-4.229746,-89.767475,-9.327409,1
1721968195.1829162,-1.057701,242.564896,205.397888,71.461531,-82.026357,-157.460834,89.865966,25.064955,28.087193,-3.900124,-89.767475,-7.283955,1
1721968195.293299,-2.707026,242.428055,205.371506,67.528347,-83.428213,-151.943079,89.865966,25.064955,28.087193,-5.44923,-89.767475,-5.723848,1
1721968195.4010303,-4.049995,242.283722,205.342972,68.897029,-83.098705,-152.053889,89.865966,25.064955,28.087193,-6.712659,-89.758308,-6.031469,1
1721968195.5125377,-5.005973,242.162491,205.326065,71.763136,-82.114077,-154.040104,89.865966,25.064955,28.087193,-7.569575,-89.753724,-7.108172,1
1721968195.6172695,-4.307285,242.25267,205.337692,72.230727,-81.878419,-155.173415,89.865966,25.064955,28.087193,-6.954333,-89.753724,-7.3169,1
1721968195.7263372,-3.000139,242.399597,205.356995,71.985214,-81.926719,-156.159361,89.865966,25.064955,28.087193,-5.690903,-89.753724,-7.3169,1
1721968195.8339868,-2.017864,242.491379,205.370605,71.804045,-81.963389,-156.901742,89.865966,25.064955,28.087193,-4.801043,-89.753724,-7.3169,1
1721968195.9429486,-1.479247,242.535477,205.367584,71.520775,-82.0907,-157.121242,89.865966,25.064955,28.087193,-4.284693,-89.744557,-7.196063,1
1721968196.050595,2.486252,242.710083,205.407745,70.327189,-82.440032,-159.638418,89.865966,25.064955,28.087193,-0.428458,-89.739973,-6.987278,1
1721968196.1637685,4.377363,242.703079,205.419601,69.346285,-82.751893,-160.42125,89.865966,25.064955,28.087193,1.186538,-89.735389,-6.745604,1
1721968196.269095,2.025144,242.704071,205.39946,71.308379,-82.083309,-160.230971,89.877712,25.064955,28.087193,-0.966809,-89.735389,-7.360846,1
1721968196.3760352,0.131622,242.703064,205.397659,71.33422,-82.047728,-160.650777,90.606686,25.065528,28.087193,0.153782,-89.735389,-7.448738,1
1721968196.4846056,-6.474276,242.491608,205.382523,71.805993,-81.800669,-161.775779,92.907341,25.066846,28.087193,3.098155,-89.735389,-7.844251,1
1721968196.5942817,-16.218641,241.748962,205.325653,73.963752,-80.753015,-163.907526,95.97066,25.071659,28.087193,6.108418,-89.726279,-9.085678,1
1721968196.7012346,-25.83197,240.41658,205.235962,76.295518,-79.275758,-166.691299,99.169426,25.083634,28.087193,9.722922,-89.721696,-10.788566,1
1721968196.8094275,-35.967007,238.520096,204.937408,78.614966,-77.459425,-168.775547,102.330835,25.14431,28.087193,12.612291,-89.721696,-12.788074,1
1721968196.9185076,-45.126404,235.854477,203.133484,82.163065,-75.295993,-172.784762,105.495224,25.544521,28.087193,16.248797,-89.652998,-15.117205,1
1721968197.0269861,-53.274021,232.292252,198.103699,87.123848,-74.81786,-178.094763,108.460796,26.710719,28.087652,19.720462,-89.543162,-15.457771,1
1721968197.1349733,-59.672333,227.493393,187.065247,97.031147,-75.724795,172.340204,111.005645,29.504576,28.088167,22.192374,-89.543162,-13.447262,1
1721968197.2437015,-63.954884,224.192032,172.90918,108.679265,-75.41408,161.110002,112.544495,33.22439,28.754403,23.609643,-89.543162,-11.909157,1
1721968197.352692,-70.39756,232.282089,162.777084,110.902341,-74.922196,160.57973,112.922418,37.487769,32.324503,22.379159,-89.543162,-12.030051,1
1721968197.4615417,-76.913376,245.470139,154.344421,108.508122,-74.737474,163.76125,112.922418,41.855254,37.307918,21.577132,-89.543162,-12.722184,1
1721968197.5700486,-78.91246,250.249756,141.682861,111.417659,-73.481322,160.931411,112.934508,46.190253,40.262489,21.64308,-89.543162,-13.194588,1
1721968197.6804416,-80.496292,248.612244,126.68557,118.289715,-72.034489,156.369923,112.955478,49.832202,41.53394,19.643572,-89.547746,-13.06275,1
1721968197.7874706,-79.134491,243.507904,114.295372,123.414994,-70.349878,152.040711,113.019649,52.708565,41.699181,19.160167,-89.872727,-12.897968,1
1721968197.8939865,-77.555214,240.25322,107.666595,125.708487,-69.374818,149.676171,113.031739,54.310612,41.703249,19.368896,-90.133652,-12.755129,1
1721968198.0038683,-77.940712,239.762115,106.58744,125.252928,-68.680508,150.777167,113.032484,54.512293,41.725308,18.830544,-90.138236,-13.458263,1
1721968198.1109345,-80.374405,240.916992,107.020683,124.195535,-68.507303,153.644592,113.032484,54.512752,42.05281,17.083768,-90.193183,-14.304178,1
1721968198.2244766,-84.42659,245.716019,109.135315,120.197493,-68.498136,159.399723,113.032484,54.515273,43.344716,15.292988,-90.38541,-15.787336,1
1721968198.331012,-87.017555,250.503723,111.4142,116.333981,-68.94235,163.59366,113.030192,54.556354,44.509596,14.842529,-90.728784,-16.42458,1
1721968198.4419973,-87.255951,249.369888,109.860847,114.046619,-69.186774,166.462116,113.021196,55.251982,44.568439,14.17234,-92.230219,-16.501471,1
1721968198.5499387,-86.288513,246.738907,108.016685,104.594018,-68.501459,175.72203,113.017587,56.721332,44.568439,14.117451,-96.748335,-17.973629,1
1721968198.6571887,-85.861084,245.469849,105.718269,104.081565,-66.653555,176.471746,113.016899,57.267132,44.568439,14.018558,-96.995567,-19.643572,1
1721968198.7638164,-85.965034,245.452255,105.713387,103.764089,-66.065414,176.919226,113.016899,57.267132,44.568439,13.919666,-96.995567,-20.269757,1
1721968198.8781364,-85.335281,245.557022,105.754227,103.410689,-65.581666,176.689011,113.016899,57.267132,44.568439,14.523907,-96.995567,-20.643326,1
1721968198.9952397,-84.850914,245.632584,105.781433,104.225377,-67.165264,175.328351,113.016899,57.267132,44.568439,14.985367,-96.995567,-18.918436,1
1721968199.1070552,-85.000122,245.609589,105.771545,104.279522,-67.21471,175.415441,113.016899,57.267132,44.568439,14.842529,-96.995567,-18.896492,1
1721968199.21305,-84.997833,245.606995,105.737526,104.276084,-67.068893,175.430338,113.016899,57.267132,44.568439,14.842529,-96.963481,-19.03933,1
1721968199.3279712,-84.993141,245.598404,105.630661,103.222186,-64.654964,176.624496,113.016899,57.267132,44.568439,14.842529,-96.858229,-21.698026,1
1721968199.431158,-85.040581,245.592911,105.646881,100.326514,-56.871562,179.968622,113.016899,57.267132,44.568439,14.809584,-96.858229,-29.454328,1
1721968199.5438817,-85.371513,245.541443,105.636932,99.16616,-51.888949,-178.285558,113.016899,57.267132,44.568439,14.501963,-96.858229,-34.573992,1
1721968199.64908,-85.610245,245.502502,105.622078,98.335658,-47.079713,-176.956812,113.016899,57.267132,44.568439,14.282234,-96.849061,-39.484871,1
1721968199.7580886,-85.782654,245.474701,105.62149,97.619862,-41.769769,-175.772909,113.016899,57.267132,44.568439,14.150396,-96.849061,-44.879154,1
1721968199.864333,-85.659592,245.495544,105.631561,97.458689,-40.458956,-175.656656,113.016899,57.267132,44.568439,14.249288,-96.849061,-46.175528,1
1721968199.972527,-85.595657,245.506821,105.641823,96.812106,-33.617668,-174.662746,113.016899,57.267132,44.568439,14.326179,-96.844478,-53.05297,1
1721968200.082102,-85.543839,245.516479,105.654396,96.365485,-27.087783,-173.85373,113.016899,57.267017,44.568439,14.39207,-96.844478,-59.732684,1
1721968200.1922395,-85.428635,245.535767,105.666267,96.147303,-22.98827,-173.475348,113.016899,57.267017,44.568439,14.512964,-96.844478,-63.709698,1
1721968200.2985015,-85.439461,245.534363,105.669205,95.985901,-19.033371,-173.025978,113.016899,57.267017,44.568439,14.512964,-96.844478,-67.68677,1
1721968200.4090817,-85.530235,245.520035,105.666656,95.871137,-15.301755,-172.546125,113.016899,57.266902,44.568439,14.436015,-96.844478,-71.455056,1
1721968200.5142272,-85.683006,245.49501,105.659714,95.75666,-9.908961,-171.85531,113.016899,57.266902,44.568439,14.304178,-96.844478,-77.200906,1
1721968200.6269019,-85.947227,245.450455,105.644295,95.713058,-5.643462,-171.185236,113.016899,57.266902,44.568439,14.062504,-96.844478,-81.309816,1
1721968200.7308939,-85.951141,245.449799,105.644226,95.701026,-4.255128,-171.046236,113.016899,57.266902,44.568439,14.062504,-96.844478,-82.639135,1
1721968200.8445382,-85.914719,245.455597,105.641571,95.687561,-0.779967,-170.744173,113.016899,57.266902,44.568439,14.10645,-96.839894,-86.330588,1
1721968200.945775,-86.262825,245.394684,105.614914,95.712256,0.930082,-170.245872,113.016899,57.266902,44.568439,13.776827,-96.83531,-87.912581,1
1721968201.0546672,-86.957466,245.267059,105.552101,95.773104,0.203916,-169.651944,113.016899,57.2661,44.568324,13.084694,-96.812449,-87.462179,1
1721968201.1633718,-87.04258,245.219223,105.225601,96.079923,1.996815,-169.377612,113.016899,57.2661,44.567923,13.007804,-96.514912,-89.154066,1
1721968201.273581,-87.002434,245.226791,105.227371,96.088632,4.016606,-169.206354,113.016899,57.2661,44.567923,13.051749,-96.514912,-91.175519,1
1721968201.3809018,-86.748062,245.274597,105.241592,96.106394,7.152748,-169.123791,113.016899,57.266043,44.567923,13.304424,-96.514912,-94.273673,1
1721968201.4890924,-86.756058,245.273483,105.240524,96.152574,10.025673,-168.812389,113.016899,57.265814,44.567923,13.304424,-96.514912,-97.1631,1
1721968201.594908,-86.823502,245.261505,105.237869,96.146501,9.497692,-168.803622,113.016899,57.265585,44.567923,13.238534,-96.514912,-96.64675,1
1721968201.7041774,-87.097839,245.210739,105.223915,96.157902,9.297558,-168.560001,113.016899,57.265126,44.567923,12.974858,-96.514912,-96.503912,1
1721968201.8122656,-87.34919,245.162415,105.209938,96.170679,9.24433,-168.322567,113.016899,57.265012,44.567923,12.733128,-96.514912,-96.503912,1
1721968201.9206533,-87.464989,245.140701,105.205093,96.184316,9.678747,-168.164431,113.016899,57.264611,44.567923,12.623292,-96.514912,-96.965315,1
1721968202.0296495,-87.605469,245.114304,105.199486,96.211761,10.741755,-167.914564,113.016899,57.263808,44.567923,12.480453,-96.514912,-98.063961,1
1721968202.1384873,-87.964348,245.114456,105.41748,96.095221,10.933009,-167.60213,113.018446,57.233155,44.567923,12.183833,-96.629332,-98.327636,1
1721968202.2471955,-88.377884,246.012878,107.424164,95.528623,10.803979,-167.693058,113.019764,56.836668,44.56947,12.172832,-96.784947,-98.27269,1
1721968202.3553605,-90.127693,249.670532,115.450966,93.788321,11.458755,-167.801634,113.019993,55.099747,44.5701,12.030051,-96.807866,-99.283445,1
1721968202.4632237,-91.436676,252.944794,123.033173,92.205067,12.019566,-168.173598,113.019993,53.468937,44.5701,12.128886,-96.762086,-100.14036,1
1721968202.575397,-91.451797,253.074753,122.812813,92.665209,12.410495,-168.099515,113.019993,53.397375,44.569871,12.150888,-96.24482,-100.546874,1
1721968202.6801674,-91.491676,253.066483,122.809547,92.688185,14.369782,-167.972547,113.020108,53.397375,44.569871,12.117943,-96.24482,-102.513437,1
1721968202.7861376,-91.783035,253.004898,122.755287,92.777681,17.344349,-167.540193,113.020108,53.397375,44.569871,11.843267,-96.208208,-105.534643,1
1721968202.89566,-91.920135,252.969971,122.588234,92.983774,20.053523,-167.219394,113.020108,53.397489,44.569871,11.711429,-96.061703,-108.270288,1
1721968203.002573,-91.932938,252.965057,122.564354,93.026287,21.170676,-167.139409,113.020108,53.397948,44.569757,11.700428,-96.043368,-109.390878,1
1721968203.1112528,-91.935684,252.96257,122.554665,93.063186,22.640771,-167.053466,113.020108,53.398521,44.569642,11.700428,-96.038842,-110.863036,1
1721968203.2215676,-92.167946,252.911926,122.536339,93.123976,24.60298,-166.713816,113.020108,53.398807,44.569642,11.469698,-96.034258,-112.928492,1
1721968203.3310773,-92.628563,252.809845,122.51442,93.203732,26.903577,-166.127795,113.020108,53.398922,44.569527,11.04124,-96.034258,-115.235564,1
1721968203.438204,-93.124237,252.696091,122.490746,93.319068,30.010326,-165.447694,113.020108,53.398922,44.56947,10.568837,-96.034258,-118.520503,1
1721968203.5464814,-93.060402,252.710495,122.489326,93.386792,32.016824,-165.377908,113.020108,53.399036,44.56947,10.634784,-96.034258,-120.421118,1
1721968203.6582806,-93.050446,252.712265,122.488243,93.414065,32.753362,-165.337342,113.020108,53.399036,44.569356,10.645728,-96.034258,-121.157254,1
1721968203.7646875,-93.416893,252.625763,122.471756,93.492675,34.342976,-164.864423,113.020108,53.399036,44.569241,10.294218,-96.034258,-122.805195,1
1721968203.8719838,-93.795601,252.534302,122.454063,93.607495,36.599455,-164.323322,113.020108,53.399036,44.569241,9.93165,-96.034258,-125.123268,1
1721968203.9805236,-94.162086,252.443344,122.437126,93.729593,38.76959,-163.789038,113.020108,53.399036,44.569241,9.580084,-96.034258,-127.353506,1
1721968204.0917566,-94.604286,252.330597,122.420586,93.789696,39.556892,-163.284721,113.020108,53.399036,44.569241,9.151626,-96.034258,-128.210479,1
1721968204.1991978,-94.748268,252.293289,122.418564,93.720998,38.141972,-163.257792,113.020108,53.399036,44.569241,8.997787,-96.034258,-126.705319,1
1721968204.3051655,-94.865181,252.262939,122.421326,93.559596,34.581383,-163.415184,113.020108,53.399036,44.569241,8.887951,-96.034258,-123.266598,1
1721968204.4131596,-94.877419,252.260132,122.429062,93.377338,29.763668,-163.736727,113.020108,53.399036,44.569241,8.865949,-96.034258,-118.443612,1
1721968204.5222704,-94.860283,252.265182,122.440239,93.170902,22.35985,-164.206324,113.020108,53.399036,44.569241,8.865949,-96.034258,-111.027819,1
1721968204.632841,-94.684067,252.311707,122.454147,93.03173,15.01201,-164.779568,113.020108,53.399036,44.569241,9.019788,-96.034258,-103.645028,1
1721968204.7416823,-94.549179,252.346954,122.464775,92.945042,6.636112,-165.332816,113.020108,53.399036,44.569241,9.129624,-96.034258,-95.240482,1
1721968204.8483896,-94.045975,252.474503,122.484207,92.910263,0.335524,-166.125274,113.020108,53.399036,44.569241,9.602028,-96.034258,-88.857446,1
1721968204.9564772,-93.499512,252.607773,122.503349,92.928139,-8.845895,-167.094088,113.020108,53.399036,44.569241,10.107434,-96.034258,-79.584984,1
1721968205.0631201,-93.181404,252.682739,122.511116,93.018781,-17.227523,-167.820885,113.020108,53.399036,44.569241,10.393053,-96.034258,-71.147435,1
1721968205.1782753,-92.818512,252.765961,122.517578,93.179668,-25.436977,-168.619302,113.020108,53.399036,44.569241,10.733619,-96.034258,-62.204595,1
1721968205.2808802,-92.172836,252.908478,122.532982,93.399684,-33.076109,-169.709068,113.020108,53.399036,44.569241,11.326917,-96.034258,-55.129369,1
1721968205.3928244,-91.78553,252.990433,122.541611,93.576384,-37.571134,-170.394497,113.020108,53.399036,44.569241,11.689428,-96.034258,-50.570057,1
1721968205.5000553,-91.594795,253.029266,122.534195,94.082191,-46.151063,-171.320855,113.020108,53.399036,44.569241,11.854268,-96.034258,-41.945782,1
1721968205.6067085,-91.329002,253.082657,122.530441,94.712273,-53.267371,-172.393489,113.020108,53.399036,44.569241,12.095941,-96.034258,-34.77172,1
1721968205.7153544,-90.862556,253.174088,122.538826,95.311873,-58.180484,-173.567423,113.020108,53.399036,44.569241,12.5354,-96.034258,-29.77295,1
1721968205.8213081,-89.699768,253.38681,122.582878,95.688879,-61.053638,-175.135436,113.020108,53.399036,44.569241,13.645047,-96.034258,-26.718741,1
1721968205.931019,-88.940956,253.512314,122.593445,97.541653,-68.795157,-177.899156,113.020108,53.399036,44.569241,14.359124,-96.029675,-18.819601,1
1721968206.0395548,-89.074821,253.490265,122.578156,98.950212,-72.196235,-179.259415,113.020108,53.399036,44.569241,14.227287,-96.029675,-15.402824,1
1721968206.1494873,-89.309647,253.450729,122.549034,104.214262,-78.790921,175.544815,113.020108,53.399036,44.569241,13.996557,-96.029675,-8.712167,1
1721968206.257985,-89.133644,253.47937,122.543617,115.190472,-83.581021,164.283157,113.020108,53.398922,44.569241,14.161397,-96.029675,-3.625505,1
1721968206.3641067,-89.214165,253.466125,122.53997,115.097882,-83.550482,164.453154,113.020108,53.398922,44.569241,14.084449,-96.029675,-3.669451,1
1721968206.4750075,-90.877037,253.167511,122.464272,118.489391,-84.122122,162.632924,113.020108,53.398922,44.569126,12.491454,-96.029675,-3.240993,1
1721968206.5823605,-91.208473,253.101959,122.449799,119.306257,-84.245709,162.129925,113.020108,53.398922,44.569012,12.172832,-96.029675,-3.142101,1
1721968206.691071,-91.05983,253.131378,122.456032,119.148522,-84.22915,162.14591,113.020108,53.398922,44.569012,12.315671,-96.029675,-3.142101,1
1721968206.7996655,-91.173668,253.107498,122.450821,118.903811,-84.17449,162.501545,113.020108,53.398922,44.568668,12.205835,-96.029675,-3.218991,1
1721968206.9097226,-89.808578,253.362,122.509903,117.313739,-83.982664,162.794498,113.019764,53.398922,44.568439,13.51321,-96.029675,-3.262937,1
1721968207.0165997,-89.681801,253.384186,122.51564,117.187574,-83.968512,162.800572,113.019649,53.398922,44.568439,13.634046,-96.029675,-3.262937,1
1721968207.126697,-90.459648,253.240326,122.478973,117.97963,-84.05543,162.750094,113.019535,53.398922,44.567465,12.886967,-96.029675,-3.262937,1
1721968207.2360923,-90.333229,253.262848,122.484077,117.853465,-84.041106,162.756339,113.019535,53.398922,44.567236,13.007804,-96.029675,-3.262937,1
1721968207.344496,-90.332863,253.261993,122.483658,117.855069,-84.040991,162.754735,113.019535,53.398922,44.567006,13.007804,-96.029675,-3.262937,1
1721968207.4533582,-90.44709,253.239914,122.478218,117.972869,-84.053711,162.746026,113.019535,53.398922,44.566835,12.897968,-96.029675,-3.262937,1
1721968207.5627983,-90.561279,253.217621,122.472816,118.090899,-84.06643,162.737031,113.019535,53.398922,44.566605,12.788074,-96.029675,-3.262937,1
1721968207.6710393,-90.561096,253.217194,122.472603,118.091701,-84.066373,162.736229,113.019535,53.398922,44.566491,12.788074,-96.029675,-3.262937,1
1721968207.7780876,-90.457443,253.235229,122.476463,117.989313,-84.05457,162.740468,113.019535,53.398922,44.566147,12.886967,-96.029675,-3.262937,1
1721968207.8879652,-90.433983,253.23822,122.476837,117.968515,-84.051763,162.739494,113.019535,53.398922,44.565803,12.908911,-96.029675,-3.262937,1
1721968207.9977188,-90.456711,253.233536,122.475624,117.992579,-84.054284,162.73726,113.019535,53.398922,44.565689,12.886967,-96.029675,-3.262937,1
1721968208.1071494,-90.456711,253.233536,122.475624,117.992579,-84.054284,162.73726,113.019535,53.398922,44.565689,12.886967,-96.029675,-3.262937,1
1721968208.2106304,-90.330109,253.255615,122.480553,117.818056,-84.030162,162.792092,113.019535,53.398922,44.565402,13.007804,-96.029675,-3.273938,1
1721968208.319249,-90.261154,253.267822,122.483368,117.749416,-84.02237,162.795243,113.019535,53.398922,44.565288,13.073751,-96.029675,-3.273938,1
1721968208.4290347,-90.226776,253.274109,122.484978,117.569221,-83.98931,162.943525,113.019535,53.398922,44.565288,13.106696,-96.029675,-3.306883,1
1721968208.5382936,-90.111748,253.294083,122.489677,117.408391,-83.966507,162.995549,113.019535,53.398922,44.565058,13.216532,-96.029675,-3.317884,1
1721968208.644614,-89.927788,253.326355,122.492752,117.265553,-83.943703,162.963979,113.019535,53.398922,44.564944,13.392316,-96.025091,-3.317884,1
1721968208.7680504,-89.881889,253.334473,122.49485,117.172848,-83.928749,163.013311,113.019535,53.398922,44.564944,13.436261,-96.025091,-3.328885,1
1721968208.8773599,-89.881889,253.334473,122.49485,117.172848,-83.928749,163.013311,113.019535,53.398922,44.564944,13.436261,-96.025091,-3.328885,1
1721968208.9848323,-89.881889,253.334473,122.49485,117.172848,-83.928749,163.013311,113.019535,53.398922,44.564944,13.436261,-96.025091,-3.328885,1
1721968209.0941086,-89.835976,253.342575,122.496918,117.127528,-83.923592,163.01503,113.019535,53.398922,44.564944,13.480207,-96.025091,-3.328885,1
1721968209.2040925,-89.767105,253.354645,122.500038,117.059575,-83.9158,163.017494,113.019535,53.398922,44.564944,13.546155,-96.025091,-3.328885,1
1721968209.3101175,-89.468307,253.405609,122.513481,116.76708,-83.88211,163.026374,113.019535,53.398922,44.564829,13.831774,-96.025091,-3.328885,1
1721968209.419104,-89.444733,253.408508,122.509193,116.784498,-83.877354,162.987184,113.019535,53.398922,44.5646,13.853776,-96.020507,-3.328885,1
1721968209.5272682,-89.444733,253.408508,122.509193,116.784498,-83.877354,162.987184,113.019535,53.398922,44.5646,13.853776,-96.020507,-3.328885,1
1721968209.6346853,-89.44455,253.408081,122.508987,116.7853,-83.877297,162.986382,113.019535,53.398922,44.564485,13.853776,-96.020507,-3.328885,1
1721968209.7435038,-89.43306,253.410019,122.509521,116.77407,-83.875979,162.986726,113.019535,53.398922,44.564485,13.864719,-96.020507,-3.328885,1
1721968209.8541224,-89.318138,253.429337,122.514847,116.661713,-83.863088,162.989992,113.019535,53.398922,44.564485,13.974613,-96.020507,-3.328885,1
1721968209.960667,-89.317955,253.428909,122.514633,116.662515,-83.862973,162.989189,113.019535,53.398922,44.564371,13.974613,-96.020507,-3.328885,1
1721968210.0684202,-89.202995,253.447998,122.519997,116.550387,-83.850081,162.992226,113.019535,53.398922,44.564371,14.084449,-96.020507,-3.328885,1
1721968210.1775613,-89.156998,253.455582,122.522148,116.505639,-83.844925,162.993372,113.019535,53.398922,44.564371,14.128394,-96.020507,-3.328885,1
1721968210.2840047,-89.1455,253.457474,122.52269,116.494466,-83.843607,162.993601,113.019535,53.398922,44.564371,14.139395,-96.020507,-3.328885,1
1721968210.3942082,-89.1455,253.457474,122.52269,116.494466,-83.843607,162.993601,113.019535,53.398922,44.564371,14.139395,-96.020507,-3.328885,1
1721968210.5020285,-89.1455,253.457474,122.52269,116.494466,-83.843607,162.993601,113.019535,53.398922,44.564371,14.139395,-96.020507,-3.328885,1
1721968210.6108644,-89.133766,253.459198,122.518295,116.521453,-83.840284,162.955729,113.019535,53.398922,44.564371,14.150396,-96.015924,-3.328885,1
1721968210.7209194,-89.122086,253.460663,122.518631,116.511082,-83.838909,162.955213,113.019535,53.398922,44.564256,14.161397,-96.015924,-3.328885,1
1721968210.829554,-89.122086,253.460663,122.518631,116.511082,-83.838909,162.955213,113.019535,53.398922,44.564256,14.161397,-96.015924,-3.328885,1
1721968210.9386907,-89.122086,253.460663,122.518631,116.511082,-83.838909,162.955213,113.019535,53.398922,44.564256,14.161397,-96.015924,-3.328885,1
