BAEK26/lfd/original_data/interpolated_trajectory_clean.csv
timestamp,x,y,z,roll,pitch,yaw,joint1,joint2,joint3,joint4,joint5,joint6
0.0,263.5002543333333,193.98468033333333,254.50076266666667,-173.74826700000003,-84.79305533333333,17.309303333333332,39.620891,25.963792333333334,52.70075333333333,19.119868666666665,-59.18732333333333,-7.877195666666666
100.0,263.18689575023694,194.1509489550263,255.0981642733907,-175.01027798794402,-84.86817038609614,17.28121273054663,39.67089003583406,25.82731527872329,52.677570572071325,19.03653984510228,-59.1553330460112,-7.869437364520252
200.0,262.9724720660832,194.26422283835998,255.50592496276323,-175.85855775906356,-84.9188030666882,17.2463511941838,39.705101162246834,25.73396315069185,52.66165231717274,18.9800413909091,-59.13295876549254,-7.862880011823581
300.0,262.84600157291567,194.33037550063372,255.7451920343419,-176.33854164567254,-84.94769887416557,17.20491681679033,39.72527864228513,25.67893649021177,52.65219258941203,18.947408454231073,-59.11915880205844,-7.857353563822981
400.0,262.7965025627777,194.35528045914668,255.83711278768433,-176.4956649800848,-84.95760330758426,17.157107690911733,39.73317673899578,25.657435838255804,52.648385409563645,18.935676185212134,-59.11289146599005,-7.852687975764775
500.0,262.81299332771255,194.34481123119795,255.80283452234795,-176.37536309461402,-84.95126186600027,17.103121909093485,39.73054971542557,25.66466173579668,52.649424798401995,18.941879733996227,-59.1131150675684,-7.848713202895286
600.0,262.88449215976385,194.30484133408675,255.6635045378905,-176.02307132157424,-84.93142004846958,17.043157563881103,39.71915183462132,25.695814723807167,52.654504776701536,18.963054250727293,-59.11878791707463,-7.845259200460847
700.0,263.0000173509748,194.2412442851121,255.44027013386932,-175.48422499327904,-84.9008233540482,16.977412747820058,39.70073735962982,25.746095343259984,52.66281936523666,18.996234885549253,-59.12886832478979,-7.842155923707771
800.0,263.1485871933889,194.15989360157334,255.15427860984218,-174.8042594420424,-84.86221728179211,16.906085553455863,39.677060553497896,25.8107041351279,52.67356258478183,19.03845678860607,-59.142314600995014,-7.839233327882387
900.0,263.3192199790495,194.06666280076962,254.82667726536653,-174.02861000017813,-84.8183473307574,16.829374073334016,39.64987567927237,25.88484164038366,52.68592845611146,19.086755110041672,-59.158085055971384,-7.836321368231024
1000.0,263.50093400000003,193.96742540000002,254.47861339999994,-173.20271200000002,-84.771959,16.7474764,39.62093700000001,25.9637084,52.699110999999995,19.138165,-59.17513799999999,-7.83325
1100.0,263.682747548284,193.86805491656378,254.13123431330018,-172.37200077382195,-84.72579778857593,16.66059062599932,39.59199877872767,26.04250495494968,52.712304237221865,19.189721608625,-59.19243174336194,-7.829849178435645
1200.0,263.8536789159446,193.77442486776002,253.80568730482446,-171.5819116539577,-84.68260919554119,16.56891484387747,39.56481527850213,26.116431846205433,52.724702188551504,19.238460086060606,-59.20892459633829,-7.82594885878428
1300.0,264.0027463950254,193.69240877088794,253.52311967413073,-170.8778799727211,-84.64513871995183,16.47264714617995,39.54114076237022,26.180689614740025,52.735498874763344,19.281415582450755,-59.223574869210196,-7.821378996292232
1400.0,264.1189682775697,193.62788014324673,253.30467872077625,-170.3053410624259,-84.61613186086379,16.37198562545224,39.522729493378726,26.230478801526182,52.74388831663181,19.31562324793939,-59.2353408722587,-7.815969546205823
1500.0,264.1913628556209,193.58671250213544,253.1715117443187,-169.90973025538602,-84.59833411733308,16.267128374239846,39.51133573457446,26.260999947536657,52.74906453493132,19.338118232670446,-59.24318091576491,-7.80955046377138
1600.0,264.2089484212225,193.57477936485336,253.14476604431573,-169.73648288391533,-84.59449098841576,16.158273485088273,39.50871374900425,26.267453593744204,52.75022155043635,19.34593568678787,-59.246053310009955,-7.801951704235226
1700.0,264.16074326641774,193.59795424869958,253.24558892032474,-169.83103428032751,-84.60734797316775,16.045619050543,39.51661779971488,26.24504028112156,52.74655338392129,19.336110760435595,-59.242916365274866,-7.793003222843685
1800.0,264.03576568325013,193.66211067097333,253.49512767190345,-170.2388197769365,-84.63965057064513,15.929363163149537,39.53680214975318,26.18896055064148,52.737254056160594,19.305678603757567,-59.23272839184079,-7.782534974843086
1900.0,263.8230339637631,193.77312214897378,253.91452959860936,-171.00527470605607,-84.69414427990388,15.80970391545337,39.571021062165954,26.09441494327671,52.72151758792869,19.251674366897724,-59.214447699988796,-7.77037691547975
2000.0,263.5115664,193.9368622,254.52494200000004,-172.17583440000004,-84.7735746,15.6868394,39.621028800000005,25.956604,52.698538000000006,19.1711332,-59.187032599999995,-7.756359000000002
2100.0,263.10064660592747,194.1532454580688,255.3375010066088,-173.75021969156842,-84.87902657905016,15.560880884456092,39.68682684985533,25.773373303428002,52.6683147960412,19.063853658547735,-59.149452141991034,-7.741156846237174
2200.0,262.63061948320535,194.3983510240667,256.3232980728721,-175.54529341550597,-85.00494346141366,15.431592336972995,39.76140559254471,25.55314860275308,52.63406941128791,18.940687919381837,-59.10071833542089,-7.728828722372636
2300.0,262.1520952554165,194.642299115598,257.4434134842021,-177.33220390704346,-85.14410804051052,15.298650900823233,39.83600263243409,25.30700068881149,52.59982876386795,18.815251564682605,-59.039853929584076,-7.724278559174766
2400.0,261.71568414614393,194.85520995026673,258.6589275260108,-178.88209950141186,-85.28930310976067,15.161733719279324,39.90185557388942,25.046000352439492,52.569619771909146,18.701160176630335,-58.96588167377512,-7.732410287411939
2500.0,261.3719963789708,195.00720374567715,259.93092048371057,-179.96612853384198,-85.4333114625841,15.02051793561379,39.95020202127665,24.781218384473362,52.547469353539356,18.61202933740534,-58.87782431728855,-7.7581278378525305
2600.0,261.17164217747995,195.06840071943338,261.22047264271356,-180.35543933956478,-85.56891589240082,14.874680693099155,39.97227957896177,24.523725575749367,52.53740442688642,18.56147462918792,-58.774704609418905,-7.806335141264922
2700.0,261.1652317652545,195.0089210891397,262.4886642884318,-179.82118025381112,-85.68889919263079,14.72389913500794,39.95932585131071,24.28459271710377,52.5434519100782,18.563111634158375,-58.6555452994607,-7.881936128417489
2800.0,261.4033753658773,194.79888507240008,263.69657570627754,-178.1344996118118,-85.78604415669399,14.56785040461266,39.90257844268942,24.07489059937283,52.56963872124249,18.630555934497004,-58.51936913670846,-7.989834730078606
2900.0,261.9366832029315,194.4084128868188,264.8052871816629,-175.06654574879784,-85.8531335780104,14.40621164518584,39.793274957463865,23.90569001339282,52.61999177850714,18.777423112384113,-58.36519887045673,-8.13493487701665
3000.0,262.8157655,193.80762475,265.775879,-170.388467,-85.88295025,14.23866,39.622653,23.78806175,52.698538,19.01732875,-58.192057250000005,-8.3221405
3100.0,264.04329296230605,192.98895408721117,266.5846702684647,-163.98926442410448,-85.87124271657343,14.074319312576314,39.389195620651016,23.7251193475883,52.80368404341332,19.350173239234067,-57.999803307223885,-8.550149480315666
3200.0,265.4301782216342,192.03408715437325,267.26893538128724,-156.22934997361872,-85.82562252360414,13.96010022743055,39.12036765371905,23.688147334782247,52.91135552469689,19.72099621081207,-57.791641204378124,-8.79283550132518
3300.0,266.7393943914088,191.0470234150703,267.8811875544613,-147.5869883245053,-85.75666696745617,13.952360089327128,38.85087937949347,23.640472987764035,52.99185779936493,20.061122105168863,-57.57161138630351,-9.017866196908715
3400.0,267.73391458505455,190.1317623328865,268.47394000398054,-138.54044415272685,-85.67495334449357,14.107456243030468,38.61544107826363,23.54542358271585,53.015496222931645,20.30187536273929,-57.34375429784082,-9.192909200946431
3500.0,268.176711915996,189.392303371406,269.09970594583905,-129.56798213424608,-85.59105895108048,14.481746033304987,38.44876303031892,23.366326395819883,52.95257615091124,20.37458042395821,-57.11211038383086,-9.285632147318498
3600.0,267.83075949765777,188.9326459942131,269.81099859603034,-121.14786694502561,-85.51556108358096,15.13158680491511,38.38555551594868,23.06650870325833,52.77340293881796,20.210561729260473,-56.88072008911445,-9.26370266990509
3700.0,266.4590304434645,188.85678966489186,270.66033117054826,-113.75836326102812,-85.45903703835907,16.113335902625252,38.460528815442316,22.609297781213375,52.448281942165984,19.74114371908093,-56.65362385853236,-9.094788402586367
3800.0,263.82449786684066,189.2687338470265,271.7002168853867,-107.87773575821626,-85.4320641117789,17.483350671199833,38.70839320908916,21.95802090586721,51.94751851646952,18.89765083385444,-56.434862136925396,-8.746556979242499
3900.0,259.69013488121095,190.27247800420113,272.9831689565393,-103.98424911255265,-85.44521960020451,19.297988455403278,39.16385897717859,21.076005353402017,51.241418017242786,17.61140751401584,-56.22847536913434,-8.186676033753654
4000.0,253.81891459999994,191.9720216,274.56170059999994,-102.55616799999999,-85.5090808,21.6136066,39.861636399999995,19.926578399999997,50.3002858,15.813738199999994,-56.038504,-7.382813199999998
4100.0,246.03840848154798,194.43337891133643,276.45232208813223,-103.90838761401355,-85.62867569520606,24.459826766438656,40.83174147234058,18.493091699068806,49.10784520750555,13.470556783765998,-55.870436786063415,-6.317353100600167
4200.0,236.4345813638579,197.57062346844037,278.52753191877906,-107.70232521801918,-85.78683502056978,27.75932788290481,42.08541304697908,16.838994412917945,47.701491531524574,10.686134963369888,-55.73555573066665,-5.031548313126642
4300.0,225.1579964298483,201.25984361487102,280.623825646153,-113.43602859293543,-85.96084019851486,31.408053194268266,43.62919569119204,15.047760081082389,46.132038051072385,7.599333888391966,-55.64659114885195,-3.581368403890385
4400.0,212.35921686243785,205.37712769418746,282.5776988244669,-120.60754551968077,-86.127972651465,35.30194594539882,45.46963397225605,13.202862243097115,44.45029804516431,4.349014708412511,-55.61627335566164,-2.02278293920234
4500.0,198.18880584454521,209.7985640499488,284.2256470079334,-128.71492377917366,-86.26551380184395,39.336949381166264,47.61327245744765,11.387774438497104,42.70708479281565,1.0740385730118271,-55.65733266613799,-0.41176148537346907
4600.0,182.79732655908896,214.4002410257143,285.4041657507653,-137.2562111523327,-86.35074507207536,43.40900674644041,50.06665571404346,9.685970206817322,40.95321157304175,-2.086733368229804,-55.78249939532331,1.1957263912852811
4700.0,166.3353421889877,219.05824696504305,285.94975060717513,-145.72945542007636,-86.36094788458298,47.414061286091076,52.83632830932004,8.180923087592745,39.239491664857916,-4.994439965732098,-56.00450385825989,2.743711124462957
4800.0,148.95341591716002,223.6486702114941,285.69889713137576,-153.6327043633231,-86.27340366179047,51.248056244988014,55.92883481055393,6.956106620358351,37.616738347279465,-7.5102200699147525,-56.336076369989996,4.176223147848604
4900.0,130.80211092652456,228.0475991086267,284.48810087757977,-160.46400576299146,-86.06539382612158,54.806934868001065,59.350719785021724,6.094994344649109,36.13576489932172,-9.495212531197485,-56.78994724555594,5.437292895131271
5000.0,112.0319904,232.131122,282.1538574,-165.72140739999998,-85.71419979999999,57.9866404,63.108527800000005,5.6810598,34.8473846,-10.8105562,-57.3788468,6.470950800000001
5100.0,92.80536096210194,235.8003906707431,278.5835493098562,-169.02888395889124,-85.20511607535235,60.70718811651908,67.19356435703662,5.775593867186482,33.79268992916449,-11.35869669734807,-58.10996070487243,7.236346129216333
5200.0,73.33150300373428,239.05681067226527,273.8681074463966,-170.5141177387045,-84.55548942211679,62.98488141575022,71.53617869476463,6.351156791945983,32.97389017000483,-11.207306726691643,-58.968296057755325,7.753103481831758
5300.0,53.83144035739801,241.92685099754576,268.14934970587666,-170.43071794210303,-83.79067967973447,64.86009572654984,76.0514809860884,7.35812616125641,32.383473806545545,-10.465365762086739,-59.93331531273871,8.055966289970254
5400.0,34.52619685559393,244.4369806395638,261.5690939845517,-169.03229377175012,-82.93604668764641,66.37320647777429,80.6545814039122,8.74687956209568,32.01392932281114,-9.241853277589362,-60.984480923912635,8.179677985755802
5500.0,15.636796330823131,246.61366859129873,254.26915817867723,-166.5724544303092,-82.01695028529379,67.56458909827995,85.26059012114044,10.467794581441698,31.857745202826127,-7.645748747255535,-62.10125534536714,8.158982001312378
5600.0,-2.615737384413534,248.48338384572978,246.39136018450859,-163.30480912044354,-81.05875031211767,68.47461901692324,89.78461731067746,12.471248806272381,31.907409930615035,-5.786031645141265,-63.26310103119228,8.028621768763966
5700.0,-20.01038045761514,250.07259539583615,238.07751789830118,-159.48296704481643,-80.08680660755913,69.14367166256051,94.14177314542758,14.707619823565643,32.15541199020236,-3.7716814453025633,-64.44948043547811,7.823340720234543
5800.0,-36.3261090562807,251.40777223459716,229.46944921631032,-155.36053740609128,-79.12647901105926,69.61212246404813,98.24716779829515,17.12728522029939,32.59423986561262,-1.711677621795444,-65.63985601231462,7.577882287848087
5900.0,-51.34189934790929,252.51538335499203,220.7089720347915,-151.19112940693137,-78.20312736205919,69.92034685024251,102.0159114421845,19.68062258345154,33.216382040870336,0.2850003513240813,-66.81369021579192,7.32698990372858
6000.0,-64.8367275,253.42189774999997,211.93790425,-147.22835225,-77.34211150000002,70.10872025,105.36311425000001,22.318009500000002,34.01432700000001,2.1093729999999997,-67.95044550000001,7.105407
6100.0,-76.64724665285574,254.15237936114116,203.28841374659314,-143.6991598571714,-76.5643752416846,70.21986141723507,108.22531432526294,24.991793615485264,34.97546492963651,3.6748127118262617,-69.03242084374686,6.942654961934838
6200.0,-86.84081783799503,254.72627192409857,194.85406836283465,-140.72388502716285,-75.87319831336309,70.30536240609432,110.62476149396242,27.662202809698133,36.06679282685612,4.984099320996664,-70.05326132471211,6.847366987399617
6300.0,-95.54247905974022,255.16161412309597,186.71878592539048,-138.39620527790257,-75.26744441864739,70.41905859578243,112.60513351270448,30.29143502099198,37.25020939134546,6.062364523354966,-71.00944854529325,6.822954227409375
6400.0,-102.87726832241364,255.47644464235722,178.96648426092622,-136.80979812731874,-74.74597726114935,70.61478536550408,114.21010813809521,32.84168818772018,38.48761332279116,6.934740014744925,-71.89746410788786,6.8728278329791435
6500.0,-108.97022363033767,255.68880216610614,171.6810811961076,-136.05834109333955,-74.30766054448095,70.94637809446391,115.48336312674061,35.27516024823611,39.74090332087984,7.626357491010301,-72.71378961489346,7.000398955123958
6600.0,-113.94638298783471,255.81672537856664,164.94649455760046,-136.23551169389327,-73.95135797225409,71.46767216186667,116.46857623524676,37.554049140893156,40.97197808529814,8.162348647994854,-73.45490666870758,7.20907874485886
6700.0,-117.93078439922711,255.87825296396247,158.84664217207035,-137.43498744690797,-73.67593324808065,72.23250294691698,117.20942522021973,39.64055280404469,42.14273631573268,8.567845181542342,-74.11729687172777,7.5022783531988795
6800.0,-121.04846586883721,255.8914236065174,153.4654418661831,-139.75044587031186,-73.48025007557253,73.29470582881952,117.74958783826557,41.49686917604409,43.21507671187008,8.867978787496522,-74.69744182635154,7.883408931159052
6900.0,-123.42446540098739,255.87427599045526,148.8868114666044,-143.27556448203313,-73.36317215834168,74.70811618677895,118.13274184599031,43.08519619524474,44.15089797339698,9.087881161701155,-75.19182313497643,8.355881629754414
7000.0,-125.183821,255.84484879999997,145.1946688,-148.1040208,-73.3235632,76.5265694,118.40256500000001,44.3677318,44.9120988,9.252683999999999,-75.5969224,8.923107599999998
7100.0,-126.44207560797894,255.81760573434224,142.43936709332155,-154.18926465537325,-73.35680714060926,78.75285907409068,118.59686940366164,45.31996998117246,45.4713219310895,9.382675926243017,-75.91159544184015,9.57682429304432
7200.0,-127.27679191815417,255.7927105525406,140.53700117466485,-160.92383513224422,-73.44436886603089,81.18561172027253,118.73000454738576,45.9705889396615,45.84418626497072,9.478773276304983,-76.1441949529963,10.262074360569779
7300.0,-127.75603756153717,255.76675202862043,139.3701012724116,-167.56004362793678,-73.56423349857609,83.5724120761705,118.81045426834376,46.361562928875706,46.05705473967266,9.537049314066874,-76.3054478439883,10.912226754392258
7400.0,-127.94788016913941,255.73631893660726,138.8211976149435,-173.3502015397749,-73.69438616055618,85.66084487940945,118.84670240370708,46.53486620222364,46.13629029322427,9.55357730340966,-76.40608102533594,11.460650426327634
7500.0,-127.92038737197237,255.69800005052647,138.77282043064224,-177.54662026508248,-73.8128119742824,87.19849486761434,118.8472327906472,46.53247301311387,46.10825586365453,9.524430508214326,-76.45682140755905,11.840714328191785
7600.0,-127.74162680104756,255.64838414440362,139.1074999478897,-179.40161120118347,-73.89749606206604,87.93294677841011,118.82052926633557,46.39635761495501,45.999314388992445,9.445682192361847,-76.46839590117742,11.985787411800596
7700.0,-127.47966608737643,255.58405999226414,139.70776639506747,-178.1674857454018,-73.92642354621836,87.61178534942164,118.77507566794358,46.168494261155615,45.83582880726698,9.3134056197332,-76.4515314167109,11.829238628969943
7800.0,-127.20257286197047,255.50161636813337,140.4561500005573,-173.0965552950614,-73.87757954905061,85.98259531827385,118.71935583264269,45.890857205124256,45.64416205650709,9.123674054209356,-76.41695486467927,11.304436931515706
7900.0,-126.97841475584117,255.39764204603685,141.23518099274088,-163.44113124748617,-73.72894919287407,82.79296142259166,118.66185359760436,45.60542070026952,45.45067707474177,8.872560759671297,-76.37539315560237,10.344751271253765
8000.0,-126.8752594,255.26872580000003,141.92738960000003,-148.453525,-73.45851760000001,77.7904684,118.6110528,45.354159,45.2817368,8.556138999999998,-76.33757320000001,8.8835506
8100.0,-126.9449380399285,255.11295861943984,142.4387079621707,-127.71885051758565,-73.04280268977833,70.80648836525224,118.57370966594054,45.17044203372489,45.1582532560055,8.173562571001664,-76.31162973419258,6.873864889487884
8200.0,-127.17433637898831,254.93444035533918,142.768675864906,-102.15343203586039,-72.45245356971343,62.00754294161557,118.54966997729468,45.05322243485587,45.079334809261,7.7363073961834035,-76.2953287977027,4.347368191121269
8300.0,-127.53410373501119,254.73877307407244,142.9402350053133,-73.00639635810039,-71.6566521443483,51.64394112948564,118.53705190487061,44.992848512805246,45.038638911963936,7.258929930977547,-76.28384425585358,1.3553955762216015
8400.0,-127.99488942582879,254.53155884201382,142.97632708049994,-41.526870287581716,-70.62458031822597,39.9659919292581,118.53397361947654,44.97966857698532,45.02982301631178,6.755986630816429,-76.2723499739684,-2.050717883889674
8500.0,-128.52734276927285,254.31839972553786,142.89989378757332,-8.963980627580542,-69.32541999588946,27.224004341328637,118.53855329192059,45.00403093680841,45.04654457450201,6.242033951132387,-76.2560198173704,-5.8196371178911015
8600.0,-129.1021130831751,254.1048977910189,142.73387682364088,23.433145818627075,-67.7283530818818,13.66828736609289,118.54890909301105,45.056283901686854,45.08246103873208,5.731628347357756,-76.23002765138277,-9.900027054461244
8700.0,-129.68984968536722,253.8966551048313,142.50121788580998,54.41538224776508,-65.80256148074602,-0.45084999605353104,118.56315919355603,45.12677578103291,45.131229861199444,5.239326274924866,-76.18954734132873,-14.240552622278656
8800.0,-130.26120189368098,253.69927373334934,142.22485867118792,82.73360185655729,-63.51722709702511,-14.8830987447149,118.5794217643637,45.20585488425892,45.18650849410158,4.779684189266054,-76.12975275253145,-18.789878750021884
8900.0,-130.78681902594798,253.51835574294745,141.92774087688215,107.13867784172763,-60.841531835262096,-29.378149879495613,118.59581497624231,45.28386952077718,45.241954389635936,4.3672585458136535,-76.04581775031413,-23.49667036636948
9000.0,-131.23735040000003,253.35950319999998,141.6328062,126.3814834,-57.7446576,-43.685694399999996,118.61045699999998,45.351168,45.291225,4.0166058,-75.9329162,-28.3095924
9100.0,-131.59065840230713,253.22664110564847,141.35874253439582,139.5603694223157,-54.21759687382746,-57.593642280349606,118.62183036247625,45.400137250128004,45.329283427488484,3.7379601828503186,-75.78787592773962,-33.176999819845854
9200.0,-131.85345769389264,253.11698620010284,141.1072225609114,147.16359757648564,-50.3385844515155,-71.04277939273477,118.62987501463557,45.43131867451507,45.356315374785304,3.524267027761404,-75.61414060299298,-38.04600775585486
9300.0,-132.03967600441823,253.02607815834023,140.87566515713553,150.02690722453823,-46.207665705880814,-84.01211058386302,118.63489526347384,45.44729229530338,45.373812194671615,3.364149443722942,-75.41680785604747,-42.86342137822867
9400.0,-132.16324106354557,252.94945665533754,140.66148920065694,148.98603772850174,-41.92488600974001,-96.48064070044188,118.63719541598682,45.45063813463511,45.3832652399286,3.246230539724618,-75.20097531719048,-47.576045857168964
9500.0,-132.23808060093629,252.88266136607206,140.46211356906446,144.87672845040456,-37.590290735909775,-108.42737458917891,118.63707977917036,45.44393621465246,45.386165863337396,3.159133424756118,-74.97174061670934,-52.13068636287739
9600.0,-132.27812234625216,252.82123196552084,140.27495713994685,138.53471875227504,-33.30392525720677,-119.83131709678163,118.63485266002027,45.42976655749762,45.38400541767923,3.0914812078071296,-74.73420138489149,-56.47414806555563
9700.0,-132.29729402915478,252.76070812866092,140.09743879089282,130.79574799614144,-29.165834946447625,-130.67147306995756,118.6308183655324,45.41070918531277,45.378275255735225,3.0318969978673382,-74.49345525202425,-60.553236135405356
9800.0,-132.30952337930583,252.69662953046947,139.92697739949116,122.49555554403217,-25.276065176449013,-140.92684735541425,118.62528120270251,45.38934412024009,45.370466730286566,2.9690039039264287,-74.254599848395,-64.31475574262822
9900.0,-132.32873812636703,252.62453584592342,139.76099184333063,114.46988075797556,-21.734661320027584,-150.57644479985925,118.61854547852643,45.368251384421775,45.362071194114435,2.891425034974087,-74.02273280429114,-67.70551205742588
10000.0,-132.368866,252.53996675000002,139.596901,107.554463,-18.64166875,-159.59927025000002,118.61091549999999,45.35001100000001,45.35458,2.7877835,-73.80295175,-70.67231025000002
10100.0,-132.43939727764308,252.44094333134967,139.4343621357462,102.40991862352281,-16.084648764195197,-167.92432144453716,118.60275422485451,45.33666090876311,45.349185544240534,2.65149482849706,-73.600891806499,-73.1637475836545
10200.0,-132.53207242784126,252.3354123333163,139.2819860714486,98.99637194751773,-14.101226360491243,-175.28056769014322,118.59465921376301,45.32807073108388,45.34588439719779,2.495144231970982,-73.42433805752543,-75.1355896941019
10300.0,-132.63419446691606,252.2338019129171,139.1506220166448,97.09882428234745,-12.716542461778506,-181.34697118548365,118.58728667813408,45.32356800698129,45.34437417274961,2.3361093424306874,-73.28161307750658,-76.54539431015698
10400.0,-132.73306641118913,252.14654022716942,139.05111918087238,96.50227693837473,-11.955737990947336,-185.80249412922396,118.58129282937618,45.32248027647426,45.34435248477386,2.191767791885099,-73.18103944086974,-77.35071916063457
10500.0,-132.81599127698198,252.08405543309055,138.99432677366886,96.99173122596227,-11.843953870888091,-188.32609872002973,118.57733387889795,45.32413507958175,45.345516947148376,2.0794972123431372,-73.13093972204221,-77.5091219743494
10600.0,-132.87027208061633,252.0567756876979,138.99109400457186,98.35218845547286,-12.406331024491136,-188.59674715656647,118.57606603810787,45.327859956322705,45.34756517375103,2.0166752358137257,-73.13963649545131,-76.9781604801163
10700.0,-132.88321183841373,252.0751291480085,139.05227008311888,100.36864993726918,-13.668010374646826,-186.29340163749967,118.57814551841449,45.33298244671606,45.35019477845967,2.0206794943057838,-73.21545233552436,-75.71539240675004
10800.0,-132.84211356669573,252.14954397103978,139.18870421884753,102.826116981714,-15.654132844245517,-181.0950243614949,118.58422853122636,45.33883009078077,45.35310337515214,2.1088876198282343,-73.36670981668863,-73.67837548306538
10900.0,-132.73428028178395,252.29044831380892,139.4112456212954,105.50959089917002,-18.389839356177568,-172.6805775272176,118.59497128795202,45.34473042853576,45.3559885777063,2.2986772443899994,-73.60173151337139,-70.82466743787711
11000.0,-132.54701500000002,252.50827033333337,139.73074350000002,108.204073,-21.90027083333333,-160.72902333333337,118.61102999999999,45.350011,45.35854800000001,2.6074260000000002,-73.92884,-67.11182600000002
11100.0,-132.27199622997054,252.8080707870864,140.1525563439195,110.674988570693,-26.177214477375102,-145.10004893543515,118.63246354760577,45.354128567819615,45.360538075799376,3.044374665611443,-74.35142212131441,-62.5328124313863
11200.0,-131.91840444954246,253.17344083436572,140.66007975969427,112.60945880224341,-31.07904260505286,-126.3762413168259,118.65694148631242,45.35705678514944,45.36195051842357,3.5862166079546713,-74.85312180330538,-57.22220212653773
11300.0,-131.49979562886767,253.58260423492507,141.23121863338534,113.67502886177195,-36.43077381188852,-105.32091241773597,118.68153604048999,45.358898527771515,45.36283586107997,4.201508340704311,-75.41264724227632,-51.34997401309353
11400.0,-131.0297257380981,254.0137847485183,141.84387785105366,113.53924391639936,-42.057426693404,-82.69737417839573,118.70331943450846,45.35975667146788,45.36324463697602,4.85880637753499,-76.00870663453065,-45.08610701869291
11500.0,-130.52175074738577,254.44520613489908,142.47596229876015,111.8696491332463,-47.784019845121186,-59.26893853903563,118.71936389273789,45.35973409202057,45.36322737931913,5.526667232121334,-76.62000817637183,-38.600580070975084
11600.0,-129.98942662688256,254.85509215382132,143.10537686256586,108.33378967943358,-53.43557186256203,-35.798917439886004,118.7267416395483,45.35893366521161,45.3628346213167,6.173647418137972,-77.22526006410327,-32.06337209757925
11700.0,-129.44630934674043,255.2216665650388,143.71002642853173,102.59921072208186,-58.83710134124842,-13.050622821177218,118.7225248993097,45.357458266823045,45.36211689617617,6.768303449259532,-77.80317049402836,-25.644462026144616
11800.0,-128.90595487711133,255.52315312830518,144.26781588271874,94.33345742831187,-63.81362687670227,8.212633376860293,118.70378589639209,45.355410772636894,45.36112473710493,7.279191839160638,-78.33244766245058,-19.51382878431039
11900.0,-128.3819191881472,255.7377756033743,144.75665011118784,83.20407496524435,-68.19016706444549,27.22753921399617,118.66759685516553,45.352894058435204,45.3599086773104,7.674869101515919,-78.79179976567332,-13.84145129971578
12000.0,-127.88775824999999,255.84375774999998,145.15443400000004,68.87860850000003,-71.7917405,43.23078275,118.61103,45.35001100000001,45.35851925,7.923891750000001,-79.159935,-8.797308500000002
12100.0,-127.43354288505812,255.83037685597162,145.4448091359092,51.21016358670519,-74.49147272722108,55.65333520411103,118.53348805672248,45.34689081995849,45.357017466645324,8.01112646747384,-79.42144973499336,-4.510672939883782
12200.0,-127.01540332465572,255.73112432122113,145.634363908441,30.794087327508656,-76.35491708329735,64.7033004334467,118.44369575698738,45.34376812831841,45.355506251774685,7.986680613543673,-79.58449303325308,-0.9479916824139822
12300.0,-126.62598465236343,255.59054507371619,145.73542340781393,8.411287211564781,-77.49573385375079,70.78306545459408,118.35270833390612,45.340903881932704,45.35409900818056,7.916971717002078,-79.6631021306382,1.9649945822810067
12400.0,-126.25793195175189,255.4531840414243,145.7603127242465,-15.157329271972081,-78.02758332410342,74.29501728414024,118.27158102059006,45.338559037654264,45.35290913865544,7.86841730664162,-79.67131426300766,4.302545164072799
12500.0,-125.9038903063917,255.36358615231313,145.72135694795725,-39.13085463394747,-78.06412577987719,75.6415429386722,118.21136905015055,45.33699455233603,45.352050045991824,7.907434911254867,-79.62316666622048,6.138919372833006
12600.0,-125.55650479985354,255.36629633435027,145.63088116916484,-62.72838138520708,-77.71902150659415,75.22502943477708,118.18312765569904,45.336471382830915,45.351635132982196,8.100442059634396,-79.53269657613568,7.548376518433239
12700.0,-125.20842051570799,255.50585951550323,145.5012104780877,-85.16900203659654,-77.10593078977625,73.44786378904192,118.19791207034685,45.33725048599184,45.35177780241906,8.513856280572769,-79.41394122861225,8.60517591074511
12800.0,-124.85228253752568,255.82682062373968,145.34466996494436,-105.67180909896143,-76.33851391494548,70.71243301805374,118.26677752720536,45.33959281867172,45.35259145709486,9.214095102862558,-79.28093785950917,9.38357685964023
12900.0,-124.48073594887727,256.37372458702714,145.1735847199534,-123.45589508314737,-75.53043116762386,67.42112413839963,118.40077925938596,45.34375933772346,45.354189499802125,10.267576055296335,-79.1477237046854,9.957838674990212
13000.0,-124.08642583333334,257.19111633333335,145.00027983333334,-137.7403525,-74.79534283333334,63.976324166666664,118.6109725,45.350011,45.35668533333334,11.740716666666666,-79.02833600000002,10.402220666666665
13100.0,-123.61274134238039,258.3010380764105,144.85841544817717,-147.96047369551368,-74.22617308437397,60.69481413760774,118.89340956580443,45.35333956014648,45.36009303490267,13.677148102809877,-78.9326896109122,10.773395807288065
13200.0,-122.8060478991681,259.63552117314975,144.8669919190753,-154.41635035627797,-73.83290164015787,57.550951158639144,119.18413110813817,45.32765996397696,45.364029379411065,16.029356077737308,-78.85420992128238,11.057691720460307
13300.0,-121.36345499476207,261.104094266227,145.1663446534926,-157.624274004031,-73.60477210687509,54.433486355343035,119.40417486198568,45.241617955097745,45.36801181618115,18.727039942504057,-78.78219994457103,11.223849692536156
13400.0,-118.98207212022774,262.61628599831795,145.89680905889395,-158.10053616051104,-73.5310280907158,51.23117085330155,119.47457856233147,45.0638592771151,45.37155779453556,21.699899048165214,-78.7059626942388,11.240611009868374
13500.0,-115.35900876663078,264.0816250120984,147.19872054274424,-156.36142834745635,-73.6009131978701,47.83275577809683,119.31637994415995,44.763029673635344,45.37418476379691,24.877632745775866,-78.61480118374628,11.076716958809717
13600.0,-110.1913744250367,265.4096399502445,149.21241451250833,-152.92324208660514,-73.80367103452814,44.126992255311045,118.85061674245568,44.30777488826477,45.37541017328786,28.189940386391118,-78.49801842655407,10.700908825712952
13700.0,-103.17627858651103,266.50985945543187,152.07822637565107,-148.3022688996957,-74.12854520688003,40.00263141052632,117.99832669220307,43.66674066460965,45.37475147233101,31.56652132106607,-78.34491743612274,10.081927896930837
13800.0,-94.01083074211931,267.2918121703363,155.9364915396374,-143.01480030846616,-74.56477932111589,35.34842436932481,116.6805475283866,42.80857274627628,45.37172611024899,34.937074900855805,-78.14480122591289,9.188515458816134
13900.0,-82.39214038292714,267.66502673763375,160.92754541193207,-137.57712783465485,-75.10161698342583,30.053122257288653,114.81831698599073,41.70191687687096,45.36585153636445,38.23130047681541,-77.8869728093851,7.9894127977216005
14000.0,-68.01731699999999,267.53903180000003,167.1917234,-132.505543,-75.7283018,24.005476199999997,112.33267279999998,40.315418799999996,45.35664520000001,41.3788974,-77.5607352,6.453361199999999
14100.0,-50.727431007503746,266.84134749666987,174.80246934401563,-128.21512863465034,-76.43263795641639,17.150520268574702,109.17599627115983,38.6326478792556,45.34400557492735,44.312037003303324,-77.15632844915781,4.570041255098191
14200.0,-30.939396512005278,265.5714599531134,183.56566081499142,-124.7161328023968,-77.19667195580465,9.65842031626341,105.42604296326002,36.69686795817374,45.32935523271443,46.972778546973764,-76.66774076001751,2.412890764839419
14300.0,-9.21408854317178,263.7468467913597,193.22028381664927,-121.91759487544078,-78.00101088068229,1.755625141850478,101.19191200585118,34.56626650027634,45.31449776937821,49.30565327309838,-76.08989737367777,0.0762868341410313
14400.0,13.887617869329553,261.38498563343774,203.50532435271123,-119.72855422598374,-78.82626181356682,-6.331416455879744,96.58270252848415,32.299030969085315,45.30123678093569,51.25519242376422,-75.41772353123719,-2.3453934320796312
14500.0,37.80484769583154,258.5033541013766,214.1597684268992,-118.05805022622708,-79.65303183697576,-14.376255678142876,91.70751366070958,29.953348828122575,45.291375863403864,52.765927241058336,-74.6461444737944,-4.757772928905215
14600.0,61.976725906667,255.1194298172054,224.92260204293532,-116.81512224837229,-80.46192803342664,-22.152443726154573,86.67544453207829,27.58740754091003,45.28671861279974,53.7823889670678,-73.77008544244806,-7.066474551418383
14700.0,85.84237747216878,251.2506904029531,235.53281120454147,-115.90880966462076,-81.233557485437,-29.43353180113051,81.59559427214094,25.259394570969583,45.2890686251403,54.24910884387964,-72.78447167829682,-9.177121194701794
14800.0,108.84092736266965,246.91461348064874,245.72938191543966,-115.2481518471739,-81.94852727552434,-35.99307110428629,76.57706201044827,23.027497381823157,45.30022949644253,54.11061811358092,-71.6842284224393,-10.995335753838097
14900.0,130.41150054850246,242.12867667232135,255.25130017935183,-114.74218816823318,-82.58744448620617,-41.60461283683758,71.72894687655105,20.949903436992656,45.322004822723436,53.31144801825869,-70.46428091597414,-12.426741123909947
15000.0,149.99322199999997,236.91035760000003,263.837552,-114.29995800000002,-83.13091620000002,-46.0417082,67.160348,19.0848002,45.3561982,51.7961298,-69.11955439999998,-13.376960199999997
15100.0,167.15426155209533,231.2986838835103,271.2797503844604,-113.85354964278496,-83.56497888506046,-49.14014181680655,62.96055040345615,17.47933866463112,45.405135541387956,49.543551467976854,-67.65293601585653,-13.781697595880825
15200.0,181.97896849812255,225.4188831338636,277.580016353226,-113.42724710933491,-83.89738655209025,-50.98463199755945,59.139582682021796,16.136523945728058,45.473232028397966,46.67002809970101,-66.09916050584755,-13.696984800084651
15300.0,194.68073699601587,219.41773295986803,282.7930979301439,-113.06838334050593,-84.14132259742917,-51.72213047437828,55.68765932390955,15.048324688396864,45.56542515963943,43.326231539769125,-64.50092451251791,-13.208935019833616
15400.0,205.4729612037096,213.44201097033147,286.9737431390614,-112.82429127715406,-84.309970417417,-51.499588979382615,52.59499481733195,14.206709537743604,45.68665243372175,39.66283363277794,-62.90092467841248,-12.403661462349858
15500.0,214.56903527913795,207.63849477406197,290.1767000038256,-112.74230386013531,-84.41651340839356,-50.46395924469202,49.85180365050164,13.603647138874337,45.841851349254306,35.83050622332412,-61.341857646076114,-11.367277334855519
15600.0,222.18235338023533,202.15396197986755,292.4567165482839,-112.86975403030576,-84.47413496669864,-48.762193002426066,47.44830031163119,13.231106136895123,46.035959404846544,31.979921156004384,-59.866420058053656,-10.185895844572743
15700.0,228.52630966493598,197.13519019655615,293.8685407962832,-113.2539747285214,-84.49601848867204,-46.541241984704314,45.374699288933215,13.081055176912024,46.27391409910783,28.2617502754154,-58.51730855688996,-8.945630198723658
15800.0,233.8142982911741,192.7289570329358,294.4669207716709,-113.94229889563832,-84.49534737065353,-43.948057923646346,43.621215070620295,13.145462904031097,46.560652930647564,24.826665426153884,-57.33721978512988,-7.732593604530414
15900.0,238.259713416884,189.0820400978144,294.3066044982941,-114.98205947251249,-84.48530500898292,-41.129592551371715,42.17806214490503,13.416297963358403,46.901113398075154,21.825338452816517,-56.36885038531828,-6.632899269215147
16000.0,242.07594920000003,186.34121700000003,293.44234000000006,-116.4205894,-84.47907480000002,-38.23279760000001,41.035455,13.885529000000002,47.300233000000006,19.4084412,-55.654897000000005,-5.7326604
16100.0,245.4451320855224,184.60505840988918,291.938568315943,-118.28419582240994,-84.48693806074185,-35.38198873734854,40.17941049761554,14.54041280641992,47.75963319152085,17.686048205989273,-55.2239236258161,-5.097587408774884
16200.0,248.4243176667152,183.7793072442323,289.898502546505,-120.51508269786368,-84.50756779103449,-32.61093737402564,39.57915499345281,15.34935876451404,48.267671253693756,16.605844783822256,-55.047963675792325,-4.711779526100813
16300.0,251.03929382390845,183.72149948136845,287.43504880737544,-123.03442818793559,-84.5367349114012,-29.93077885633737,39.199717216710695,16.276064403536207,48.80938842406414,16.074918940225125,-55.08491791705061,-4.538933187206569
16400.0,253.31584843743227,184.28917109963652,284.66111321424347,-125.76341045420016,-84.57021034236531,-27.35264853058982,39.00612589658809,17.284227252740276,49.369825940177385,16.00035868192404,-55.29268711671291,-4.542744827320937
16500.0,255.27976938761665,185.33985807737557,281.68960188279846,-128.62320765823173,-84.60376500445011,-24.887681743089075,38.96340976228388,18.337544841380083,49.934025039578906,16.28925201564517,-55.62917204190118,-4.686910881672704
16600.0,256.95684455479176,186.7310963929246,278.6334209287296,-131.5349979616048,-84.63316981817891,-22.5470138401412,39.03659754299697,19.39971469870949,50.48702695981412,16.84868694811469,-56.05227345973736,-4.935127785490655
16700.0,258.3728618192876,188.32042202462256,275.605476467726,-134.41995952589374,-84.654195704075,-20.341780168052278,39.19071796792624,20.434434353982336,51.01387293842844,17.585751486058765,-56.519892137343376,-5.251091974003576
16800.0,259.5536090614342,189.96537095080848,272.7186746154771,-137.19927051267297,-84.66261358266166,-18.283116073128387,39.390799766270575,21.405401336452474,51.499604212967256,18.407533636203564,-56.9899288418412,-5.598499882440249
16900.0,260.5248741615617,191.52347914982127,270.085921487672,-139.7941090835169,-84.65419437446225,-16.3821569016756,39.60187166722886,22.276313175373744,51.92926202097597,19.221121405275255,-57.42028434035276,-5.941047946029464
17000.0,261.3124450000001,192.8522826,267.82012320000007,-142.12565340000003,-84.624709,-14.650038000000002,39.7889624,23.010867400000006,52.28788759999999,19.933602800000003,-57.768859400000004,-6.2424326
17100.0,261.9406894111653,193.84083122128317,266.00507839641824,-144.13585083482533,-84.5715623514222,-13.09163380089934,39.924188090881714,23.582466332789213,52.564681434028664,20.471366562716064,-58.003655742279115,-6.4741178494696365
17200.0,262.42829504581704,194.50423070000733,264.6081558339546,-145.8497256052105,-84.49869520737194,-11.686775083138059,40.00801445456701,24.003331469015812,52.76548099282703,20.83800437820998,-58.13307890618322,-6.638637979112102
17300.0,262.79252950880067,194.8891006641084,263.5676167979049,-147.31307113950177,-84.41168231811614,-10.409031711972283,40.04799460284774,24.29538909715833,52.90028299260407,21.056408666880387,-58.175635385079694,-6.746294843490116
17400.0,263.0506604049617,195.04206074152256,262.82172257356507,-148.57168086604548,-84.31609843392187,-9.231973552658127,40.051681647515736,24.480565505695328,52.97908414956874,21.14947184912592,-58.14983167233589,-6.807390297166396
17500.0,263.2199553391456,195.00973056018586,262.30873444623097,-149.67134821318783,-84.21751830505607,-8.129170470451715,40.02662870036286,24.580786983105348,53.01188117993004,21.1400863453452,-58.074174261319186,-6.832226194703664
17600.0,263.31768191619796,194.83872974803424,261.96691370119845,-150.6578666092752,-84.12151668178582,-7.074192330609167,39.98038887318097,24.617979817866946,53.00867079989695,21.05114457593687,-57.967169645396964,-6.83110439066464
17700.0,263.36110774096403,194.57567793300382,261.7345216237632,-151.5770294826538,-84.03366831437809,-6.0406089983866,39.920515277761886,24.61407029845866,52.979449725678414,20.90553896129956,-57.84732431793656,-6.814326739612043
17800.0,263.3675004182894,194.2671947430306,261.54981949922114,-152.47463026167,-83.95954795309987,-5.0019903390401375,39.85456102589746,24.590984713359045,52.93421467348343,20.726161921831885,-57.73314477230535,-6.79219509610859
17900.0,263.35412755301957,193.95989980605063,261.3510686128681,-153.39646237466994,-83.90473034821817,-3.9319062178258974,39.79007922937955,24.57064935104664,52.88296235952097,20.53590587793249,-57.6431375018707,-6.775011314717002
18000.0,263.33825675,193.70041274999994,261.07653025,-154.38831924999997,-83.87479025000002,-2.803926500000001,39.734623,24.5749905,52.835689499999994,20.35766325,-57.59580899999998,-6.773077249999999
18100.0,263.3339194556667,193.52550133462822,260.67891024633457,-155.4824222942388,-83.87356506831934,-1.6013862951541218,39.69414099265763,24.621026502123247,52.80043789566447,20.209913028496505,-57.60502035406746,-6.794187923096571
18200.0,263.34220248281713,193.4325258469386,260.1686926392772,-156.6567048268945,-83.8979428514779,-0.3466816902221466,39.66816403467919,24.706143913022757,52.777429685398104,20.09348048413785,-57.6660510274748,-6.836111021450783
18300.0,263.3609564858393,193.40899470574797,259.5708060166554,-157.87552814570742,-83.94307430738432,0.9280259835264789,39.6546184964984,24.822821341730506,52.7649320926196,20.00477745770335,-57.76953507763063,-6.894107399082973
18400.0,263.3880321191213,193.4424163298732,258.9101789662964,-159.10325354841805,-84.00411014394733,2.1905753948223157,39.65143074854898,24.963537397278444,52.76121234074763,19.940215789972306,-57.906106561943496,-6.963437910013477
18500.0,263.4212800370512,193.52029913813112,258.21174007602787,-160.3042423327669,-84.07620106907562,3.4088052123959214,39.65652716126467,25.12077068869854,52.7645376532009,19.896207321724035,-58.066399537822036,-7.039363408262635
18600.0,263.45855089401704,193.63015154933856,257.50041793367717,-161.44285579649446,-84.15449779067787,4.550554104977853,39.66783410507919,25.286999825022754,52.7731752533981,19.869163893737845,-58.24104806267481,-7.117144747850781
18700.0,263.4976953444068,193.75948198231234,256.80114112707156,-162.48345523734108,-84.23415101666275,5.58366074129867,39.68327795042626,25.45470341528305,52.785392364757925,19.855497346793044,-58.420686193910406,-7.192042782798255
18800.0,263.5365640426085,193.8957988558693,256.13883824403854,-163.39040195304725,-84.31031145493894,6.475963790088928,39.700785067739595,25.616360068511376,52.799456210699056,19.851619521668923,-58.595947988937404,-7.259318367125392
18900.0,263.5730076430102,194.02661058882623,255.53843787240552,-164.12805724135336,-84.37812981341513,7.195301920079184,39.718281827452934,25.764448393739706,52.81363401464018,19.85394225914481,-58.75746750516441,-7.314232354852526
19000.0,263.60487679999994,194.1394256,255.0248686,-164.6607824,-84.4327568,7.709513800000002,39.73369460000001,25.891447,52.82619300000001,19.8588774,-58.8958788,-7.3520455999999985
19100.0,263.6304832370182,194.2243451980541,254.61716917699377,-164.96343587036944,-84.47047161665051,7.996310299615821,39.74536491028777,25.991538375817818,52.83574504621347,19.863448513047945,-59.00389603165105,-7.369237264494077
19200.0,263.64998295371487,194.28184225103843,254.3108190029368,-165.05286466841162,-84.49206744151665,8.072891092826644,39.753294901116256,26.06572052769317,52.842280656780574,19.867126079238645,-59.08255376151755,-7.367159741884764
19300.0,263.6639930187924,194.3149825168497,254.09540763972373,-164.9564129537186,-84.49946594679668,7.96632805456636,39.757901869758676,26.116695341619657,52.84613499121758,19.869992307556238,-59.13496665179781,-7.348383733627988
19400.0,263.67313050095316,194.3268317533846,253.96052464924915,-164.70142488588223,-84.49458880468887,7.70369305976886,39.759603113488325,26.1471647035909,52.84764320904077,19.872129406984865,-59.164249364690086,-7.315479941179687
19500.0,263.6780124688996,194.32045571853962,253.89575959340732,-164.31524462449434,-84.47935768739147,7.312057983368029,39.758815929578454,26.159830499600485,52.84714046976637,19.87361958650866,-59.173516562392656,-7.2710190659957865
19600.0,263.67925599133406,194.29892017021152,253.89070203409304,-163.82521632914697,-84.45569426710277,6.818494700297755,39.7559576153023,26.157394615642033,52.84496193291068,19.874545055111756,-59.165882907103835,-7.217571809532226
19700.0,263.67747813695894,194.26529086629688,253.93494153320063,-163.25868415943194,-84.425520216021,6.250075085491924,39.75144546793312,26.142558937709154,52.84144275798993,19.874988021778304,-59.14446306102186,-7.157708873244934
19800.0,263.67329597447656,194.22263356469227,254.01806765262455,-162.6429922749411,-84.39075720634442,5.63387101388443,39.74569678474417,26.118025351795445,52.83691810452038,19.87503069549243,-59.11237168634504,-7.0940009585898425
19900.0,263.6673265725895,194.17401402329443,254.12966995425955,-162.00548483526651,-84.35332691027136,4.99695436040916,39.739128863008716,26.086495743894524,52.831723132018325,19.87475528523829,-59.07272344527167,-7.029018767022888
20000.0,263.660187,194.12249799999998,254.259338,-161.373506,-84.315151,4.366397,39.73215900000001,26.050671999999995,52.826193,19.874244,-59.028633,-6.965332999999999
20100.0,263.65249432541054,194.07115125270553,254.39666135174048,-160.7743999287335,-84.27815114772866,3.769270807590842,39.7252044929913,26.013256006105472,52.82066286798169,19.87357904876172,-58.983215012728344,-6.905514358977112
20200.0,263.64486561752346,194.02303953930772,254.5312295713755,-160.23551078105888,-84.24424902565559,3.232647658115572,39.718682639255846,25.976949648204545,52.81546789547963,19.872842640507574,-58.93958414565497,-6.852133545410156
20300.0,263.6379179450412,193.98122861770315,254.6526322207995,-159.78418271656813,-84.21536630597903,2.783599426508078,39.7130107360669,25.944454812290846,52.81094324201009,19.872116984221705,-58.90085506097816,-6.8077612607550675
20400.0,263.63226837666605,193.94878424578854,254.75045886190713,-159.4477598948531,-84.19342466089728,2.4491979877022496,39.708606080697734,25.918473384357966,52.80742406708936,19.871484288888254,-58.870142420896194,-6.7749682064677765
20500.0,263.6285339811004,193.92877218146037,254.8142990565927,-159.25358647550564,-84.18034576260854,2.256515216631974,39.70588597042156,25.90170725039951,52.805245530233634,19.871026763491347,-58.850560887607344,-6.756325084004213
20600.0,263.6273318270469,193.92425818261546,254.83374236675093,-159.2290066181178,-84.17805128331116,2.232622988231142,39.70526770251169,25.8968582964091,52.80474279095925,19.870826617015144,-58.84522512330993,-6.754402594820315
20700.0,263.6292789832076,193.93830800715025,254.7983783542762,-159.40136448228137,-84.18846289520332,2.404593177433639,39.70716857424132,25.906628408380335,52.80625100878242,19.870966058443763,-58.85724979020219,-6.77177144037201
20800.0,263.6349925182851,193.97398741296158,254.6977965810632,-159.79800422758834,-84.21350227048336,2.799497659173356,39.712005882883766,25.933719472306827,52.81010534321943,19.871527296761357,-58.889749550482435,-6.811002322115236
20900.0,263.64508950098184,194.03436215794596,254.5215866090063,-160.44627001363057,-84.2550910813495,3.4444083083841806,39.72019692571224,25.98083337418218,52.816640953786546,19.872592540952056,-58.94583906634896,-6.874665941505922
