BAEK26/lfd/original_data/interpolated_trajectory_clean2.csv
timestamp,x,y,z,roll,pitch,yaw,joint1,joint2,joint3,joint4,joint5,joint6
0.0,263.5002543333333,193.98468033333333,254.50076266666667,-173.74826700000003,-84.79305533333333,17.309303333333332,39.620891,25.963792333333334,52.70075333333333,19.119868666666665,-59.18732333333333,-7.877195666666666
200.0,262.9724720660832,194.26422283835998,255.50592496276323,-175.85855775906356,-84.9188030666882,17.2463511941838,39.705101162246834,25.73396315069185,52.66165231717274,18.9800413909091,-59.13295876549254,-7.862880011823581
400.0,262.7965025627777,194.35528045914668,255.83711278768433,-176.4956649800848,-84.95760330758426,17.157107690911733,39.73317673899578,25.657435838255804,52.648385409563645,18.935676185212134,-59.11289146599005,-7.852687975764775
600.0,262.88449215976385,194.30484133408675,255.6635045378905,-176.02307132157424,-84.93142004846958,17.043157563881103,39.71915183462132,25.695814723807167,52.654504776701536,18.963054250727293,-59.11878791707463,-7.845259200460847
800.0,263.1485871933889,194.15989360157334,255.15427860984218,-174.8042594420424,-84.86221728179211,16.906085553455863,39.677060553497896,25.8107041351279,52.67356258478183,19.03845678860607,-59.142314600995014,-7.839233327882387
1000.0,263.50093400000003,193.96742540000002,254.47861339999994,-173.20271200000002,-84.771959,16.7474764,39.62093700000001,25.9637084,52.699110999999995,19.138165,-59.17513799999999,-7.83325
1200.0,263.8536789159446,193.77442486776002,253.80568730482446,-171.5819116539577,-84.68260919554119,16.56891484387747,39.56481527850213,26.116431846205433,52.724702188551504,19.238460086060606,-59.20892459633829,-7.82594885878428
1400.0,264.1189682775697,193.62788014324673,253.30467872077625,-170.3053410624259,-84.61613186086379,16.37198562545224,39.522729493378726,26.230478801526182,52.74388831663181,19.31562324793939,-59.2353408722587,-7.815969546205823
1600.0,264.2089484212225,193.57477936485336,253.14476604431573,-169.73648288391533,-84.59449098841576,16.158273485088273,39.50871374900425,26.267453593744204,52.75022155043635,19.34593568678787,-59.246053310009955,-7.801951704235226
1800.0,264.03576568325013,193.66211067097333,253.49512767190345,-170.2388197769365,-84.63965057064513,15.929363163149537,39.53680214975318,26.18896055064148,52.737254056160594,19.305678603757567,-59.23272839184079,-7.782534974843086
2000.0,263.5115664,193.9368622,254.52494200000004,-172.17583440000004,-84.7735746,15.6868394,39.621028800000005,25.956604,52.698538000000006,19.1711332,-59.187032599999995,-7.756359000000002
2200.0,262.63061948320535,194.3983510240667,256.3232980728721,-175.54529341550597,-85.00494346141366,15.431592336972995,39.76140559254471,25.55314860275308,52.63406941128791,18.940687919381837,-59.10071833542089,-7.728828722372636
2400.0,261.71568414614393,194.85520995026673,258.6589275260108,-178.88209950141186,-85.28930310976067,15.161733719279324,39.90185557388942,25.046000352439492,52.569619771909146,18.701160176630335,-58.96588167377512,-7.732410287411939
2600.0,261.17164217747995,195.06840071943338,261.22047264271356,-180.35543933956478,-85.56891589240082,14.874680693099155,39.97227957896177,24.523725575749367,52.53740442688642,18.56147462918792,-58.774704609418905,-7.806335141264922
2800.0,261.4033753658773,194.79888507240008,263.69657570627754,-178.1344996118118,-85.78604415669399,14.56785040461266,39.90257844268942,24.07489059937283,52.56963872124249,18.630555934497004,-58.51936913670846,-7.989834730078606
3000.0,262.8157655,193.80762475,265.775879,-170.388467,-85.88295025,14.23866,39.622653,23.78806175,52.698538,19.01732875,-58.192057250000005,-8.3221405
3200.0,265.4301782216342,192.03408715437325,267.26893538128724,-156.22934997361872,-85.82562252360414,13.96010022743055,39.12036765371905,23.688147334782247,52.91135552469689,19.72099621081207,-57.791641204378124,-8.79283550132518
3400.0,267.73391458505455,190.1317623328865,268.47394000398054,-138.54044415272685,-85.67495334449357,14.107456243030468,38.61544107826363,23.54542358271585,53.015496222931645,20.30187536273929,-57.34375429784082,-9.192909200946431
3600.0,267.83075949765777,188.9326459942131,269.81099859603034,-121.14786694502561,-85.51556108358096,15.13158680491511,38.38555551594868,23.06650870325833,52.77340293881796,20.210561729260473,-56.88072008911445,-9.26370266990509
3800.0,263.82449786684066,189.2687338470265,271.7002168853867,-107.87773575821626,-85.4320641117789,17.483350671199833,38.70839320908916,21.95802090586721,51.94751851646952,18.89765083385444,-56.434862136925396,-8.746556979242499
4000.0,253.81891459999994,191.9720216,274.56170059999994,-102.55616799999999,-85.5090808,21.6136066,39.861636399999995,19.926578399999997,50.3002858,15.813738199999994,-56.038504,-7.382813199999998
4200.0,236.4345813638579,197.57062346844037,278.52753191877906,-107.70232521801918,-85.78683502056978,27.75932788290481,42.08541304697908,16.838994412917945,47.701491531524574,10.686134963369888,-55.73555573066665,-5.031548313126642
4400.0,212.35921686243785,205.37712769418746,282.5776988244669,-120.60754551968077,-86.127972651465,35.30194594539882,45.46963397225605,13.202862243097115,44.45029804516431,4.349014708412511,-55.61627335566164,-2.02278293920234
4600.0,182.79732655908896,214.4002410257143,285.4041657507653,-137.2562111523327,-86.35074507207536,43.40900674644041,50.06665571404346,9.685970206817322,40.95321157304175,-2.086733368229804,-55.78249939532331,1.1957263912852811
4800.0,148.95341591716002,223.6486702114941,285.69889713137576,-153.6327043633231,-86.27340366179047,51.248056244988014,55.92883481055393,6.956106620358351,37.616738347279465,-7.5102200699147525,-56.336076369989996,4.176223147848604
5000.0,112.0319904,232.131122,282.1538574,-165.72140739999998,-85.71419979999999,57.9866404,63.108527800000005,5.6810598,34.8473846,-10.8105562,-57.3788468,6.470950800000001
5200.0,73.33150300373428,239.05681067226527,273.8681074463966,-170.5141177387045,-84.55548942211679,62.98488141575022,71.53617869476463,6.351156791945983,32.97389017000483,-11.207306726691643,-58.968296057755325,7.753103481831758
5400.0,34.52619685559393,244.4369806395638,261.5690939845517,-169.03229377175012,-82.93604668764641,66.37320647777429,80.6545814039122,8.74687956209568,32.01392932281114,-9.241853277589362,-60.984480923912635,8.179677985755802
5600.0,-2.615737384413534,248.48338384572978,246.39136018450859,-163.30480912044354,-81.05875031211767,68.47461901692324,89.78461731067746,12.471248806272381,31.907409930615035,-5.786031645141265,-63.26310103119228,8.028621768763966
5800.0,-36.3261090562807,251.40777223459716,229.46944921631032,-155.36053740609128,-79.12647901105926,69.61212246404813,98.24716779829515,17.12728522029939,32.59423986561262,-1.711677621795444,-65.63985601231462,7.577882287848087
6000.0,-64.8367275,253.42189774999997,211.93790425,-147.22835225,-77.34211150000002,70.10872025,105.36311425000001,22.318009500000002,34.01432700000001,2.1093729999999997,-67.95044550000001,7.105407
6200.0,-86.84081783799503,254.72627192409857,194.85406836283465,-140.72388502716285,-75.87319831336309,70.30536240609432,110.62476149396242,27.662202809698133,36.06679282685612,4.984099320996664,-70.05326132471211,6.847366987399617
6400.0,-102.87726832241364,255.47644464235722,178.96648426092622,-136.80979812731874,-74.74597726114935,70.61478536550408,114.21010813809521,32.84168818772018,38.48761332279116,6.934740014744925,-71.89746410788786,6.8728278329791435
6600.0,-113.94638298783471,255.81672537856664,164.94649455760046,-136.23551169389327,-73.95135797225409,71.46767216186667,116.46857623524676,37.554049140893156,40.97197808529814,8.162348647994854,-73.45490666870758,7.20907874485886
6800.0,-121.04846586883721,255.8914236065174,153.4654418661831,-139.75044587031186,-73.48025007557253,73.29470582881952,117.74958783826557,41.49686917604409,43.21507671187008,8.867978787496522,-74.69744182635154,7.883408931159052
7000.0,-125.183821,255.84484879999997,145.1946688,-148.1040208,-73.3235632,76.5265694,118.40256500000001,44.3677318,44.9120988,9.252683999999999,-75.5969224,8.923107599999998
7200.0,-127.27679191815417,255.7927105525406,140.53700117466485,-160.92383513224422,-73.44436886603089,81.18561172027253,118.73000454738576,45.9705889396615,45.84418626497072,9.478773276304983,-76.1441949529963,10.262074360569779
7400.0,-127.94788016913941,255.73631893660726,138.8211976149435,-173.3502015397749,-73.69438616055618,85.66084487940945,118.84670240370708,46.53486620222364,46.13629029322427,9.55357730340966,-76.40608102533594,11.460650426327634
7600.0,-127.74162680104756,255.64838414440362,139.1074999478897,-179.40161120118347,-73.89749606206604,87.93294677841011,118.82052926633557,46.39635761495501,45.999314388992445,9.445682192361847,-76.46839590117742,11.985787411800596
7800.0,-127.20257286197047,255.50161636813337,140.4561500005573,-173.0965552950614,-73.87757954905061,85.98259531827385,118.71935583264269,45.890857205124256,45.64416205650709,9.123674054209356,-76.41695486467927,11.304436931515706
8000.0,-126.8752594,255.26872580000003,141.92738960000003,-148.453525,-73.45851760000001,77.7904684,118.6110528,45.354159,45.2817368,8.556138999999998,-76.33757320000001,8.8835506
8200.0,-127.17433637898831,254.93444035533918,142.768675864906,-102.15343203586039,-72.45245356971343,62.00754294161557,118.54966997729468,45.05322243485587,45.079334809261,7.7363073961834035,-76.2953287977027,4.347368191121269
8400.0,-127.99488942582879,254.53155884201382,142.97632708049994,-41.526870287581716,-70.62458031822597,39.9659919292581,118.53397361947654,44.97966857698532,45.02982301631178,6.755986630816429,-76.2723499739684,-2.050717883889674
8600.0,-129.1021130831751,254.1048977910189,142.73387682364088,23.433145818627075,-67.7283530818818,13.66828736609289,118.54890909301105,45.056283901686854,45.08246103873208,5.731628347357756,-76.23002765138277,-9.900027054461244
8800.0,-130.26120189368098,253.69927373334934,142.22485867118792,82.73360185655729,-63.51722709702511,-14.8830987447149,118.5794217643637,45.20585488425892,45.18650849410158,4.779684189266054,-76.12975275253145,-18.789878750021884
9000.0,-131.23735040000003,253.35950319999998,141.6328062,126.3814834,-57.7446576,-43.685694399999996,118.61045699999998,45.351168,45.291225,4.0166058,-75.9329162,-28.3095924
9200.0,-131.85345769389264,253.11698620010284,141.1072225609114,147.16359757648564,-50.3385844515155,-71.04277939273477,118.62987501463557,45.43131867451507,45.356315374785304,3.524267027761404,-75.61414060299298,-38.04600775585486
9400.0,-132.16324106354557,252.94945665533754,140.66148920065694,148.98603772850174,-41.92488600974001,-96.48064070044188,118.63719541598682,45.45063813463511,45.3832652399286,3.246230539724618,-75.20097531719048,-47.576045857168964
9600.0,-132.27812234625216,252.82123196552084,140.27495713994685,138.53471875227504,-33.30392525720677,-119.83131709678163,118.63485266002027,45.42976655749762,45.38400541767923,3.0914812078071296,-74.73420138489149,-56.47414806555563
9800.0,-132.30952337930583,252.69662953046947,139.92697739949116,122.49555554403217,-25.276065176449013,-140.92684735541425,118.62528120270251,45.38934412024009,45.370466730286566,2.9690039039264287,-74.254599848395,-64.31475574262822
10000.0,-132.368866,252.53996675000002,139.596901,107.554463,-18.64166875,-159.59927025000002,118.61091549999999,45.35001100000001,45.35458,2.7877835,-73.80295175,-70.67231025000002
10200.0,-132.53207242784126,252.3354123333163,139.2819860714486,98.99637194751773,-14.101226360491243,-175.28056769014322,118.59465921376301,45.32807073108388,45.34588439719779,2.495144231970982,-73.42433805752543,-75.1355896941019
10400.0,-132.73306641118913,252.14654022716942,139.05111918087238,96.50227693837473,-11.955737990947336,-185.80249412922396,118.58129282937618,45.32248027647426,45.34435248477386,2.191767791885099,-73.18103944086974,-77.35071916063457
10600.0,-132.87027208061633,252.0567756876979,138.99109400457186,98.35218845547286,-12.406331024491136,-188.59674715656647,118.57606603810787,45.327859956322705,45.34756517375103,2.0166752358137257,-73.13963649545131,-76.9781604801163
10800.0,-132.84211356669573,252.14954397103978,139.18870421884753,102.826116981714,-15.654132844245517,-181.0950243614949,118.58422853122636,45.33883009078077,45.35310337515214,2.1088876198282343,-73.36670981668863,-73.67837548306538
11000.0,-132.54701500000002,252.50827033333337,139.73074350000002,108.204073,-21.90027083333333,-160.72902333333337,118.61102999999999,45.350011,45.35854800000001,2.6074260000000002,-73.92884,-67.11182600000002
11200.0,-131.91840444954246,253.17344083436572,140.66007975969427,112.60945880224341,-31.07904260505286,-126.3762413168259,118.65694148631242,45.35705678514944,45.36195051842357,3.5862166079546713,-74.85312180330538,-57.22220212653773
11400.0,-131.0297257380981,254.0137847485183,141.84387785105366,113.53924391639936,-42.057426693404,-82.69737417839573,118.70331943450846,45.35975667146788,45.36324463697602,4.85880637753499,-76.00870663453065,-45.08610701869291
11600.0,-129.98942662688256,254.85509215382132,143.10537686256586,108.33378967943358,-53.43557186256203,-35.798917439886004,118.7267416395483,45.35893366521161,45.3628346213167,6.173647418137972,-77.22526006410327,-32.06337209757925
11800.0,-128.90595487711133,255.52315312830518,144.26781588271874,94.33345742831187,-63.81362687670227,8.212633376860293,118.70378589639209,45.355410772636894,45.36112473710493,7.279191839160638,-78.33244766245058,-19.51382878431039
12000.0,-127.88775824999999,255.84375774999998,145.15443400000004,68.87860850000003,-71.7917405,43.23078275,118.61103,45.35001100000001,45.35851925,7.923891750000001,-79.159935,-8.797308500000002
12200.0,-127.01540332465572,255.73112432122113,145.634363908441,30.794087327508656,-76.35491708329735,64.7033004334467,118.44369575698738,45.34376812831841,45.355506251774685,7.986680613543673,-79.58449303325308,-0.9479916824139822
12400.0,-126.25793195175189,255.4531840414243,145.7603127242465,-15.157329271972081,-78.02758332410342,74.29501728414024,118.27158102059006,45.338559037654264,45.35290913865544,7.86841730664162,-79.67131426300766,4.302545164072799
12600.0,-125.55650479985354,255.36629633435027,145.63088116916484,-62.72838138520708,-77.71902150659415,75.22502943477708,118.18312765569904,45.336471382830915,45.351635132982196,8.100442059634396,-79.53269657613568,7.548376518433239
12800.0,-124.85228253752568,255.82682062373968,145.34466996494436,-105.67180909896143,-76.33851391494548,70.71243301805374,118.26677752720536,45.33959281867172,45.35259145709486,9.214095102862558,-79.28093785950917,9.38357685964023
13000.0,-124.08642583333334,257.19111633333335,145.00027983333334,-137.7403525,-74.79534283333334,63.976324166666664,118.6109725,45.350011,45.35668533333334,11.740716666666666,-79.02833600000002,10.402220666666665
13200.0,-122.8060478991681,259.63552117314975,144.8669919190753,-154.41635035627797,-73.83290164015787,57.550951158639144,119.18413110813817,45.32765996397696,45.364029379411065,16.029356077737308,-78.85420992128238,11.057691720460307
13400.0,-118.98207212022774,262.61628599831795,145.89680905889395,-158.10053616051104,-73.5310280907158,51.23117085330155,119.47457856233147,45.0638592771151,45.37155779453556,21.699899048165214,-78.7059626942388,11.240611009868374
13600.0,-110.1913744250367,265.4096399502445,149.21241451250833,-152.92324208660514,-73.80367103452814,44.126992255311045,118.85061674245568,44.30777488826477,45.37541017328786,28.189940386391118,-78.49801842655407,10.700908825712952
13800.0,-94.01083074211931,267.2918121703363,155.9364915396374,-143.01480030846616,-74.56477932111589,35.34842436932481,116.6805475283866,42.80857274627628,45.37172611024899,34.937074900855805,-78.14480122591289,9.188515458816134
14000.0,-68.01731699999999,267.53903180000003,167.1917234,-132.505543,-75.7283018,24.005476199999997,112.33267279999998,40.315418799999996,45.35664520000001,41.3788974,-77.5607352,6.453361199999999
14200.0,-30.939396512005278,265.5714599531134,183.56566081499142,-124.7161328023968,-77.19667195580465,9.65842031626341,105.42604296326002,36.69686795817374,45.32935523271443,46.972778546973764,-76.66774076001751,2.412890764839419
14400.0,13.887617869329553,261.38498563343774,203.50532435271123,-119.72855422598374,-78.82626181356682,-6.331416455879744,96.58270252848415,32.299030969085315,45.30123678093569,51.25519242376422,-75.41772353123719,-2.3453934320796312
14600.0,61.976725906667,255.1194298172054,224.92260204293532,-116.81512224837229,-80.46192803342664,-22.152443726154573,86.67544453207829,27.58740754091003,45.28671861279974,53.7823889670678,-73.77008544244806,-7.066474551418383
14800.0,108.84092736266965,246.91461348064874,245.72938191543966,-115.2481518471739,-81.94852727552434,-35.99307110428629,76.57706201044827,23.027497381823157,45.30022949644253,54.11061811358092,-71.6842284224393,-10.995335753838097
15000.0,149.99322199999997,236.91035760000003,263.837552,-114.29995800000002,-83.13091620000002,-46.0417082,67.160348,19.0848002,45.3561982,51.7961298,-69.11955439999998,-13.376960199999997
15200.0,181.97896849812255,225.4188831338636,277.580016353226,-113.42724710933491,-83.89738655209025,-50.98463199755945,59.139582682021796,16.136523945728058,45.473232028397966,46.67002809970101,-66.09916050584755,-13.696984800084651
15400.0,205.4729612037096,213.44201097033147,286.9737431390614,-112.82429127715406,-84.309970417417,-51.499588979382615,52.59499481733195,14.206709537743604,45.68665243372175,39.66283363277794,-62.90092467841248,-12.403661462349858
15600.0,222.18235338023533,202.15396197986755,292.4567165482839,-112.86975403030576,-84.47413496669864,-48.762193002426066,47.44830031163119,13.231106136895123,46.035959404846544,31.979921156004384,-59.866420058053656,-10.185895844572743
15800.0,233.8142982911741,192.7289570329358,294.4669207716709,-113.94229889563832,-84.49534737065353,-43.948057923646346,43.621215070620295,13.145462904031097,46.560652930647564,24.826665426153884,-57.33721978512988,-7.732593604530414
16000.0,242.07594920000003,186.34121700000003,293.44234000000006,-116.4205894,-84.47907480000002,-38.23279760000001,41.035455,13.885529000000002,47.300233000000006,19.4084412,-55.654897000000005,-5.7326604
16200.0,248.4243176667152,183.7793072442323,289.898502546505,-120.51508269786368,-84.50756779103449,-32.61093737402564,39.57915499345281,15.34935876451404,48.267671253693756,16.605844783822256,-55.047963675792325,-4.711779526100813
16400.0,253.31584843743227,184.28917109963652,284.66111321424347,-125.76341045420016,-84.57021034236531,-27.35264853058982,39.00612589658809,17.284227252740276,49.369825940177385,16.00035868192404,-55.29268711671291,-4.542744827320937
16600.0,256.95684455479176,186.7310963929246,278.6334209287296,-131.5349979616048,-84.63316981817891,-22.5470138401412,39.03659754299697,19.39971469870949,50.48702695981412,16.84868694811469,-56.05227345973736,-4.935127785490655
16800.0,259.5536090614342,189.96537095080848,272.7186746154771,-137.19927051267297,-84.66261358266166,-18.283116073128387,39.390799766270575,21.405401336452474,51.499604212967256,18.407533636203564,-56.9899288418412,-5.598499882440249
17000.0,261.3124450000001,192.8522826,267.82012320000007,-142.12565340000003,-84.624709,-14.650038000000002,39.7889624,23.010867400000006,52.28788759999999,19.933602800000003,-57.768859400000004,-6.2424326
17200.0,262.42829504581704,194.50423070000733,264.6081558339546,-145.8497256052105,-84.49869520737194,-11.686775083138059,40.00801445456701,24.003331469015812,52.76548099282703,20.83800437820998,-58.13307890618322,-6.638637979112102
17400.0,263.0506604049617,195.04206074152256,262.82172257356507,-148.57168086604548,-84.31609843392187,-9.231973552658127,40.051681647515736,24.480565505695328,52.97908414956874,21.14947184912592,-58.14983167233589,-6.807390297166396
17600.0,263.31768191619796,194.83872974803424,261.96691370119845,-150.6578666092752,-84.12151668178582,-7.074192330609167,39.98038887318097,24.617979817866946,53.00867079989695,21.05114457593687,-57.967169645396964,-6.83110439066464
17800.0,263.3675004182894,194.2671947430306,261.54981949922114,-152.47463026167,-83.95954795309987,-5.0019903390401375,39.85456102589746,24.590984713359045,52.93421467348343,20.726161921831885,-57.73314477230535,-6.79219509610859
18000.0,263.33825675,193.70041274999994,261.07653025,-154.38831924999997,-83.87479025000002,-2.803926500000001,39.734623,24.5749905,52.835689499999994,20.35766325,-57.59580899999998,-6.773077249999999
18200.0,263.34220248281713,193.4325258469386,260.1686926392772,-156.6567048268945,-83.8979428514779,-0.3466816902221466,39.66816403467919,24.706143913022757,52.777429685398104,20.09348048413785,-57.6660510274748,-6.836111021450783
18400.0,263.3880321191213,193.4424163298732,258.9101789662964,-159.10325354841805,-84.00411014394733,2.1905753948223157,39.65143074854898,24.963537397278444,52.76121234074763,19.940215789972306,-57.906106561943496,-6.963437910013477
18600.0,263.45855089401704,193.63015154933856,257.50041793367717,-161.44285579649446,-84.15449779067787,4.550554104977853,39.66783410507919,25.286999825022754,52.7731752533981,19.869163893737845,-58.24104806267481,-7.117144747850781
18800.0,263.5365640426085,193.8957988558693,256.13883824403854,-163.39040195304725,-84.31031145493894,6.475963790088928,39.700785067739595,25.616360068511376,52.799456210699056,19.851619521668923,-58.595947988937404,-7.259318367125392
19000.0,263.60487679999994,194.1394256,255.0248686,-164.6607824,-84.4327568,7.709513800000002,39.73369460000001,25.891447,52.82619300000001,19.8588774,-58.8958788,-7.3520455999999985
19200.0,263.64998295371487,194.28184225103843,254.3108190029368,-165.05286466841162,-84.49206744151665,8.072891092826644,39.753294901116256,26.06572052769317,52.842280656780574,19.867126079238645,-59.08255376151755,-7.367159741884764
19400.0,263.67313050095316,194.3268317533846,253.96052464924915,-164.70142488588223,-84.49458880468887,7.70369305976886,39.759603113488325,26.1471647035909,52.84764320904077,19.872129406984865,-59.164249364690086,-7.315479941179687
19600.0,263.67925599133406,194.29892017021152,253.89070203409304,-163.82521632914697,-84.45569426710277,6.818494700297755,39.7559576153023,26.157394615642033,52.84496193291068,19.874545055111756,-59.165882907103835,-7.217571809532226
19800.0,263.67329597447656,194.22263356469227,254.01806765262455,-162.6429922749411,-84.39075720634442,5.63387101388443,39.74569678474417,26.118025351795445,52.83691810452038,19.87503069549243,-59.11237168634504,-7.0940009585898425
20000.0,263.660187,194.12249799999998,254.259338,-161.373506,-84.315151,4.366397,39.73215900000001,26.050671999999995,52.826193,19.874244,-59.028633,-6.965332999999999
20200.0,263.64486561752346,194.02303953930772,254.5312295713755,-160.23551078105888,-84.24424902565559,3.232647658115572,39.718682639255846,25.976949648204545,52.81546789547963,19.872842640507574,-58.93958414565497,-6.852133545410156
20400.0,263.63226837666605,193.94878424578854,254.75045886190713,-159.4477598948531,-84.19342466089728,2.4491979877022496,39.708606080697734,25.918473384357966,52.80742406708936,19.871484288888254,-58.870142420896194,-6.7749682064677765
20600.0,263.6273318270469,193.92425818261546,254.83374236675093,-159.2290066181178,-84.17805128331116,2.232622988231142,39.70526770251169,25.8968582964091,52.80474279095925,19.870826617015144,-58.84522512330993,-6.754402594820315
20800.0,263.6349925182851,193.97398741296158,254.6977965810632,-159.79800422758834,-84.21350227048336,2.799497659173356,39.712005882883766,25.933719472306827,52.81010534321943,19.871527296761357,-58.889749550482435,-6.811002322115236
