BAEK26/lfd/sumin/A_CE.csv
timestamp,x,y,z,roll,pitch,yaw,joint1,joint2,joint3,joint4,joint5,joint6,gripper
140.0,-133.209595,231.130341,183.414597,-150.548557,-84.935779,56.707065,129.411571,35.203959,40.300935,43.923346,-81.806971,-0.867916,1
142.77777777777777,-133.209595,231.130341,183.414597,-150.548557,-84.935779,56.707065,129.411571,35.203959,40.300935,43.923346,-81.806971,-0.867916,1
145.55555555555554,-133.209595,231.130341,183.414597,-150.548557,-84.935779,56.707065,129.411571,35.203959,40.300935,43.923346,-81.806971,-0.867916,1
148.33333333333331,-133.209595,231.130341,183.414597,-150.548557,-84.935779,56.707065,129.411571,35.203959,40.300935,43.923346,-81.806971,-0.867916,1
151.1111111111111,-133.209595,231.130341,183.414597,-150.548557,-84.935779,56.707065,129.411571,35.203959,40.300935,43.923346,-81.806971,-0.867916,1
153.88888888888886,-133.209595,231.130341,183.414597,-150.548557,-84.935779,56.707065,129.411571,35.203959,40.300935,43.923346,-81.806971,-0.867916,1
156.66666666666663,-133.209595,231.130341,183.414597,-150.548557,-84.935779,56.707065,129.411571,35.203959,40.300935,43.923346,-81.806971,-0.867916,1
159.4444444444444,-133.209595,231.130341,183.414597,-150.548557,-84.935779,56.707065,129.411571,35.203959,40.300935,43.923346,-81.806971,-0.867916,1
162.22222222222217,-133.209595,231.130341,183.414597,-150.548557,-84.935779,56.707065,129.411571,35.203959,40.300935,43.923346,-81.806971,-0.867916,1
164.99999999999994,-133.209595,231.130341,183.414597,-150.548557,-84.935779,56.707065,129.411571,35.203959,40.300935,43.923346,-81.806971,-0.867916,1
167.77777777777771,-133.209595,231.130341,183.414597,-150.548557,-84.935779,56.707065,129.411571,35.203959,40.300935,43.923346,-81.806971,-0.867916,1
170.5555555555555,-133.209595,231.130341,183.414597,-150.548557,-84.935779,56.707065,129.411571,35.203959,40.300935,43.923346,-81.806971,-0.867916,1
173.33333333333326,-133.209595,231.130341,183.414597,-150.548557,-84.935779,56.707065,129.411571,35.203959,40.300935,43.923346,-81.806971,-0.867916,1
176.11111111111103,-133.209595,231.130341,183.414597,-150.548557,-84.935779,56.707065,129.411571,35.203959,40.300935,43.923346,-81.806971,-0.867916,1
178.8888888888888,-133.209595,231.130341,183.414597,-150.548557,-84.935779,56.707065,129.411571,35.203959,40.300935,43.923346,-81.806971,-0.867916,1
181.66666666666657,-133.209595,231.130341,183.414597,-150.548557,-84.935779,56.707065,129.411571,35.203959,40.300935,43.923346,-81.806971,-0.867916,1
184.4444444444444,-133.209595,231.130341,183.414597,-150.548557,-84.935779,56.707065,129.411571,35.203959,40.300935,43.923346,-81.806971,-0.867916,1
187.2222222222221,-133.209595,231.130341,183.414597,-150.548557,-84.935779,56.707065,129.411571,35.203959,40.300935,43.923346,-81.806971,-0.867916,1
189.9999999999999,-133.209595,231.130341,183.414597,-150.548557,-84.935779,56.707065,129.411571,35.203959,40.300935,43.923346,-81.806971,-0.867916,1
192.7777777777777,-133.209595,231.130341,183.414597,-150.548557,-84.935779,56.707065,129.411571,35.203959,40.300935,43.923346,-81.806971,-0.867916,1
195.55555555555543,-133.209595,231.130341,183.414597,-150.548557,-84.935779,56.707065,129.411571,35.203959,40.300935,43.923346,-81.806971,-0.867916,1
198.3333333333332,-133.209595,231.130341,183.414597,-150.548557,-84.935779,56.707065,129.411571,35.203959,40.300935,43.923346,-81.806971,-0.867916,1
201.11111111111097,-133.209595,231.130341,183.414597,-150.548557,-84.935779,56.707065,129.411571,35.203959,40.300935,43.923346,-81.806971,-0.867916,1
203.8888888888888,-133.209595,231.130341,183.414597,-150.548557,-84.935779,56.707065,129.411571,35.203959,40.300935,43.923346,-81.806971,-0.867916,1
206.6666666666665,-133.209595,231.130341,183.414597,-150.548557,-84.935779,56.707065,129.411571,35.203959,40.300935,43.923346,-81.806971,-0.867916,1
209.4444444444443,-133.209595,231.130341,183.414597,-150.548557,-84.935779,56.707065,129.411571,35.203959,40.300935,43.923346,-81.806971,-0.867916,1
212.2222222222221,-133.209595,231.130341,183.414597,-150.548557,-84.935779,56.707065,129.411571,35.203959,40.300935,43.923346,-81.806971,-0.867916,1
214.99999999999983,-133.209595,231.130341,183.414597,-150.548557,-84.935779,56.707065,129.411571,35.203959,40.300935,43.923346,-81.806971,-0.867916,1
217.7777777777776,-133.209595,231.130341,183.414597,-150.548557,-84.935779,56.707065,129.411571,35.203959,40.300935,43.923346,-81.806971,-0.867916,1
220.55555555555537,-133.209595,231.130341,183.414597,-150.548557,-84.935779,56.707065,129.411571,35.203959,40.300935,43.923346,-81.806971,-0.867916,1
223.3333333333332,-133.209595,231.130341,183.414597,-150.548557,-84.935779,56.707065,129.411571,35.203959,40.300935,43.923346,-81.806971,-0.867916,1
226.1111111111109,-133.209595,231.130341,183.414597,-150.548557,-84.935779,56.707065,129.411571,35.203959,40.300935,43.923346,-81.806971,-0.867916,1
228.8888888888887,-133.209595,231.130341,183.414597,-150.548557,-84.935779,56.707065,129.411571,35.203959,40.300935,43.923346,-81.806971,-0.867916,1
231.6666666666665,-133.209595,231.130341,183.414597,-150.548557,-84.935779,56.707065,129.411571,35.203959,40.300935,43.923346,-81.806971,-0.867916,1
234.44444444444423,-133.209595,231.130341,183.414597,-150.548557,-84.935779,56.707065,129.411571,35.203959,40.300935,43.923346,-81.806971,-0.867916,1
237.222222222222,-133.209595,231.130341,183.414597,-150.548557,-84.935779,56.707065,129.411571,35.203959,40.300935,43.923346,-81.806971,-0.867916,1
239.99999999999977,-133.209595,231.130341,183.414597,-150.548557,-84.935779,56.707065,129.411571,35.203959,40.300935,43.923346,-81.806971,-0.867916,1
242.7777777777776,-133.209595,231.130341,183.414597,-150.548557,-84.935779,56.707065,129.411571,35.203959,40.300935,43.923346,-81.806971,-0.867916,1
245.5555555555553,-133.209595,231.130341,183.414597,-150.548557,-84.935779,56.707065,129.411571,35.203959,40.300935,43.923346,-81.806971,-0.867916,1
248.3333333333331,-133.209595,231.130341,183.414597,-150.548557,-84.935779,56.707065,129.411571,35.203959,40.300935,43.923346,-81.806971,-0.867916,1
251.1111111111109,-133.209595,231.130341,183.414597,-150.548557,-84.935779,56.707065,129.411571,35.203959,40.300935,43.923346,-81.806971,-0.867916,1
253.88888888888863,-133.209595,231.130341,183.414597,-150.548557,-84.935779,56.707065,129.411571,35.203959,40.300935,43.923346,-81.806971,-0.867916,1
256.6666666666664,-133.209595,231.130341,183.414597,-150.548557,-84.935779,56.707065,129.411571,35.203959,40.300935,43.923346,-81.806971,-0.867916,1
259.4444444444442,-133.209595,231.130341,183.414597,-150.548557,-84.935779,56.707065,129.411571,35.203959,40.300935,43.923346,-81.806971,-0.867916,1
262.22222222222194,-133.209595,231.130341,183.414597,-150.548557,-84.935779,56.707065,129.411571,35.203959,40.300935,43.923346,-81.806971,-0.867916,1
264.9999999999997,-133.209595,231.130341,183.414597,-150.548557,-84.935779,56.707065,129.411571,35.203959,40.300935,43.923346,-81.806971,-0.867916,1
267.7777777777775,-133.209595,231.130341,183.414597,-150.548557,-84.935779,56.707065,129.411571,35.203959,40.300935,43.923346,-81.806971,-0.867916,1
270.55555555555526,-133.209595,231.130341,183.414597,-150.548557,-84.935779,56.707065,129.411571,35.203959,40.300935,43.923346,-81.806971,-0.867916,1
273.33333333333303,-133.209595,231.130341,183.414597,-150.548557,-84.935779,56.707065,129.411571,35.203959,40.300935,43.923346,-81.806971,-0.867916,1
276.1111111111108,-133.209595,231.130341,183.414597,-150.548557,-84.935779,56.707065,129.411571,35.203959,40.300935,43.923346,-81.806971,-0.867916,1
278.8888888888886,-133.209595,231.130341,183.414597,-150.548557,-84.935779,56.707065,129.411571,35.203959,40.300935,43.923346,-81.806971,-0.867916,1
281.66666666666634,-133.209595,231.130341,183.414597,-150.548557,-84.935779,56.707065,129.411571,35.203959,40.300935,43.923346,-81.806971,-0.867916,1
284.4444444444441,-133.209595,231.130341,183.414597,-150.548557,-84.935779,56.707065,129.411571,35.203959,40.300935,43.923346,-81.806971,-0.867916,1
287.2222222222219,-133.209595,231.130341,183.414597,-150.548557,-84.935779,56.707065,129.411571,35.203959,40.300935,43.923346,-81.806971,-0.867916,1
289.99999999999966,-133.209595,231.130341,183.414597,-150.548557,-84.935779,56.707065,129.411571,35.203959,40.300935,43.923346,-81.806971,-0.867916,1
292.77777777777743,-133.209595,231.130341,183.414597,-150.548557,-84.935779,56.707065,129.411571,35.203959,40.300935,43.923346,-81.806971,-0.867916,1
295.5555555555552,-133.209595,231.130341,183.414597,-150.548557,-84.935779,56.707065,129.411571,35.203959,40.300935,43.923346,-81.806971,-0.867916,1
298.333333333333,-133.209595,231.130341,183.414597,-150.548557,-84.935779,56.707065,129.411571,35.203959,40.300935,43.92505711111112,-81.806971,-0.867916,1
301.11111111111074,-133.209595,231.130341,183.414597,-150.548557,-84.935779,56.707065,129.411571,35.203959,40.300935,43.92709414814815,-81.806971,-0.867916,1
303.8888888888885,-133.209595,231.130341,183.414597,-150.548557,-84.935779,56.707065,129.411571,35.203959,40.300935,43.929131185185184,-81.806971,-0.867916,1
306.6666666666663,-133.209595,231.130341,183.414597,-150.548557,-84.935779,56.707065,129.411571,35.203959,40.300935,43.93116822222222,-81.806971,-0.867916,1
309.44444444444406,-133.209595,231.130341,183.414597,-150.548557,-84.935779,56.707065,129.411571,35.203959,40.300935,43.93320525925926,-81.806971,-0.867916,1
312.22222222222183,-133.20392551851853,231.1299282148148,183.41430977777776,-150.54803989899773,-84.93566926654906,56.7051050527037,129.411571,35.203959,40.300935,43.93881851851852,-81.806971,-0.867916,1
314.9999999999996,-133.19104033333335,231.12899006666663,183.413657,-150.54648726649285,-84.93533978406484,56.69922017167103,129.411571,35.203959,40.300935,43.94898333333333,-81.806971,-0.867916,1
317.7777777777774,-133.17815514814816,231.1280519185185,183.4130042222222,-150.54417885775334,-84.93484991911373,56.690470702132046,129.411571,35.203959,40.300935,43.95914814814815,-81.806971,-0.867916,1
320.55555555555515,-133.16526996296298,231.1271137703704,183.41235144444445,-150.54131885042378,-84.93424300001544,56.67963053046619,129.411571,35.203959,40.300935,43.96931296296296,-81.806971,-0.867916,1
323.3333333333329,-133.1523847777778,231.1261756222222,183.41169866666667,-150.5380562622897,-84.93355064967496,56.66726447284021,129.411571,35.203959,40.300935,43.979477777777774,-81.806971,-0.867916,1
326.1111111111107,-133.13958548888888,231.125243237037,183.4110501851852,-150.5345079917623,-84.93279766886818,56.653814451995416,129.411571,35.203959,40.300935,43.9896430074074,-81.806971,-0.867916,1
328.88888888888846,-133.12884771111112,231.1244491629629,183.4105048148148,-150.53094654665938,-84.93204174117525,56.64028599142268,129.411571,35.203959,40.300935,43.99981819259259,-81.806971,-0.867916,1
331.66666666666623,-133.11810993333333,231.12365508888888,183.40995944444444,-150.52737548617438,-84.93128366271578,56.62670028210175,129.411571,35.203959,40.300935,44.009993377777775,-81.806971,-0.867916,1
334.444444444444,-133.10737215555557,231.1228610148148,183.40941407407408,-150.5237974079625,-84.93052401453272,56.613072790137586,129.411571,35.203959,40.300935,44.02016856296296,-81.806971,-0.867916,1
337.2222222222218,-133.09663437777778,231.12206694074075,183.4088687037037,-150.5202142079062,-84.92976322069663,56.5994148033708,129.411571,35.203959,40.300935,44.03034374814815,-81.806971,-0.867916,1
339.99999999999955,-133.0858966,231.1212728666667,183.40832333333333,-150.5166272697036,-84.9290015907128,56.58573456016175,129.411571,35.203959,40.300935,44.04051893333333,-81.806971,-0.867916,1
342.7777777777773,-133.06785733333334,231.1199188888889,183.4074064444445,-150.51238166195458,-84.92809796872085,56.56952590662163,129.411571,35.203959,40.300935,44.05760833333333,-81.806971,-0.867916,1
345.5555555555551,-133.04571097916667,231.11824996527776,183.4062805763889,-150.50728636135665,-84.92701118750895,56.55005881479225,129.411571,35.203959,40.300935,44.078586979166666,-81.806971,-0.867916,1
348.33333333333286,-133.023564625,231.11658104166668,183.40515470833336,-150.50157091771112,-84.92579072867814,56.52821357201847,129.411571,35.203959,40.300935,44.099565625,-81.806971,-0.867916,1
351.11111111111063,-133.00141827083334,231.1149121180556,183.4040288402778,-150.49540286651455,-84.92447270606753,56.50463265055069,129.411571,35.203959,40.300935,44.12054427083333,-81.806971,-0.867916,1
353.8888888888884,-132.97927191666668,231.1132431944445,183.40290297222225,-150.4889044825084,-84.9230834771383,56.4797849547699,129.411571,35.203959,40.300935,44.141522916666666,-81.806971,-0.867916,1
356.6666666666662,-132.95712556249998,231.11157427083336,183.40177710416668,-150.48216500715313,-84.92164227871976,56.45401271162579,129.411571,35.203959,40.300935,44.1625015625,-81.806971,-0.867916,1
359.44444444444395,-132.92235077037037,231.10886502222223,183.4000032444445,-150.47414111358228,-84.91991861679593,56.423238114754874,129.411571,35.203959,40.300935,44.19545787407407,-81.806971,-0.867916,1
362.2222222222217,-132.8858539185185,231.10601391111112,183.39814102222223,-150.46502864182924,-84.91795545510607,56.38822245673903,129.411571,35.203959,40.300935,44.230047503703695,-81.806971,-0.867916,1
364.9999999999995,-132.84935706666667,231.1031628,183.3962788,-150.45512167805202,-84.91581749599973,56.35011148659148,129.411571,35.203959,40.300935,44.26463713333332,-81.806971,-0.867916,1
367.77777777777726,-132.8128602148148,231.1003116888889,183.39441657777772,-150.44463485920625,-84.91355196208478,56.309741422112296,129.411571,35.203959,40.300935,44.29922676296295,-81.806971,-0.867916,1
370.55555555555503,-132.77636336296297,231.09746057777772,183.39255435555555,-150.43372483674068,-84.91119331848824,56.26772257166837,129.411571,35.203959,40.300935,44.33381639259258,-81.806971,-0.867916,1
373.3333333333328,-132.73135483333334,231.09388625,183.39029666666667,-150.42173037278644,-84.90860214170559,56.221541306519796,129.411571,35.203959,40.30095408333334,44.376521416666655,-81.806971,-0.867916,1
376.1111111111106,-132.67712531944446,231.0895284375,183.3876105555556,-150.40810423624615,-84.90566295955281,56.169116482135905,129.411571,35.203959,40.300993840277776,44.42801811805554,-81.806971,-0.867916,1
378.8888888888884,-132.62289580555557,231.085170625,183.38492444444444,-150.39328723360467,-84.90246978784243,56.112134834828304,129.411571,35.203959,40.30103359722222,44.47951481944443,-81.806971,-0.867916,1
381.6666666666661,-132.56866629166666,231.0808128125,183.38223833333333,-150.37760108473677,-84.89909124343119,56.05182741861623,129.411571,35.203959,40.30107335416667,44.53101152083333,-81.806971,-0.867916,1
384.4444444444439,-132.51443677777775,231.076455,183.37955222222223,-150.3612805948945,-84.89557740590571,55.98909271062847,129.411571,35.203959,40.30111311111112,44.58250822222221,-81.806971,-0.867916,1
387.22222222222166,-132.4602072638889,231.0720971875,183.3768661111111,-150.3444971352326,-84.89196482554125,55.92458645881626,129.411571,35.203959,40.30115286805555,44.6340049236111,-81.806971,-0.867916,1
389.9999999999994,-132.39256326666668,231.06641126666668,183.37351386666663,-150.32626067188704,-84.88801727806285,55.85424812134343,129.4115556666667,35.203959,40.30120213333333,44.69823306666665,-81.806971,-0.867916,1
392.7777777777772,-132.31970252592595,231.0602088592593,183.3699025703704,-150.30653008970353,-84.88372301792465,55.77788805305522,129.41153437037036,35.203959,40.301255096296295,44.76741232592591,-81.806971,-0.867916,1
395.555555555555,-132.2468417851852,231.05400645185185,183.3662912740741,-150.28570903416738,-84.87917571170546,55.69713306193763,129.4115130740741,35.203959,40.30130805925926,44.83659158518517,-81.806971,-0.867916,1
398.3333333333328,-132.17398104444447,231.04780404444443,183.3626799777778,-150.2640921034287,-84.87444372137593,55.613170463693706,129.41149177777777,35.203959,40.301361022222224,44.905770844444426,-81.806971,-0.867916,1
401.1111111111105,-132.10112030370374,231.04160163703705,183.3590686814815,-150.24189430811737,-84.86957694049572,55.52686681331387,129.41147048148147,35.203959,40.30141398518519,44.97495010370368,-81.806971,-0.867916,1
403.8888888888883,-132.0289268814815,231.0352744296296,183.35544926666668,-150.21942206684776,-84.8646227979382,55.43917834779778,129.41143905185183,35.203959,40.30146357037037,45.0506382222222,-81.806971,-0.867916,1
406.66666666666606,-131.95815151111114,231.02868202222223,183.3518126,-150.1970671985893,-84.85962830053691,55.35116723140528,129.4113860888889,35.203959,40.30150597777778,45.140157666666646,-81.806971,-0.867916,1
409.44444444444383,-131.88737614074077,231.02208961481483,183.34817593333327,-150.17479799429393,-84.85460435040358,55.2629206302749,129.41133312592592,35.203959,40.30154838518519,45.22967711111109,-81.806971,-0.867916,1
412.2222222222216,-131.8166007703704,231.0154972074074,183.34453926666663,-150.15259131130986,-84.8495589043767,55.17450216207137,129.41128016296295,35.203959,40.30159079259259,45.319196555555536,-81.806971,-0.867916,1
414.9999999999994,-131.74582540000003,231.0089048,183.3409026,-150.1304302591165,-84.84449776970548,55.08595825775213,129.41122719999998,35.203959,40.3016332,45.408715999999984,-81.806971,-0.867916,1
417.7777777777772,-131.67505002962963,231.0023123925926,183.33726593333333,-150.10830251027227,-84.83942518477464,54.99732280466303,129.41117423703705,35.203959,40.30167560740741,45.498235444444425,-81.806971,-0.867916,1
420.5555555555549,-131.5861660138889,230.99356697222225,183.332734375,-150.08481083020283,-84.83398589411061,54.902599166799405,129.41113342361112,35.203959,40.30173394444444,45.58611230555554,-81.806971,-0.867916,1
423.3333333333327,-131.49570733333334,230.98463433333333,183.328125,-150.0602029770997,-84.82824780477713,54.80290850783855,129.41109366666666,35.203959,40.30179366666667,45.67384633333332,-81.806971,-0.867916,1
426.11111111111046,-131.4052486527778,230.97570169444444,183.323515625,-150.03478049204145,-84.82229163909085,54.69959269938438,129.41105390972223,35.203959,40.30185338888889,45.76158036111109,-81.806971,-0.867916,1
428.8888888888882,-131.31478997222226,230.9667690555556,183.31890625,-150.00876345291115,-84.81617631173314,54.59363109809148,129.4110141527778,35.203959,40.30191311111111,45.84931438888887,-81.806971,-0.867916,1
431.666666666666,-131.2243312916667,230.95783641666668,183.314296875,-149.98231248218465,-84.80994482121822,54.48573848133055,129.41097439583334,35.203959,40.30197283333333,45.93704841666665,-81.806971,-0.867916,1
434.4444444444438,-131.13101158333336,230.9484358055556,183.3095243055556,-149.95536938024028,-84.8035705111851,54.37552284160827,129.41093780555556,35.203959,40.30202936111111,46.02356174999998,-81.806971,-0.867916,1
437.2222222222216,-131.0226714791667,230.93657834027772,183.30389496527772,-149.92714609745957,-84.79678726277632,54.258814920592535,129.4109178402778,35.203959,40.30206911805556,46.10366643749998,-81.806971,-0.867916,1
439.9999999999993,-130.91433137500002,230.924720875,183.298265625,-149.89798848264775,-84.78970555323434,54.13736864840398,129.410897875,35.203959,40.302108875,46.18377112499998,-81.806971,-0.867916,1
442.7777777777771,-130.80599127083337,230.91286340972223,183.29263628472225,-149.86814895140697,-84.7824060136883,54.01246412004596,129.41087790972222,35.203959,40.30214863194445,46.263875812499975,-81.806971,-0.867916,1
445.55555555555486,-130.6976511666667,230.90100594444445,183.28700694444444,-149.8378117276965,-84.77494749226693,53.885035604904914,129.41085794444444,35.203959,40.302188388888894,46.34398049999998,-81.806971,-0.867916,1
448.33333333333263,-130.58931106250003,230.88914847916664,183.28137760416664,-149.80711126622865,-84.76737293891142,53.755764973688954,129.41083797916664,35.203959,40.30222814583333,46.424085187499976,-81.806971,-0.867916,1
451.1111111111104,-130.47470914814818,230.8761045925926,183.2754128148148,-149.7840042732378,-84.76002720789837,53.63142797566589,129.4108005185185,35.203959,40.302286,46.51935125925922,-81.806971,-0.8711712592592572,1
453.8888888888882,-130.35071451851854,230.86128107407407,183.26894485185184,-149.77822718899202,-84.75331874274379,53.520108894432354,129.4107368148148,35.203959,40.302371,46.637359407407374,-81.806971,-0.8793094074074053,1
456.666666666666,-130.2267198888889,230.8464575555556,183.2624768888889,-149.78509823099267,-84.74707538211737,53.41829085890201,129.4106731111111,35.203959,40.302456,46.75536755555552,-81.806971,-0.8874475555555534,1
459.4444444444437,-130.1027252592593,230.83163403703705,183.25600892592595,-149.80120042936576,-84.74117147514167,53.32340710255888,129.4106094074074,35.203959,40.302541000000005,46.87337570370367,-81.806971,-0.8955857037037016,1
462.2222222222215,-129.97873062962967,230.8168105185185,183.24954096296293,-149.8240399298745,-84.73551531630432,53.23358428680568,129.4105457037037,35.203959,40.302626,46.99138385185182,-81.806971,-0.9037238518518496,1
464.99999999999926,-129.85473600000003,230.801987,183.243073,-149.85179660849565,-84.73003997490673,53.14745516710413,129.410482,35.203959,40.302711,47.10939199999997,-81.806971,-0.9118619999999976,1
467.777777777777,-129.70767803703708,230.782727,183.2354378148148,-149.8865302181456,-84.72449593596366,53.061410558588726,129.41041829629629,35.203959,40.30287007407408,47.24976662962959,-81.806971,-0.9220373703703676,1
470.5555555555548,-129.5606200740741,230.763467,183.22780262962965,-149.9263558975671,-84.71890175854375,52.97542763003756,129.4103545925926,35.203959,40.30302914814815,47.39014125925922,-81.806971,-0.932212740740738,1
473.3333333333326,-129.41356211111116,230.744207,183.22016744444448,-149.9698979924801,-84.71327098786797,52.88948971822514,129.41029088888888,35.203959,40.30318822222223,47.53051588888885,-81.806971,-0.9423881111111084,1
476.1111111111104,-129.2665041481482,230.724947,183.2125322592593,-150.01615249015367,-84.70761350983172,52.80358466159987,129.41022718518516,35.203959,40.303347296296295,47.67089051851848,-81.806971,-0.9525634814814788,1
478.8888888888881,-129.1194461851852,230.705687,183.20489707407407,-150.06438661813294,-84.70193653959431,52.717703584128834,129.41016348148148,35.203959,40.30350637037037,47.81126514814811,-81.806971,-0.962738851851849,1
481.6666666666659,-128.96493456250005,230.68428341666663,183.1969189375,-150.11829695620114,-84.69633403500413,52.63411699868939,129.410072375,35.203959,40.30373114583333,47.95896885416663,-81.806971,-0.974818479166663,1
484.44444444444366,-128.80545383333336,230.6614507777778,183.18871216666668,-150.17917096708115,-84.69084500664341,52.55372302800268,129.40996299999998,35.203959,40.30399972222222,48.11155861111107,-81.806971,-0.9881676111111074,1
487.22222222222143,-128.6459731041667,230.6386181388889,183.1805053958333,-150.24512737130541,-84.68543879820389,52.47565916736112,129.40985362499998,35.203959,40.30426829861111,48.26414836805552,-81.806971,-1.0015167430555518,1
489.9999999999992,-128.48649237500004,230.6157855,183.172298625,-150.31479312874083,-84.68009303536937,52.39929592306168,129.40974425,35.203959,40.304536875,48.41673812499996,-81.806971,-1.014865874999996,1
492.777777777777,-128.32701164583338,230.59295286111112,183.16409185416663,-150.38716613457535,-84.67479138838418,52.32417386303552,129.409634875,35.203959,40.304805451388894,48.5693278819444,-81.806971,-1.028215006944441,1
495.5555555555548,-128.1675309166667,230.57012022222224,183.1558850833333,-150.4615150088369,-84.6695219390776,52.24995767364114,129.4095255,35.203959,40.30507402777778,48.72191763888885,-81.806971,-1.041564138888885,1
498.3333333333325,-127.99068691111115,230.5426551777778,183.1468412,-150.5507745468103,-84.66465989415639,52.18533095078078,129.40936535555554,35.203959,40.30545564444444,48.89159973333329,-81.806971,-1.060785599999994,1
501.1111111111103,-127.81053561481484,230.5143077703704,183.1376378666667,-150.65348198548287,-84.6601683155779,52.12940367335519,129.40919554074074,35.203959,40.3058587925926,49.06453751111106,-81.806971,-1.081125599999994,1
503.88888888888806,-127.63038431851857,230.48596036296297,183.1284345333333,-150.76600429094412,-84.65594711955836,52.07982563214033,129.40902572592591,35.203959,40.30626194074074,49.23747528888884,-81.806971,-1.1014655999999938,1
506.6666666666658,-127.45023302222226,230.4576129555556,183.1192312,-150.8856899159624,-84.65192326056989,52.03488154153322,129.40885591111112,35.203959,40.30666508888889,49.41041306666661,-81.806971,-1.121805599999994,1
509.4444444444436,-127.27008172592598,230.42926554814807,183.11002786666663,-151.0106036452617,-84.6480434267877,51.993319510991675,129.4086860962963,35.203959,40.30706823703704,49.5833508444444,-81.806971,-1.142145599999994,1
512.2222222222214,-127.10204789542487,230.4019214509804,183.10153237254903,-151.13751222253885,-84.64434421256597,51.95543938791344,129.4085209738562,35.203959,40.307516444444445,49.74496385620911,-81.806971,-1.161436803921563,1
514.9999999999991,-126.94943629411767,230.3758542941177,183.09393776470588,-151.26355927991392,-84.64087291797361,51.92179097731368,129.40836182352942,35.203959,40.308022,49.89216352941172,-81.806971,-1.1793931764705825,1
517.7777777777769,-126.7968246928105,230.3497871372549,183.0863431568628,-151.38897756234013,-84.63756796910694,51.891231055779485,129.40820267320262,35.203959,40.30852755555556,50.03936320261433,-81.806971,-1.1973495490196022,1
520.5555555555547,-126.64421309150332,230.32371998039216,183.0787485490196,-151.51393693727576,-84.63438442663484,51.8629252488045,129.4080435228758,35.203959,40.30903311111111,50.18656287581695,-81.806971,-1.2153059215686222,1
523.3333333333325,-126.49160149019612,230.29765282352943,183.07115394117648,-151.63856138143007,-84.63128949186566,51.836264593338285,129.407884372549,35.203959,40.30953866666667,50.33376254901956,-81.806971,-1.2332622941176414,1
526.1111111111102,-126.33898988888896,230.27158566666668,183.06355933333333,-151.7629413784342,-84.62825922687803,51.81080464148127,129.4077252222222,35.203959,40.310044222222224,50.480962222222175,-81.806971,-1.2512186666666605,1
528.888888888888,-126.1905624444445,230.2455699047619,183.05614153968253,-151.88887763040304,-84.6254041204329,51.78900546910493,129.4075843015873,35.203959,40.31054082539683,50.62430447619043,-81.806971,-1.2697079206349142,1
531.6666666666658,-126.05102633333338,230.21966335714288,183.0490994761905,-152.0196358646881,-84.62294876673332,51.775795057388784,129.4074821190476,35.203959,40.31101840476191,50.75944971428567,-81.806971,-1.2893295476190416,1
534.4444444444435,-125.91149022222228,230.19375680952385,183.04205741269843,-152.15391339281308,-84.62078517009185,51.76885309928821,129.40737993650794,35.203959,40.311495984126985,50.894594952380906,-81.806971,-1.3089511746031683,1
537.2222222222213,-125.77195411111116,230.1678502619048,183.0350153492064,-152.29075945568576,-84.6188345105269,51.76648613312012,129.40727775396826,35.203959,40.31197356349207,51.02974019047614,-81.806971,-1.3285728015872948,1
539.9999999999991,-125.63241800000004,230.14194371428573,183.0279732857143,-152.42948014768862,-84.61703926176449,51.76745819639469,129.40717557142858,35.203959,40.31245114285714,51.16488542857138,-81.806971,-1.3481944285714222,1
542.7777777777769,-125.48682620261444,230.1144801045752,183.0206725620915,-152.5704420076642,-84.6152823069324,51.77014818055685,129.40699452941178,35.203959,40.313051895424834,51.31647605228752,-81.806971,-1.3698610457516256,1
545.5555555555546,-125.32566264052294,230.08301262091504,183.01270671241832,-152.71528437985526,-84.61336010494269,51.77224299543995,129.40661070588237,35.203959,40.313969379084966,51.51035481045745,-81.806971,-1.3967862091503178,1
548.3333333333323,-125.16449907843143,230.0515451372549,183.0047408627451,-152.86295891978148,-84.61131729834148,51.77390342972185,129.40622688235294,35.203959,40.3148868627451,51.70423356862738,-81.806971,-1.42371137254901,1
551.1111111111102,-125.00333551633992,230.0200776535948,182.9967750130719,-153.01270049973618,-84.60918646921374,51.77524683402027,129.40584305882354,35.203959,40.31580434640523,51.89811232679732,-81.806971,-1.4506365359477034,1
553.888888888888,-124.8421719542484,229.98861016993465,182.9888091633987,-153.16395069601546,-84.60699139739181,51.776358855954605,129.40545923529413,35.203959,40.31672183006536,52.09199108496726,-81.806971,-1.4775616993463967,1
556.6666666666657,-124.68100839215693,229.95714268627447,182.9808433137255,-153.3163019465479,-84.60474943843859,51.777302004907824,129.4050754117647,35.203959,40.31763931372549,52.28586984313719,-81.806971,-1.504486862745089,1
559.4444444444434,-124.5149572222223,229.92437590476192,182.97276755555555,-153.4725878527157,-84.60252552270137,51.77992145107683,129.4047038888889,35.203959,40.31856641269841,52.4713989523809,-81.806971,-1.5309400952380865,1
562.2222222222213,-124.32324611111116,229.88478780952383,182.96411477777772,-153.64818349750584,-84.60058915905527,51.79321195994402,129.40439694444444,35.203959,40.31954399206349,52.61309240476186,-81.806971,-1.5549156904761825,1
564.9999999999991,-124.13153500000008,229.8451997142857,182.955462,-153.83787223507989,-84.59886266351667,51.814290677634204,129.40409,35.203959,40.32052157142857,52.754785857142814,-81.806971,-1.5788912857142778,1
567.7777777777768,-123.93982388888897,229.80561161904765,182.94680922222224,-154.03784672887778,-84.59728933891263,51.841053571154504,129.40378305555555,35.203959,40.32149915079365,52.89647930952376,-81.806971,-1.6028668809523727,1
570.5555555555545,-123.74811277777783,229.7660235238096,182.93815644444445,-154.24532821796186,-84.59582780516371,51.87196502509504,129.40347611111113,35.203959,40.32247673015873,53.03817276190471,-81.806971,-1.6268424761904674,1
573.3333333333323,-123.55471760000007,229.7258834,182.92970106666667,-154.4558752973175,-84.59431174113892,51.90290771424699,129.40317542222223,35.203959,40.32363748888889,53.18752055555549,-81.806971,-1.6508707333333248,1
576.1111111111102,-123.34897260000008,229.6816950666667,182.9226932888889,-154.65096192558224,-84.59175766419274,51.911898384056855,129.40292060740742,35.203959,40.32614156296297,53.39300018518512,-81.806971,-1.6752851777777695,1
578.8888888888879,-123.14322760000007,229.63750673333337,182.91568551111112,-154.8347648396566,-84.5884459999639,51.904867508913014,129.4026657925926,35.203959,40.32864563703704,53.598479814814745,-81.806971,-1.6996996222222136,1
581.6666666666656,-122.93748260000008,229.5933184,182.9086777333333,-155.0103324050221,-84.58458141536282,51.88614340870849,129.40241097777778,35.203959,40.33114971111111,53.80395944444437,-81.806971,-1.7241140666666577,1
584.4444444444434,-122.73173760000007,229.5491300666667,182.90166995555555,-155.1798894522894,-84.58031328526276,51.85888508083025,129.40215616296297,35.203959,40.333653785185184,54.009439074074,-81.806971,-1.7485285111111022,1
587.2222222222213,-122.52599260000008,229.5049417333333,182.89466217777772,-155.34505976025926,-84.57575062998703,51.82539809989787,129.40190134814813,35.203959,40.33615785925925,54.21491870370363,-81.806971,-1.7729429555555472,1
589.999999999999,-122.35737085714293,229.4683947142857,182.89175828571427,-155.5191048384317,-84.57244204963405,51.808898089301046,129.40165,35.203959,40.33954371428571,54.423124571428495,-81.80827242857143,-1.8095972857142704,1
592.7777777777767,-122.203185936508,229.43481931746032,182.8904503492064,-155.70432349208545,-84.57062003840933,51.81316982451215,129.4014,35.203959,40.34327248412698,54.63239064285706,-81.81007996825397,-1.8510115714285555,1
595.5555555555545,-122.04900101587307,229.40124392063493,182.8891424126984,-155.89769711039546,-84.5698829904285,51.83260168936975,129.40115,35.203959,40.34700125396825,54.841656714285634,-81.8118875079365,-1.8924258571428416,1
598.3333333333323,-121.89481609523816,229.3676685238096,182.88783447619048,-156.0970225790022,-84.56993779613157,51.86309808067706,129.40089999999998,35.203959,40.35073002380952,55.05092278571421,-81.81369504761905,-1.933840142857128,1
601.1111111111101,-121.74063117460324,229.33409312698416,182.8865265396825,-156.30069196857593,-84.57057053132694,51.90166984788228,129.40064999999998,35.203959,40.35445879365079,55.26018885714278,-81.81550258730158,-1.9752544285714129,1
603.8888888888878,-121.54490902962972,229.2887259185185,182.88267626666664,-156.51868220910956,-84.57091014624349,51.9458616678994,129.40035353333332,35.203959,40.3577372074074,55.44336637777771,-81.816081,-2.007879318518507,1
606.6666666666656,-121.32963995555563,229.23780962222224,182.8776296,-156.7523717124516,-84.57069939689659,51.99402644378601,129.4000352,35.203959,40.360803688888886,55.61426693333327,-81.816081,-2.036368022222211,1
609.4444444444434,-121.11437088148156,229.18689332592595,182.8725829333333,-156.99751922523257,-84.57008696761078,52.045090856834484,129.3997168666667,35.203959,40.36387017037037,55.78516748888882,-81.816081,-2.064856725925916,1
612.2222222222211,-120.89910180740748,229.1359770296297,182.86753626666663,-157.25102929502683,-84.56918137471675,52.09827155205336,129.39939853333334,35.203959,40.36693665185185,55.95606804444438,-81.816081,-2.0933454296296183,1
614.9999999999989,-120.68383273333345,229.08506073333336,182.8624896,-157.51064272511013,-84.56806181818436,52.152996802668234,129.3990802,35.203959,40.37000313333333,56.12696859999993,-81.816081,-2.121834133333321,1
617.7777777777767,-120.473143525926,229.03500445185188,182.85814552592592,-157.77001621833276,-84.56665125965023,52.205186247343235,129.39864602962965,35.203959,40.3735271037037,56.30755129629622,-81.816081,-2.151460725925913,1
620.5555555555545,-120.2742311185186,228.98715963703705,182.8556081185185,-158.0171431871026,-84.56468157862005,52.24610557525951,129.3979139925926,35.203959,40.37822747407407,56.51303092592585,-81.816081,-2.1840133185185064,1
623.3333333333322,-120.0753187111112,228.93931482222223,182.85307071111112,-158.25533210607438,-84.56230382550935,52.27879947846796,129.39718195555557,35.203959,40.382927844444445,56.71851055555548,-81.816081,-2.2165659111110982,1
626.11111111111,-119.8764063037038,228.89147000740743,182.8505333037037,-158.4869976449231,-84.55962824352555,52.305490106548675,129.39644991851853,35.203959,40.38762821481481,56.9239901851851,-81.816081,-2.24911850370369,1
628.8888888888878,-119.67749389629638,228.8436251925926,182.8479958962963,-158.71390213531137,-84.5567352929888,52.32779928156899,129.3957178814815,35.203959,40.39232858518518,57.12946981481473,-81.816081,-2.281671096296283,1
631.6666666666656,-119.47858148888896,228.79578037777785,182.8454584888889,-158.93733180405584,-84.55368369736397,52.3469106802902,129.39498584444445,35.203959,40.39702895555556,57.33494944444436,-81.816081,-2.3142236888888763,1
634.4444444444433,-119.27650191666676,228.7445433055556,182.842344875,-159.15816657229533,-84.55028662104122,52.36292009245136,129.39372497222223,35.203959,40.40168958333333,57.54256434722213,-81.816081,-2.346657736111098,1
637.222222222221,-119.07399045833344,228.6928436527778,182.8391526875,-159.37709944713222,-84.54660607579098,52.37656079680096,129.39239198611114,35.203959,40.40634479166667,57.75047042361102,-81.816081,-2.3790756180555417,1
639.9999999999989,-118.87147900000008,228.64114400000005,182.8359605,-159.59464423688357,-84.54271864250485,52.38847271446839,129.391059,35.203959,40.411,57.95837649999992,-81.816081,-2.411493499999987,1
642.7777777777767,-118.66896754166676,228.58944434722224,182.8327683125,-159.81117594135782,-84.53868021327091,52.39912288791485,129.3897260138889,35.203959,40.41565520833333,58.16628257638881,-81.816081,-2.443911381944432,1
645.5555555555544,-118.4664560833334,228.53774469444448,182.829576125,-160.02696825183574,-84.53453158058241,52.40885218517942,129.3883930277778,35.203959,40.420310416666666,58.3741886527777,-81.816081,-2.4763292638888754,1
648.3333333333321,-118.2677776111112,228.4877606481481,182.82710325925925,-160.24539074683082,-84.53053896018046,52.422215076978446,129.3868390925926,35.20395688888889,40.42503407407408,58.57769396296289,-81.81633564814814,-2.509943592592574,1
651.11111111111,-118.09720770370376,228.45035771604933,182.82990541975303,-160.48897826096123,-84.52839412406088,52.469804987343736,129.38366486419756,35.2039392962963,40.430259691358025,58.74892698765425,-81.81845771604938,-2.552331864197513,1
653.8888888888878,-117.92663779629636,228.41295478395065,182.8327075802469,-160.7509323079857,-84.52759788182159,52.54237527459576,129.3804906358025,35.2039217037037,40.43548530864197,58.92016001234561,-81.8205797839506,-2.594720135802452,1
656.6666666666655,-117.75606788888896,228.37555185185187,182.83550974074072,-161.02629105495234,-84.52778590244854,52.63317733474367,129.37731640740742,35.20390411111111,40.44071092592593,59.091393037036966,-81.82270185185185,-2.637108407407389,1
659.4444444444432,-117.58549798148157,228.3381489197531,182.83831190123456,-161.3114331389035,-84.5286922812143,52.73728574108622,129.37414217901235,35.20388651851852,40.44593654320988,59.26262606172832,-81.82482391975309,-2.6794966790123267,1
662.222222222221,-117.41492807407414,228.30074598765432,182.8411140617284,-161.60371553058002,-84.53012294920532,52.851105701541606,129.37096795061728,35.203868925925924,40.45116216049383,59.43385908641968,-81.82694598765431,-2.721884950617265,1
664.9999999999989,-117.24435816666671,228.2633430555556,182.84391622222225,-161.90120923149516,-84.53193626643058,52.97201357943932,129.36779372222222,35.20385133333333,40.45638777777778,59.60509211111104,-81.82906805555555,-2.764273222222205,1
667.7777777777766,-117.03936307407416,228.21657725925928,182.84626319259257,-162.20990499350802,-84.53368702283059,53.0968195472892,129.3632149111111,35.203831370370374,40.46208529629629,59.80736272592584,-81.83200503703704,-2.8107833703703493,1
670.5555555555543,-116.81500381481492,228.16454485185187,182.8483541185185,-162.53093823365202,-84.535199837418,53.223753334184046,129.35784602222222,35.20381007407408,40.468048259259255,60.02709198518509,-81.8354004074074,-2.859612074074052,1
673.3333333333321,-116.59064455555566,228.1125124444445,182.85044504444443,-162.86097590557125,-84.53653899165154,53.352240096591125,129.35247713333334,35.20378877777778,40.47401122222222,60.24682124444435,-81.83879577777778,-2.908440777777757,1
676.11111111111,-116.36628529629638,228.06048003703705,182.85253597037035,-163.19758540608726,-84.53775140095456,53.48186028852892,129.34710824444446,35.203767481481485,40.47997418518519,60.46655050370361,-81.84219114814815,-2.957269481481461,1
678.8888888888877,-116.14192603703714,228.00844762962967,182.85462689629628,-163.53899131488123,-84.53887130625738,53.612307706969,129.34173935555555,35.20374618518519,40.48593714814815,60.68627976296287,-81.84558651851852,-3.006098185185164,1
681.6666666666654,-115.91839073333344,227.9598582444445,182.85800368888889,-163.88455071796733,-84.54001175700837,53.744674916507115,129.33538753333335,35.20373,40.49228971111111,60.90258915555546,-81.84918304444444,-3.0554158222221983,1
684.4444444444432,-115.69746462222233,227.922171762963,182.86545239259257,-164.23520893049428,-84.54144605596785,53.88261074940359,129.32592308888889,35.20373,40.4998760074074,61.10806897037028,-81.85341656296296,-3.1062817481481253,1
687.222222222221,-115.4765385111112,227.88448528148152,182.8729010962963,-164.58958847741852,-84.54309481821694,54.02461080746659,129.31645864444445,35.20373,40.5074623037037,61.3135487851851,-81.85765008148148,-3.1571476740740523,1
689.9999999999987,-115.2556124000001,227.8467988,182.8803498,-164.94668401713614,-84.54490010516574,54.16957711502093,129.30699420000002,35.20373,40.5150486,61.51902859999991,-81.8618836,-3.208013599999977,1
692.7777777777765,-115.034686288889,227.8091123185185,182.8877985037037,-165.30576180732263,-84.5468196306943,54.31670832134056,129.29752975555556,35.20373,40.522634896296296,61.72450841481472,-81.86611711851852,-3.258879525925902,1
695.5555555555543,-114.81376017777788,227.77142583703707,182.89524720740732,-165.6662863307003,-84.54882253254067,54.46541956557598,129.28806531111113,35.20373,40.53022119259259,61.92998822962954,-81.87035063703703,-3.3097454518518283,1
698.3333333333321,-114.5884499375001,227.7394140416667,182.89962327083333,-166.01046096655415,-84.54950483703222,54.59898785766472,129.27528770833334,35.203696604166666,40.53766835416666,62.12788868749991,-81.8716965,-3.3531281249999814,1
701.1111111111098,-114.3623046250001,227.7084831388889,182.90341406944444,-166.33938735251323,-84.54896017859679,54.71840013486107,129.26187902777778,35.20365684722222,40.54508901388889,62.32434545833324,-81.87249233333333,-3.395085416666648,1
703.8888888888875,-114.13615931250013,227.67755223611115,182.9072048680556,-166.65718489800676,-84.54752002889084,54.82748073252357,129.24847034722222,35.20361709027778,40.55250967361111,62.52080222916657,-81.87328816666667,-3.437042708333313,1
706.6666666666654,-113.9100140000001,227.6466213333333,182.91099566666665,-166.9668601284175,-84.5454263104438,54.929020818057346,129.23506166666667,35.203577333333335,40.55993033333333,62.71725899999991,-81.874084,-3.478999999999981,1
709.4444444444432,-113.6838686875001,227.6156904305556,182.91478646527776,-167.2706073376198,-84.54285558891094,55.02505750765467,129.2216529861111,35.20353757638889,40.56735099305556,62.91371577083325,-81.87487983333334,-3.520957291666648,1
712.2222222222209,-113.45705132592605,227.58813845925928,182.91941354074072,-167.57086682488918,-84.5399910155286,55.11823447811619,129.20733753333334,35.2034992962963,40.57510068148148,63.10812804444436,-81.875612,-3.563464296296273,1
714.9999999999986,-113.22250540000012,227.5994442,182.9336578,-167.87822710647353,-84.5375362639299,55.22262865265398,129.1825942,35.203478000000004,40.5866342,63.27902859999992,-81.875612,-3.612292999999976,1
717.7777777777765,-112.9879594740742,227.6107499407408,182.9479020592593,-168.19076985867946,-84.53538061821422,55.335209633907,129.15785086666668,35.20345670370371,40.59816771851852,63.44992915555547,-81.875612,-3.6611217037036807,1
720.5555555555543,-112.75341354814825,227.62205568148147,182.9621463185185,-168.5070950048757,-84.53344327306928,55.45376570518574,129.13310753333334,35.20343540740741,40.60970123703704,63.62082971111104,-81.875612,-3.709950407407385,1
723.333333333332,-112.51886762222232,227.6333614222222,182.97639057777772,-168.82618070783002,-84.53166525323982,55.57668265880326,129.1083642,35.203414111111115,40.62123475555556,63.79173026666658,-81.875612,-3.758779111111088,1
726.1111111111097,-112.28432169629642,227.6446671629629,182.99063483703705,-169.147281185986,-84.53000351600215,55.7027823753065,129.08362086666668,35.20339281481482,40.63276827407407,63.96263082222214,-81.875612,-3.807607814814791,1
728.8888888888875,-112.08523084444452,227.66019809629628,183.0062723407408,-169.4573812723059,-84.52851826186613,55.826396365037176,129.05644602962963,35.203386,40.64700013333333,64.1335313777777,-81.875612,-3.863355770370342,1
731.6666666666654,-111.90282473333342,227.6777173555556,183.0225654888889,-169.75358414956474,-84.52720492575463,55.94593327005625,129.02812695555556,35.203386,40.6625018,64.30443193333325,-81.875612,-3.922359844444417,1
734.4444444444431,-111.72041862222233,227.6952366148148,183.03885863703704,-170.0396442351181,-84.52601706294541,56.06249454012489,128.9998078814815,35.203386,40.67800346666666,64.4753324888888,-81.875612,-3.9813639185184897,1
737.2222222222208,-111.5380125111112,227.71275587407405,183.0551517851852,-170.31830166715088,-84.52492077604643,56.17688406150921,128.9714888074074,35.203386,40.693505133333325,64.64623304444436,-81.875612,-4.040367992592563,1
739.9999999999986,-111.35560640000008,227.7302751333333,183.0714449333333,-170.59155631849603,-84.52389132525667,56.289688545606914,128.94316973333335,35.203386,40.70900679999999,64.8171335999999,-81.875612,-4.099372066666637,1
742.7777777777765,-111.1666928235295,227.7570139477124,183.0911114379085,-170.8729136505862,-84.52314342203765,56.4128457518197,128.9136524117647,35.203386,40.72494675816993,64.97586941830059,-81.875612,-4.160453633986896,1
745.5555555555542,-110.961045764706,227.80746018954247,183.11945228758168,-171.19115975960435,-84.52319954995397,56.573154818128224,128.88105388235294,35.203386,40.742013751633976,65.10332448366006,-81.875612,-4.226877326797353,1
748.3333333333319,-110.75539870588246,227.85790643137253,183.1477931372549,-171.53632891331503,-84.5238424949999,56.76057893874503,128.8484553529412,35.203386,40.75908074509803,65.23077954901954,-81.875612,-4.293301019607808,1
751.1111111111097,-110.54975164705893,227.9083526732026,183.17613398692808,-171.90114768395205,-84.52491372488262,56.967792813313494,128.81585682352943,35.203386,40.77614773856208,65.35823461437901,-81.875612,-4.359724712418267,1
753.8888888888875,-110.3441045882354,227.95879891503267,183.2044748366013,-172.2803076054419,-84.52629753579305,57.18945011687218,128.78325829411764,35.203386,40.79321473202614,65.4856896797385,-81.875612,-4.426148405228726,1
756.6666666666653,-110.13845752941188,228.0092451568628,183.23281568627448,-172.66993432679624,-84.52790948202481,57.42164886735864,128.7506597647059,35.203386,40.810281725490185,65.61314474509797,-81.875612,-4.492572098039182,1
759.444444444443,-109.92434473015888,228.0634385396825,183.2628955555556,-173.07122579364489,-84.52963583438901,57.66403044068548,128.71825131746033,35.203382380952384,40.82735365079364,65.7393892539682,-81.875612,-4.556389428571402,1
762.2222222222208,-109.66578679365092,228.1373044126984,183.3021052777777,-173.50216518984857,-84.53117217603108,57.92691225373988,128.68684080158732,35.203359761904764,40.84445146825396,65.85927834126979,-81.875612,-4.606523357142832,1
764.9999999999986,-109.40722885714298,228.21117028571425,183.341315,-173.9547429431229,-84.53256983952792,58.20475603941458,128.6554302857143,35.203337142857144,40.86154928571428,65.97916742857137,-81.875612,-4.656657285714261,1
767.7777777777764,-109.14867092063506,228.2850361587301,183.3805247222222,-174.42311331689055,-84.53386628964194,58.49351972786436,128.62401976984128,35.203314523809524,40.87864710317459,66.09905651587296,-81.875612,-4.706791214285689,1
770.5555555555541,-108.89011298412711,228.358902031746,183.41973444444443,-174.90300983662348,-84.53508886979719,58.79025323952148,128.59260925396828,35.203291904761905,40.89574492063491,66.21894560317455,-81.875612,-4.756925142857116,1
773.3333333333319,-108.63559843750012,228.436131375,183.46028560416664,-175.379233287068,-84.53631821141663,59.08178403360311,128.55973618750002,35.203269604166664,40.913812145833326,66.33886743749994,-81.87580297916666,-4.806077854166645,1
776.1111111111097,-108.41073541666678,228.5380261666666,183.5106739722222,-175.76415003167844,-84.53799743780976,59.28870840398405,128.51613775,35.203249638888884,40.9389883611111,66.45902941666661,-81.87739447222222,-4.848034972222202,1
778.8888888888874,-108.18587239583346,228.63992095833328,183.5610623402777,-176.08242714422147,-84.54000500981036,59.4338833015913,128.4725393125,35.20322967361111,40.96416457638888,66.57919139583328,-81.87898596527778,-4.889992090277756,1
781.6666666666652,-107.96100937500012,228.74181575,183.6114507083333,-176.35206773525692,-84.54225222281292,59.53399073007446,128.42894087500002,35.20320970833333,40.989340791666656,66.69935337499994,-81.88057745833333,-4.931949208333311,1
784.444444444443,-107.7361463541668,228.8437105416666,183.66183907638884,-176.5862112631939,-84.54467433631214,59.60120594617074,128.3853424375,35.20318974305555,41.01451700694443,66.81951535416661,-81.88216895138889,-4.973906326388867,1
787.2222222222208,-107.51128333333344,228.94560533333328,183.7122274444444,-176.79444748013165,-84.5472240998524,59.64441498537865,128.341744,35.203169777777774,41.039693222222205,66.93967733333328,-81.88376044444443,-5.015863444444424,1
789.9999999999985,-107.2765882666668,229.04858353333327,183.76131766666663,-176.9867778973183,-84.5495813839398,59.67204224417954,128.29624740000003,35.203157,41.06471746666665,67.0619936666666,-81.884779,-5.058831399999977,1
792.7777777777762,-107.02441400740756,229.15348779259253,183.80810007407405,-177.1728373258036,-84.55129037646329,59.69174431053644,128.24737628888892,35.203157,41.089471540740725,67.1881399629629,-81.884779,-5.103596399999976,1
795.5555555555541,-106.77223974814828,229.25839205185176,183.85488248148144,-177.35431991213986,-84.55252621741597,59.70566222441837,128.1985051777778,35.203157,41.1142256148148,67.31428625925919,-81.884779,-5.148361399999977,1
798.3333333333319,-106.52006548888902,229.36329631111107,183.9016648888889,-177.53246211866434,-84.55341673163386,59.71535861054685,128.1496340666667,35.203157,41.13897968888888,67.44043255555549,-81.884779,-5.1931263999999775,1
801.1111111111096,-106.26789122962975,229.4682005703704,183.94844729629625,-177.70816636973325,-84.55405521127949,59.72197394086807,128.10076295555558,35.203157,41.16373376296295,67.56657885185179,-81.884779,-5.237891399999976,1
803.8888888888873,-106.0157169703705,229.5731048296296,183.99522970370367,-177.88209129415716,-84.55450974505816,59.72634058174748,128.05189184444447,35.203157,41.18848783703702,67.69272514814809,-81.884779,-5.282656399999975,1
806.6666666666652,-105.8144562857144,229.69765642857132,184.0471381428571,-178.03181366553693,-84.55572260949027,59.71883904850808,127.99129871428576,35.203157,41.22126885714284,67.79821861904756,-81.884779,-5.330480142857117,1
809.444444444443,-105.6153170000001,229.8230266666666,184.09926016666665,-178.16291762381454,-84.55752612777258,59.702249477857535,127.9302171666667,35.203157,41.25438433333332,67.9028515555555,-81.884779,-5.3784313333333085,1
812.2222222222207,-105.41617771428582,229.94839690476184,184.1513821904761,-178.2804330489447,-84.55976073109835,59.679027059556184,127.86913561904764,35.203157,41.287499809523794,68.00748449206344,-81.884779,-5.426382523809497,1
814.9999999999984,-105.21703842857154,230.07376714285704,184.2035042142857,-178.38803096756746,-84.56230995916528,59.6509636985993,127.8080540714286,35.203157,41.32061528571427,68.11211742857137,-81.884779,-5.474333714285686,1
817.7777777777762,-105.01789914285726,230.19913738095232,184.2556262380952,-178.48839065567205,-84.56508881414511,59.61936720571658,127.74697252380956,35.203157,41.35373076190474,68.2167503650793,-81.884779,-5.522284904761878,1
820.5555555555541,-104.7762122666668,230.3480454296296,184.31769790370367,-162.06191824924133,-84.5680790913878,59.62669390467518,127.68696283703709,35.203157,41.3856353185185,68.31495610370365,-81.884779,-5.582269111111079,1
823.3333333333318,-104.53082560000014,230.4990002444444,184.38063475555552,-132.13678363881974,-84.57122748520239,59.6660373078681,127.6270463555556,35.203157,41.41743457777776,68.4126029555555,-81.884779,-5.643299666666633,1
826.1111111111095,-104.28543893333348,230.6499550592592,184.44357160740736,-92.35973427077232,-84.57449127941477,59.72874790376279,127.56712987407413,35.203157,41.44923383703702,68.51024980740735,-81.884779,-5.704330222222187,1
828.8888888888873,-104.0400522666668,230.800909874074,184.50650845925924,-45.39232611570091,-84.57783929789063,59.80851290009685,127.50721339259265,35.203157,41.48103309629628,68.60789665925921,-81.884779,-5.765360777777744,1
831.6666666666652,-103.79466560000012,230.9518646888888,184.56944531111108,6.822920734494147,-84.581248786922,59.900724944651856,127.44729691111114,35.203157,41.51283235555554,68.70554351111106,-81.884779,-5.826391333333301,1
834.4444444444429,-103.5390631481483,231.12734453333323,184.641004437037,53.51385249377516,-84.58509666940624,59.99140270000812,127.3906190666667,35.203157,41.543097711111095,68.78098299259257,-81.884779,-5.877904444444421,1
837.2222222222206,-103.2740307407409,231.32546286666656,184.7205225851852,87.53805021843976,-84.58962776867477,60.07115879620966,127.33693073333336,35.203157,41.571947155555534,68.83592336296293,-81.884779,-5.920632222222197,1
839.9999999999984,-103.00899833333348,231.5235811999999,184.8000407333333,112.31751079206555,-84.59465750946927,60.14294378732105,127.28324240000003,35.203157,41.60079659999998,68.8908637333333,-81.884779,-5.963359999999976,1
842.7777777777762,-102.74396592592608,231.72169953333324,184.87955888148144,130.3497573831262,-84.600051180684,60.20891111689788,127.2295540666667,35.203157,41.62964604444443,68.94580410370368,-81.884779,-6.006087777777754,1
845.555555555554,-102.47893351851867,231.91981786666656,184.9590770296296,143.45759176183887,-84.60571046425524,60.27063246234228,127.17586573333335,35.203157,41.65849548888888,69.00074447407404,-81.884779,-6.048815555555531,1
848.3333333333317,-102.2188062916668,232.1169465416665,185.03819141666665,152.97402136981825,-84.61159099231699,60.32757617895819,127.1210939791667,35.203157,41.68805841666665,69.05595793749997,-81.884779,-6.091909229166639,1
851.1111111111095,-101.994650388889,232.3068177222221,185.11434488888884,159.88869706119354,-84.61783384668426,60.36872233249535,127.05837713888891,35.203157,41.72285355555554,69.1131740833333,-81.884779,-6.137686138888862,1
853.8888888888873,-101.77049448611125,232.4966889027777,185.19049836111105,164.9044988182967,-84.6243411426549,60.39833873275191,126.99566029861114,35.203157,41.75764869444443,69.17039022916664,-81.884779,-6.1834630486110855,1
856.666666666665,-101.54633858333348,232.68656008333323,185.26665183333327,168.53441923003248,-84.63104143968707,60.41954021419797,126.93294345833336,35.203157,41.79244383333332,69.22760637499997,-81.884779,-6.229239958333307,1
859.4444444444428,-101.32218268055568,232.8764312638888,185.3428053055555,171.15286275076892,-84.6378825973451,60.43460011942259,126.8702266180556,35.203157,41.82723897222221,69.2848225208333,-81.884779,-6.275016868055528,1
862.2222222222206,-101.0980267777779,233.06630244444432,185.41895877777773,173.03308614577412,-84.64482656125591,60.445177633392674,126.8075097777778,35.203157,41.86203411111109,69.34203866666664,-81.884779,-6.320793777777751,1
864.9999999999984,-100.86050688235308,233.2637307058822,185.49727305882348,174.39899624733772,-84.65193080288198,60.42665378843068,126.74143282352944,35.203157,41.89778776470586,69.40063164705879,-81.884779,-6.359140352941162,1
867.7777777777761,-100.59922877777794,233.47459377777764,185.5794287777777,175.43304390581073,-84.65930356924339,60.340970651169926,126.66938233333336,35.203157,41.935245444444426,69.4616723333333,-81.884779,-6.38427744444443,1
870.5555555555538,-100.33795067320278,233.68545684967307,185.661584496732,176.22488382168098,-84.66687231671487,60.20627172160982,126.5973318431373,35.203157,41.972703124182985,69.5227130196078,-81.884779,-6.409414535947697,1
873.3333333333317,-100.0766725686276,233.8963199215685,185.74374021568624,176.839949921176,-84.67458409978211,60.035798920519845,126.52528135294122,35.203157,42.01016080392154,69.58375370588232,-81.884779,-6.434551627450966,1
876.1111111111095,-99.81539446405245,234.107182993464,185.82589593464047,177.32599874888578,-84.6824002764904,59.83921678151649,126.45323086274512,35.203157,42.04761848366011,69.64479439215683,-81.884779,-6.459688718954234,1
878.8888888888872,-99.55411635947728,234.31804606535937,185.90805165359475,177.7178851222219,-84.69029264424913,59.62357890442492,126.38118037254904,35.203157,42.08507616339867,69.70583507843133,-81.884779,-6.484825810457502,1
881.6666666666649,-99.2838212222224,234.53679199999985,185.9936664,173.7294853170038,-84.6983058137404,59.38199651053872,126.30652893333338,35.20315193333333,42.12404822222219,69.7683375555555,-81.884779,-6.5078363111111015,1
884.4444444444428,-98.98497214814832,234.7805003333332,186.0902347333333,152.89088024960628,-84.70661359782342,59.08336212394521,126.2236411555556,35.20313082222222,42.16781581481479,69.83546903703699,-81.884779,-6.524112607407398,1
887.2222222222206,-98.68612307407426,235.0242086666665,186.1868030666666,119.75425754291938,-84.71513640453612,58.74308869487391,126.14075337777784,35.20310971111111,42.21158340740738,69.90260051851847,-81.884779,-6.540388903703694,1
889.9999999999983,-98.3872740000002,235.26791699999987,186.2833714,77.64200305590488,-84.7238161441794,58.372425269306596,126.05786560000004,35.2030886,42.25535099999997,69.96973199999995,-81.884779,-6.55666519999999,1
892.777777777776,-98.08842492592612,235.5116253333332,186.3799397333333,28.97893946949081,-84.73261042034721,57.97958189357542,125.97497782222229,35.20306748888889,42.29911859259256,70.03686348148143,-81.884779,-6.572941496296286,1
895.5555555555538,-97.78957585185204,235.75533366666653,186.4765080666666,-24.465191445335485,-84.74148829028597,57.57055061899615,125.8920900444445,35.20304637777778,42.34288618518516,70.10399496296291,-81.884779,-6.589217792592582,1
898.3333333333317,-97.46774514583352,236.01516649999985,186.57461777083327,-66.26692803553138,-84.75041313187658,57.147358844931745,125.8020814583334,35.203043,42.38673729166664,70.1612017083333,-81.884779,-6.604639583333324,1
901.1111111111094,-97.14153698611132,236.2780706666665,186.6730210694444,-96.6892827603902,-84.75936958138932,56.71338528741122,125.71071652777783,35.203043,42.430604305555526,70.21651802777774,-81.884779,-6.619898611111101,1
903.8888888888872,-96.8153288263891,236.5409748333332,186.7714243680555,-118.80646631809228,-84.76834909974767,56.271542712210305,125.61935159722228,35.203043,42.47447131944442,70.27183434722218,-81.884779,-6.635157638888879,1
906.6666666666648,-96.48912066666688,236.80387899999985,186.8698276666666,-134.86217229010228,-84.77734545475968,55.823956983336686,125.52798666666672,35.203043,42.5183383333333,70.32715066666663,-81.884779,-6.650416666666657,1
909.4444444444428,-96.16291250694464,237.0667831666665,186.9682309652777,-146.49394649931563,-84.7863540978988,55.37217964943077,125.43662173611116,35.203043,42.5622053472222,70.38246698611107,-81.884779,-6.665675694444435,1
912.2222222222204,-95.83952116296317,237.33018231851835,187.0668724296296,-154.8963831942167,-84.795404692773,54.91743855607591,125.34556232592598,35.203043,42.60605591851849,70.43563625185183,-81.884779,-6.68069014814814,1
914.9999999999982,-95.5485232000002,237.59927379999985,187.16825279999992,-160.93548638601595,-84.80486521406209,54.46163214192861,125.25801640000006,35.203043,42.64971739999997,70.46411439999999,-81.884779,-6.692891999999992,1
917.777777777776,-95.25752523703724,237.8683652814813,187.2696331703703,-165.24972530130069,-84.81462491759866,54.00504821001858,125.17047047407412,35.203043,42.69337888148146,70.49259254814812,-81.884779,-6.705093851851844,1
920.5555555555538,-94.96652727407424,238.1374567629628,187.37101354074068,-168.3050827390068,-84.82460297744008,53.547896811599266,125.0829245481482,35.203043,42.73704036296294,70.52107069629628,-81.884779,-6.717295703703696,1
923.3333333333316,-94.67552931111128,238.40654824444428,187.47239391111103,-170.4416533503123,-84.83474040327418,53.09033125127318,124.99537862222228,35.203043,42.780701844444415,70.54954884444443,-81.884779,-6.729497555555548,1
926.1111111111092,-94.38453134814831,238.6756397259257,187.5737742814814,-171.90765310375514,-84.84499414138809,52.63246341745215,124.90783269629635,35.203043,42.8243633259259,70.57802699259258,-81.884779,-6.741699407407399,1
928.8888888888872,-94.0689752638891,238.95864583333315,187.68245249999995,-172.87468085696332,-84.85510908570679,52.16158890318669,124.81465959722227,35.203043,42.87124912499997,70.61308022916664,-81.884779,-6.754681409722214,1
931.6666666666648,-93.74186241666686,239.24819999999983,187.79456499999992,-173.47303815999794,-84.86501746937029,51.675204570812625,124.71883841666671,35.203043,42.91965224999997,70.65122762499998,-81.884779,-6.768030541666659,1
934.4444444444426,-93.41474956944464,239.5377541666665,187.90667749999992,-173.80232362510688,-84.87477509602273,51.177500494037,124.62301723611118,35.203043,42.96805537499997,70.68937502083331,-81.884779,-6.781379673611102,1
937.2222222222204,-93.08763672222244,239.82730833333315,188.0187899999999,-173.9352286807455,-84.88442269360714,50.67153477212669,124.52719605555562,35.203043,43.01645849999997,70.72752241666664,-81.884779,-6.794728805555547,1
939.9999999999982,-92.76052387500022,240.11686249999985,188.1309024999999,-173.9248067144221,-84.89398998715971,50.15953933983511,124.43137487500006,35.203043,43.06486162499997,70.76566981249998,-81.884779,-6.808077937499991,1
942.777777777776,-92.43341102777798,240.4064166666665,188.243015,-173.80977841144878,-84.9034986713135,49.64314316087755,124.33555369444451,35.203043,43.11326474999997,70.80381720833331,-81.884779,-6.821427069444436,1
945.5555555555536,-92.17047361111128,240.61266579166656,188.32107759722217,-173.66034410826737,-84.91184216324906,49.17237564713289,124.24034568750008,35.203043,43.15718351388886,70.84547881249998,-81.884779,-6.8382902499999885,1
948.3333333333314,-91.91311666666684,240.81167099999988,188.3961793333333,-173.48944578084627,-84.9192376454463,48.73915693323972,124.14519100000008,35.203043,43.2007123333333,70.88744599999997,-81.884779,-6.855458999999988,1
951.1111111111092,-91.65575972222238,241.0106762083332,188.4712810694444,-173.3028820686656,-84.92594122862494,48.33334297766984,124.05003631250008,35.203043,43.24424115277775,70.92941318749997,-81.884779,-6.872627749999989,1
953.8888888888872,-91.39840277777796,241.2096814166665,188.5463828055555,-173.10488507272956,-84.93213983360283,47.947530214727365,123.95488162500008,35.203043,43.28776997222219,70.97138037499997,-81.884779,-6.889796499999989,1
956.6666666666648,-91.1410458333335,241.40868662499983,188.62148454166663,-172.8985435656667,-84.93796988337778,47.57631519797917,123.85972693750008,35.203043,43.33129879166664,71.01334756249997,-81.884779,-6.906965249999988,1
959.4444444444424,-90.86655126984152,241.6298225555553,188.7053955873015,-172.67548787733273,-84.94375735134149,47.204137646778,123.7666553492064,35.203043,43.37459480952378,71.05034250793649,-81.884779,-6.922782111111105,1
962.2222222222204,-90.50208420634944,241.96714477777755,188.8355555079364,-172.3844574914077,-84.95070237228448,46.77027039940909,123.68452003174608,35.203043,43.41666861904759,71.06123318253967,-81.884779,-6.93150155555555,1
964.9999999999982,-90.13761714285738,242.3044669999998,188.9657154285713,-172.0438161946959,-84.95849222607883,46.29137931050063,123.60238471428578,35.203043,43.4587424285714,71.07212385714284,-81.884779,-6.940220999999995,1
967.777777777776,-89.77315007936532,242.641789222222,189.09587534920627,-171.66696668292303,-84.96689867588175,45.779627850526865,123.52024939682546,35.203043,43.50081623809521,71.08301453174602,-81.884779,-6.948940444444439,1
970.5555555555536,-89.40868301587327,242.9791114444442,189.2260352698412,-171.2636908303086,-84.97575514445131,45.24389345285548,123.43811407936514,35.203043,43.54289004761902,71.09390520634919,-81.884779,-6.957659888888883,1
973.3333333333314,-89.04825768750023,243.3122238749998,189.35395352083324,-170.83963928892337,-84.98483120035363,44.69008075060301,123.35385062500008,35.20304060416667,43.58534854166663,71.103489,-81.884779,-6.965333,1
976.1111111111092,-88.93798394768301,243.41298149576,189.39111726442437,-170.38950842767056,-84.99326924287014,44.11886066252174,123.2539808333334,35.20302063888889,43.630628055555526,71.103489,-81.884779,-6.965333,1
978.888888888887,-88.80012358320182,243.5389451417313,189.43757807409168,-169.9203437368138,-85.0012416352803,43.53493590202577,123.15411104166674,35.203000673611115,43.67590756944441,71.103489,-81.884779,-6.965333,1
981.6666666666648,-88.65120978880202,243.67500835720736,189.4877640393217,-169.43728732365634,-85.00887417585287,42.941738715287734,123.05424125000008,35.202980708333335,43.7211870833333,71.103489,-81.884779,-6.965333,1
984.4444444444424,-88.49674937442646,243.81613954474048,189.53981929059316,-168.94409212327125,-85.01625867767292,42.34177410585604,122.9543714583334,35.20296074305556,43.76646659722219,71.103489,-81.884779,-6.965333,1
987.2222222222204,-88.33909866841783,243.9601857163397,189.59294971334623,-168.44349719200895,-85.02346214995022,41.73687033500973,122.85450166666674,35.202940777777776,43.81174611111108,71.103489,-81.884779,-6.965333,1
989.999999999998,-88.1776701625228,244.10536297681855,189.6461147196684,-167.94581952027843,-85.02975083950972,41.135062128483725,122.75317443750006,35.202928,43.85583674999997,71.10829831249998,-81.883060125,-6.966704562499998,1
992.7777777777758,-88.01091400782455,244.250190955148,189.69829074801265,-167.465058382778,-85.03398048604193,40.5474249880762,122.6492562083334,35.202928,43.8978138333333,71.12165751388888,-81.87828547222222,-6.970514458333331,1
995.5555555555536,-87.84040340318866,244.39479385848088,189.74978107733364,-166.99664367270208,-85.03670735281118,39.970130512246406,122.54533797916672,35.202928,43.93979091666664,71.13501671527776,-81.87351081944445,-6.974324354166664,1
998.3333333333314,-87.66713681501224,244.53925279120892,189.8007794039024,-166.5372399259875,-85.03833742510551,39.40038456591137,122.44141975000008,35.202928,43.98176799999997,71.14837591666665,-81.86873616666666,-6.978134249999997,1
1001.1111111111092,-87.49177745307365,244.6836237100024,189.8514154989865,-166.08441277490724,-85.03916700876547,38.83614786693758,122.3375015208334,35.202928,44.0237450833333,71.16173511805555,-81.86396151388888,-6.981944145833331,1
1003.8888888888868,-87.31478222028112,244.82794709154572,189.9017797937447,-165.63638551129773,-85.03941236076818,38.27593205792766,122.23358329166672,35.202928,44.06572216666663,71.17509431944443,-81.85918686111111,-6.985754041666664,1
1006.6666666666648,-87.1336414154808,244.97440693497225,189.9529546519336,-165.21759140479116,-85.0410262065315,37.742662470909,122.11862644444452,35.20289622222222,44.111663888888856,71.18409855555555,-81.857277,-7.00314888888887,1
1009.4444444444424,-86.94739022353208,245.1239394953193,190.0054193233886,-164.83728626243607,-85.0448354333694,37.24506715024316,121.9963105185186,35.20284325925926,44.16024870370367,71.19019948148147,-81.857277,-7.0296003703703525,1
1012.2222222222202,-86.75695549496321,245.27599284259125,190.05894065829216,-164.48507205147843,-85.05024694544717,36.77350847127096,121.87399459259268,35.20279029629629,44.20883351851848,71.19630040740739,-81.857277,-7.056051851851833,1
1014.999999999998,-86.56304400224717,245.43014645377997,190.11334091886417,-164.15335983230398,-85.05682787545408,36.32095247350259,121.75167866666676,35.20273733333333,44.2574183333333,71.20240133333333,-81.857277,-7.082503333333314,1
1017.7777777777758,-86.36620357940099,245.5860747056205,190.1684823852356,-163.8366108644767,-85.06426229787229,35.882265464568604,121.62936274074085,35.20268437037037,44.30600314814811,71.20850225925925,-81.857277,-7.108954814814796,1
1020.5555555555536,-86.16785942669011,245.7432468452599,190.224300331186,-163.53716344219995,-85.07249966052005,35.461572492701876,121.51123577777784,35.20263774074074,44.35488925925922,71.213383,-81.85710722222223,-7.137846703703676,1
1023.3333333333312,-85.97198937901553,245.90045425926405,190.28086766370825,-163.27586628348647,-85.08204314048646,35.08549972388755,121.40986466666672,35.202616444444445,44.40498055555552,71.213383,-81.85625833333333,-7.176500222222194,1
1026.111111111109,-85.77821499149118,246.05771463148903,190.3380864723464,-163.0424128576501,-85.09253988206444,34.74199273309605,121.30849355555564,35.20259514814815,44.45507185185181,71.213383,-81.85540944444445,-7.215153740740712,1
1028.8888888888869,-85.58622544326403,246.21504350649167,190.39587708146576,-162.82928100729242,-85.10373235570809,34.422253673100066,121.20712244444452,35.20257385185185,44.505163148148114,71.213383,-81.85456055555555,-7.253807259259231,1
1031.6666666666647,-85.39576284235281,246.3724547494448,190.4541740841033,-162.63098073256285,-85.11543260507807,34.11986148975186,121.1057513333334,35.20255255555556,44.55525444444441,71.213383,-81.85371166666667,-7.292460777777751,1
1034.4444444444423,-85.20661120451174,246.52996089084957,190.51292336726164,-162.44350519117359,-85.12750345140768,33.830129816568466,121.0043802222223,35.20253125925926,44.6053457407407,71.213383,-81.85286277777779,-7.33111429629627,1
1037.22222222222,-85.01771738332195,246.68677055925585,190.57105720406588,-162.2781135383381,-85.13694831223866,33.56359987103191,120.90135457142864,35.202527,44.64914130158727,71.213383,-81.8425253809524,-7.365009920634896,1
1039.999999999998,-84.82881531474548,246.8427922680865,190.6284077882251,-162.13238555542307,-85.14375249801888,33.31749394552939,120.79791528571435,35.202527,44.6913629285714,71.213383,-81.82981585714286,-7.3977160714285475,1
1042.7777777777758,-84.63987876454075,246.9981345943952,190.68506900781043,-162.00100897985135,-85.14862940351684,33.08629436417732,120.69447600000008,35.202527,44.73358455555552,71.213383,-81.81710633333334,-7.430422222222199,1
1045.5555555555534,-84.45088427583232,247.15289135575944,190.74112158353944,-161.88010668978,-85.1520996954728,32.86597408550716,120.5910367142858,35.202527,44.77580618253965,71.213383,-81.80439680952382,-7.463128373015847,1
1048.3333333333312,-84.26181069639136,247.3071441502594,190.79663533745335,-161.76684899191622,-85.15454337927284,32.65359399831856,120.4875974285715,35.202527,44.81802780952378,71.213383,-81.79168728571429,-7.495834523809498,1
1051.111111111109,-84.07163634373347,247.461147582298,190.8520312303557,-161.6744365573966,-85.15884005132503,32.45983961269704,120.3787442361112,35.20251182638889,44.8610539583333,71.21627838888888,-81.78682263194445,-7.537023062499967,1
1053.8888888888869,-83.88013160686742,247.6150032563546,190.90743856299167,-161.60205872101182,-85.16531087908072,32.28373084875992,120.26818138888898,35.20249186111111,44.90433416666664,71.2200881111111,-81.78443530555555,-7.580890249999967,1
1056.6666666666647,-83.68739122603664,247.768746536407,190.96286414672903,-161.54430301162338,-85.17336850087102,32.12050063219683,120.15761854166676,35.202471895833334,44.94761437499997,71.22389783333333,-81.78204797916666,-7.624757437499968,1
1059.4444444444423,-83.49349757859324,247.9224091307389,191.0183141985132,-161.49721917079248,-85.18258423443054,31.966669743434785,120.04705569444452,35.20245193055556,44.9908945833333,71.22770755555555,-81.77966065277778,-7.668624624999966,1
1062.22222222222,-83.2985225038002,248.0760196247098,191.0737944265116,-161.45792412693598,-85.19264520867077,31.81969889568092,119.93649284722233,35.20243196527778,45.03417479166664,71.23151727777777,-81.77727332638888,-7.712491812499967,1
1064.999999999998,-83.1025288149861,248.2296039220672,191.12931010103011,-161.42431368816827,-85.20332307657128,31.677734806243176,119.82593000000008,35.202412,45.07745499999997,71.235327,-81.774886,-7.756358999999968,1
1067.7777777777756,-82.90580371711097,248.3845399265844,191.1859080944199,-161.41588127650675,-85.21671158750821,31.560911758206352,119.7119961111112,35.202412,45.13426259259255,71.235327,-81.77318822222222,-7.821463999999948,1
1070.5555555555534,-82.70837732860518,248.540742935381,191.24351119412304,-161.42582489152602,-85.23207844442712,31.462437743063084,119.59806222222232,35.202412,45.19107018518514,71.235327,-81.77149044444444,-7.886568999999949,1
1073.3333333333312,-82.51027588052673,248.6981377732613,191.30205057421253,-161.44918013546874,-85.24888918487171,31.377355655595334,119.48412833333342,35.202412,45.24787777777774,71.235327,-81.76979266666667,-7.951673999999951,1
1076.111111111109,-82.31152222143648,248.8566575656781,191.36146471783803,-161.48232377346991,-85.26675373473833,31.302047583352632,119.37019444444452,35.202412,45.30468537037033,71.235327,-81.7680948888889,-8.016778999999952,1
1078.8888888888869,-82.11213624667917,249.01624269563425,191.4216985012557,-161.5226114100704,-85.28538740086549,31.233873015407,119.25626055555564,35.202412,45.36149296296292,71.235327,-81.76639711111112,-8.081883999999953,1
1081.6666666666645,-81.91143611593968,249.17660321976004,191.48236537215152,-161.61704845549016,-85.30427280269893,31.21898022982223,119.13837344444454,35.202412,45.4144873333333,71.235327,-81.76063777777779,-8.156754666666602,1
1084.4444444444423,-81.7090288274935,249.33755335233727,191.54322405523905,-161.78362971444704,-85.32313553292798,31.275025114488752,119.01785085185196,35.202412,45.46493955555552,71.235327,-81.75217074074075,-8.238135777777716,1
1087.22222222222,-81.50500126001816,249.49907539290385,191.6042699407677,-162.00286497950339,-85.3419817164274,31.38284341713248,118.89732825925935,35.202412,45.515391777777744,71.235327,-81.74370370370372,-8.319516888888828,1
1089.9999999999975,-81.29943174249246,249.66115372403644,191.66549901545463,-162.2605294438315,-85.360815823399,31.528448227277035,118.77680566666676,35.202412,45.56584399999996,71.235327,-81.73523666666667,-8.400897999999934,1
1092.7777777777756,-81.09239101123141,249.82377457476176,191.72690779428652,-162.54624122053087,-85.37964111639177,31.701631285196143,118.65628307407415,35.202412,45.61629622222218,71.235327,-81.72676962962963,-8.482279111111046,1
1095.5555555555534,-80.88405491574302,249.9869026107344,191.78853142057304,-162.84836147006487,-85.39889890918349,31.89199687113029,118.53672199346414,35.20240079084967,45.66636270588232,71.2317375882353,-81.719996,-8.562103052287524,1
1098.3333333333312,-80.67491358195235,250.15043752209604,191.8505147107758,-163.1462106060769,-85.4202280897734,32.083121879157765,118.4210069607844,35.20234474509804,45.71488623529408,71.21379052941178,-81.719996,-8.635698313725433,1
1101.111111111109,-80.46498735262612,250.3143766220651,191.91284445439967,-163.4409424964165,-85.44306905988064,32.27480114668263,118.30529192810468,35.202288699346404,45.76340976470585,71.19584347058824,-81.719996,-8.709293575163343,1
1103.8888888888866,-80.25429438955342,250.47871783787025,191.9755086801956,-163.73339928436607,-85.46701340017606,32.46688493705866,118.18957689542492,35.20223265359477,45.81193329411761,71.17789641176472,-81.719996,-8.782888836601247,1
1106.6666666666645,-80.04285089812508,250.6434596444333,192.03849653023255,-164.0241956029689,-85.49176302834931,32.65926396592478,118.0738618627452,35.20217660784314,45.860456823529375,71.15994935294118,-81.719996,-8.856484098039157,1
1109.4444444444423,-79.83067132557854,250.80860100578892,192.10179814875744,-164.3137800383336,-85.51710039087786,32.85185847276891,117.95814683006544,35.20212056209151,45.90898035294114,71.14200229411766,-81.719996,-8.930079359477068,1
1112.22222222222,-79.61783765465326,250.97421635982636,192.1654663093247,-164.60839038992202,-85.54302924813072,33.05081560340859,117.8427090158731,35.20206717460318,45.9586758412698,71.12339833333336,-81.71977773015873,-9.006332253968166,1
1114.9999999999975,-79.40513947429378,251.141150281622,192.2301877986881,-164.97463849453243,-85.57125901937808,33.32577807861844,117.7304592142858,35.20204435714286,46.02184885714281,71.09724000000001,-81.71704935714286,-9.113147928571342,1
1117.7777777777756,-79.19254293892183,251.30935515211112,192.295915931633,-165.39317096818135,-85.60116809841134,33.6562125824274,117.6182094126985,35.20202153968254,46.08502187301583,71.07108166666669,-81.71432098412699,-9.219963603174518,1
1120.5555555555534,-78.98001628203819,251.4787871878423,192.36260759011495,-165.84986286378927,-85.6323028098005,34.02713300172429,117.5059596111112,35.20199872222222,46.14819488888884,71.04492333333334,-81.71159261111112,-9.326779277777694,1
1123.3333333333312,-78.76752963616218,251.64940609308272,192.43022290225545,-166.33440517647253,-85.66433204135116,34.42760181494673,117.3937098095239,35.20197590476191,46.21136790476186,71.01876500000002,-81.70886423809523,-9.43359495238087,1
1126.1111111111088,-78.55507500173157,251.82110308312,192.49868574516356,-166.83477676703725,-85.69675412253977,34.84502982595274,117.2809529375001,35.201954,46.27445981249995,70.993653,-81.70583159722223,-9.539266187499935,1
1128.8888888888866,-78.34310094915759,251.9921524926043,192.56703647584075,-167.23876903330572,-85.72322267431038,35.164279066778455,117.1560263750001,35.201954,46.33560512499995,70.993653,-81.69549652777778,-9.617470874999936,1
1131.6666666666645,-78.13155914579852,252.1626055573573,192.63528866101444,-167.57241944843256,-85.74534607961779,35.41187314206199,117.0310998125001,35.201954,46.39675043749995,70.993653,-81.68516145833334,-9.695675562499938,1
1134.444444444442,-77.92040418122926,252.3325103273108,192.7034550617,-167.8547313004582,-85.76429820677055,35.607170139887266,116.90617325000012,35.201954,46.45789574999995,70.993653,-81.6748263888889,-9.773880249999932,1
1137.22222222222,-77.70959333267427,252.50191192384693,192.7715476976103,-168.09957402111306,-85.7809357962617,35.764298440592356,116.7812466875001,35.201954,46.51904106249995,70.993653,-81.66449131944445,-9.852084937499937,1
1139.9999999999975,-77.4990863531793,252.67085277220465,192.83957790531952,-168.31707012899034,-85.79588413481815,35.89356955480333,116.65632012500012,35.201954,46.580186374999954,70.993653,-81.65415625000001,-9.930289624999936,1
1142.7777777777756,-77.28849708886176,252.83961647185097,192.9077120076309,-168.55766447566282,-85.81083285280876,36.04467989747945,116.53603922916676,35.201954,46.64020089583329,70.98884575000001,-81.64649216666666,-10.02024235416657,1
1145.5555555555534,-77.07692065403003,253.00884880634493,192.97634852412168,-168.92583491367006,-85.8289531101896,36.32016821020124,116.42770433333342,35.201954,46.697307666666624,70.97167700000001,-81.64569633333333,-10.14040433333324,1
1148.333333333331,-76.86437424090983,253.1785495439943,193.04547420415997,-169.38711596945166,-85.84938809589323,36.68643301174086,116.31936943750009,35.201954,46.75441443749995,70.95450825000002,-81.6449005,-10.2605663124999,1
1151.1111111111088,-76.65087370174365,253.34871869196465,193.11507670456567,-169.91635323122466,-85.87151247168444,37.11895046975229,116.21103454166676,35.201954,46.81152120833328,70.93733950000001,-81.64410466666668,-10.380728291666568,1
1153.8888888888866,-76.43643365452631,253.51935647412785,193.1851445198804,-170.49518790780527,-85.89486983833679,37.59982201753668,116.10269964583344,35.201954,46.86862797916662,70.92017075000001,-81.64330883333334,-10.500890270833237,1
1156.6666666666642,-76.22106757944147,253.69046331084263,193.25566691877836,-171.11022094949044,-85.91912709570997,38.115984497372445,115.99436475000007,35.201954,46.92573474999995,70.90300200000001,-81.64251300000001,-10.621052249999895,1
1159.444444444442,-76.00515988719037,253.86272002166413,193.32710816337112,-162.4668535985884,-85.94537918556027,38.74321885351537,115.8967409333334,35.201954,46.98335915555551,70.88101171851855,-81.64081241481482,-10.741148007407304,1
1162.22222222222,-75.78904722856521,254.03672202342312,193.39987352022928,-138.49569757666092,-85.97432231718656,39.53027064440683,115.80900426666672,35.201954,47.04146137777773,70.85457079259261,-81.63827667407408,-10.861182637036936,1
1164.9999999999975,-75.57271381095133,254.2124220207432,193.47392064415,-103.33765020744136,-86.00522948893664,40.433964197284126,115.72126760000008,35.201954,47.09956359999995,70.82812986666669,-81.63574093333334,-10.981217266666569,1
1167.7777777777756,-75.35614450533461,254.38977557677524,193.54920966119224,-60.01491967993379,-86.0375701031707,41.422788015583116,115.6335309333334,35.201954,47.15766582222217,70.80168894074076,-81.6332051925926,-11.1012518962962,1
1170.5555555555532,-75.13932480564611,254.56874091221303,193.62570299673848,-10.733245867314942,-86.07095690649733,42.47374362928183,115.54579426666676,35.201954,47.21576804444439,70.77524801481484,-81.63066945185186,-11.221286525925825,1
1173.333333333331,-74.92213240809524,254.74915580324733,193.70328875984256,40.72574164028932,-86.10416964940418,43.57943590467432,115.45469535416676,35.201954,47.27436912499994,70.75152162500001,-81.62757975000001,-11.34660049999986,1
1176.1111111111088,-74.70377101845821,254.93009533238617,193.7813812085864,77.84741168945718,-86.13037951183999,44.793938542278156,115.33893997222232,35.201954,47.33662849999995,70.74770183333334,-81.62042766666667,-11.510629666666532,1
1178.8888888888864,-74.48425889303878,255.11155991953592,193.85997071090677,104.505079653161,-86.151478365465,46.0878557468259,115.22318459027788,35.201954,47.39888787499994,70.74388204166668,-81.61327558333335,-11.674658833333186,1
1181.6666666666642,-74.26361313257884,255.29355011982517,193.939048212124,123.5256606958267,-86.16884698105838,47.4397331797446,115.10742920833344,35.201954,47.46114724999995,70.74006225000001,-81.60612350000001,-11.838687999999856,1
1184.444444444442,-74.0418497616599,255.47606661090248,194.01860519594928,136.9723612897764,-86.18349310559613,48.83391252529833,114.991673826389,35.201954,47.52340662499994,70.73624245833334,-81.59897141666667,-12.002717166666526,1
1187.22222222222,-73.81898380208162,255.65911018119365,194.09863364845071,146.35099986246058,-86.1961522369487,50.2589656590147,114.87591844444454,35.201954,47.58566599999995,70.73242266666668,-81.59181933333335,-12.166746333333196,1
1189.9999999999975,-73.59492688248969,255.84306511340785,194.17939247998527,152.74062794712333,-86.20695235190084,51.72826028829674,114.7560098000001,35.201889066666666,47.652716066666606,70.71752573333336,-81.58663086666667,-12.337641866666516,1
1192.777777777775,-73.3695150145497,256.028595472431,194.2613354224484,156.91325961964424,-86.21566888102835,53.26843710373355,114.62871757777788,35.2017086962963,47.72828291851845,70.68293610370374,-81.58493327407407,-12.520744274073913,1
1195.5555555555532,-73.14276949509707,256.2156690293791,194.34443264410007,159.46783023246053,-86.22286471798472,54.860346842424406,114.50142535555568,35.20152832592593,47.80384977037031,70.6483464740741,-81.58323568148148,-12.703846681481323,1
1198.333333333331,-72.914710424534,256.4042552613226,194.4286558318888,160.84146903203902,-86.22895068720634,56.490013533793956,114.37413313333344,35.201347955555555,47.87941662222216,70.61375684444448,-81.58153808888889,-12.886949088888734,1
1201.1111111111086,-72.68535678325694,256.5943252450561,194.5139780985629,161.35321208352275,-86.23422662635609,58.14723690253467,114.24684091111122,35.20116758518519,47.954983474074005,70.57916721481485,-81.5798404962963,-13.07005149629613,1
1203.8888888888864,-72.45472650268627,256.7858515583696,194.60037389634144,161.23590587724527,-86.2389113700897,59.82457234107622,114.119548688889,35.200987214814816,48.03055032592586,70.54457758518521,-81.57814290370371,-13.253153903703542,1
1206.6666666666642,-72.22435729256155,256.9782725406502,194.68774245417964,160.6515095761163,-86.23569767191539,61.52973981447191,114.01844833333342,35.20098,48.10540283333327,70.51756366666669,-81.57349133333334,-13.4435856666665,1
1209.444444444442,-71.99428299758165,257.17155722673795,194.77605977178,159.72587787069503,-86.22640822157845,63.255768382518696,113.91843930555564,35.20098,48.18022557638882,70.4908654027778,-81.56871668055555,-13.634322819444282,1
1212.22222222222,-71.76447398590778,257.36569794903414,194.86530611250328,158.55119762516154,-86.2126844212674,64.99702229091014,113.81843027777786,35.20098,48.25504831944438,70.46416713888891,-81.56394202777778,-13.825059972222062,1
1214.9999999999975,-71.53490186423554,257.5606874878813,194.9554626864305,157.19475084968477,-86.19572423817336,66.74938831937423,113.71842125000008,35.20098,48.32987106249993,70.43746887500002,-81.559167375,-14.015797124999828,1
1217.777777777775,-71.30553941244659,257.756519042821,195.04651159553137,155.7056429014392,-86.17640200120915,68.50986445964634,113.6184122222223,35.20098,48.40469380555549,70.41077061111113,-81.55439272222223,-14.206534277777608,1
1220.5555555555532,-71.07595746083102,257.95324314720875,195.1384317243588,154.17442684801148,-86.15559875874152,70.218671021501,113.51275520833345,35.20098,48.48054307638882,70.389412,-81.54723671527779,-14.386208201388772,1
1223.3333333333308,-70.8445415112776,258.15107830479207,195.231190805568,152.83133376634393,-86.13468631297074,71.65941208994509,113.38450625000011,35.20098,48.56049845833326,70.389412,-81.53055529166669,-14.521629208333207,1
1226.1111111111086,-70.6113218230916,258.350011146013,195.32477386946653,151.62554106701975,-86.11369416584752,72.90450722321194,113.25625729166678,35.20098,48.6404538402777,70.389412,-81.51387386805557,-14.657050215277652,1
1228.8888888888864,-70.37632725917388,258.55002895492413,195.4191666288564,150.51995619885656,-86.09264384918731,74.00681138601709,113.12800833333344,35.20098,48.72040922222215,70.389412,-81.49719244444445,-14.7924712222221,1
1231.6666666666642,-70.13958536446027,258.75111963094656,195.51435544104348,149.487507393788,-86.07155107785188,75.00490044602996,112.99975937500012,35.20098,48.8003646041666,70.389412,-81.48051102083335,-14.927892229166549,1
1234.444444444442,-69.90112243943949,258.9532716530325,195.6103272722299,148.50843649005725,-86.05042732123546,75.92692876064075,112.87151041666677,35.20098,48.88031998611104,70.389412,-81.46382959722223,-15.063313236110996,1
1237.2222222222197,-69.66131263215034,259.1566819717427,195.7073095969984,147.5101658247452,-86.0276668030199,76.85596279156458,112.74682473809534,35.20094996825397,48.964070706349126,70.37598161111113,-81.45089152380953,-15.216840253968092,1
1239.9999999999975,-69.42061238386044,259.3615977388312,195.8055877694604,146.42386396196886,-86.00165733537489,77.86967849230417,112.62667414285724,35.200881714285714,49.05265185714278,70.34545800000002,-81.44271771428572,-15.393411285714128,1
1242.777777777775,-69.17902496935794,259.5679972486846,195.90513685489609,145.2733130765617,-85.97327664217086,78.94519858372713,112.50652354761915,35.20081346031746,49.14123300793643,70.31493438888891,-81.43454390476191,-15.569982317460164,1
1245.555555555553,-68.93655346852205,259.7758597280868,196.0059329542437,144.07587044109414,-85.94316532472233,80.06582622576938,112.38637295238108,35.20074520634921,49.22981415873007,70.28441077777781,-81.4263700952381,-15.746553349206184,1
1248.3333333333308,-68.69320077983808,259.985165286155,196.10795315048443,142.8442041531305,-85.91179092191938,81.21937533342884,112.26622235714296,35.20067695238095,49.31839530952373,70.2538871666667,-81.41819628571429,-15.92312438095222,1
1251.1111111111086,-68.44985203480603,260.19539151557274,196.21095591997323,141.6734946660927,-85.88286577142077,82.31447617131171,112.14856991666676,35.200636,49.40927170833325,70.22718154166668,-81.40883963888889,-16.080183597222106,1
1253.8888888888864,-68.2078044500714,260.40578164325524,196.31459805893147,140.67617620321593,-85.86078485345831,83.24320520714073,112.03466470833344,35.200636,49.50359097916658,70.20620289583336,-81.39770873611111,-16.207975090277664,1
1256.6666666666642,-67.96700887119971,260.61634757768866,196.41887213878357,139.80540610224034,-85.84369915609686,84.05050881672105,111.9207595000001,35.200636,49.59791024999992,70.18522425000002,-81.38657783333333,-16.335766583333225,1
1259.4444444444418,-67.72741799364422,260.82710080494195,196.52377103431527,139.02699653709615,-85.8302591894614,84.76919083323288,111.80685429166677,35.200636,49.69222952083325,70.16424560416668,-81.37544693055557,-16.46355807638877,1
1262.2222222222197,-67.48898627728548,261.038052405996,196.62928790764,138.3159957352967,-85.81948003674948,85.42319293054966,111.69294908333345,35.200636,49.786548791666576,70.14326695833334,-81.36431602777779,-16.59134956944433,1
1264.9999999999975,-67.25166986575063,261.24921307311945,196.73541619307588,137.6541928006898,-85.81064286255103,86.0299887906253,111.5790438750001,35.200636,49.88086806249992,70.12228831250002,-81.35318512500001,-16.719141062499887,1
1267.777777777775,-67.01307786687404,261.46134184797,196.8424667069088,137.0366581927354,-85.80166261703333,86.57998384566767,111.47421980740752,35.200636,49.95898904444438,70.114736,-81.33995631111112,-16.82113462222214,1
1270.555555555553,-66.77190792741425,261.6748508884522,196.9506037379598,136.45613593050132,-85.79170021989789,87.07595264635849,111.37450388148156,35.200636,50.02799848888883,70.114736,-81.32554742222223,-16.908616844444364,1
1273.3333333333308,-66.52820048054406,261.8897244094679,197.05981069606173,135.90262689887533,-85.78102100550525,87.53249072091499,111.27478795555564,35.200636,50.09700793333327,70.114736,-81.31113853333335,-16.996099066666584,1
1276.1111111111086,-66.28199447581632,262.10594721456147,197.170071600519,135.3688333058059,-85.76981862649022,87.96025052494096,111.17507202962972,35.200636,50.16601737777771,70.114736,-81.29672964444445,-17.08358128888881,1
1278.8888888888864,-66.03332744983547,262.3235046663997,197.2813710509615,134.84942890309722,-85.75823441902537,88.36700668698715,111.0753561037038,35.200636,50.23502682222216,70.114736,-81.28232075555557,-17.171063511111033,1
1281.666666666664,-65.78272804611089,262.5423952185706,197.3937883948644,134.34973577522982,-85.74864968122526,88.75292934401607,110.97382470833344,35.200636,50.31076712499991,70.10787004166669,-81.26908058333335,-17.258606208333248,1
1284.4444444444418,-65.53177273042735,262.7626445862407,197.5076041763662,133.89359194205585,-85.74773836909829,89.10621706008727,110.866544326389,35.200636,50.40782181249991,70.07926188194446,-81.25954134722224,-17.34634040972214,1
1287.2222222222197,-65.28045266786756,262.98423856335086,197.62279644326983,133.46923229109126,-85.75315730282067,89.43568636722456,110.75926394444454,35.200636,50.50487649999991,70.05065372222224,-81.25000211111113,-17.43407461111103,1
1289.9999999999973,-65.02875932439979,263.2071634373091,197.7393440024099,133.06807012807295,-85.76319632715351,89.74777195655834,110.6519835625001,35.200636,50.60193118749991,70.02204556250003,-81.24046287500002,-17.521808812499913,1
1292.777777777775,-64.77668445656828,263.4314059649026,197.8572263851584,132.68383850753239,-85.77660729591899,90.04717014743864,110.54470318055566,35.200636,50.69898587499991,69.9934374027778,-81.2309236388889,-17.609543013888803,1
1295.555555555553,-64.52422010168226,263.6569533494654,197.97642381470476,132.31196353824888,-85.79247925738255,90.33730851937015,110.4374227986112,35.200636,50.796040562499904,69.96482924305558,-81.22138440277779,-17.697277215277698,1
1298.3333333333308,-64.27105152846038,263.88366412814327,198.096864850294,131.9652771716759,-85.81065685118199,90.60148074340283,110.32704366666675,35.200636,50.891615166666575,69.94445741666667,-81.21184508333334,-17.77952049999993,1
1301.1111111111086,-64.01684619869442,264.1113896453699,198.21847560313077,131.65449224266715,-85.83106914619728,90.82589314858328,110.21330755555566,35.200636,50.98558634722213,69.93300828472223,-81.20230567361112,-17.855815291666598,1
1303.8888888888862,-63.76160933353125,264.34012353028646,198.3412403042276,131.36990975484952,-85.85311242401328,91.02128709695731,110.09957144444456,35.200636,51.07955752777769,69.92155915277779,-81.1927662638889,-17.93211008333326,1
1306.666666666664,-63.50534599625163,264.5698596086317,198.46514369248905,131.104450955969,-85.87634606449491,91.19550210489011,109.98583533333344,35.200636,51.17352870833325,69.91011002083334,-81.18322685416668,-18.00840487499993,1
1309.4444444444418,-63.248061101397326,264.8005918922641,198.59017099230843,130.8529494626654,-85.90044848377369,91.35425979470273,109.87209922222232,35.200636,51.2674998888888,69.8986608888889,-81.17368744444445,-18.084699666666594,1
1312.2222222222194,-62.98975942342452,265.0323145692203,198.7163078922701,130.61163462213608,-85.92518497586082,91.50173605690422,109.75836311111122,35.200636,51.36147106944435,69.88721175694445,-81.16414803472223,-18.160994458333256,1
1314.9999999999973,-62.72962099005684,265.2650058126866,198.8435198728051,130.39531715135243,-85.95028766345389,91.61803101453464,109.63201713333346,35.200590133333336,51.45544539999991,69.884006,-81.15232500000002,-18.2350920666666,1
1317.777777777775,-62.4673462723193,265.498654168842,198.97178587637595,130.20407379623478,-85.97562005821995,91.70264441444276,109.50076731851864,35.20052642962963,51.54942095555546,69.884006,-81.1396138888889,-18.308335214814743,1
1320.555555555553,-62.20296050814128,265.7332547084108,199.101093388331,130.03113062867877,-86.00112010333928,91.76413522624907,109.36951750370385,35.200462725925924,51.64339651111102,69.884006,-81.1269027777778,-18.38157836296289,1
1323.3333333333308,-61.93648818399604,265.9688026307342,199.23143026681868,129.8715437393362,-86.02674250702754,91.8087501607638,109.238267688889,35.20039902222222,51.73737206666658,69.884006,-81.11419166666668,-18.45482151111104,1
1326.1111111111084,-61.66795306714953,266.2052932566039,199.36278472680468,129.72170484668024,-86.05245421335725,91.84104834106805,109.1070178740742,35.20033531851852,51.83134762222213,69.884006,-81.10148055555557,-18.528064659259183,1
1328.8888888888862,-61.39767829701094,266.44292066381144,199.4954110049993,129.53372085848127,-86.07780180843864,91.91216497060219,108.97986625185196,35.20026148148148,51.93122765185174,69.87749720000002,-81.09256535555556,-18.613676874073967,1
1331.666666666664,-61.126316341611954,266.68209749271904,199.6298558435496,129.22172023721293,-86.10197142170605,92.11320448520516,108.861423288889,35.20016611111111,52.04365468888879,69.85715720000002,-81.09171646666667,-18.72557335555545,1
1334.4444444444416,-60.853872587241966,266.9228085307777,199.76609391673557,128.81920684667435,-86.125281292264,92.40906741041132,108.74298032592604,35.20007074074074,52.156081725925816,69.83681720000001,-81.09086757777777,-18.837469837036924,1
1337.2222222222194,-60.58035229803634,267.1650389811148,199.90410062620515,128.35063327373754,-86.14796368494606,92.77413661281538,108.62453736296308,35.19997537037037,52.26850876296285,69.81647720000002,-81.09001868888889,-18.949366318518408,1
1339.9999999999973,-60.30576062277227,267.4087744447017,200.04385207196813,127.8338460870348,-86.17018811679822,93.18971558673181,108.50609440000012,35.19988,52.38093579999989,69.79613720000002,-81.0891698,-19.061262799999888,1
1342.777777777775,-60.03010260132851,267.6540009033493,200.1853250247071,127.28187049382176,-86.19207830878345,93.64215880362632,108.38765143703716,35.199784629629626,52.49336283703693,69.77579720000001,-81.08832091111111,-19.17315928148137,1
1345.555555555553,-59.75304470636207,267.9002377520764,200.32801845770948,126.77914170265338,-86.21035955213772,94.04351929650078,108.26797822962972,35.199777,52.59653603703694,69.7704313925926,-81.07187325185187,-19.27570430370361,1
1348.3333333333303,-59.47456815198828,268.14743909150667,200.47187700785884,126.31887093551651,-86.22571421755718,94.40081582728482,108.14819804444456,35.199777,52.69890455555545,69.76636768888889,-81.05406917777779,-19.37743615555545,1
1351.1111111111084,-59.194683730395205,268.39560028912086,200.6168878465905,125.88958789347525,-86.23893293825046,94.72595254905683,108.02841785925938,35.199777,52.801273074073976,69.76230398518518,-81.03626510370371,-19.479168007407303,1
1353.8888888888862,-58.91340197926865,268.64471680034944,200.76303847908284,125.48292105010324,-86.25059275295354,95.02761763399403,107.9086376740742,35.199777,52.90364159259249,69.75824028148148,-81.01846102962965,-19.58089985925916,1
1356.6666666666638,-58.63073319302179,268.8947841636904,200.910316731,125.09276049884107,-86.2611148098034,95.31215209059015,107.788857488889,35.199777,53.006010111111,69.75417657777777,-81.00065695555557,-19.682631711111007,1
1359.4444444444416,-58.34626749992759,269.1457823729492,201.05867608217557,124.75300576222031,-86.27242356644561,95.54376149290992,107.66238211111124,35.19976661805556,53.10818104166656,69.752226,-80.97889000000002,-19.77411058333325,1
1362.2222222222194,-58.059635015551606,269.39769299188595,201.2080736263148,124.48544751926744,-86.28579918516184,95.69943091473438,107.5297265555557,35.199746652777776,53.21016958333323,69.752226,-80.95346500000002,-19.856125166666587,1
1364.9999999999973,-57.77085818023727,269.65051225793434,201.35849913410783,124.27058143874272,-86.3006832903237,95.79967601352374,107.39707100000014,35.1997266875,53.3121581249999,69.752226,-80.92804000000002,-19.93813974999992,1
1367.777777777775,-57.47995888945999,269.9042364616222,201.50994262110305,124.09417240564925,-86.3166683549474,95.8594700144347,107.26441544444458,35.19970672222222,53.41414666666657,69.752226,-80.90261500000003,-20.020154333333256,1
1370.5555555555527,-57.18695851489983,270.15886194322144,201.66239433811748,123.94583100973321,-86.33345694799527,95.88974103283616,107.13175988888904,35.19968675694444,53.516135208333225,69.752226,-80.87719000000003,-20.10216891666658,1
1373.3333333333303,-56.89187792460412,270.4143850895645,201.81584476206447,123.81797460445858,-86.35083199127214,95.89846488584602,106.99910433333348,35.199666791666665,53.618123749999896,69.752226,-80.85176500000003,-20.18418349999992,1
1376.1111111111084,-56.59672942012615,270.6700635338011,201.96998393238812,123.68582933316594,-86.3704151411532,95.92194435315173,106.88753160000012,35.199629770370365,53.72708583703693,69.74758113333333,-80.83277691851853,-20.261080081481406,1
1378.888888888886,-56.30212960744375,270.92567243686443,202.12471268971956,123.54447816201375,-86.39217199746417,95.96581890729408,106.78261660000013,35.19958736296296,53.83825009629618,69.74146946666667,-80.81582154814816,-20.33636045185177,1
1381.6666666666638,-56.00805842122253,271.18122297114854,202.28002810540016,123.39640812203491,-86.41551531991024,96.0245786888725,106.67770160000012,35.19954495555555,53.94941435555544,69.7353578,-80.7988661777778,-20.411640822222143,1
1384.4444444444416,-55.71449636486067,271.43672597349934,202.43592729302176,123.24343435737971,-86.44001651481008,96.09420236122999,106.57278660000011,35.199502548148146,54.0605786148147,69.72924613333333,-80.78191080740743,-20.486921192592515,1
1387.2222222222194,-55.4214244924494,271.69219195546015,202.59240740622795,123.08688163973078,-86.46536277572775,96.17175497678751,106.46787160000012,35.19946014074074,54.17174287407396,69.72313446666668,-80.76495543703706,-20.562201562962887,1
1389.9999999999973,-55.12804235568948,271.947979495054,202.74967401775237,122.9564923441438,-86.49184473013737,96.22213150154441,106.3655643125001,35.199433,54.27220912499992,69.719223,-80.74523387500003,-20.629603687499948,1
1392.7777777777749,-54.83295666151388,272.20471119549165,202.9080908432954,122.89635470170944,-86.52007810082422,96.19407287059293,106.26789295833343,35.199433,54.35365669444436,69.719223,-80.72059463888891,-20.68300004166661,1
1395.5555555555527,-54.536181797058006,272.46238249165856,203.06764667574743,122.88748979193429,-86.54958973180145,96.1087688284768,106.17022160416676,35.199433,54.4351042638888,69.719223,-80.6959554027778,-20.73639639583328,1
1398.3333333333303,-54.2377318644842,272.7209888735204,203.2283305454653,122.9160459675908,-86.58003429311121,95.98168457862329,106.0725502500001,35.199433,54.51655183333325,69.719223,-80.6713161666667,-20.789792749999947,1
1401.111111111108,-53.93762069165105,272.9805258832317,203.3901317117453,122.97191368999466,-86.61115974782895,95.82410730368596,105.97487889583344,35.199433,54.59799940277769,69.719223,-80.64667693055559,-20.84318910416661,1
1403.888888888886,-53.63586184233797,273.24098911238167,203.5530396546437,123.04771457513624,-86.64278214837086,95.64427488380994,105.87720754166676,35.199433,54.67944697222214,69.719223,-80.62203769444447,-20.89658545833328,1
