BAEK26/lfd/sumin/updated_A_CE.csv
timestamp,x,y,z,roll,pitch,yaw,joint1,joint2,joint3,joint4,joint5,joint6,gripper
140.0,-133.209595,231.130341,183.414597,-150.548557,-84.935779,56.707065,129.41158054385326,35.20393903893169,40.300933556107864,43.923351703180806,-81.80697202899444,-0.8679287330587693,1.0
142.77777777777777,-133.209595,231.130341,183.414597,-150.548557,-84.935779,56.707065,129.41158054385326,35.20393903893169,40.300933556107864,43.923351703180806,-81.80697202899444,-0.8679287330587693,1.0
145.55555555555554,-133.209595,231.130341,183.414597,-150.548557,-84.935779,56.707065,129.41158054385326,35.20393903893169,40.300933556107864,43.923351703180806,-81.80697202899444,-0.8679287330587693,1.0
148.33333333333331,-133.209595,231.130341,183.414597,-150.548557,-84.935779,56.707065,129.41158054385326,35.20393903893169,40.300933556107864,43.923351703180806,-81.80697202899444,-0.8679287330587693,1.0
151.1111111111111,-133.209595,231.130341,183.414597,-150.548557,-84.935779,56.707065,129.41158054385326,35.20393903893169,40.300933556107864,43.923351703180806,-81.80697202899444,-0.8679287330587693,1.0
153.88888888888886,-133.209595,231.130341,183.414597,-150.548557,-84.935779,56.707065,129.41158054385326,35.20393903893169,40.300933556107864,43.923351703180806,-81.80697202899444,-0.8679287330587693,1.0
156.66666666666663,-133.209595,231.130341,183.414597,-150.548557,-84.935779,56.707065,129.41158054385326,35.20393903893169,40.300933556107864,43.923351703180806,-81.80697202899444,-0.8679287330587693,1.0
159.4444444444444,-133.209595,231.130341,183.414597,-150.548557,-84.935779,56.707065,129.41158054385326,35.20393903893169,40.300933556107864,43.923351703180806,-81.80697202899444,-0.8679287330587693,1.0
162.22222222222217,-133.209595,231.130341,183.414597,-150.548557,-84.935779,56.707065,129.41158054385326,35.20393903893169,40.300933556107864,43.923351703180806,-81.80697202899444,-0.8679287330587693,1.0
164.99999999999994,-133.209595,231.130341,183.414597,-150.548557,-84.935779,56.707065,129.41158054385326,35.20393903893169,40.300933556107864,43.923351703180806,-81.80697202899444,-0.8679287330587693,1.0
167.77777777777771,-133.209595,231.130341,183.414597,-150.548557,-84.935779,56.707065,129.41158054385326,35.20393903893169,40.300933556107864,43.923351703180806,-81.80697202899444,-0.8679287330587693,1.0
170.5555555555555,-133.209595,231.130341,183.414597,-150.548557,-84.935779,56.707065,129.41158054385326,35.20393903893169,40.300933556107864,43.923351703180806,-81.80697202899444,-0.8679287330587693,1.0
173.33333333333326,-133.209595,231.130341,183.414597,-150.548557,-84.935779,56.707065,129.41158054385326,35.20393903893169,40.300933556107864,43.923351703180806,-81.80697202899444,-0.8679287330587693,1.0
176.11111111111103,-133.209595,231.130341,183.414597,-150.548557,-84.935779,56.707065,129.41158054385326,35.20393903893169,40.300933556107864,43.923351703180806,-81.80697202899444,-0.8679287330587693,1.0
178.8888888888888,-133.209595,231.130341,183.414597,-150.548557,-84.935779,56.707065,129.41158054385326,35.20393903893169,40.300933556107864,43.923351703180806,-81.80697202899444,-0.8679287330587693,1.0
181.66666666666657,-133.209595,231.130341,183.414597,-150.548557,-84.935779,56.707065,129.41158054385326,35.20393903893169,40.300933556107864,43.923351703180806,-81.80697202899444,-0.8679287330587693,1.0
184.4444444444444,-133.209595,231.130341,183.414597,-150.548557,-84.935779,56.707065,129.41158054385326,35.20393903893169,40.300933556107864,43.923351703180806,-81.80697202899444,-0.8679287330587693,1.0
187.2222222222221,-133.209595,231.130341,183.414597,-150.548557,-84.935779,56.707065,129.41158054385326,35.20393903893169,40.300933556107864,43.923351703180806,-81.80697202899444,-0.8679287330587693,1.0
189.9999999999999,-133.209595,231.130341,183.414597,-150.548557,-84.935779,56.707065,129.41158054385326,35.20393903893169,40.300933556107864,43.923351703180806,-81.80697202899444,-0.8679287330587693,1.0
192.7777777777777,-133.209595,231.130341,183.414597,-150.548557,-84.935779,56.707065,129.41158054385326,35.20393903893169,40.300933556107864,43.923351703180806,-81.80697202899444,-0.8679287330587693,1.0
195.55555555555543,-133.209595,231.130341,183.414597,-150.548557,-84.935779,56.707065,129.41158054385326,35.20393903893169,40.300933556107864,43.923351703180806,-81.80697202899444,-0.8679287330587693,1.0
198.3333333333332,-133.209595,231.130341,183.414597,-150.548557,-84.935779,56.707065,129.41158054385326,35.20393903893169,40.300933556107864,43.923351703180806,-81.80697202899444,-0.8679287330587693,1.0
201.11111111111097,-133.209595,231.130341,183.414597,-150.548557,-84.935779,56.707065,129.41158054385326,35.20393903893169,40.300933556107864,43.923351703180806,-81.80697202899444,-0.8679287330587693,1.0
203.8888888888888,-133.209595,231.130341,183.414597,-150.548557,-84.935779,56.707065,129.41158054385326,35.20393903893169,40.300933556107864,43.923351703180806,-81.80697202899444,-0.8679287330587693,1.0
206.6666666666665,-133.209595,231.130341,183.414597,-150.548557,-84.935779,56.707065,129.41158054385326,35.20393903893169,40.300933556107864,43.923351703180806,-81.80697202899444,-0.8679287330587693,1.0
209.4444444444443,-133.209595,231.130341,183.414597,-150.548557,-84.935779,56.707065,129.41158054385326,35.20393903893169,40.300933556107864,43.923351703180806,-81.80697202899444,-0.8679287330587693,1.0
212.2222222222221,-133.209595,231.130341,183.414597,-150.548557,-84.935779,56.707065,129.41158054385326,35.20393903893169,40.300933556107864,43.923351703180806,-81.80697202899444,-0.8679287330587693,1.0
214.99999999999983,-133.209595,231.130341,183.414597,-150.548557,-84.935779,56.707065,129.41158054385326,35.20393903893169,40.300933556107864,43.923351703180806,-81.80697202899444,-0.8679287330587693,1.0
217.7777777777776,-133.209595,231.130341,183.414597,-150.548557,-84.935779,56.707065,129.41158054385326,35.20393903893169,40.300933556107864,43.923351703180806,-81.80697202899444,-0.8679287330587693,1.0
220.55555555555537,-133.209595,231.130341,183.414597,-150.548557,-84.935779,56.707065,129.41158054385326,35.20393903893169,40.300933556107864,43.923351703180806,-81.80697202899444,-0.8679287330587693,1.0
223.3333333333332,-133.209595,231.130341,183.414597,-150.548557,-84.935779,56.707065,129.41158054385326,35.20393903893169,40.300933556107864,43.923351703180806,-81.80697202899444,-0.8679287330587693,1.0
226.1111111111109,-133.209595,231.130341,183.414597,-150.548557,-84.935779,56.707065,129.41158054385326,35.20393903893169,40.300933556107864,43.923351703180806,-81.80697202899444,-0.8679287330587693,1.0
228.8888888888887,-133.209595,231.130341,183.414597,-150.548557,-84.935779,56.707065,129.41158054385326,35.20393903893169,40.300933556107864,43.923351703180806,-81.80697202899444,-0.8679287330587693,1.0
231.6666666666665,-133.209595,231.130341,183.414597,-150.548557,-84.935779,56.707065,129.41158054385326,35.20393903893169,40.300933556107864,43.923351703180806,-81.80697202899444,-0.8679287330587693,1.0
234.44444444444423,-133.209595,231.130341,183.414597,-150.548557,-84.935779,56.707065,129.41158054385326,35.20393903893169,40.300933556107864,43.923351703180806,-81.80697202899444,-0.8679287330587693,1.0
237.222222222222,-133.209595,231.130341,183.414597,-150.548557,-84.935779,56.707065,129.41158054385326,35.20393903893169,40.300933556107864,43.923351703180806,-81.80697202899444,-0.8679287330587693,1.0
239.99999999999977,-133.209595,231.130341,183.414597,-150.548557,-84.935779,56.707065,129.41158054385326,35.20393903893169,40.300933556107864,43.923351703180806,-81.80697202899444,-0.8679287330587693,1.0
242.7777777777776,-133.209595,231.130341,183.414597,-150.548557,-84.935779,56.707065,129.41158054385326,35.20393903893169,40.300933556107864,43.923351703180806,-81.80697202899444,-0.8679287330587693,1.0
245.5555555555553,-133.209595,231.130341,183.414597,-150.548557,-84.935779,56.707065,129.41158054385326,35.20393903893169,40.300933556107864,43.923351703180806,-81.80697202899444,-0.8679287330587693,1.0
248.3333333333331,-133.209595,231.130341,183.414597,-150.548557,-84.935779,56.707065,129.41158054385326,35.20393903893169,40.300933556107864,43.923351703180806,-81.80697202899444,-0.8679287330587693,1.0
251.1111111111109,-133.209595,231.130341,183.414597,-150.548557,-84.935779,56.707065,129.41158054385326,35.20393903893169,40.300933556107864,43.923351703180806,-81.80697202899444,-0.8679287330587693,1.0
253.88888888888863,-133.209595,231.130341,183.414597,-150.548557,-84.935779,56.707065,129.41158054385326,35.20393903893169,40.300933556107864,43.923351703180806,-81.80697202899444,-0.8679287330587693,1.0
256.6666666666664,-133.209595,231.130341,183.414597,-150.548557,-84.935779,56.707065,129.41158054385326,35.20393903893169,40.300933556107864,43.923351703180806,-81.80697202899444,-0.8679287330587693,1.0
259.4444444444442,-133.209595,231.130341,183.414597,-150.548557,-84.935779,56.707065,129.41158054385326,35.20393903893169,40.300933556107864,43.923351703180806,-81.80697202899444,-0.8679287330587693,1.0
262.22222222222194,-133.209595,231.130341,183.414597,-150.548557,-84.935779,56.707065,129.41158054385326,35.20393903893169,40.300933556107864,43.923351703180806,-81.80697202899444,-0.8679287330587693,1.0
264.9999999999997,-133.209595,231.130341,183.414597,-150.548557,-84.935779,56.707065,129.41158054385326,35.20393903893169,40.300933556107864,43.923351703180806,-81.80697202899444,-0.8679287330587693,1.0
267.7777777777775,-133.209595,231.130341,183.414597,-150.548557,-84.935779,56.707065,129.41158054385326,35.20393903893169,40.300933556107864,43.923351703180806,-81.80697202899444,-0.8679287330587693,1.0
270.55555555555526,-133.209595,231.130341,183.414597,-150.548557,-84.935779,56.707065,129.41158054385326,35.20393903893169,40.300933556107864,43.923351703180806,-81.80697202899444,-0.8679287330587693,1.0
273.33333333333303,-133.209595,231.130341,183.414597,-150.548557,-84.935779,56.707065,129.41158054385326,35.20393903893169,40.300933556107864,43.923351703180806,-81.80697202899444,-0.8679287330587693,1.0
276.1111111111108,-133.209595,231.130341,183.414597,-150.548557,-84.935779,56.707065,129.41158054385326,35.20393903893169,40.300933556107864,43.923351703180806,-81.80697202899444,-0.8679287330587693,1.0
278.8888888888886,-133.209595,231.130341,183.414597,-150.548557,-84.935779,56.707065,129.41158054385326,35.20393903893169,40.300933556107864,43.923351703180806,-81.80697202899444,-0.8679287330587693,1.0
281.66666666666634,-133.209595,231.130341,183.414597,-150.548557,-84.935779,56.707065,129.41158054385326,35.20393903893169,40.300933556107864,43.923351703180806,-81.80697202899444,-0.8679287330587693,1.0
284.4444444444441,-133.209595,231.130341,183.414597,-150.548557,-84.935779,56.707065,129.41158054385326,35.20393903893169,40.300933556107864,43.923351703180806,-81.80697202899444,-0.8679287330587693,1.0
287.2222222222219,-133.209595,231.130341,183.414597,-150.548557,-84.935779,56.707065,129.41158054385326,35.20393903893169,40.300933556107864,43.923351703180806,-81.80697202899444,-0.8679287330587693,1.0
289.99999999999966,-133.209595,231.130341,183.414597,-150.548557,-84.935779,56.707065,129.41158054385326,35.20393903893169,40.300933556107864,43.923351703180806,-81.80697202899444,-0.8679287330587693,1.0
292.77777777777743,-133.209595,231.130341,183.414597,-150.548557,-84.935779,56.707065,129.41158054385326,35.20393903893169,40.300933556107864,43.923351703180806,-81.80697202899444,-0.8679287330587693,1.0
295.5555555555552,-133.209595,231.130341,183.414597,-150.548557,-84.935779,56.707065,129.41158054385326,35.20393903893169,40.300933556107864,43.923351703180806,-81.80697202899444,-0.8679287330587693,1.0
298.333333333333,-133.209595,231.130341,183.414597,-150.548557,-84.935779,56.707065,129.41158054385326,35.20393903893169,40.300933556107864,43.923351703180806,-81.80697202899444,-0.8679287330587693,1.0
301.11111111111074,-133.209595,231.130341,183.414597,-150.548557,-84.935779,56.707065,129.41158054385326,35.20393903893169,40.300933556107864,43.923351703180806,-81.80697202899444,-0.8679287330587693,1.0
303.8888888888885,-133.209595,231.130341,183.414597,-150.548557,-84.935779,56.707065,129.41158054385326,35.20393903893169,40.300933556107864,43.923351703180806,-81.80697202899444,-0.8679287330587693,1.0
306.6666666666663,-133.209595,231.130341,183.414597,-150.548557,-84.935779,56.707065,129.41158054385326,35.20393903893169,40.300933556107864,43.923351703180806,-81.80697202899444,-0.8679287330587693,1.0
309.44444444444406,-133.209595,231.130341,183.414597,-150.548557,-84.935779,56.707065,129.41158054385326,35.20393903893169,40.300933556107864,43.923351703180806,-81.80697202899444,-0.8679287330587693,1.0
312.22222222222183,-133.20392551851853,231.1299282148148,183.41430977777776,-150.54803989899773,-84.93566926654906,56.7051050527037,129.41080190228786,35.20360094456778,40.300100273029116,43.92396983530069,-81.80728621769626,-0.8675321552000854,1.0
314.9999999999996,-133.19104033333335,231.12899006666663,183.413657,-150.54648726649285,-84.93533978406484,56.69922017167103,129.4092446191571,35.20292134074536,40.298433706871634,43.9266540996445,-81.80790776491072,-0.8667386793176003,1.0
317.7777777777774,-133.17815514814816,231.1280519185185,183.4130042222222,-150.54417885775334,-84.93484991911373,56.690470702132046,129.4081108077549,35.20241932184137,40.29721793319938,43.93190993021083,-81.80835855739595,-0.8661615816935871,1.0
320.55555555555515,-133.16526996296298,231.1271137703704,183.41235144444445,-150.54131885042378,-84.93424300001544,56.67963053046619,129.40727752467615,35.20205732181536,40.29633000860727,43.939040647704324,-81.8086864064761,-0.8657376830782232,1.0
323.3333333333329,-133.1523847777778,231.1261756222222,183.41169866666667,-150.5380562622897,-84.93355064967496,56.66726447284021,129.4066764680292,35.201790944437725,40.29568114063612,43.947540818126406,-81.80893229328622,-0.8654268561101348,1.0
326.1111111111107,-133.13958548888888,231.125243237037,183.4110501851852,-150.5345079917623,-84.93279766886818,56.653814451995416,129.4062393359223,35.201599699140964,40.29522010286715,43.95704161126189,-81.80909621782631,-0.8652070627570779,1.0
328.88888888888846,-133.12884771111112,231.1244491629629,183.4105048148148,-150.53094654665938,-84.93204174117525,56.64028599142268,129.40621201516564,35.20158603876263,40.29518253682671,43.967017102544695,-81.80910987820465,-0.8651885465411248,1.0
331.66666666666623,-133.11810993333333,231.12365508888888,183.40995944444444,-150.52737548617438,-84.93128366271578,56.62670028210175,129.40618469440895,35.201575793478874,40.29515521607003,43.97704723534086,-81.80911670839382,-0.8651734454197567,1.0
334.444444444444,-133.10737215555557,231.1228610148148,183.40941407407408,-150.5237974079625,-84.93052401453272,56.613072790137586,129.40618469440895,35.201572378384284,40.29514155569169,43.98713200965038,-81.80912353858298,-0.8651665618697338,1.0
337.2222222222218,-133.09663437777778,231.12206694074075,183.4088687037037,-150.5202142079062,-84.92976322069663,56.5994148033708,129.4061710340306,35.20156213310053,40.29513131040793,43.99724751981117,-81.80912353858298,-0.8651626665274728,1.0
339.99999999999955,-133.0858966,231.1212728666667,183.40832333333333,-150.5166272697036,-84.9290015907128,56.58573456016175,129.4061710340306,35.20156213310053,40.29512448021877,44.00739035072864,-81.80913036877216,-0.8651625064449141,1.0
342.7777777777773,-133.06785733333334,231.1199188888889,183.4074064444445,-150.51238166195458,-84.92809796872085,56.56952590662163,129.40516016603345,35.20112158589907,40.29404189523532,44.01833914396817,-81.80953334993319,-0.8646476809362245,1.0
345.5555555555551,-133.04571097916667,231.11824996527776,183.4062805763889,-150.50728636135665,-84.92701118750895,56.55005881479225,129.40387609046948,35.20055126510337,40.292648536644634,44.03139505056665,-81.8100524443101,-0.8639860597212323,1.0
348.33333333333286,-133.023564625,231.11658104166668,183.40515470833336,-150.50157091771112,-84.92579072867814,56.52821357201847,129.40293352436402,35.200134623564,40.29162742336372,44.04658539128076,-81.8104417650928,-0.8634999957122507,1.0
351.11111111111063,-133.00141827083334,231.1149121180556,183.4040288402778,-150.49540286651455,-84.92447270606753,56.50463265055069,129.40223684506867,35.19983409524052,40.29088634783877,44.06335350569314,-81.81072180284878,-0.8631481342482893,1.0
353.8888888888884,-132.97927191666668,231.1132431944445,183.40290297222225,-150.4889044825084,-84.9230834771383,56.4797849547699,129.40174507144843,35.199608698997906,40.290343347799755,44.08124860131857,-81.81091304814552,-0.8628894408334751,1.0
356.6666666666662,-132.95712556249998,231.11157427083336,183.40177710416668,-150.48216500715313,-84.92164227871976,56.45401271162579,129.40137624123327,35.19944818955241,40.289947196827896,44.099980395117335,-81.81106331230727,-0.8626983556192733,1.0
359.44444444444395,-132.92235077037037,231.10886502222223,183.4000032444445,-150.47414111358228,-84.91991861679593,56.423238114754874,129.39938182599562,35.198563680054896,40.287785441955585,44.12070660415374,-81.81186927462933,-0.8616699852623633,1.0
362.2222222222217,-132.8858539185185,231.10601391111112,183.39814102222223,-150.46502864182924,-84.91795545510607,56.38822245673903,129.3977015994598,35.19780894415161,40.285948121068856,44.14493328513977,-81.81255229354633,-0.8607950273575141,1.0
364.9999999999995,-132.84935706666667,231.1031628,183.3962788,-150.45512167805202,-84.91581749599973,56.35011148659148,129.39648582578752,35.197262529018005,40.28460598889694,44.17196034368551,-81.81304406716657,-0.8601561378658534,1.0
367.77777777777726,-132.8128602148148,231.1003116888889,183.39441657777772,-150.44463485920625,-84.91355196208478,56.309741422112296,129.39558424081707,35.196866378046145,40.28362927184563,44.201022798603915,-81.81341289738175,-0.859687095968944,1.0
370.55555555555503,-132.77636336296297,231.09746057777772,183.39255435555555,-150.43372483674068,-84.91119331848824,56.26772257166837,129.39492854265677,35.19657609500642,40.28291551707737,44.23159131023431,-81.81367244457022,-0.8593438256022979,1.0
373.3333333333328,-132.73135483333334,231.09388625,183.39029666666667,-150.42173037278644,-84.90860214170559,56.221541306519796,129.3933029576343,35.19583501948148,40.28113283770399,44.26419180314278,-81.81432814273053,-0.8584958149281585,1.0
376.1111111111106,-132.67712531944446,231.0895284375,183.3876105555556,-150.40810423624615,-84.90566295955281,56.169116482135905,129.39087141028978,35.19472169864677,40.278458818643934,44.300559145378514,-81.81531852016019,-0.85722694720727,1.0
378.8888888888884,-132.62289580555557,231.085170625,183.38492444444444,-150.39328723360467,-84.90246978784243,56.112134834828304,129.38909556110556,35.19390890613553,40.27651904491965,44.34103484640001,-81.81602885983386,-0.8563016700181448,1.0
381.6666666666661,-132.56866629166666,231.0808128125,183.38223833333333,-150.37760108473677,-84.89909124343119,56.05182741861623,129.38779782516326,35.19331467967774,40.275108610856044,44.38446801933212,-81.81655478439995,-0.8556216926697583,1.0
384.4444444444439,-132.51443677777775,231.076455,183.37955222222223,-150.3612805948945,-84.89557740590571,55.98909271062847,129.3868552590578,35.19288437776003,40.274094327764296,44.430100513176974,-81.81692361461513,-0.855125703542139,1.0
387.22222222222166,-132.4602072638889,231.0720971875,183.3768661111111,-150.3444971352326,-84.89196482554125,55.92458645881626,129.38615857976245,35.19257018905821,40.27336691261769,44.47730053543635,-81.81719682218194,-0.8547578338223104,1.0
389.9999999999994,-132.39256326666668,231.06641126666668,183.37351386666663,-150.32626067188704,-84.88801727806285,55.85424812134343,129.383849975823,35.1915012644531,40.27081925205727,44.52718140694495,-81.81814621847657,-0.8535298405147361,1.0
392.7777777777772,-132.31970252592595,231.0602088592593,183.3699025703704,-150.30653008970353,-84.88372301792465,55.77788805305522,129.38147306999184,35.19039477380756,40.268179383943064,44.581529222170744,-81.81912293552789,-0.8522577177818212,1.0
395.555555555555,-132.2468417851852,231.05400645185185,183.3662912740741,-150.28570903416738,-84.87917571170546,55.69713306193763,129.37973820194264,35.18958539639091,40.26626010078629,44.63987269806099,-81.8198264450124,-0.851317873079857,1.0
398.3333333333328,-132.17398104444447,231.04780404444443,183.3626799777778,-150.2640921034287,-84.87444372137593,55.613170463693706,129.37846778675703,35.188991169933125,40.26488381766853,44.70115315529434,-81.82033187901098,-0.8506325596461813,1.0
401.1111111111105,-132.10112030370374,231.04160163703705,183.3590686814815,-150.24189430811737,-84.86957694049572,55.52686681331387,129.37752522065156,35.188560868015415,40.26389344023888,44.7645509711704,-81.82069387903698,-0.8501208290669593,1.0
403.8888888888883,-132.0289268814815,231.0352744296296,183.35544926666668,-150.21942206684776,-84.8646227979382,55.43917834779778,129.37693782438294,35.18828766044861,40.26326506283524,44.82944801356928,-81.82093293565794,-0.8497789460824885,1.0
406.66666666666606,-131.95815151111114,231.02868202222223,183.3518126,-150.1970671985893,-84.85962830053691,55.35116723140528,129.3767465790862,35.188157886854384,40.26295087413342,44.895191999425236,-81.82106953944134,-0.849589675137285,1.0
409.44444444444383,-131.88737614074077,231.02208961481483,183.34817593333327,-150.17479799429393,-84.85460435040358,55.2629206302749,129.3766236356811,35.18805543401683,40.26272206279622,44.96132872115847,-81.82115150171138,-0.8494507234763576,1.0
412.2222222222216,-131.8166007703704,231.0154972074074,183.34453926666663,-150.15259131130986,-84.8495589043767,55.17450216207137,129.3765143526544,35.18798713212513,40.26256496844531,45.02774206555309,-81.8212129734139,-0.8493487508864834,1.0
414.9999999999994,-131.74582540000003,231.0089048,183.3409026,-150.1304302591165,-84.84449776970548,55.08595825775213,129.37641873000604,35.187935905706354,40.262455685418594,45.09432616467696,-81.82125395454892,-0.8492611323660368,1.0
417.7777777777772,-131.67505002962963,231.0023123925926,183.33726593333333,-150.10830251027227,-84.83942518477464,54.99732280466303,129.37635042811434,35.18790516985509,40.26239079862148,45.16105711286799,-81.82126761492727,-0.8491945380216293,1.0
420.5555555555549,-131.5861660138889,230.99356697222225,183.332734375,-150.08481083020283,-84.83398589411061,54.902599166799405,129.3739188807698,35.18671671693951,40.25954602483217,45.23000787253926,-81.8223058036811,-0.8478175612127841,1.0
423.3333333333327,-131.49570733333334,230.98463433333333,183.328125,-150.0602029770997,-84.82824780477713,54.80290850783855,129.37192446553215,35.1857399998882,40.257230590703536,45.30329238723891,-81.82312542638151,-0.8466862577706479,1.0
426.11111111111046,-131.4052486527778,230.97570169444444,183.323515625,-150.03478049204145,-84.82229163909085,54.69959269938438,129.37044914467143,35.18502624511993,40.25554694907313,45.379968090861475,-81.8237196528393,-0.8458541486306699,1.0
428.8888888888882,-131.31478997222226,230.9667690555556,183.31890625,-150.00876345291115,-84.81617631173314,54.59363109809148,129.3693699747826,35.18450373564843,40.254338005590036,45.459129983341924,-81.82414312456784,-0.845241245874367,1.0
431.666666666666,-131.2243312916667,230.95783641666668,183.314296875,-149.98231248218465,-84.80994482121822,54.48573848133055,129.36855035208217,35.18413149033866,40.25348423194378,45.54006089481741,-81.82444365289132,-0.8447819156526837,1.0
434.4444444444438,-131.13101158333336,230.9484358055556,183.3095243055556,-149.95536938024028,-84.8035705111851,54.37552284160827,129.3675668048417,35.18367386766427,40.252422137527844,45.62266861773413,-81.82481931329568,-0.8442159704469246,1.0
437.2222222222216,-131.0226714791667,230.93657834027772,183.30389496527772,-149.92714609745957,-84.79678726277632,54.258814920592535,129.36497133295708,35.18233856568153,40.24921194861794,45.70875632203297,-81.82598044545458,-0.8426411849564136,1.0
439.9999999999993,-130.91433137500002,230.924720875,183.298265625,-149.89798848264775,-84.78970555323434,54.13736864840398,129.36308620074615,35.18136184863022,40.24686919373263,45.79943049835947,-81.82681372853332,-0.8414853888828004,1.0
442.7777777777771,-130.80599127083337,230.91286340972223,183.29263628472225,-149.86814895140697,-84.7824060136883,54.01246412004596,129.3616928421555,35.1806378485782,40.245165061534706,45.89342756171719,-81.82740795499112,-0.8406240913562912,1.0
445.55555555555486,-130.6976511666667,230.90100594444445,183.28700694444444,-149.8378117276965,-84.77494749226693,53.885035604904914,129.36066831377997,35.180118754201274,40.24394587276786,45.98985275732484,-81.82783142671965,-0.8399865892468058,1.0
448.33333333333263,-130.58931106250003,230.88914847916664,183.28137760416664,-149.80711126622865,-84.76737293891142,53.755764973688954,129.3598896722146,35.179749923986094,40.24309209912161,46.08804697192753,-81.82811829466479,-0.8395106637998734,1.0
451.1111111111104,-130.47470914814818,230.8761045925926,183.2754128148148,-149.7840042732378,-84.76002720789837,53.63142797566589,129.35855095513728,35.17904982959617,40.24144943862622,46.18830731875415,-81.82869886074424,-0.839526992220858,1.0
453.8888888888882,-130.35071451851854,230.86128107407407,183.26894485185184,-149.77822718899202,-84.75331874274379,53.520108894432354,129.3564062757379,35.177878452153514,40.23867979691778,46.29212619413834,-81.82968240798472,-0.8409749923249007,1.0
456.666666666666,-130.2267198888889,230.8464575555556,183.2624768888889,-149.78509823099267,-84.74707538211737,53.41829085890201,129.35484899260712,35.177021263412676,40.236668306207214,46.39978705093067,-81.83037908728006,-0.844205565080611,1.0
459.4444444444437,-130.1027252592593,230.83163403703705,183.25600892592595,-149.80120042936576,-84.74117147514167,53.32340710255888,129.35370152082658,35.176399716198205,40.23522713629234,46.51024145509353,-81.8308708609003,-0.8487465203007587,1.0
462.2222222222215,-129.97873062962967,230.8168105185185,183.24954096296293,-149.8240399298745,-84.73551531630432,53.23358428680568,129.3528272566128,35.17594892371298,40.234206023011424,46.62271418015613,-81.83120554016963,-0.8542429549527678,1.0
464.99999999999926,-129.85473600000003,230.801987,183.243073,-149.85179660849565,-84.73003997490673,53.14745516710413,129.3521442376958,35.175634735011165,40.23351617390525,46.73665539589028,-81.8314172760339,-0.8604441263889047,1.0
467.777777777777,-129.70767803703708,230.782727,183.2354378148148,-149.8865302181456,-84.72449593596366,53.061410558588726,129.34883842613752,35.17377692355692,40.22916534340395,46.854701555315614,-81.83293357802965,-0.8658648419906618,1.0
470.5555555555548,-129.5606200740741,230.763467,183.22780262962965,-149.9263558975671,-84.71890175854375,52.97542763003756,129.34644785992802,35.1724143008175,40.22600638091282,46.978799262345575,-81.8340127479185,-0.8725375632837941,1.0
473.3333333333326,-129.41356211111116,230.744207,183.22016744444448,-149.9698979924801,-84.71327098786797,52.88948971822514,129.34468567112214,35.17141026300951,40.22373534301379,47.107319516863114,-81.83477772910555,-0.8801361487354332,1.0
476.1111111111104,-129.2665041481482,230.724947,183.2125322592593,-150.01615249015367,-84.70761350983172,52.80358466159987,129.34338793517983,35.17068626295749,40.222137078748005,47.23902946972306,-81.83530365367164,-0.8884138577618127,1.0
478.8888888888881,-129.1194461851852,230.705687,183.20489707407407,-150.06438661813294,-84.70193653959431,52.717703584128834,129.3423770671827,35.17017399876974,40.22104766357539,47.37304802652246,-81.83565199331932,-0.8971855815642544,1.0
481.6666666666659,-128.96493456250005,230.68428341666663,183.1969189375,-150.11829695620114,-84.69633403500413,52.63411699868939,129.3408061236736,35.16920752700218,40.2189268898381,47.5098601306924,-81.83636233299299,-0.9061920397585626,1.0
484.44444444444366,-128.80545383333336,230.6614507777778,183.18871216666668,-150.17917096708115,-84.69084500664341,52.55372302800268,129.33912589713776,35.16809420616747,40.21650217268275,47.65036053701415,-81.83716146512589,-0.9159111855040791,1.0
487.22222222222143,-128.6459731041667,230.6386181388889,183.1805053958333,-150.24512737130541,-84.68543879820389,52.47565916736112,129.33789646308716,35.167264338183315,40.214780965011904,47.79415650961043,-81.83771471044867,-0.9265848501861049,1.0
489.9999999999992,-128.48649237500004,230.6157855,183.172298625,-150.31479312874083,-84.68009303536937,52.39929592306168,129.3369538969817,35.16666328153635,40.21359934228549,47.94030548237578,-81.83807671047467,-0.9379515656254755,1.0
492.777777777777,-128.32701164583338,230.59295286111112,183.16409185416663,-150.38716613457535,-84.67479138838418,52.32417386303552,129.33621623655134,35.16623639471322,40.212837776193034,48.0881688326228,-81.83830893690644,-0.9498387628239423,1.0
495.5555555555548,-128.1675309166667,230.57012022222224,183.1558850833333,-150.4615150088369,-84.6695219390776,52.24995767364114,129.3355878591477,35.16594952676809,40.21239722899157,48.23726844710959,-81.83843871050068,-0.9621120791539263,1.0
498.3333333333325,-127.99068691111115,230.5426551777778,183.1468412,-150.5507745468103,-84.66465989415639,52.18533095078078,129.3331699721815,35.16439224363732,40.209023115541584,48.38978657127598,-81.83955886152457,-0.974744407302159,1.0
501.1111111111103,-127.81053561481484,230.5143077703704,183.1376378666667,-150.65348198548287,-84.6601683155779,52.12940367335519,129.33103895316046,35.162981809573715,40.2060349077797,48.54744782788738,-81.8405287483867,-0.9891347621097297,1.0
503.88888888888806,-127.63038431851857,230.48596036296297,183.1284345333333,-150.76600429094412,-84.65594711955836,52.07982563214033,129.3294406888947,35.16194020572529,40.20394145479909,48.70924134894664,-81.84118444654703,-1.005094246157405,1.0
506.6666666666658,-127.45023302222226,230.4576129555556,183.1192312,-150.8856899159624,-84.65192326056989,52.03488154153322,129.32822491522242,35.161185469822,40.202541266019246,48.87404015324071,-81.84161474846474,-1.0222147556422767,1.0
509.4444444444436,-127.27008172592598,230.42926554814807,183.11002786666663,-151.0106036452617,-84.6480434267877,51.993319510991675,129.32725502836027,35.16065954525591,40.201673831994654,49.040980221839575,-81.84188795603154,-1.0401881849997536,1.0
512.2222222222214,-127.10204789542487,230.4019214509804,183.10153237254903,-151.13751222253885,-84.64434421256597,51.95543938791344,129.32812929257403,35.16099763961982,40.202964737747784,49.208234479140266,-81.84143716354632,-1.059412499470695,1.0
514.9999999999991,-126.94943629411767,230.3758542941177,183.09393776470588,-151.26355927991392,-84.64087291797361,51.92179097731368,129.33086136824204,35.16213486611663,40.206287624778994,49.372367339990255,-81.84030335214409,-1.0794316772062966,1.0
517.7777777777769,-126.7968246928105,230.3497871372549,183.0863431568628,-151.38897756234013,-84.63756796910694,51.891231055779485,129.33284212310136,35.162947658627864,40.20882504005566,49.53193763447468,-81.8394359181195,-1.0988680477066257,1.0
520.5555555555547,-126.64421309150332,230.32371998039216,183.0787485490196,-151.51393693727576,-84.63438442663484,51.8629252488045,129.33423548169202,35.16354530018024,40.2108194552933,49.688181626833305,-81.83878021995918,-1.1178846817381163,1.0
523.3333333333325,-126.49160149019612,230.29765282352943,183.07115394117648,-151.63856138143007,-84.63128949186566,51.836264593338285,129.33519170817584,35.163996092665464,40.21243137993742,49.841946260523216,-81.8382747859606,-1.1366000403941858,1.0
526.1111111111102,-126.33898988888896,230.27158566666668,183.06355933333333,-151.7629413784342,-84.62825922687803,51.81080464148127,129.3357927648228,35.16434784740772,40.21378717248767,49.993897478988494,-81.83787863498874,-1.1551020623603985,1.0
528.888888888888,-126.1905624444445,230.2455699047619,183.05614153968253,-151.88887763040304,-84.6254041204329,51.78900546910493,129.33677631206328,35.164853281406295,40.21550838015851,50.14414115016126,-81.83738003117932,-1.1738851892996394,1.0
531.6666666666658,-126.05102633333338,230.21966335714288,183.0490994761905,-152.0196358646881,-84.62294876673332,51.775795057388784,129.33878438767925,35.16570705505255,40.21808336147561,50.29169372680105,-81.83660138961395,-1.1934951960152749,1.0
534.4444444444435,-125.91149022222228,230.19375680952385,183.04205741269843,-152.15391339281308,-84.62078517009185,51.76885309928821,129.34021872740496,35.16632860226702,40.22008460690242,50.4359063409367,-81.83599350277781,-1.2130852457719292,1.0
537.2222222222213,-125.77195411111116,230.1678502619048,183.0350153492064,-152.29075945568576,-84.6188345105269,51.76648613312012,129.34124325578046,35.16677939475224,40.221679456073616,50.577656671876554,-81.83551538953591,-1.2326698527215887,1.0
539.9999999999991,-125.63241800000004,230.14194371428573,183.0279732857143,-152.42948014768862,-84.61703926176449,51.76745819639469,129.3419126143191,35.16712773439991,40.22299768258343,50.71758675740261,-81.83516021969908,-1.2522527521239557,1.0
542.7777777777769,-125.48682620261444,230.1144801045752,183.0206725620915,-152.5704420076642,-84.6152823069324,51.77014818055685,129.341666727509,35.166919413630225,40.22303866371845,50.857035314592174,-81.83521486121244,-1.2714540147064484,1.0
545.5555555555546,-125.32566264052294,230.08301262091504,183.01270671241832,-152.71528437985526,-84.61336010494269,51.77224299543995,129.33967231227135,35.16554654560706,40.22042270126634,50.9990895889501,-81.8360891254262,-1.2899019287678297,1.0
548.3333333333323,-125.16449907843143,230.0515451372549,183.0047408627451,-152.86295891978148,-84.61131729834148,51.77390342972185,129.33816967065397,35.16452543232614,40.218667342649645,51.14498242962157,-81.83667652169481,-1.3091474808582215,1.0
551.1111111111102,-125.00333551633992,230.0200776535948,182.9967750130719,-153.01270049973618,-84.60918646921374,51.77524683402027,129.3369948781167,35.163774111517434,40.2175608520041,51.29366881766358,-81.83705901228834,-1.3289868325195813,1.0
553.888888888888,-124.8421719542484,229.98861016993465,182.9888091633987,-153.16395069601546,-84.60699139739181,51.776358855954605,129.33605231201125,35.16323452657301,40.21695296516797,51.44435986622698,-81.83731172928763,-1.3492671582692302,1.0
556.6666666666657,-124.68100839215693,229.95714268627447,182.9808433137255,-153.3163019465479,-84.60474943843859,51.777302004907824,129.33523268931086,35.162858866168655,40.21672756892536,51.596502329989015,-81.83746199344937,-1.36987608015098,1.0
559.4444444444434,-124.5149572222223,229.92437590476192,182.97276755555555,-153.4725878527157,-84.60252552270137,51.77992145107683,129.33396227412524,35.162213413292086,40.21593526698164,51.75043088821901,-81.83781033309704,-1.3906995126613506,1.0
562.2222222222213,-124.32324611111116,229.88478780952383,182.96411477777772,-153.64818349750584,-84.60058915905527,51.79321195994402,129.33008272667666,35.159597450839975,40.21099021002255,51.91026414498648,-81.8393471256603,-1.411902020670657,1.0
564.9999999999991,-124.13153500000008,229.8451997142857,182.955462,-153.83787223507989,-84.59886266351667,51.814290677634204,129.32717306609024,35.15766450730486,40.20768781355885,52.077596949462624,-81.84037848422497,-1.4355748160036863,1.0
567.7777777777768,-123.93982388888897,229.80561161904765,182.94680922222224,-154.03784672887778,-84.59728933891263,51.841053571154504,129.32496008479916,35.15625407324125,40.205618266240336,52.25036658451809,-81.8410751635203,-1.4610624139435295,1.0
570.5555555555545,-123.74811277777783,229.7660235238096,182.93815644444445,-154.24532821796186,-84.59582780516371,51.87196502509504,129.32319789599327,35.1552397901495,40.20448103974353,52.427080653819246,-81.84153961638387,-1.4878869146916966,1.0
573.3333333333323,-123.55471760000007,229.7258834,182.92970106666667,-154.4558752973175,-84.59431174113892,51.90290771424699,129.32158597134915,35.15433479008448,40.20373996421858,52.60703223278699,-81.84193576735572,-1.5153698883645355,1.0
576.1111111111102,-123.34897260000008,229.6816950666667,182.9226932888889,-154.65096192558224,-84.59175766419274,51.911898384056855,129.31912710324795,35.15219352577968,40.20134256781991,52.79252992536078,-81.84268708816442,-1.5410661272391812,1.0
578.8888888888879,-123.14322760000007,229.63750673333337,182.91568551111112,-154.8347648396566,-84.5884459999639,51.904867508913014,129.31732393330708,35.150608921892236,40.20021900170144,52.983481523986825,-81.8431720315955,-1.566353195093861,1.0
581.6666666666656,-122.93748260000008,229.5933184,182.9086777333333,-155.0103324050221,-84.58458141536282,51.88614340870849,129.31594423509475,35.14944778973334,40.200068737539695,53.17838097195314,-81.84347255991898,-1.5913698301460906,1.0
584.4444444444434,-122.73173760000007,229.5491300666667,182.90166995555555,-155.1798894522894,-84.58031328526276,51.85888508083025,129.31482408407086,35.148614506654596,40.20066296399749,53.37608762766833,-81.84363648445905,-1.6161932989108556,1.0
587.2222222222213,-122.52599260000008,229.5049417333333,182.89466217777772,-155.34505976025926,-84.57575062998703,51.82539809989787,129.31386785758704,35.14804418585889,40.20184117162932,53.57581260428326,-81.84370478635076,-1.6408963855914993,1.0
589.999999999999,-122.35737085714293,229.4683947142857,182.89175828571427,-155.5191048384317,-84.57244204963405,51.808898089301046,129.31761080125221,35.14975514824599,40.20958660614811,53.77263816559552,-81.84192210697739,-1.6701934148192112,1.0
592.7777777777767,-122.203185936508,229.43481931746032,182.8904503492064,-155.70432349208545,-84.57062003840933,51.81316982451215,129.32206408459106,35.151807620091574,40.21837022942075,53.96064595268928,-81.84022138987406,-1.7011786747106799,1.0
595.5555555555545,-122.04900101587307,229.40124392063493,182.8891424126984,-155.89769711039546,-84.5698829904285,51.83260168936975,129.32527427350098,35.15330684661439,40.225559003522186,54.14025602219853,-81.83942908793033,-1.7320323467389198,1.0
598.3333333333323,-121.89481609523816,229.3676685238096,182.88783447619048,-156.0970225790022,-84.56993779613157,51.86309808067706,129.32752823592708,35.15441333725993,40.23158664546472,54.313705261076414,-81.83931297471445,-1.7627843129815501,1.0
601.1111111111101,-121.74063117460324,229.33409312698416,182.8865265396825,-156.30069196857593,-84.57057053132694,51.90166984788228,129.32908551905783,35.15524662033867,40.23679807980144,54.48266365057502,-81.83972278606464,-1.7934680840541863,1.0
603.8888888888878,-121.54490902962972,229.2887259185185,182.88267626666664,-156.51868220910956,-84.57091014624349,51.9458616678994,129.32556114144612,35.15271603525119,40.23397379657964,54.654791247848515,-81.84234557870593,-1.8216502983433052,1.0
606.6666666666656,-121.32963995555563,229.23780962222224,182.8776296,-156.7523717124516,-84.57069939689659,51.99402644378601,129.32079366940545,35.14935899727412,40.229342928322374,54.83743733644383,-81.84518693740065,-1.8507481848680287,1.0
609.4444444444434,-121.11437088148156,229.18689332592595,182.8725829333333,-156.99751922523257,-84.57008696761078,52.045090856834484,129.31725563141538,35.14687280841624,40.226976267774965,55.030123803119054,-81.84714037150327,-1.882366624639899,1.0
612.2222222222211,-120.89910180740748,229.1359770296297,182.86753626666663,-157.25102929502683,-84.56918137471675,52.09827155205336,129.3145645368824,35.14507305356994,40.22632056961464,55.23012881748995,-81.84850640933728,-1.91585077327224,1.0
614.9999999999989,-120.68383273333345,229.08506073333336,182.8624896,-157.51064272511013,-84.56806181818436,52.152996802668234,129.31243351786134,35.14379580819515,40.226948947018286,55.43537258695425,-81.84947629619943,-1.9507060823804614,1.0
617.7777777777767,-120.473143525926,229.03500445185188,182.85814552592592,-157.77001621833276,-84.56665125965023,52.205186247343235,129.31127238570244,35.14310595908898,40.22930194718735,55.644051941571064,-81.84989293773879,-1.9865637217493821,1.0
620.5555555555545,-120.2742311185186,228.98715963703705,182.8556081185185,-158.0171431871026,-84.56468157862005,52.24610557525951,129.31176415932268,35.14311278927815,40.2340967399847,55.85354408869911,-81.84944897544274,-2.0226452632570324,1.0
623.3333333333322,-120.0753187111112,228.93931482222223,182.85307071111112,-158.25533210607438,-84.56230382550935,52.27879947846796,129.31196906499778,35.143102543994395,40.23884372145786,56.0620014621679,-81.84904599428171,-2.0577315181365647,1.0
626.11111111111,-119.8764063037038,228.89147000740743,182.8505333037037,-158.4869976449231,-84.55962824352555,52.305490106548675,129.31191442348444,35.143092298710634,40.24357704255268,56.26965287331463,-81.84869765463404,-2.092100603153246,1.0
628.8888888888878,-119.67749389629638,228.8436251925926,182.8479958962963,-158.71390213531137,-84.5567352929888,52.32779928156899,129.31162755553927,35.14311961946732,40.24834451459335,56.47665200139562,-81.84841761687807,-2.1259619062938184,1.0
631.6666666666656,-119.47858148888896,228.79578037777785,182.8454584888889,-158.93733180405584,-84.55368369736397,52.3469106802902,129.31113578191903,35.14317767607526,40.25317004324196,56.68316277095096,-81.84819905082463,-2.1594733756828397,1.0
634.4444444444433,-119.27650191666676,228.7445433055556,182.842344875,-159.15816657229533,-84.55028662104122,52.36292009245136,129.31046642338038,35.142822506238424,40.25690957181254,56.889922842410996,-81.84826735271633,-2.192105031329399,1.0
637.222222222221,-119.07399045833344,228.6928436527778,182.8391526875,-159.37709944713222,-84.54660607579098,52.37656079680096,129.309687781815,35.142484411874506,40.26071057208566,57.09704149880246,-81.84826735271633,-2.224552058424956,1.0
639.9999999999989,-118.87147900000008,228.64114400000005,182.8359605,-159.59464423688357,-84.54271864250485,52.38847271446839,129.30878619684455,35.14222144959146,40.26472672331762,57.30439921181488,-81.84817173006795,-2.256951914526558,1.0
642.7777777777767,-118.66896754166676,228.58944434722224,182.8327683125,-159.81117594135782,-84.53868021327091,52.39912288791485,129.30773434771237,35.14204386467304,40.26893070475177,57.511873038043184,-81.84805561685206,-2.289330639730415,1.0
645.5555555555544,-118.4664560833334,228.53774469444448,182.829576125,-160.02696825183574,-84.53453158058241,52.40885218517942,129.30654589479678,35.14194141183549,40.27330885600974,57.71939467559568,-81.84793950363617,-2.3217161951234417,1.0
648.3333333333321,-118.2677776111112,228.4877606481481,182.82710325925925,-160.24539074683082,-84.53053896018046,52.422215076978446,129.3055213664213,35.14212924203767,40.27861932808943,57.92615133196114,-81.847611654556,-2.35491859845252,1.0
651.11111111111,-118.09720770370376,228.45035771604933,182.82990541975303,-160.48897826096123,-84.52839412406088,52.469804987343736,129.30657321555347,35.143894845938114,40.28952372509936,58.12646711993927,-81.84578799404761,-2.3941294338170938,1.0
653.8888888888878,-117.92663779629636,228.41295478395065,182.8327075802469,-160.7509323079857,-84.52759788182159,52.54237527459576,129.30651857404013,35.14513452527247,40.29885376350559,58.31896234131774,-81.84488640907718,-2.434193829384508,1.0
656.6666666666655,-117.75606788888896,228.37555185185187,182.83550974074072,-161.02629105495234,-84.52778590244854,52.63317733474367,129.305630649448,35.14601220458082,40.30706365088795,58.5057202037934,-81.84469516378041,-2.4748844679214472,1.0
659.4444444444432,-117.58549798148157,228.3381489197531,182.83831190123456,-161.3114331389035,-84.5286922812143,52.73728574108622,129.30411434745227,35.14665765745738,40.31448465142117,58.68828433011867,-81.84509814494145,-2.5160318753591313,1.0
662.222222222221,-117.41492807407414,228.30074598765432,182.8411140617284,-161.60371553058002,-84.53012294920532,52.851105701541606,129.30209261145794,35.147156261266794,40.32135240663161,58.86772705999325,-81.84598606953354,-2.557501582348275,1.0
664.9999999999989,-117.24435816666671,228.2633430555556,182.84391622222225,-161.90120923149516,-84.53193626643058,52.97201357943932,129.2996883848701,35.14757290280617,40.32784108634313,59.0448748463067,-81.84729746585418,-2.599212907279308,1.0
667.7777777777766,-117.03936307407416,228.21657725925928,182.84626319259257,-162.20990499350802,-84.53368702283059,53.0968195472892,129.2928581957001,35.14493644978654,40.32781035049186,59.224549802613055,-81.8503710509807,-2.6390775198134993,1.0
670.5555555555543,-116.81500381481492,228.16454485185187,182.8483541185185,-162.53093823365202,-84.535199837418,53.223753334184046,129.28433411961592,35.141309619337264,40.325795444686705,59.412721514246904,-81.85414814559171,-2.679565387109454,1.0
673.3333333333321,-116.59064455555566,228.1125124444445,182.85044504444443,-162.86097590557125,-84.53653899165154,53.352240096591125,129.27671162850217,35.13862535499345,40.32590131261884,59.609458283099954,-81.85767252320343,-2.722266235696493,1.0
676.11111111111,-116.36628529629638,228.06048003703705,182.85253597037035,-163.19758540608726,-84.53775140095456,53.48186028852892,129.26967653365708,35.13666850579624,40.32760202972218,59.81240369390854,-81.8610944479776,-2.7665941634098754,1.0
678.8888888888877,-116.14192603703714,228.00844762962967,182.85462689629628,-163.53899131488123,-84.53887130625738,53.612307706969,129.26302392940548,35.135278562300144,40.330508275214015,60.01979555786681,-81.86452320294096,-2.8121113978124868,1.0
681.6666666666654,-115.91839073333344,227.9598582444445,182.85800368888889,-163.88455071796733,-84.54001175700837,53.744674916507115,129.25611177796543,35.134353071667604,40.33501278497164,60.22931844084612,-81.86768558052667,-2.8591184672278067,1.0
684.4444444444432,-115.69746462222233,227.922171762963,182.86545239259257,-164.23520893049428,-84.54144605596785,53.88261074940359,129.24765600377296,35.13376909049357,40.3422425402081,60.43712011615459,-81.86993271276361,-2.9086740509771882,1.0
687.222222222221,-115.4765385111112,227.88448528148152,182.8729010962963,-164.58958847741852,-84.54309481821694,54.02461080746659,129.23898166352703,35.133311467819176,40.34954059733626,60.64434805557278,-81.87258282616158,-2.95857114418507,1.0
689.9999999999987,-115.2556124000001,227.8467988,182.8803498,-164.94668401713614,-84.54490010516574,54.16957711502093,129.23008875722766,35.132973373455265,40.356920616734456,60.8511115421274,-81.87558127920721,-3.008715831750365,1.0
692.7777777777765,-115.034686288889,227.8091123185185,182.8877985037037,-165.30576180732263,-84.5468196306943,54.31670832134056,129.22099094525322,35.13276505268558,40.36440650406479,61.05748570789934,-81.87892807190052,-3.0590398117813726,1.0
695.5555555555543,-114.81376017777788,227.77142583703707,182.89524720740732,-165.6662863307003,-84.54882253254067,54.46541956557598,129.21168822760367,35.13267967532095,40.371998259327256,61.26349787364526,-81.88260271367399,-3.109489936868614,1.0
698.3333333333321,-114.5884499375001,227.7394140416667,182.89962327083333,-166.01046096655415,-84.54950483703222,54.59898785766472,129.2001998494197,35.13341733575131,40.38002373160202,61.46601981272531,-81.88561482709795,-3.157618224524874,1.0
701.1111111111098,-114.3623046250001,227.7084831388889,182.90341406944444,-166.33938735251323,-84.54896017859679,54.71840013486107,129.1880147919404,35.13407644900622,40.387943335944655,61.666690770540285,-81.88793026122659,-3.2039488917689516,1.0
703.8888888888875,-114.13615931250013,227.67755223611115,182.9072048680556,-166.65718489800676,-84.54752002889084,54.82748073252357,129.17551554575928,35.134537486775194,40.39571950631471,61.86626206789889,-81.88976075192416,-3.2490678407655866,1.0
706.6666666666654,-113.9100140000001,227.6466213333333,182.91099566666665,-166.9668601284175,-84.5454263104438,54.929020818057346,129.16274309201134,35.134882411328284,40.403420544603904,62.06493861047622,-81.89129071429824,-3.2933082566802283,1.0
709.4444444444432,-113.6838686875001,227.6156904305556,182.91478646527776,-167.2706073376198,-84.54285558891094,55.02505750765467,129.1497247514533,35.13516927927342,40.41110792251475,62.262945794514884,-81.89263626156473,-3.336937157220743,1.0
712.2222222222209,-113.45705132592605,227.58813845925928,182.91941354074072,-167.57086682488918,-84.5399910155286,55.11823447811619,129.13575018441145,35.135466392502316,40.41931097970794,62.459409355801135,-81.89362663899438,-3.3805957263954642,1.0
714.9999999999986,-113.22250540000012,227.5994442,182.9336578,-167.87822710647353,-84.5375362639299,55.22262865265398,129.11312859788038,35.13619039255434,40.43332311279022,62.64376982187812,-81.89167320489176,-3.429282808903196,1.0
717.7777777777765,-112.9879594740742,227.6107499407408,182.9479020592593,-168.19076985867946,-84.53538061821422,55.335209633907,129.08997425659402,35.13667875108,40.44664881186091,62.82454443864084,-81.89010909157183,-3.4780038289133666,1.0
720.5555555555543,-112.75341354814825,227.62205568148147,182.9621463185185,-168.5070950048757,-84.53344327306928,55.45376570518574,129.0663827832008,35.137033920916835,40.459503227878876,63.002634791059755,-81.8889069782779,-3.526749608359278,1.0
723.333333333332,-112.51886762222232,227.6333614222222,182.97639057777772,-168.82618070783002,-84.53166525323982,55.57668265880326,129.0424498003491,35.13731737376739,40.47205028538419,63.178751218808536,-81.88803271406414,-3.5755365823836214,1.0
726.1111111111097,-112.28432169629642,227.6446671629629,182.99063483703705,-169.147281185986,-84.53000351600215,55.7027823753065,129.01821628917386,35.13758033605043,40.48440268249816,63.35336500493991,-81.88746580836303,-3.624354932589464,1.0
728.8888888888875,-112.08523084444452,227.66019809629628,183.0062723407408,-169.4573812723059,-84.52851826186613,55.826396365037176,128.99917372176787,35.14012458151627,40.50198358942177,63.52493252670146,-81.88596316674563,-3.6747147711136146,1.0
731.6666666666654,-111.90282473333342,227.6777173555556,183.0225654888889,-169.75358414956474,-84.52720492575463,55.94593327005625,128.98179772051938,35.14307522323771,40.52045242093749,63.68831748183734,-81.88432392134483,-3.723894267571822,1.0
734.4444444444431,-111.72041862222233,227.6952366148148,183.03885863703704,-170.0396442351181,-84.52601706294541,56.06249454012489,128.9634108512737,35.14523356301544,40.537001969296426,63.84328081372659,-81.8831013174834,-3.770784796884429,1.0
737.2222222222208,-111.5380125111112,227.71275587407405,183.0551517851852,-170.31830166715088,-84.52492077604643,56.17688406150921,128.94427266121932,35.14683182728122,40.55216840434844,63.992090145173655,-81.88222022308047,-3.816006625605437,1.0
739.9999999999986,-111.35560640000008,227.7302751333333,183.0714449333333,-170.59155631849603,-84.52389132525667,56.289688545606914,128.92456073527467,35.14802711038597,40.5663444619708,64.13637789139017,-81.88162599662267,-3.8600220721642917,1.0
742.7777777777765,-111.1666928235295,227.7570139477124,183.0911114379085,-170.8729136505862,-84.52314342203765,56.4128457518197,128.90167960155512,35.14851205381704,40.580667368660315,64.27537224099993,-81.88058780786884,-3.905421058916897,1.0
745.5555555555542,-110.961045764706,227.80746018954247,183.11945228758168,-171.19115975960435,-84.52319954995397,56.573154818128224,128.87146284466698,35.147750487724586,40.59679003019613,64.40728368444039,-81.87810161901095,-3.9569112937486843,1.0
748.3333333333319,-110.75539870588246,227.85790643137253,183.1477931372549,-171.53632891331503,-84.5238424949999,56.76057893874503,128.8411641255088,35.14713918579387,40.61300489928574,64.53901071277326,-81.87606622263829,-4.011016210372118,1.0
751.1111111111097,-110.54975164705893,227.9083526732026,183.17613398692808,-171.90114768395205,-84.52491372488262,56.967792813313494,128.81076978370226,35.14668156311948,40.62931539102373,64.6705601561877,-81.87449527912918,-4.06701266250882,1.0
753.8888888888875,-110.3441045882354,227.95879891503267,183.2044748366013,-172.2803076054419,-84.52629753579305,57.18945011687218,128.7802798192473,35.14637761970141,40.64572833559927,64.80195250525124,-81.87336146772695,-4.124386678423751,1.0
756.6666666666653,-110.13845752941188,228.0092451568628,183.23281568627448,-172.66993432679624,-84.52790948202481,57.42164886735864,128.74972155290067,35.14621711025592,40.662236902823196,64.93320825053137,-81.87265795824244,-4.182760036391619,1.0
759.444444444443,-109.92434473015888,228.0634385396825,183.2628955555556,-173.07122579364489,-84.52963583438901,57.66403044068548,128.7169366448846,35.14555116681184,40.67846201719656,65.06380829765118,-81.87211837329801,-4.24244905954836,1.0
762.2222222222208,-109.66578679365092,228.1373044126984,183.3021052777777,-173.50216518984857,-84.53117217603108,57.92691225373988,128.67303218889978,35.14170235521454,40.693044471074536,65.19276226918103,-81.87058158073476,-4.30629638724917,1.0
764.9999999999986,-109.40722885714298,228.21117028571425,183.341315,-173.9547429431229,-84.53256983952792,58.20475603941458,128.62982441221027,35.13884392104689,40.70968281189269,65.32935239220294,-81.8692292032791,-4.373533623212421,1.0
767.7777777777764,-109.14867092063506,228.2850361587301,183.3805247222222,-174.42311331689055,-84.53386628964194,58.49351972786436,128.58708108838434,35.136760713350036,40.72786477546326,65.47145447788506,-81.8681568635794,-4.443244241428864,1.0
770.5555555555541,-108.89011298412711,228.358902031746,183.41973444444443,-174.90300983662348,-84.53508886979719,58.79025323952148,128.54465195326023,35.13529905286765,40.74721470138191,65.61752490347494,-81.86748067485158,-4.514748211189258,1.0
773.3333333333319,-108.63559843750012,228.436131375,183.46028560416664,-175.379233287068,-84.53631821141663,59.08178403360311,128.50255066721627,35.134598958477724,40.76858636329488,65.76558291411331,-81.86696158047465,-4.587178525355835,1.0
776.1111111111097,-108.41073541666678,228.5380261666666,183.5106739722222,-175.76415003167844,-84.53799743780976,59.28870840398405,128.46151489068282,35.135958166122556,40.79866310130503,65.90833386776659,-81.86481690107527,-4.656790105829313,1.0
778.8888888888874,-108.18587239583346,228.63992095833328,183.5610623402777,-176.08242714422147,-84.54000500981036,59.4338833015913,128.41982341598907,35.13697927940348,40.82742844299454,66.04499912286937,-81.86374456137558,-4.718922202274803,1.0
781.6666666666652,-107.96100937500012,228.74181575,183.6114507083333,-176.35206773525692,-84.54225222281292,59.53399073007446,128.37762650729672,35.13775792096886,40.85526146386234,66.17721109463331,-81.86343720286293,-4.775614906820024,1.0
784.444444444443,-107.7361463541668,228.8437105416666,183.66183907638884,-176.5862112631939,-84.54467433631214,59.60120594617074,128.33504710801085,35.13836580780499,40.88244561675899,66.30615823597397,-81.86368991986222,-4.828346955420285,1.0
787.2222222222208,-107.51128333333344,228.94560533333328,183.7122274444444,-176.79444748013165,-84.5472240998524,59.64441498537865,128.2921535200232,35.13886782670898,40.90918239226501,66.43271481110514,-81.86435927840088,-4.878211178342786,1.0
789.9999999999985,-107.2765882666668,229.04858353333327,183.76131766666663,-176.9867778973183,-84.5495813839398,59.67204224417954,128.24699230923105,35.13899760030321,40.93444726200488,66.55643685773074,-81.86532233507386,-4.925418030791329,1.0
792.7777777777762,-107.02441400740756,229.15348779259253,183.80810007407405,-177.1728373258036,-84.55129037646329,59.69174431053644,128.19808815477376,35.13859803423677,40.95765965989917,66.6779186023086,-81.86625807099014,-4.970519050541393,1.0
795.5555555555541,-106.77223974814828,229.25839205185176,183.85488248148144,-177.35431991213986,-84.55252621741597,59.70566222441837,128.14923864182984,35.13830775119704,40.981305774805755,66.80067076207207,-81.8668796182046,-5.0155304240586,1.0
798.3333333333319,-106.52006548888902,229.36329631111107,183.9016648888889,-177.53246211866434,-84.55341673163386,59.71535861054685,128.10037546850756,35.13812675118404,41.005310474643764,66.92435865775182,-81.86730992012232,-5.060498255119849,1.0
801.1111111111096,-106.26789122962975,229.4682005703704,183.94844729629625,-177.70816636973325,-84.55405521127949,59.72197394086807,128.05149863480696,35.138044788913994,41.0296054575215,67.04869542140274,-81.86763093901331,-5.105446876274056,1.0
803.8888888888873,-106.0157169703705,229.5731048296296,183.99522970370367,-177.88209129415716,-84.55450974505816,59.72634058174748,128.0025808199713,35.13805844929234,41.05414632720936,67.17348297753887,-81.86791097676928,-5.1504001931833185,1.0
806.6666666666652,-105.8144562857144,229.69765642857132,184.0471381428571,-178.03181366553693,-84.55572260949027,59.71883904850808,127.95938670366016,35.14191409107881,41.088840273098434,67.29229411815125,-81.8661761087201,-5.198648222593465,1.0
809.444444444443,-105.6153170000001,229.8230266666666,184.09926016666665,-178.16291762381454,-84.55752612777258,59.702249477857535,127.91542760616196,35.14490571393527,41.121440766006906,67.40045699384757,-81.86483739164278,-5.2435422022343126,1.0
812.2222222222207,-105.41617771428582,229.94839690476184,184.1513821904761,-178.2804330489447,-84.55976073109835,59.679027059556184,127.87066254634169,35.14711869522636,41.152128805947775,67.5006217180258,-81.86386750478064,-5.285754478852284,1.0
814.9999999999984,-105.21703842857154,230.07376714285704,184.2035042142857,-178.38803096756746,-84.56230995916528,59.6509636985993,127.82532375063116,35.14877501610009,41.181433732581716,67.59491247951783,-81.86316399529613,-5.326015028914924,1.0
817.7777777777762,-105.01789914285726,230.19913738095232,184.2556262380952,-178.48839065567205,-84.56508881414511,59.61936720571658,127.77956148319207,35.15004543128571,41.20976535725893,67.68494803315694,-81.86268588205422,-5.364865998687603,1.0
820.5555555555541,-104.7762122666668,230.3480454296296,184.31769790370367,-162.06191824924133,-84.5680790913878,59.62669390467518,125.22382763917835,33.11684496444007,36.8621484599653,48.26982795888304,-82.16428654523448,-0.9496719567978059,1.0
823.3333333333318,-104.53082560000014,230.4990002444444,184.38063475555552,-132.13678363881974,-84.57122748520239,59.6660373078681,117.28287212520311,31.57648362734587,32.571293849769056,10.018847616107571,-85.60205052809613,3.9569795956403846,1.0
826.1111111111095,-104.28543893333348,230.6499550592592,184.44357160740736,-92.35973427077232,-84.57449127941477,59.72874790376279,105.6784148762973,34.295540954792926,36.161818428512625,-41.30471181691127,-88.89288348153246,6.335428622670421,1.0
828.8888888888873,-104.0400522666668,230.800909874074,184.50650845925924,-45.39232611570091,-84.57783929789063,59.80851290009685,100.8867981169124,41.80464409811577,50.047330048865504,-92.41157154568042,-94.58788155111075,11.301613491296619,1.0
831.6666666666652,-103.79466560000012,230.9518646888888,184.56944531111108,6.822920734494147,-84.581248786922,59.900724944651856,105.92021040310492,49.831263844661315,66.0492953118573,-138.42457522919702,-107.67206513275397,9.054395023224153,1.0
834.4444444444429,-103.5390631481483,231.12734453333323,184.641004437037,53.51385249377516,-84.58509666940624,59.99140270000812,114.3262881391797,52.296576229347814,71.97047509580057,-178.9873201814752,-112.40660200124508,-4.897208922632354,1.0
837.2222222222206,-103.2740307407409,231.32546286666656,184.7205225851852,87.53805021843976,-84.58962776867477,60.07115879620966,120.67091916109624,50.12007497862072,68.88507374203071,152.1193094207477,-106.27680774948212,-14.70494478300494,1.0
839.9999999999984,-103.00899833333348,231.5235811999999,184.8000407333333,112.31751079206555,-84.59465750946927,60.14294378732105,124.61845431266178,46.72855820662923,63.13891755556902,131.96622155759977,-98.30604528996894,-17.579443555583147,1.0
842.7777777777762,-102.74396592592608,231.72169953333324,184.87955888148144,130.3497573831262,-84.600051180684,60.20891111689788,126.75772420222314,43.64558498510931,57.675927351717725,116.88087451141284,-92.14255771503029,-16.913740875675146,1.0
845.555555555554,-102.47893351851867,231.91981786666656,184.9590770296296,143.45759176183887,-84.60571046425524,60.27063246234228,127.73687280087948,41.24777194489546,53.315025736488415,105.17646427419307,-88.10251448134609,-15.053547392958635,1.0
848.3333333333317,-102.2188062916668,232.1169465416665,185.03819141666665,152.97402136981825,-84.61159099231699,60.32757617895819,128.05361599344965,39.49476974346584,50.066874635175495,96.1041357355294,-85.63428219078942,-13.07941781714985,1.0
851.1111111111095,-101.994650388889,232.3068177222221,185.11434488888884,159.88869706119354,-84.61783384668426,60.36872233249535,128.0384802942489,38.246532182078504,47.722138995001814,89.16523044449755,-84.16730099104325,-11.385103162389916,1.0
853.8888888888873,-101.77049448611125,232.4966889027777,185.19049836111105,164.9044988182967,-84.6243411426549,60.39833873275191,127.87293016914614,37.36308819407237,46.04855481814651,83.92662561525951,-83.29786572102482,-10.05382416107356,1.0
856.666666666665,-101.54633858333348,232.68656008333323,185.26665183333327,168.53441923003248,-84.63104143968707,60.41954021419797,127.65741038007556,36.73780145103063,44.86024533653687,80.01648574939978,-82.77673594773118,-9.053624065621587,1.0
859.4444444444428,-101.32218268055568,232.8764312638888,185.3428053055555,171.15286275076892,-84.6378825973451,60.43460011942259,127.44026500598251,36.29364107949387,44.018451842089476,77.12406456043946,-82.45797101916669,-8.32104956487093,1.0
862.2222222222206,-101.0980267777779,233.06630244444432,185.41895877777773,173.03308614577412,-84.64482656125591,60.445177633392674,127.24153382189182,35.976658830302746,43.423385271030455,75.00010795499728,-82.25805821234958,-7.793566861875539,1.0
864.9999999999984,-100.86050688235308,233.2637307058822,185.49727305882348,174.39899624733772,-84.65193080288198,60.42665378843068,127.06338882795954,35.748653455429384,43.003939939005384,73.44822067367868,-82.12876273136125,-7.417295155594122,1.0
867.7777777777761,-100.59922877777794,233.47459377777764,185.5794287777777,175.43304390581073,-84.65930356924339,60.340970651169926,126.90229198619562,35.583161386934556,42.71012227638436,72.31944312087487,-82.04232668741473,-7.148975016031579,1.0
870.5555555555538,-100.33795067320278,233.68545684967307,185.661584496732,176.22488382168098,-84.66687231671487,60.20627172160982,126.76172669307677,35.46353403871637,42.507593507115146,71.5080712889907,-81.98363487187682,-6.959836405743348,1.0
873.3333333333317,-100.0766725686276,233.8963199215685,185.74374021568624,176.839949921176,-84.67458409978211,60.035798920519845,126.63784072191108,35.37687942871642,42.37092142182319,70.93033290785601,-81.94302939726109,-6.828596882162492,1.0
876.1111111111095,-99.81539446405245,234.107182993464,185.82589593464047,177.32599874888578,-84.6824002764904,59.83921678151649,126.52705505357346,35.31402461287938,42.28191381165417,70.52414155791534,-81.91450652728712,-6.7396644040743405,1.0
878.8888888888872,-99.55411635947728,234.31804606535937,185.90805165359475,177.7178851222219,-84.69029264424913,59.62357890442492,126.42629610293744,35.268426269980374,42.227507939820434,70.2437008207838,-81.8942618465872,-6.681637251320028,1.0
881.6666666666649,-99.2838212222224,234.53679199999985,185.9936664,173.7294853170038,-84.6983058137404,59.38199651053872,126.69173091446247,35.89851805110322,43.525353165149575,74.83170281082144,-82.23204885199017,-7.891033661331622,1.0
884.4444444444428,-98.98497214814832,234.7805003333332,186.0902347333333,152.89088024960628,-84.70661359782342,59.08336212394521,127.07822399883682,39.49340029053725,50.49145626945641,96.46009787431377,-85.82661348762781,-13.46501614674292,1.0
887.2222222222206,-98.68612307407426,235.0242086666665,186.1868030666666,119.75425754291938,-84.71513640453612,58.74308869487391,124.32983783909373,45.480037192391336,61.448596000152605,125.9394265585206,-96.10475728274386,-17.85863778319117,1.0
889.9999999999983,-98.3872740000002,235.26791699999987,186.2833714,77.64200305590488,-84.7238161441794,58.372425269306596,117.4266885883669,51.05994315936033,70.9434058899274,160.47879160630464,-109.33542793151635,-12.408900707650638,1.0
892.777777777776,-98.08842492592612,235.5116253333332,186.3799397333333,28.97893946949081,-84.73261042034721,57.97958189357542,108.1026129372749,51.64015748406916,70.71016175996064,-157.02868547161276,-112.02121540751628,3.7989004168291403,1.0
895.5555555555538,-97.78957585185204,235.75533366666653,186.4765080666666,-24.465191445335485,-84.74148829028597,57.57055061899615,100.31233139639014,45.1001010896202,57.359006574229134,-110.92699861191272,-99.55851756864168,12.717643187381784,1.0
898.3333333333317,-97.46774514583352,236.01516649999985,186.57461777083327,-66.26692803553138,-84.75041313187658,57.147358844931745,99.94362412461452,37.753136391909706,43.39206202349678,-70.30231067405167,-90.7211816883723,9.513412763752982,1.0
901.1111111111094,-97.14153698611132,236.2780706666665,186.6730210694444,-96.6892827603902,-84.75936958138932,56.71338528741122,105.05487324658849,33.28304395751399,35.567188989560485,-34.6160407514066,-88.00927556898625,6.259770190347368,1.0
903.8888888888872,-96.8153288263891,236.5409748333332,186.7714243680555,-118.80646631809228,-84.76834909974767,56.271542712210305,111.3728870213095,31.46282586446227,33.03562376992486,-5.809267988166251,-86.26063102824709,4.753256282571988,1.0
906.6666666666648,-96.48912066666688,236.80387899999985,186.8698276666666,-134.86217229010228,-84.77734545475968,55.823956983336686,116.34813341653019,31.212916072920674,33.3787963794884,15.693409759689185,-84.39223961097927,3.2510402713318394,1.0
909.4444444444428,-96.16291250694464,237.0667831666665,186.9682309652777,-146.49394649931563,-84.7863540978988,55.37217964943077,119.61364685871328,31.651434708203002,34.80311621767867,31.1597942766509,-82.95802965887083,1.4251476784620156,1.0
912.2222222222204,-95.83952116296317,237.33018231851835,187.0668724296296,-154.8963831942167,-84.795404692773,54.91743855607591,121.61509719120211,32.28898164080492,36.41336063526585,42.177524615474276,-82.10938548468592,-0.38062080255499664,1.0
914.9999999999982,-95.5485232000002,237.59927379999985,187.16825279999992,-160.93548638601595,-84.80486521406209,54.46163214192861,122.82159546657151,32.91123236476059,37.86600868303875,50.031511330747755,-81.69328353025956,-1.932792844065045,1.0
917.777777777776,-95.25752523703724,237.8683652814813,187.2696331703703,-165.24972530130069,-84.81462491759866,54.00504821001858,123.54334155616675,33.4408418179088,39.06057120283354,55.64905847023268,-81.53240525454909,-3.1686158963056523,1.0
920.5555555555538,-94.96652727407424,238.1374567629628,187.37101354074068,-168.3050827390068,-84.82460297744008,53.547896811599266,123.97267358701542,33.86434769739544,40.00274457241803,59.686065684830815,-81.50151230893312,-4.115270937202722,1.0
923.3333333333316,-94.67552931111128,238.40654824444428,187.47239391111103,-170.4416533503123,-84.83474040327418,53.09033125127318,124.2228360955563,34.19187917375964,40.73079834171178,62.600555214999446,-81.5283481221821,-4.826446028396906,1.0
926.1111111111092,-94.38453134814831,238.6756397259257,187.5737742814814,-171.90765310375514,-84.84499414138809,52.63246341745215,124.36076493565554,34.4403170595351,41.28833302328158,64.71359717814795,-81.57538080480681,-5.355819413131921,1.0
928.8888888888872,-94.0689752638891,238.95864583333315,187.68245249999995,-172.87468085696332,-84.85510908570679,52.16158890318669,124.41987339273284,34.62457507277453,41.71421580859939,66.24831336389313,-81.62360877053626,-5.749032976762732,1.0
931.6666666666648,-93.74186241666686,239.24819999999983,187.79456499999992,-173.47303815999794,-84.86501746937029,51.675204570812625,124.42877995941053,34.760618780662845,42.04137162455925,67.36993287844678,-81.66630428303802,-6.041028686422655,1.0
934.4444444444426,-93.41474956944464,239.5377541666665,187.90667749999992,-173.80232362510688,-84.87477509602273,51.177500494037,124.40626765590616,34.861227467137134,42.29523951072486,68.19543637172369,-81.70175296483039,-6.258294869486645,1.0
937.2222222222204,-93.08763672222244,239.82730833333315,188.0187899999999,-173.9352286807455,-84.88442269360714,50.67153477212669,124.3623222187863,34.93544771775308,42.49480739298888,68.80643094392718,-81.72999579704839,-6.42080171842735,1.0
939.9999999999982,-92.76052387500022,240.11686249999985,188.1309024999999,-173.9248067144221,-84.89398998715971,50.15953933983511,124.3035142900325,34.99015411791029,42.65435378181121,69.26172452381107,-81.75195485522998,-6.543274267321672,1.0
942.777777777776,-92.43341102777798,240.4064166666665,188.243015,-173.80977841144878,-84.9034986713135,49.64314316087755,124.23432447374027,35.03052395099966,42.78451669682414,69.60388285028284,-81.7688254224799,-6.636522571191624,1.0
945.5555555555536,-92.17047361111128,240.61266579166656,188.32107759722217,-173.66034410826737,-84.91184216324906,49.17237564713289,124.1820188850763,35.063476198650385,42.88334611901964,69.87965173802212,-81.78683663132124,-6.700734887126207,1.0
948.3333333333314,-91.91311666666684,240.81167099999988,188.3961793333333,-173.48944578084627,-84.9192376454463,48.73915693323972,124.12605231501722,35.08788729474401,42.96397308707706,70.09149005513007,-81.80063361344466,-6.750583315236252,1.0
951.1111111111092,-91.65575972222238,241.0106762083332,188.4712810694444,-173.3028820686656,-84.92594122862494,48.33334297766984,124.06593298994277,35.10578580546403,43.031796865535284,70.25529848199447,-81.81081059530798,-6.79062359169816,1.0
953.8888888888872,-91.39840277777796,241.2096814166665,188.5463828055555,-173.10488507272956,-84.93213983360283,47.947530214727365,124.00282204201186,35.11894416490006,43.09029060558727,70.38410901955174,-81.81831014301665,-6.82352034406188,1.0
956.6666666666648,-91.1410458333335,241.40868662499983,188.62148454166663,-172.8985435656667,-84.93796988337778,47.57631519797917,123.9375800750599,35.128663524088985,43.14200879798261,70.48741563074819,-81.8238562566227,-6.851224445109097,1.0
959.4444444444424,-90.86655126984152,241.6298225555553,188.7053955873015,-172.67548787733273,-84.94375735134149,47.204137646778,123.86429214526565,35.13504292077378,43.19121689585797,70.56698050438966,-81.82652003039901,-6.877086102627705,1.0
962.2222222222204,-90.50208420634944,241.96714477777755,188.8355555079364,-172.3844574914077,-84.95070237228448,46.77027039940909,123.75595168465091,35.13539126042145,43.24988480573379,70.60684148838587,-81.82085097338789,-6.909812527148998,1.0
964.9999999999982,-90.13761714285738,242.3044669999998,188.9657154285713,-172.0438161946959,-84.95849222607883,46.29137931050063,123.64732435609103,35.13570203402868,43.30754867780163,70.64135443426194,-81.81649331269743,-6.937218234306851,1.0
967.777777777776,-89.77315007936532,242.641789222222,189.09587534920627,-171.66696668292303,-84.96689867588175,45.779627850526865,123.53853310299107,35.13607086424386,43.36457392718206,70.67197417231111,-81.81320116151748,-6.960809707700075,1.0
970.5555555555536,-89.40868301587327,242.9791114444442,189.2260352698412,-171.2636908303086,-84.97575514445131,45.24389345285548,123.42964622724273,35.136569468053274,43.421233761441904,70.69977304223306,-81.8107832745513,-6.981698560616089,1.0
973.3333333333314,-89.04825768750023,243.3122238749998,189.35395352083324,-170.83963928892337,-84.98483120035363,44.69008075060301,123.32205708743669,35.13750178887498,43.47719008621723,70.7258643648625,-81.80934210463643,-6.999820333144602,1.0
976.1111111111092,-88.93798394768301,243.41298149576,189.39111726442437,-170.38950842767056,-84.99326924287014,44.11886066252174,123.29673074599428,35.153593714559534,43.51925039112617,70.82137090002679,-81.82729867196439,-6.991878103800347,1.0
978.888888888887,-88.80012358320182,243.5389451417313,189.43757807409168,-169.9203437368138,-85.0012416352803,43.53493590202577,123.26173285668713,35.16711748911616,43.56064475259103,70.90107920764085,-81.84274172967778,-6.98337024941545,1.0
981.6666666666648,-88.65120978880202,243.67500835720736,189.4877640393217,-169.43728732365634,-85.00887417585287,42.941738715287734,123.22266417463466,35.17936743339258,43.60118534040964,70.97209951463063,-81.8571807495832,-6.973745232214433,1.0
984.4444444444424,-88.49674937442646,243.81613954474048,189.53981929059316,-168.94409212327125,-85.01625867767292,42.34177410585604,123.18147813393948,35.1908865474278,43.6410326640275,71.03757370801438,-81.87119629776006,-6.963144778622573,1.0
987.2222222222204,-88.33909866841783,243.9601857163397,189.59294971334623,-168.44349719200895,-85.02346214995022,41.73687033500973,123.13902167805868,35.201968529356144,43.68036089326843,71.09927763697627,-81.88511622328855,-6.9517994075243585,1.0
989.999999999998,-88.1776701625228,244.10536297681855,189.6461147196684,-167.94581952027843,-85.02975083950972,41.135062128483725,123.09562265607242,35.212715832015164,43.71932712248335,71.15991605642765,-81.89833946952169,-6.940649123704313,1.0
992.7777777777758,-88.01091400782455,244.250190955148,189.69829074801265,-167.465058382778,-85.03398048604193,40.5474249880762,123.05139035100741,35.223155776161526,43.75820455923907,71.22280160811596,-81.90985516846233,-6.931040328202574,1.0
995.5555555555536,-87.84040340318866,244.39479385848088,189.74978107733364,-166.99664367270208,-85.03670735281118,39.970130512246406,123.00657064967379,35.233394229727374,43.79704784504893,71.28732640520506,-81.92018924467656,-6.922561075234826,1.0
998.3333333333314,-87.66713681501224,244.53925279120892,189.8007794039024,-166.5372399259875,-85.03833742510551,39.40038456591137,122.96132747661163,35.24353364555026,43.8359116214263,71.35301916464225,-81.92975150951457,-6.914903579401596,1.0
1001.1111111111092,-87.49177745307365,244.6836237100024,189.8514154989865,-166.08441277490724,-85.03916700876547,38.83614786693758,122.91574279409096,35.25363208023813,43.874809548749525,71.41954520715817,-81.93886298186737,-6.907844152007565,1.0
1003.8888888888868,-87.31478222028112,244.82794709154572,189.9017797937447,-165.63638551129773,-85.03941236076818,38.27593205792766,122.8698849040035,35.26373051492599,43.91374845720777,71.48666547613189,-81.94772856741005,-6.90121716096536,1.0
1006.6666666666648,-87.1336414154808,244.97440693497225,189.9529546519336,-165.21759140479116,-85.0410262065315,37.742662470909,122.82313908932393,35.27425925153156,43.953380629866764,71.55515861312877,-81.95772796435496,-6.897802920154,1.0
1009.4444444444424,-86.94739022353208,245.1239394953193,190.0054193233886,-164.83728626243607,-85.0448354333694,37.24506715024316,122.77520482172878,35.28536855421659,43.99397244410415,71.62531148609398,-81.96940758783568,-6.898716031068666,1.0
1012.2222222222202,-86.75695549496321,245.27599284259125,190.05894065829216,-164.48507205147843,-85.05024694544717,36.77350847127096,122.72628700689316,35.2968910833464,44.035284843298975,71.6965298685697,-81.98229615479949,-6.902863236555333,1.0
1014.999999999998,-86.56304400224717,245.43014645377997,190.11334091886417,-164.15335983230398,-85.05682787545408,36.32095247350259,122.67653590897878,35.308710725705104,44.07715048781657,71.76842443977326,-81.99607947654458,-6.9094377205182935,1.0
1017.7777777777758,-86.36620357940099,245.5860747056205,190.1684823852356,-163.8366108644767,-85.06426229787229,35.882265464568604,122.62604715063405,35.32073185864433,44.11943277387353,71.84067418081365,-82.01051849644998,-6.91783629187647,1.0
1020.5555555555536,-86.16785942669011,245.7432468452599,190.224300331186,-163.53716344219995,-85.07249966052005,35.461572492701876,122.57505295829073,35.332715425543114,44.161687739173814,71.91172180856012,-82.02534000694891,-6.927967596849715,1.0
1023.3333333333312,-85.97198937901553,245.90045425926405,190.28086766370825,-163.27586628348647,-85.08204314048646,35.08549972388755,122.52403144519073,35.34389986030901,44.202494704370054,71.97630807735176,-82.03997710234025,-6.9407780435248965,1.0
1026.111111111109,-85.77821499149118,246.05771463148903,190.3380864723464,-163.0424128576501,-85.09253988206444,34.74199273309605,122.4730645736041,35.354510559184625,44.24231129213664,72.03622932694029,-82.05446393356985,-6.955624313459566,1.0
1028.8888888888869,-85.58622544326403,246.21504350649167,190.39587708146576,-162.82928100729242,-85.10373235570809,34.422253673100066,122.4221796642875,35.36472169199379,44.28148242702667,72.09281744421384,-82.06884831196189,-6.97203640426146,1.0
1031.6666666666647,-85.39576284235281,246.3724547494448,190.4541740841033,-162.63098073256285,-85.11543260507807,34.11986148975186,122.37140403799764,35.37464254176324,44.32023350528274,72.14702865565623,-82.08313706770555,-6.989665122509263,1.0
1034.4444444444423,-85.20661120451174,246.52996089084957,190.51292336726164,-162.44350519117359,-85.12750345140768,33.830129816568466,122.32075135511282,35.38437556133051,44.35874211182327,72.19953231980611,-82.09737118193587,-7.008247505919929,1.0
1037.22222222222,-85.01771738332195,246.68677055925585,190.57105720406588,-162.2781135383381,-85.13694831223866,33.56359987103191,122.27011233260635,35.39319333554899,44.396711133419366,72.2514007763632,-82.10837461668875,-7.028271486132291,1.0
1039.999999999998,-84.82881531474548,246.8427922680865,190.6284077882251,-162.13238555542307,-85.14375249801888,33.31749394552939,122.21947331009987,35.40118807197249,44.434198626678985,72.30298236497512,-82.11623616442344,-7.049497579638575,1.0
1042.7777777777758,-84.63987876454075,246.9981345943952,190.68506900781043,-162.00100897985135,-85.14862940351684,33.08629436417732,122.1688342875934,35.4086124876003,44.47133778029092,72.35436587810113,-82.12183008935368,-7.071568055281001,1.0
1045.5555555555534,-84.45088427583232,247.15289135575944,190.74112158353944,-161.88010668978,-85.1520996954728,32.86597408550716,122.11820892546525,35.41565099754,44.50821738671441,72.40557863649789,-82.12580525945063,-7.094210132379594,1.0
1048.3333333333312,-84.26181069639136,247.3071441502594,190.79663533745335,-161.76684899191622,-85.15454337927284,32.65359399831856,122.0676108840938,35.422436790480404,44.54491599312489,72.45670260243544,-82.12861929738867,-7.117253909978747,1.0
1051.111111111109,-84.07163634373347,247.461147582298,190.8520312303557,-161.6744365573966,-85.15884005132503,32.45983961269704,122.01704016347902,35.42991243252698,44.58226005241193,72.50997807796153,-82.13304525997084,-7.142644711331447,1.0
1053.8888888888869,-83.88013160686742,247.6150032563546,190.90743856299167,-161.60205872101182,-85.16531087908072,32.28373084875992,121.96645578248591,35.438163301044355,44.620311036278075,72.5654938555354,-82.13941782646646,-7.170392354834624,1.0
1056.6666666666647,-83.68739122603664,247.768746536407,190.96286414672903,-161.54430301162338,-85.17336850087102,32.12050063219683,121.91581675997944,35.44697082997909,44.65885037866987,72.6225737464292,-82.14723156287695,-7.19985522959312,1.0
1059.4444444444423,-83.49349757859324,247.9224091307389,191.0183141985132,-161.49721917079248,-85.18258423443054,31.966669743434785,121.86508211482459,35.456171094791095,44.69773464561475,72.68073963740102,-82.15609714841963,-7.230566321422436,1.0
1062.22222222222,-83.2985225038002,248.0760196247098,191.0737944265116,-161.45792412693598,-85.19264520867077,31.81969889568092,121.81422452626467,35.46565481245366,44.73686138427517,72.73965684918156,-82.16574137552769,-7.26218668218501,1.0
1064.999999999998,-83.1025288149861,248.2296039220672,191.12931010103011,-161.42431368816827,-85.20332307657128,31.677734806243176,121.76323033392136,35.47534343579132,44.77615204747567,72.79905900439316,-82.17597299890437,-7.294462741107905,1.0
1067.7777777777756,-82.90580371711097,248.3845399265844,191.1859080944199,-161.41588127650675,-85.21671158750821,31.560911758206352,121.71197659438958,35.48549309689796,44.815876427688465,72.85806500863289,-82.188130735627,-7.329549422874261,1.0
1070.5555555555534,-82.70837732860518,248.540742935381,191.24351119412304,-161.42582489152602,-85.23207844442712,31.462437743063084,121.66046330766935,35.49597060708476,44.85596963811644,72.91670901284662,-82.20168866112947,-7.366740656678626,1.0
1073.3333333333312,-82.51027588052673,248.6981377732613,191.30205057421253,-161.44918013546874,-85.24888918487171,31.377355655595334,121.60869047376065,35.50667009841958,44.89639411271916,72.97503882835854,-82.21625062443994,-7.40552673965419,1.0
1076.111111111109,-82.31152222143648,248.8566575656781,191.36146471783803,-161.48232377346991,-85.26675373473833,31.302047583352632,121.55665809266348,35.517516438821566,44.93711570055078,73.03305445516862,-82.23154341799159,-7.445530303849308,1.0
1078.8888888888869,-82.11213624667917,249.01624269563425,191.4216985012557,-161.5226114100704,-85.28538740086549,31.233873015407,121.50439348513456,35.52846181696651,44.978107080854606,73.09079687441191,-82.24735530592018,-7.486465335092487,1.0
1081.6666666666645,-81.91143611593968,249.17660321976004,191.48236537215152,-161.61704845549016,-85.30427280269893,31.21898022982223,121.45182834928214,35.539178383774264,45.01941264986026,73.14947502957149,-82.26203338244653,-7.5322719987611775,1.0
1084.4444444444423,-81.7090288274935,249.33755335233727,191.54322405523905,-161.78362971444704,-85.32313553292798,31.275025114488752,121.39893536434955,35.54954319583975,45.061015332094804,73.2095602037001,-82.27492194941034,-7.584353044956171,1.0
1087.22222222222,-81.50500126001816,249.49907539290385,191.6042699407677,-162.00286497950339,-85.3419817164274,31.38284341713248,121.34570086995848,35.559672366378884,45.10283999547738,73.27055379298831,-82.28658791251273,-7.640930916945972,1.0
1089.9999999999975,-81.29943174249246,249.66115372403644,191.66549901545463,-162.2605294438315,-85.360815823399,31.528448227277035,121.29212486610889,35.56963419728335,45.14483199849462,73.33210062759929,-82.29743425291471,-7.7007283693557875,1.0
1092.7777777777756,-81.09239101123141,249.82377457476176,191.72690779428652,-162.54624122053087,-85.37964111639177,31.701631285196143,121.23822101317916,35.579500405539434,45.186964020389844,73.39394799053376,-82.30776832912893,-7.762810520042972,1.0
1095.5555555555534,-80.88405491574302,249.9869026107344,191.78853142057304,-162.84836147006487,-85.39889890918349,31.89199687113029,121.18396199041257,35.58928806662006,45.22890138189372,73.45465471187683,-82.31822534874823,-7.825975255713604,1.0
1098.3333333333312,-80.67491358195235,250.15043752209604,191.8505147107758,-163.1462106060769,-85.4202280897734,32.083121879157765,121.12914289213406,35.59888106730934,45.26946587537443,73.50930988561527,-82.3304855383084,-7.887772246002941,1.0
1101.111111111109,-80.46498735262612,250.3143766220651,191.91284445439967,-163.4409424964165,-85.44306905988064,32.27480114668263,121.0738730013703,35.60834087930981,45.30905365180382,73.55949811563653,-82.3441049355134,-7.948518240933741,1.0
1103.8888888888866,-80.25429438955342,250.47871783787025,191.9755086801956,-163.73339928436607,-85.46701340017606,32.46688493705866,121.01824794076973,35.61771189885107,45.34794133384329,73.60636004353198,-82.35874886109391,-8.008435221654032,1.0
1106.6666666666645,-80.04285089812508,250.6434596444333,192.03849653023255,-164.0241956029689,-85.49176302834931,32.65926396592478,120.96229503108898,35.62702827687897,45.38634748754627,73.65071529200205,-82.37419874899648,-8.067693089119416,1.0
1109.4444444444423,-79.83067132557854,250.80860100578892,192.10179814875744,-164.3137800383336,-85.51710039087786,32.85185847276891,120.90606891384144,35.63631050396101,45.42442237707451,73.6932058988287,-82.3902770143027,-8.1264156405086,1.0
1112.22222222222,-79.61783765465326,250.97421635982636,192.1654663093247,-164.60839038992202,-85.54302924813072,33.05081560340859,120.84956958902708,35.64554150462428,45.46222405903594,73.73396846779534,-82.40685388341831,-8.18514843718154,1.0
1114.9999999999975,-79.40513947429378,251.141150281622,192.2301877986881,-164.97463849453243,-85.57125901937808,33.32577807861844,120.79267411324088,35.654352448653604,45.49918562772947,73.7699635647213,-82.4238269035058,-8.248940696482167,1.0
1117.7777777777756,-79.19254293892183,251.30935515211112,192.295915931633,-165.39317096818135,-85.60116809841134,33.6562125824274,120.73545078837452,35.662903845494455,45.53564176242441,73.80241379346803,-82.4412507160785,-8.31630770603965,1.0
1120.5555555555534,-78.98001628203819,251.4787871878423,192.36260759011495,-165.84986286378927,-85.6323028098005,34.02713300172429,120.67795425594134,35.671308393268156,45.57182468955255,73.83222756919514,-82.4591526418931,-8.386168588417831,1.0
1123.3333333333312,-78.76752963616218,251.64940609308272,192.43022290225545,-166.33440517647253,-85.66433204135116,34.42760181494673,120.62023915745473,35.679648054244744,45.60790174874856,73.8600469296846,-82.47756000170628,-8.45772506525747,1.0
1126.1111111111088,-78.55507500173157,251.82110308312,192.49868574516356,-166.83477676703725,-85.69675412253977,34.84502982595274,120.56234647404972,35.68794331899172,45.64400271360666,73.88647976177255,-82.49629521059963,-8.530059329888845,1.0
1128.8888888888866,-78.34310094915759,251.9921524926043,192.56703647584075,-167.23876903330572,-85.72322267431038,35.164279066778455,120.50471333783314,35.69543262141664,45.6803461501803,73.91530999025917,-82.51130796639532,-8.594774518501069,1.0
1131.6666666666645,-78.13155914579852,252.1626055573573,192.63528866101444,-167.57241944843256,-85.74534607961779,35.41187314206199,120.44729876767002,35.70231745210002,45.716870586766944,73.94594338868667,-82.5235203446313,-8.654027263324576,1.0
1134.444444444442,-77.92040418122926,252.3325103273108,192.7034550617,-167.8547313004582,-85.76429820677055,35.607170139887266,120.39008910318199,35.70875490539275,45.753524796947815,73.97792916456984,-82.53367000573793,-8.709336427676046,1.0
1137.22222222222,-77.70959333267427,252.50191192384693,192.7715476976103,-168.09957402111306,-85.7809357962617,35.764298440592356,120.33304336323404,35.714888415267424,45.790301950533745,74.01094629901769,-82.54231702522718,-8.76179569559633,1.0
1139.9999999999975,-77.4990863531793,252.67085277220465,192.83957790531952,-168.31707012899034,-85.79588413481815,35.89356955480333,120.27614788744783,35.72079994399407,45.827171311673474,74.04474207503091,-82.54987804463838,-8.81218712374539,1.0
1142.7777777777756,-77.28849708886176,252.83961647185097,192.9077120076309,-168.55766447566282,-85.81083285280876,36.04467989747945,120.21938901544503,35.726865151977044,45.86446755963633,74.08000634171569,-82.55737076215789,-8.86449698127758,1.0
1145.5555555555534,-77.07692065403003,253.00884880634493,192.97634852412168,-168.92583491367006,-85.8289531101896,36.32016821020124,120.16267112457724,35.73383877511962,45.903017147311886,74.11865155203962,-82.56678276283417,-8.926947962179945,1.0
1148.333333333331,-76.86437424090983,253.1785495439943,193.04547420415997,-169.38711596945166,-85.84938809589323,36.68643301174086,120.10593957333111,35.741512492652134,45.942502470903726,74.1596326870597,-82.57779985796539,-8.99661674548772,1.0
1151.1111111111088,-76.65087370174365,253.34871869196465,193.11507670456567,-169.91635323122466,-85.87151247168444,37.11895046975229,120.04912605981495,35.74975311588575,45.98270154926384,74.20220525615639,-82.59023763244399,-9.071365481990695,1.0
1153.8888888888866,-76.43643365452631,253.51935647412785,193.1851445198804,-170.49518790780527,-85.89486983833679,37.59982201753668,119.9922169236504,35.75845136179377,46.023450457852135,74.24582967438526,-82.60391850135152,-9.149624935727054,1.0
1156.6666666666642,-76.22106757944147,253.69046331084263,193.25566691877836,-171.11022094949044,-85.91912709570997,38.115984497372445,119.93515752332412,35.76753892848447,46.064633083452726,74.29013028134196,-82.61875367222879,-9.230257026426347,1.0
1159.444444444442,-76.00515988719037,253.86272002166413,193.32710816337112,-162.4668535985884,-85.94537918556027,38.74321885351537,118.9863213042043,34.348133411402024,43.26414624072078,63.90020361026947,-81.77789591369769,-6.6681540310116,1.0
1162.22222222222,-75.78904722856521,254.03672202342312,193.39987352022928,-138.49569757666092,-85.97432231718656,39.53027064440683,114.44158856255868,31.602851572636702,37.45804489900847,34.02947435076966,-82.07078808568617,-0.4231766697047313,1.0
1164.9999999999975,-75.57271381095133,254.2124220207432,193.47392064415,-103.33765020744136,-86.00522948893664,40.433964197284126,104.175110730545,31.31670079735902,35.629237843075465,-12.593265442595852,-85.24503654017956,4.800326531237131,1.0
1167.7777777777756,-75.35614450533461,254.38977557677524,193.54920966119224,-60.01491967993379,-86.0375701031707,41.422788015583116,94.85453896649722,36.646075425571944,44.69342821134306,-65.98860225089257,-89.22920882645306,10.245726009767886,1.0
1170.5555555555532,-75.13932480564611,254.56874091221303,193.62570299673848,-10.733245867314942,-86.07095690649733,42.47374362928183,95.06731301952145,45.567630953402166,61.61389340825608,-114.41372822093419,-100.98816495438456,14.39562429851528,1.0
1173.333333333331,-74.92213240809524,254.74915580324733,193.70328875984256,40.72574164028932,-86.10416964940418,43.57943590467432,102.55393801028579,51.75879445485769,74.66203408164915,20.25881236131055,114.50341543492563,-175.2599220268592,1.0
1176.1111111111088,-74.70377101845821,254.93009533238617,193.7813812085864,77.84741168945718,-86.13037951183999,44.793938542278156,109.64640644442703,51.810447760455915,75.09206962198233,166.09503759475268,-112.92187830242001,-10.020597852082387,1.0
1178.8888888888864,-74.48425889303878,255.11155991953592,193.85997071090677,104.505079653161,-86.151478365465,46.0878557468259,114.41620757960291,49.0191782580089,70.45499955294731,142.5319504677192,-105.61652653222781,-17.156702657283546,1.0
1181.6666666666642,-74.26361313257884,255.29355011982517,193.939048212124,123.5256606958267,-86.16884698105838,47.4397331797446,117.25540110436133,45.88459612712036,64.94018870386313,125.87253168578948,-98.50245420974181,-18.957862815003637,1.0
1184.444444444442,-74.0418497616599,255.47606661090248,194.01860519594928,136.9723612897764,-86.18349310559613,48.83391252529833,118.76194958996938,43.23851254076572,60.18280485259833,113.3616127113746,-93.25995617267688,-18.419773682000862,1.0
1187.22222222222,-73.81898380208162,255.65911018119365,194.09863364845071,146.35099986246058,-86.1961522369487,50.2589656590147,119.45346526229814,41.21749030121021,56.50470700341145,103.75902926668617,-89.74736746745774,-17.14755020379573,1.0
1189.9999999999975,-73.59492688248969,255.84306511340785,194.17939247998527,152.74062794712333,-86.20695235190084,51.72826028829674,119.69081433595609,39.73650379857093,53.7898843932498,96.40671994595013,-87.47102934163257,-15.832513392325664,1.0
1192.777777777775,-73.3695150145497,256.028595472431,194.2613354224484,156.91325961964424,-86.21566888102835,53.26843710373355,119.69681124204736,38.66933796717522,51.82701779938236,90.83085403587519,-86.00315338710513,-14.721217708702495,1.0
1195.5555555555532,-73.14276949509707,256.2156690293791,194.34443264410007,159.46783023246053,-86.22286471798472,54.860346842424406,119.59769153681214,37.90502613867245,50.42156635877426,86.64517750870799,-85.0488052053251,-13.864773458485425,1.0
1198.333333333331,-72.914710424534,256.4042552613226,194.4286558318888,160.84146903203902,-86.22895068720634,56.490013533793956,119.45985831936127,37.3584573258151,49.42035624909877,83.52961403956334,-84.42053025452147,-13.24147173917122,1.0
1201.1111111111086,-72.68535678325694,256.5943252450561,194.5139780985629,161.35321208352275,-86.23422662635609,58.14723690253467,119.31552276182056,36.96769195811492,48.70997217918784,81.22594149667978,-84.00244071504665,-12.808998675077998,1.0
1203.8888888888864,-72.45472650268627,256.7858515583696,194.60037389634144,161.23590587724527,-86.2389113700897,59.82457234107622,119.1785091670701,36.68857969277693,48.20853384127135,79.53137156359962,-83.72294937420973,-12.524705711254557,1.0
1206.6666666666642,-72.22435729256155,256.9782725406502,194.68774245417964,160.6515095761163,-86.23569767191539,61.52973981447191,119.05344840336717,36.48710277263989,47.85550868383007,78.28652177604062,-83.52940913388825,-12.355915515164263,1.0
1209.444444444442,-71.99428299758165,257.17155722673795,194.77605977178,159.72587787069503,-86.22640822157845,63.255768382518696,118.94069564054861,36.34169829049408,47.60954332653416,77.37417242746699,-83.39508663367077,-12.273207900730933,1.0
1212.22222222222,-71.76447398590778,257.36569794903414,194.86530611250328,158.55119762516154,-86.2126844212674,64.99702229091014,118.83885752002371,36.23711443392285,47.44107671065579,76.70666487007081,-83.30302934403734,-12.253969819159945,1.0
1214.9999999999975,-71.53490186423554,257.5606874878813,194.9554626864305,157.19475084968477,-86.19572423817336,66.74938831937423,118.7460215888249,36.162467296483776,47.32891475920042,76.21890057087269,-83.24201526418162,-12.281258132441438,1.0
1217.777777777775,-71.30553941244659,257.756519042821,195.04651159553137,155.7056429014392,-86.17640200120915,68.50986445964634,118.66031637511958,36.109895330442185,47.25774760314348,75.86271986603487,-83.20442873317904,-12.342435283063596,1.0
1220.5555555555532,-71.07595746083102,257.95324314720875,195.1384317243588,154.17442684801148,-86.15559875874152,70.218671021501,118.58021191653367,36.07378070520574,47.21728556250032,75.60576814945898,-83.18395865623651,-12.425599666397671,1.0
1223.3333333333308,-70.8445415112776,258.15107830479207,195.231190805568,152.83133376634393,-86.13468631297074,71.65941208994509,118.50464270355666,36.050035552556196,47.202368429353015,75.43397523145482,-83.17234050445832,-12.514709729404244,1.0
1226.1111111111086,-70.6113218230916,258.350011146013,195.32477386946653,151.62554106701975,-86.11369416584752,72.90450722321194,118.43235198138123,36.035258438286874,47.20607039188316,75.32433703489778,-83.1670402776624,-12.608347354056887,1.0
1228.8888888888864,-70.37632725917388,258.55002895492413,195.4191666288564,150.51995619885656,-86.09264384918731,74.00681138601709,118.3624108442803,36.027034890526174,47.22339858180749,75.25998982272709,-83.16641873044792,-12.705407757257353,1.0
1231.6666666666642,-70.13958536446027,258.75111963094656,195.51435544104348,149.487507393788,-86.07155107785188,75.00490044602996,118.29409529220183,36.02361979594117,47.25071250829836,75.22857095254503,-83.16935571179103,-12.805028627622928,1.0
1234.444444444442,-69.90112243943949,258.9532716530325,195.6103272722299,148.50843649005725,-86.05042732123546,75.92692876064075,118.22687257039057,36.023746154440815,47.2853483975795,75.22103042370134,-83.17507941031549,-12.906553413219644,1.0
1237.2222222222197,-69.66131263215034,259.1566819717427,195.7073095969984,147.5101658247452,-86.0276668030199,76.85596279156458,118.16010064106453,36.02601719233984,47.32416436263268,75.22611208444383,-83.183255146752,-13.012773953870743,1.0
1239.9999999999975,-69.42061238386044,259.3615977388312,195.8055877694604,146.42386396196886,-86.00165733537489,77.86967849230417,118.09330139098181,36.02937764541149,47.364568346667895,75.23424683974531,-83.19403318526228,-13.126568320537741,1.0
1242.777777777775,-69.17902496935794,259.5679972486846,195.90513685489609,145.2733130765617,-85.97327664217086,78.94519858372713,118.02639285787235,36.03372847591279,47.4062495760779,75.24432819896025,-83.20751597868389,-13.245808909294176,1.0
1245.555555555553,-68.93655346852205,259.7758597280868,196.0059329542437,144.07587044109414,-85.94316532472233,80.06582622576938,117.95934772097951,36.03900479704662,47.44899631499842,75.25558435071243,-83.22376499871935,-13.368941852103875,1.0
1248.3333333333308,-68.69320077983808,259.985165286155,196.10795315048443,142.8442041531305,-85.91179092191938,81.21937533342884,117.89213865954659,36.04516221258339,47.492658299267724,75.26741423835489,-83.24282805669286,-13.494789795108652,1.0
1251.1111111111086,-68.44985203480603,260.19539151557274,196.21095591997323,141.6734946660927,-85.88286577142077,82.31447617131171,117.82472469243856,36.05125132622846,47.53586266086264,75.27598612576325,-83.26295662417688,-13.615031006578494,1.0
1253.8888888888864,-68.2078044500714,260.40578164325524,196.31459805893147,140.67617620321593,-85.86078485345831,83.24320520714073,117.75710581965544,36.05595391147201,47.57698039966612,75.27701748432793,-83.28126836134169,-13.719973448081156,1.0
1256.6666666666642,-67.96700887119971,260.61634757768866,196.41887213878357,139.80540610224034,-85.84369915609686,84.05050881672105,117.68940498460226,36.05958415701587,47.616636477987214,75.27266665382663,-83.29798866442988,-13.813786950104927,1.0
1259.4444444444418,-67.72741799364422,260.82710080494195,196.52377103431527,139.02699653709615,-85.8302591894614,84.76919083323288,117.62171780992745,36.0624255157106,47.655322669446164,75.26449091739013,-83.3134248919541,-13.899504970414942,1.0
1262.2222222222197,-67.48898627728548,261.038052405996,196.62928790764,138.3159957352967,-85.81948003674948,85.42319293054966,117.55411259752266,36.064686308325875,47.69337706840689,75.25357627509645,-83.32787074204867,-13.979335367660404,1.0
1264.9999999999975,-67.25166986575063,261.24921307311945,196.73541619307588,137.6541928006898,-85.81064286255103,86.0299887906253,117.48661666814459,36.06654070468553,47.7310489767741,75.24075601002433,-83.34159259209123,-14.054881528748975,1.0
1267.777777777775,-67.01307786687404,261.46134184797,196.8424667069088,137.0366581927354,-85.80166261703333,86.57998384566767,117.4196261727651,36.06990115775718,47.77281216845414,75.2413570666713,-83.3553349327013,-14.131236213480548,1.0
1270.555555555553,-66.77190792741425,261.6748508884522,196.9506037379598,136.45613593050132,-85.79170021989789,87.07595264635849,117.35312745100586,36.07537896947153,47.820025851091856,75.25993518121373,-83.36943927333738,-14.210433110680492,1.0
1273.3333333333308,-66.52820048054406,261.8897244094679,197.05981069606173,135.90262689887533,-85.78102100550525,87.53249072091499,117.28681997454338,36.08239015865455,47.87125226986695,75.29150431555753,-83.3838987838103,-14.291743097654908,1.0
1276.1111111111086,-66.28199447581632,262.10594721456147,197.170071600519,135.3688333058059,-85.76981862649022,87.96025052494096,117.22049883770255,36.09051466867228,47.92546348130934,75.33232152603752,-83.3986793131742,-14.374647080026877,1.0
1278.8888888888864,-66.03332744983547,262.3235046663997,197.2813710509615,134.84942890309722,-85.75823441902537,88.36700668698715,117.1540001159433,36.0994383108229,47.981880843853645,75.37972303887742,-83.4137808614291,-14.458731831351612,1.0
1281.666666666664,-65.78272804611089,262.5423952185706,197.3937883948644,134.34973577522982,-85.74864968122526,88.75292934401607,117.08709158283386,36.10862491525656,48.03887194228823,75.42759583477003,-83.4297225229519,-14.54060189383797,1.0
1284.4444444444418,-65.53177273042735,262.7626445862407,197.5076041763662,133.89359194205585,-85.74773836909829,89.10621706008727,117.01933610626733,36.11693384038188,48.092868002771766,75.46246395048294,-83.44789082614415,-14.610976747951197,1.0
1287.2222222222197,-65.28045266786756,262.98423856335086,197.62279644326983,133.46923229109126,-85.75315730282067,89.43568636722456,116.95089761078381,36.124552916401036,48.144784270653034,75.48783127306038,-83.46752762000793,-14.673003403351375,1.0
1289.9999999999973,-65.02875932439979,263.2071634373091,197.7393440024099,133.06807012807295,-85.76319632715351,89.74777195655834,116.8819536813017,36.13162899238117,48.195266198808596,75.50624546306273,-83.48812064035552,-14.728952897937534,1.0
