BAEK26/lfd/data/sepisode3/jea.csv
timestamp,x,y,z,roll,pitch,yaw,joint1,joint2,joint3,joint4,joint5,joint6,gripper,scale
129.529,-134.016205,230.958237,183.533493,-162.419497,-85.633069,69.631389,129.400914,35.196797,40.204448,42.879646,-82.067896,-1.911616,1,-0.02
131.533,-134.016205,230.958237,183.533493,-162.419497,-85.633069,69.631389,129.400914,35.196797,40.204448,42.879646,-82.067896,-1.911616,1,-0.02
140.028,-134.016205,230.958237,183.533493,-162.419497,-85.633069,69.631389,129.400914,35.196797,40.204448,42.879646,-82.067896,-1.911616,1,-0.02
155.528,-134.016205,230.958237,183.533493,-162.419497,-85.633069,69.631389,129.400914,35.196797,40.204448,42.879646,-82.067896,-1.911616,1,-0.02
171.028,-134.016205,230.958237,183.533493,-162.419497,-85.633069,69.631389,129.400914,35.196797,40.204448,42.879646,-82.067896,-1.911616,1,-0.02
186.183,-134.016205,230.958237,183.533493,-162.419497,-85.633069,69.631389,129.400914,35.196797,40.204448,42.879646,-82.067896,-1.911616,1,-0.02
201.507,-134.016205,230.958237,183.533493,-162.419497,-85.633069,69.631389,129.400914,35.196797,40.204448,42.879646,-82.067896,-1.911616,1,-0.02
217.599,-133.981354,230.956345,183.531815,-162.399329,-85.630949,69.578333,129.400914,35.196797,40.204448,42.912591,-82.067896,-1.911616,1,0.03
234.461,-133.923248,230.953125,183.529007,-162.365697,-85.627397,69.490098,129.400914,35.196797,40.204448,42.967537,-82.067896,-1.911616,1,0.03
249.431,-133.87677,230.950516,183.526749,-162.338882,-85.624532,69.419509,129.400914,35.196797,40.204448,43.011483,-82.067896,-1.911616,1,0.03
262.975,-133.841919,230.948547,183.525055,-162.318771,-85.622355,69.366682,129.400914,35.196797,40.204448,43.044428,-82.067896,-1.911616,1,0.03
280.318,-133.81868,230.947205,183.523926,-162.305422,-85.620922,69.331446,129.400914,35.196797,40.204448,43.06643,-82.067896,-1.911616,1,0.03
295.29,-133.807068,230.946548,183.523361,-162.298775,-85.620235,69.313798,129.400914,35.196797,40.204448,43.077373,-82.067896,-1.911616,1,0.03
310.276,-133.795441,230.945877,183.522797,-162.292072,-85.61949,69.296209,129.400914,35.196797,40.204448,43.099375,-82.067896,-1.911616,1,0.03
326.513,-133.748978,230.943161,183.520554,-162.265429,-85.616625,69.225849,129.400914,35.196797,40.204448,43.13232,-82.067896,-1.911616,1,0.03
340.593,-133.679276,230.939041,183.517181,-162.36203,-85.615708,69.257248,129.400914,35.196797,40.204448,43.198268,-82.067896,-1.922617,1,0.03
355.6,-133.586349,230.933411,183.512695,-162.445338,-85.613302,69.253523,129.400914,35.196797,40.204448,43.286159,-82.067896,-1.933618,1,0.03
371.221,-133.516678,230.929108,183.509323,-162.541996,-85.61227,69.284979,129.400914,35.196797,40.204448,43.352049,-82.067896,-1.944561,1,0.03
386.281,0.6143,0.7017,0.756636,-82.067896,-1.944561,0.0,129.400914,35.196797,40.204448,43.406996,-82.067896,-1.944561,1,0.03
402.288,-133.435379,230.923965,183.505341,-162.495472,-85.607286,69.161965,129.400914,35.196797,40.204448,43.439941,-82.067896,-1.944561,1,0.03
417.567,-133.412155,230.922485,183.504196,-162.482236,-85.605853,69.126842,129.400914,35.196797,40.204448,43.450942,-82.067896,-1.944561,1,0.03
433.571,-133.412155,230.922485,183.504196,-162.482236,-85.605853,69.126842,129.400914,35.196797,40.204448,43.450942,-82.067896,-1.944561,1,0.03
449.021,-133.412155,230.922485,183.504196,-162.482236,-85.605853,69.126842,129.400914,35.196797,40.204448,43.450942,-82.067896,-1.944561,1,0.03
463.833,-133.412155,230.922485,183.504196,-162.482236,-85.605853,69.126842,129.400914,35.196797,40.204448,43.450942,-82.067896,-1.944561,1,0.03
480.501,-133.412155,230.922485,183.504196,-162.482236,-85.605853,69.126842,129.400914,35.196797,40.204448,43.450942,-82.067896,-1.944561,1,0.03
496.254,-133.412155,230.922485,183.504196,-162.482236,-85.605853,69.126842,129.400914,35.196797,40.204448,43.450942,-82.067896,-1.944561,1,0.03
511.669,-133.412155,230.922485,183.504196,-162.482236,-85.605853,69.126842,129.400914,35.196797,40.204448,43.450942,-82.067896,-1.944561,1,0.03
526.884,-133.412155,230.922485,183.504196,-162.482236,-85.605853,69.126842,129.400914,35.196797,40.204448,43.450942,-82.067896,-1.944561,1,0.03
542.675,-133.412155,230.922485,183.504196,-162.482236,-85.605853,69.126842,129.400914,35.196797,40.204448,43.450942,-82.067896,-1.944561,1,0.03
557.827,-133.412155,230.922485,183.504196,-162.482236,-85.605853,69.126842,129.400914,35.196797,40.204448,43.450942,-82.067896,-1.944561,1,0.03
571.832,-133.412155,230.922485,183.504196,-162.482236,-85.605853,69.126842,129.400914,35.196797,40.204448,43.450942,-82.067896,-1.944561,1,0.03
587.286,-133.412155,230.922485,183.504196,-162.482236,-85.605853,69.126842,129.400914,35.196797,40.204448,43.450942,-82.067896,-1.944561,1,0.03
602.642,-133.365692,230.919479,183.501923,-162.455766,-85.602989,69.056655,129.400914,35.196797,40.204448,43.494888,-82.067896,-1.944561,1,0.03
618.305,-133.319244,230.916443,183.499649,-162.42941,-85.600066,68.986525,129.400914,35.196797,40.204448,43.549777,-82.067896,-1.944561,1,0.03
635.36,-133.237976,230.911041,183.495651,-162.383344,-85.595082,68.863969,129.400914,35.196797,40.204448,43.637669,-82.067896,-1.944561,1,0.03
650.497,-133.11026,230.902344,183.489395,-162.447114,-85.590441,68.807934,129.400914,35.196797,40.204448,43.769506,-82.067896,-1.955562,1,0.03
665.721,-132.959366,230.891708,183.481949,-162.362374,-85.581102,68.581043,129.400914,35.196797,40.204448,43.8794,-82.067896,-1.955562,1,0.03
680.891,-132.760605,230.878342,183.481995,-162.216957,-85.577492,68.249186,129.400685,35.196797,40.204448,44.066184,-82.077006,-1.955562,1,0.0
696.209,-132.485687,230.865173,183.581863,-161.649156,-85.660857,67.4251,129.400398,35.196797,40.204448,44.318858,-82.182316,-1.955562,1,0.0
712.664,-131.95903,230.83696,183.797318,-160.399191,-85.840537,65.683996,129.39994,35.196797,40.204448,44.802263,-82.406629,-1.955562,1,0.0
725.864,-131.441559,230.806717,184.067261,-158.788607,-86.065595,63.591039,129.399711,35.196797,40.204448,45.274667,-82.681305,-1.955562,1,0.0
742.013,-130.6362,230.747742,184.465424,-156.339499,-86.398827,60.391585,129.399309,35.196797,40.204448,46.010745,-83.088678,-1.977564,1,0.0
756.93,-129.737122,230.664856,184.873428,-156.067687,-86.804882,59.285146,129.398737,35.196797,40.204448,46.834716,-83.509802,-2.175292,1,0.0
772.623,-128.909042,230.575043,185.284927,-158.942961,-87.278604,61.393574,129.398393,35.196797,40.204448,47.592797,-83.930983,-2.537859,1,0.0
788.184,-128.130447,230.478561,185.615204,-165.984154,-87.696519,67.714215,129.397304,35.196797,40.204563,48.306874,-84.274299,-2.999262,1,0.0
803.543,-127.530197,230.397446,185.871811,-174.453731,-87.991306,75.627908,129.395986,35.196454,40.204563,48.856226,-84.539808,-3.394775,1,0.0
818.818,-127.102745,230.335388,185.950256,179.279926,-88.070718,81.497459,129.393236,35.195823,40.204792,49.372575,-84.64506,-3.680394,1,0.0
834.88,-126.581276,230.259155,185.946991,176.572414,-88.060003,83.720822,129.388939,35.194677,40.205365,49.85598,-84.649644,-3.768286,1,0.0
850.979,-125.986626,230.189133,185.926605,176.60874,-88.032616,83.148609,129.370948,35.192729,40.206454,50.383273,-84.649644,-3.801288,1,0.0
865.437,-125.326584,230.196976,185.8983,175.962902,-87.993483,83.283082,129.336341,35.190953,40.207428,50.73484,-84.63595,-3.845234,1,0.0
880.927,-124.486382,230.294174,185.851883,174.938568,-87.922379,83.735261,129.252059,35.185797,40.210636,51.229245,-84.590171,-3.922125,1,0.0
896.183,-123.339531,230.573166,185.858231,174.589236,-87.860786,83.414748,129.091803,35.172389,40.220262,51.745595,-84.544392,-3.988015,1,0.0
911.283,-121.833099,230.982132,186.040756,172.18287,-87.803949,84.88639,128.88147,35.12661,40.249426,52.481674,-84.494029,-4.1858,1,0.0
926.428,-120.484787,231.481293,186.270889,168.637751,-87.747169,87.632577,128.588689,35.060433,40.311477,53.2837,-84.416221,-4.526367,1,0.0
942.271,-118.489304,232.200439,186.768295,161.305095,-87.614987,93.749131,128.254597,34.937935,40.382753,54.217506,-84.310911,-5.097663,1,0.0
957.767,-116.291534,233.179321,187.359711,154.36331,-87.414853,99.471317,127.939413,34.843683,40.456378,54.843749,-84.191908,-5.537121,1,0.0
972.259,-113.98645,234.146362,188.113907,148.565206,-87.17232,103.910995,127.531696,34.677239,40.559453,55.832503,-84.022542,-6.174308,1,0.0
987.484,-111.531921,235.403183,189.031601,145.817014,-86.98502,105.309585,127.041072,34.488622,40.700745,56.733421,-83.82109,-6.72366,1,0.0
1004.001,-109.293579,236.598312,189.919128,143.754251,-86.723408,106.085198,126.590498,34.299202,40.859454,57.623282,-83.551055,-7.3169,1,0.0
1019.735,-106.65863,238.046936,191.007797,143.302761,-86.47503,105.085043,126.039542,34.06618,41.049619,58.590091,-83.221432,-7.910141,1,0.0
1035.308,-104.611771,239.091705,191.791229,142.522048,-86.298731,104.765734,125.473403,33.842841,41.238294,59.600846,-82.955924,-8.569329,1,0.0
1051.147,-101.926811,240.724884,193.104782,141.472447,-86.032879,104.423048,124.883371,33.589078,41.468909,60.358869,-82.575995,-9.217516,1,0.0
1066.162,-99.663139,242.303375,194.16806,142.740632,-85.697412,101.979727,124.472445,33.414784,41.659074,60.919165,-82.200651,-9.667975,1,0.0
1081.284,-96.72612,244.096451,195.399872,144.828605,-85.372087,98.425268,123.797444,33.150249,41.930083,61.831027,-81.678743,-10.272217,1,0.0
1097.459,-94.202591,245.907394,196.756882,145.583476,-85.04699,96.533877,123.163237,32.870875,42.196967,62.45727,-81.184395,-10.942405,1,0.0
1112.764,-91.762756,247.918365,198.205048,144.881317,-84.542902,96.18466,122.509893,32.580959,42.516104,63.017565,-80.584738,-11.876212,1,0.0
1127.714,-88.93042,249.894058,199.826187,141.942616,-84.084364,97.913502,121.80441,32.298032,42.827335,63.665752,-80.200226,-12.974858,1,0.0
1144.49,-86.976097,251.49118,201.37915,137.335978,-83.615226,101.720463,121.081738,31.980556,43.216602,64.160158,-79.907215,-14.501963,1,0.03
1158.486,-84.549988,253.772583,203.270233,133.187363,-83.024965,104.892988,120.437619,31.735559,43.609365,64.654563,-79.628013,-15.89723,1,0.03
1173.469,-81.625275,255.917969,205.593689,128.140063,-82.473837,108.701496,119.879616,31.488271,43.897391,65.13791,-79.586817,-17.083768,1,0.03
1188.962,-78.860664,258.36557,208.162933,123.817325,-82.049447,112.031412,119.124629,31.174233,44.332495,65.467533,-79.536454,-18.478978,1,0.03
1204.165,-76.266426,260.591339,210.57254,120.409372,-81.558823,114.474848,118.433413,30.878586,44.752702,65.841044,-79.444895,-19.841299,1,0.03
1218.346,-73.103996,263.121796,213.386703,117.35631,-81.311363,116.44714,117.607093,30.550797,45.215537,66.159666,-79.444895,-21.027838,1,0.03
1235.802,-70.623528,265.439209,215.956192,113.915583,-80.701392,119.047566,116.928711,30.276007,45.682154,66.401339,-79.399116,-22.510996,1,0.03
1251.013,-68.27623,267.393127,218.046204,111.522453,-80.273622,120.64864,116.127602,30.002534,46.199134,66.698017,-79.394532,-24.060045,1,0.03
1266.335,-65.556358,269.805145,221.006622,107.740473,-79.277764,123.584418,115.592001,29.758454,46.576885,66.818854,-79.394532,-25.554204,1,0.03
1281.327,-62.824024,272.456573,223.837448,104.148372,-77.893956,126.360227,114.845895,29.534427,47.158151,66.950691,-79.394532,-27.828388,1,0.03
1296.999,-59.804626,274.772369,226.802567,101.013605,-76.072695,128.558666,114.093143,29.24113,47.665849,67.192365,-79.421977,-30.520029,1,0.03
1311.935,-56.865658,277.253571,229.87117,98.702637,-74.596928,129.963501,113.343772,28.980721,48.241729,67.379149,-79.454063,-32.860104,1,0.03
1327.276,-53.723244,279.383301,232.774185,97.307027,-73.518507,130.328991,112.602479,28.703409,48.755557,67.708714,-79.454063,-34.749776,1,0.03
1344.023,-51.124184,281.134155,235.069092,96.45309,-73.162069,130.393162,111.813688,28.438875,49.306513,67.950445,-79.454063,-36.024148,1,0.03
1358.231,-48.148365,283.277985,237.876877,95.447206,-72.763635,130.49767,111.085057,28.207744,49.847271,68.181175,-79.454063,-37.276634,1,0.03
1373.78,-44.547382,285.515411,241.034424,94.421955,-72.277079,130.462433,110.449819,28.007323,50.28587,68.334957,-79.454063,-38.19944,1,0.03
1389.38,-41.489048,287.553497,243.802628,93.535074,-71.748525,130.447192,109.743076,27.810225,50.837342,68.532742,-79.454063,-39.462869,1,0.03
1404.387,-37.865753,289.622131,246.739182,92.763185,-71.515904,130.163521,108.937783,27.595595,51.411388,68.785417,-79.454063,-40.473624,1,0.03
1419.776,-34.705601,291.513123,249.488708,92.034096,-71.798602,130.025495,108.229092,27.402852,51.944354,68.928198,-79.454063,-40.891138,1,0.03
1433.536,-32.346329,292.886688,251.44278,91.592919,-72.285559,129.779696,107.462245,27.256748,52.541261,69.158928,-79.454063,-40.924083,1,0.03
1449.536,-28.572098,294.779968,254.090347,91.007814,-73.020835,129.306605,106.903669,27.147084,52.94004,69.345712,-79.454063,-40.902082,1,0.03
1466.042,-25.508493,296.679962,256.761078,90.317801,-73.877923,129.112888,106.232735,27.035816,53.560324,69.554441,-79.454063,-40.759301,1,0.03
1480.035,-21.799728,298.369019,259.029114,89.855825,-74.627237,128.51833,105.465143,26.966946,54.13437,69.862062,-79.454063,-40.660408,1,0.03
1495.534,-18.458548,299.910034,261.18338,89.432409,-75.407949,127.962159,104.779599,26.910223,54.692145,70.180684,-79.454063,-40.506569,1,0.03
1512.214,-15.054805,301.632568,263.355743,88.951984,-76.125178,127.448102,104.077669,26.908504,55.330248,70.499248,-79.454063,-40.440679,1,0.03
1527.942,-11.42538,302.955353,265.16507,88.890563,-76.741681,126.38538,103.367488,26.907072,55.885157,70.971709,-79.454063,-40.429678,1,0.03
1544.388,-8.055438,304.4039,267.213593,88.667453,-77.405452,125.564503,102.700278,26.907072,56.500285,71.400167,-79.454063,-40.418677,1,0.03
1558.702,-5.511435,305.206085,268.493134,88.888443,-77.871095,124.478118,102.048252,26.907072,57.035714,71.993407,-79.454063,-40.418677,1,0.03
1574.245,-1.755306,306.310486,270.281311,89.109146,-78.496421,123.077236,101.507208,26.906957,57.464115,72.399921,-79.454063,-40.418677,1,0.03
1588.616,1.164215,307.397308,272.118561,89.308192,-79.12381,121.884853,100.951497,26.906843,58.029223,72.916271,-79.454063,-40.418677,1,0.03
1603.722,4.809026,308.284454,273.820953,89.951624,-79.71092,120.035231,100.276953,26.906843,58.573189,73.553457,-79.454063,-40.462623,1,0.0
1618.721,8.115288,309.000732,275.286407,90.587435,-80.139836,118.343344,99.666753,26.906843,59.039347,74.091808,-79.454063,-40.572517,1,0.0
1634.145,10.357575,309.740448,276.683685,90.807222,-80.489569,117.417731,99.1115,26.906843,59.588298,74.553211,-79.454063,-40.726298,1,0.0
1650.152,13.516346,310.314117,278.114746,91.914405,-80.816327,115.219865,98.515395,26.906843,60.034346,75.2234,-79.454063,-40.97903,1,0.0
1665.679,17.084536,310.875397,279.55954,92.8332,-81.080518,113.213252,98.020359,26.906843,60.389007,75.607912,-79.454063,-41.176758,1,0.0
1680.104,19.704575,311.451385,281.092499,93.344852,-81.285923,111.792145,97.544117,26.906843,60.851212,76.102317,-79.513536,-41.49538,1,0.0
1696.829,22.965199,311.950684,282.605621,94.629767,-81.557792,109.434251,96.955001,26.906843,61.336908,76.706558,-79.518119,-41.780999,1,0.0
1711.859,26.346321,312.20282,283.790741,96.082501,-81.690145,106.916388,96.348468,26.906843,61.733853,77.288798,-79.518119,-42.110622,1,0.0
1726.792,29.159891,312.664429,285.291504,96.80672,-81.807372,105.296236,95.838249,26.906843,62.186032,77.750258,-79.559315,-42.495134,1,0.0
1743.353,32.063942,312.801788,286.431641,98.783711,-81.876987,102.268898,95.326254,26.906843,62.587904,78.442391,-79.563899,-42.890647,1,0.0
1757.8,34.889446,312.828613,287.286896,100.06748,-81.826681,100.108332,94.821879,26.906843,62.883207,78.925796,-79.568482,-43.275158,1,0.0
1773.967,37.735416,312.965698,288.448212,101.178216,-81.757926,98.078285,94.313208,26.906843,63.25752,79.442145,-79.600511,-43.758563,1,0.0
1789.845,40.366222,312.992676,289.529236,103.349898,-81.725268,94.896479,93.85169,26.907187,63.651486,80.167223,-79.605094,-44.219966,1,0.0
1805.175,43.945515,312.727966,290.35025,105.458669,-81.65571,91.64099,93.215936,26.907301,63.970337,80.848413,-79.609678,-44.626479,1,0.0
1820.177,47.063461,312.609528,291.324493,107.446603,-81.685963,88.646941,92.659365,26.907301,64.317606,81.452654,-79.614262,-44.945044,1,0.0
1836.357,49.869392,312.545074,292.341736,109.601383,-81.784798,85.562996,92.157912,26.907588,64.674731,82.034894,-79.614262,-45.186775,1,0.0
1852.136,52.956631,312.193481,293.074982,112.419763,-81.864668,81.686478,91.608618,26.908161,64.976966,82.727027,-79.614262,-45.362558,1,0.0
1867.7,56.448322,311.84314,293.881592,114.651032,-81.933939,78.434828,90.978994,26.908161,65.272211,83.265378,-79.614262,-45.538342,1,0.0
1883.121,58.438259,311.672211,294.480621,116.232625,-81.984531,76.22281,90.506476,26.908161,65.557487,83.759783,-79.618845,-45.692124,1,0.0
1897.867,61.400909,311.401978,295.317047,118.462978,-82.08434,73.117608,90.085123,26.908161,65.779852,84.11135,-79.618845,-45.780015,1,0.0
1913.267,64.757072,310.812286,295.846802,120.814855,-82.06274,69.763857,89.47773,26.908161,66.006514,84.660645,-79.618845,-45.933855,1,0.0
1929.23,67.962669,310.375305,296.532837,122.334511,-82.0373,67.391124,88.893485,26.908161,66.246011,85.045157,-79.618845,-46.131582,1,0.0
1945.385,70.568108,310.050751,297.219421,123.401759,-81.94345,65.609111,88.418618,26.908161,66.480694,85.396724,-79.618845,-46.406258,1,0.0
1960.084,74.032043,309.439819,297.812225,124.66049,-81.857105,63.459659,87.784468,26.908161,66.694235,85.770292,-79.618845,-46.636988,1,0.0
1975.873,77.152557,308.959106,298.41214,125.490821,-81.887873,61.938285,87.210594,26.908161,66.876092,85.946018,-79.618845,-46.746824,1,0.0
1990.632,79.256447,308.758789,298.989563,125.681444,-81.957545,61.360743,86.703583,26.908161,67.069867,85.957019,-79.618845,-46.834716,1,0.0
2005.961,82.153458,308.375366,299.627441,126.102911,-82.086517,60.411696,86.288475,26.908275,67.185776,85.957019,-79.618845,-46.845717,1,0.0
2021.143,85.817978,307.661041,300.09201,126.511316,-82.191483,59.332301,85.609979,26.908275,67.302487,85.957019,-79.614262,-46.845717,1,0.0
2036.83,88.40522,307.489563,300.831238,125.558888,-82.398837,60.041049,85.130642,26.908275,67.434096,85.638455,-79.614262,-46.845717,1,0.0
2051.508,91.239319,307.209991,301.482544,124.820116,-82.572443,60.500963,84.60438,26.90839,67.555162,85.341777,-79.573066,-46.845717,1,0.0
2067.657,94.50589,306.638641,301.904572,123.742096,-82.692821,61.21653,83.995441,26.90839,67.613031,85.034156,-79.541038,-46.845717,1,0.02
2083.164,97.406868,306.298004,302.539703,121.960427,-82.872214,62.78758,83.455142,26.90839,67.698745,84.594755,-79.527287,-46.845717,1,0.02
2099.097,99.714836,306.155457,303.120728,120.644629,-83.018892,64.025914,83.024678,26.909479,67.792481,84.188241,-79.444895,-46.845717,1,0.02
2114.708,102.137177,305.702545,303.328339,120.602173,-83.116409,63.842911,82.425708,26.910223,67.838948,83.913565,-79.284639,-46.746824,1,0.02
2129.847,105.025299,305.140137,303.579895,120.326752,-83.283197,63.876887,82.027904,26.910223,67.864215,83.671892,-79.211415,-46.647932,1,0.02
2146.248,107.169411,304.952911,304.165131,119.063781,-83.592594,65.08325,81.627406,26.910223,67.939215,83.221432,-79.179387,-46.461205,1,0.02
2160.365,109.717857,304.512115,304.495544,119.458492,-83.890303,64.503932,81.149101,26.912229,67.9976,82.924812,-79.0558,-46.19753,1,0.02
2175.555,112.387535,303.948151,304.718323,120.046576,-84.07789,63.683686,80.64656,26.912859,68.044582,82.694082,-78.900127,-46.021746,1,0.02
2189.904,114.28891,303.556915,304.939911,120.085995,-84.176152,63.482349,80.197647,26.912859,68.106691,82.463409,-78.771957,-45.933855,1,0.02
2205.403,116.210175,303.243958,305.310455,120.155552,-84.388433,63.288173,79.929045,26.912859,68.157742,82.276625,-78.7079,-45.802017,1,0.02
2221.324,118.47258,302.697601,305.547577,121.017739,-84.602031,62.187808,79.503223,26.913088,68.208849,82.111842,-78.60259,-45.604232,1,0.02
2235.829,120.695107,302.067749,305.662842,122.344767,-84.820958,60.602605,79.082786,26.913088,68.234747,81.980005,-78.497338,-45.362558,1,0.02
2252.41,122.898872,301.473511,305.779114,124.235814,-85.077242,58.492631,78.6651,26.913088,68.263796,81.826165,-78.36,-45.065938,1,0.02
2267.124,124.723373,301.076813,305.933746,126.679422,-85.408469,55.949042,78.319033,26.913088,68.296168,81.617437,-78.208911,-44.681369,1,0.02
2283.894,126.646065,300.636566,305.986603,129.71541,-85.663837,52.825391,77.952512,26.913661,68.317826,81.419652,-77.998349,-44.329859,1,0.02
2299.834,128.480209,300.243744,305.985687,133.339196,-85.922069,49.180978,77.600945,26.913661,68.32453,81.177978,-77.755759,-43.934346,1,0.02
2309.656,129.554291,299.987549,305.993347,135.029537,-86.031618,47.460271,77.395082,26.913661,68.328368,81.046141,-77.632114,-43.758563,1,0.02
2330.58,131.855499,299.670746,305.921417,141.371377,-86.298158,41.290948,76.950753,26.913661,68.332207,80.617683,-77.160627,-43.209211,1,0.02
2347.056,133.749222,299.559906,305.714905,150.674779,-86.456638,32.28663,76.497142,26.913776,68.33341,80.123278,-76.419048,-42.407242,1,0.02
2361.283,135.45665,299.574524,305.522827,162.00628,-86.560917,21.338266,76.246874,26.913948,68.333983,79.771711,-75.956728,-41.846947,1,0.02
2377.087,137.406403,299.452271,305.25766,167.790919,-86.395103,15.886458,75.863909,26.913948,68.334614,79.376198,-75.29754,-41.49538,1,0.02
2392.381,139.396637,299.253906,305.076294,169.071423,-86.234044,14.896387,75.473324,26.914062,68.335072,78.958741,-74.725328,-41.385486,1,0.02
2406.349,141.05275,298.985199,304.952423,169.064318,-86.113265,15.058878,75.053117,26.91475,68.335416,78.563228,-74.153115,-41.363542,1,0.02
2421.495,142.906509,298.807709,304.776886,168.879253,-85.944357,15.548528,74.783082,26.915495,68.33553,78.244606,-73.773186,-41.341541,1,0.02
2436.648,144.806015,298.569305,304.737396,168.029786,-85.897661,16.665337,74.409513,26.917385,68.335931,77.761259,-73.338311,-41.319596,1,0.02
2452.124,146.714584,298.199554,304.800537,167.430586,-85.952779,17.418433,74.036288,26.919333,68.336161,77.299799,-73.049942,-41.253649,1,0.02
2467.66,148.822098,297.61142,305.016022,166.770482,-86.15257,18.087074,73.62754,26.921453,68.336275,76.827395,-72.940048,-41.143813,1,0.02
2483.122,150.672928,297.059235,305.240479,165.670632,-86.350355,19.173001,73.268353,26.922886,68.336734,76.409938,-72.880575,-41.066922,1,0.02
2499.125,152.499054,296.503021,305.412659,165.134573,-86.50746,19.697315,72.912604,26.924089,68.336963,76.025369,-72.784433,-40.968029,1,0.02
2514.128,153.739685,296.128082,305.447113,165.786599,-86.550374,19.047925,72.588653,26.925063,68.33702,75.75075,-72.605899,-40.836192,1,0.02
2529.124,155.428162,295.552338,305.408295,167.454135,-86.544759,17.329739,72.338271,26.927183,68.33702,75.596911,-72.450227,-40.726298,1,0.03
2544.622,157.403702,294.778107,305.242126,170.536304,-86.443174,14.103413,71.950206,26.93211,68.33702,75.487075,-72.189302,-40.539571,1,0.03
2560.622,159.237976,294.093903,304.970123,174.440954,-86.295695,10.09649,71.588785,26.948153,68.33702,75.388182,-71.887181,-40.28684,1,0.03
2575.638,161.050583,293.544952,304.601044,177.618635,-86.050526,6.951468,71.227879,26.966144,68.337135,75.234401,-71.438612,-40.056167,1,0.03
2591.122,162.591385,293.283844,304.180298,179.65974,-85.760667,5.141838,70.916533,26.986713,68.337135,74.981669,-70.870983,-39.858382,1,0.03
2606.623,164.379059,292.990784,303.632874,-178.845453,-85.354439,3.943267,70.552304,27.008543,68.337135,74.70705,-70.143155,-39.682599,1,0.03
2622.622,166.084091,292.70816,303.213318,-177.822838,-85.071628,3.208334,70.205263,27.031633,68.337135,74.366484,-69.529746,-39.506815,1,0.03
2637.623,167.459595,292.463531,302.934296,-177.588956,-84.8794,3.205412,69.924686,27.046129,68.337135,74.069807,-69.062786,-39.40798,1,0.03
2653.124,169.037979,292.287445,302.77948,-178.006528,-84.821417,3.99598,69.602569,27.063948,68.337135,73.531513,-68.586715,-39.298087,1,0.03
2669.123,170.604172,292.093567,302.694214,-178.822248,-84.826631,5.174038,69.283088,27.081309,68.337135,72.960216,-68.170175,-39.210195,1,0.03
2685.266,171.936172,291.969177,302.834534,-179.909149,-84.991585,6.621673,69.011506,27.088528,68.337135,72.322973,-67.90925,-39.122303,1,0.03
2699.79,173.430771,291.533356,303.0336,179.056244,-85.199168,7.780881,68.712479,27.093914,68.337135,71.828625,-67.813107,-39.056413,1,0.03
2716.247,174.783691,291.056824,303.267548,177.722742,-85.434195,9.153459,68.44359,27.098784,68.337135,71.41111,-67.813107,-39.023411,1,0.03
2725.062,175.383484,290.820099,303.348267,177.448123,-85.520425,9.421603,68.32453,27.101534,68.337135,71.257329,-67.813107,-38.990466,1,0.03
2747.031,176.88002,290.11734,303.441956,177.803758,-85.636678,8.947137,67.97428,27.110988,68.337135,70.993653,-67.781079,-38.847684,1,0.03
2762.348,178.071869,289.494934,303.295288,178.602232,-85.600238,7.984167,67.742462,27.136141,68.337135,70.982653,-67.68952,-38.770736,1,0.03
2778.107,178.965073,289.07428,302.970886,179.445225,-85.476422,7.044631,67.614463,27.164789,68.337135,70.982653,-67.588794,-38.704846,1,0.03
2793.144,179.905792,288.667603,302.478485,-178.250837,-85.312785,4.648521,67.428595,27.225121,68.337135,70.982653,-67.419428,-38.474116,1,0.03
2808.687,180.748703,288.370087,301.82196,-175.046055,-85.085264,1.39584,67.262151,27.30608,68.337135,70.982653,-67.199699,-38.13355,1,0.03
2823.934,181.748016,288.020752,300.958862,-171.512223,-84.801363,-2.208122,67.066257,27.41901,68.337135,70.982653,-66.957108,-37.705092,1,0.03
2839.073,182.33226,287.941864,300.299713,-169.747341,-84.55459,-3.902817,66.911043,27.530106,68.337135,70.905762,-66.595457,-37.353525,1,0.03
2854.569,183.158752,287.915314,299.156342,-168.950529,-84.208123,-4.546306,66.727983,27.683888,68.337135,70.784925,-66.178917,-37.08985,1,0.03
2870.352,183.977753,287.869934,298.067871,-169.214605,-83.868817,-4.124609,66.618777,27.784672,68.337135,70.697033,-65.863046,-36.979957,1,0.03
2886.022,184.700226,287.937256,296.917816,-169.385289,-83.593912,-3.750238,66.47485,27.945386,68.337135,70.510249,-65.487644,-36.771228,1,0.03
2901.108,185.482285,287.96579,295.580505,-169.278375,-83.296776,-3.697067,66.321584,28.137957,68.337249,70.345466,-65.130634,-36.507553,1,0.03
2916.327,186.081268,288.055511,294.428955,-167.626366,-83.12105,-5.215406,66.208997,28.327148,68.337708,70.125737,-64.933765,-36.057151,1,0.03
2931.604,186.786743,288.090576,293.105408,-165.400024,-82.892554,-7.34297,66.076587,28.543038,68.337822,69.917008,-64.732371,-35.496855,1,0.03
2946.984,187.205872,288.086792,292.180603,-164.020227,-82.740033,-8.712167,65.979585,28.777779,68.338051,69.796172,-64.622477,-35.035395,1,0.03
2962.376,187.707504,288.166718,290.702637,-163.263693,-82.582412,-9.435125,65.893699,28.99854,68.338682,69.664334,-64.54467,-34.650883,1,0.03
2977.497,188.268265,288.092926,289.373474,-162.577347,-82.403707,-10.172121,65.816006,29.166932,68.338682,69.631332,-64.485197,-34.398209,1,0.02
2992.494,188.89743,288.030365,287.784454,-162.954583,-82.221392,-9.826054,65.70405,29.425795,68.338682,69.565442,-64.375303,-34.156478,1,0.02
3006.904,189.311386,288.074829,286.363434,-162.694689,-82.073339,-10.087667,65.634607,29.664718,68.338911,69.47755,-64.311189,-33.848857,1,0.02
3022.285,189.729385,288.041595,285.178497,-162.254944,-81.93222,-10.561961,65.536975,29.926961,68.339025,69.411602,-64.228798,-33.464345,1,0.02
3037.289,190.279205,287.966919,283.671143,-161.39969,-81.701891,-11.474511,65.46421,30.107271,68.339025,69.378657,-64.169325,-33.156724,1,0.02
3054.443,190.851562,287.894745,282.042664,-160.964357,-81.536764,-11.974761,65.342743,30.445201,68.339885,69.268821,-64.118962,-32.728266,1,0.02
3069.288,191.358139,287.869263,280.549591,-161.135671,-81.423491,-11.818057,65.277253,30.638918,68.340229,69.191873,-64.086934,-32.519537,1,0.02
3084.031,191.886093,287.848907,278.961517,-161.357176,-81.294346,-11.599416,65.184434,30.908036,68.340916,69.071036,-64.02282,-32.244861,1,0.02
3100.629,192.388397,287.886322,277.5271,-160.978967,-81.154258,-11.914314,65.093334,31.152517,68.34189,68.884252,-63.926677,-31.882351,1,0.02
3116.064,192.930161,287.956879,276.144806,-160.602018,-81.046828,-12.172145,64.993353,31.39442,68.344411,68.620634,-63.821425,-31.508783,1,0.02
3133.236,193.311111,288.124664,275.082855,-160.138552,-80.978474,-12.455014,64.922478,31.586247,68.348708,68.323957,-63.716115,-31.168217,1,0.02
3138.647,193.476395,288.278931,274.435852,-160.062406,-80.970281,-12.401385,64.893372,31.707656,68.352089,68.126229,-63.670336,-30.992433,1,0.02
3144.649,193.55162,288.349762,274.210266,-159.967009,-80.967302,-12.436966,64.880079,31.752805,68.356501,68.038337,-63.647475,-30.915542,1,0.02
3161.97,193.912064,288.563599,273.531799,-159.56909,-81.003627,-12.630797,64.816366,31.904983,68.379877,67.697771,-63.597112,-30.651867,1,0.02
3177.307,194.283936,288.814575,272.713654,-159.14258,-81.033937,-12.839984,64.75208,32.085121,68.407895,67.335203,-63.546749,-30.355247,1,0.02
3193.125,194.682999,288.974091,272.291809,-158.417445,-81.067627,-13.416093,64.683325,32.204124,68.448231,67.049584,-63.519304,-30.102515,1,0.02
3208.32,195.064392,289.21463,271.671906,-158.468839,-81.115927,-13.193442,64.621675,32.362547,68.502146,66.763907,-63.473525,-29.948733,1,0.02
3222.765,195.467422,289.423706,271.517242,-158.409767,-81.188005,-13.178774,64.564895,32.468773,68.599091,66.599124,-63.468941,-29.904787,1,0.02
3238.041,195.8237,289.577637,271.368561,-158.392349,-81.224732,-13.142391,64.492932,32.597001,68.705833,66.445285,-63.432329,-29.871842,1,0.02
3253.053,196.429626,289.723999,271.208557,-158.558679,-81.290163,-12.930798,64.420338,32.674351,68.798996,66.324448,-63.418578,-29.871842,1,0.02
3268.607,197.067902,289.908539,271.368866,-158.476746,-81.437757,-12.914182,64.321846,32.756742,68.92688,66.082775,-63.418578,-29.871842,1,0.02
3283.518,197.768707,290.004608,271.530853,-158.31202,-81.56524,-13.010726,64.209031,32.830539,69.046456,65.863046,-63.413995,-29.860841,1,0.02
3299.524,198.430466,290.071747,271.85672,-158.176115,-81.72458,-13.028545,64.095757,32.862854,69.14025,65.58837,-63.400244,-29.860841,1,0.02
3316.249,199.234818,289.973694,272.220734,-157.922466,-81.830978,-13.234351,63.952289,32.876719,69.22923,65.379641,-63.363632,-29.860841,1,0.02
3329.96,199.812042,289.851288,272.511566,-157.658447,-81.905291,-13.496422,63.818274,32.878667,69.306808,65.214858,-63.354464,-29.860841,1,0.02
3345.14,200.563461,289.690399,272.926025,-157.222713,-82.004814,-13.945162,63.715886,32.879126,69.37012,65.115966,-63.354464,-29.860841,1,0.02
3360.947,201.392929,289.443817,273.317108,-156.763373,-82.081132,-14.457272,63.567204,32.87924,69.450506,65.00613,-63.349938,-29.860841,1,0.02
3377.829,202.309357,289.217773,273.769684,-156.259571,-82.161174,-14.989779,63.40351,32.8801,69.547393,64.863291,-63.322436,-29.860841,1,0.02
3392.739,203.080322,289.022125,274.099152,-155.937225,-82.202369,-15.322152,63.263364,32.880787,69.623196,64.742455,-63.267489,-29.860841,1,0.02
3408.292,204.031357,288.688141,274.39389,-155.755253,-82.266541,-15.519822,63.083742,32.880787,69.684216,64.577615,-63.2126,-29.860841,1,0.02
3423.617,204.748901,288.508301,274.666412,-155.634589,-82.332603,-15.600896,62.94881,32.880787,69.739678,64.401831,-63.15307,-29.860841,1,0.02
3439.141,205.346252,288.339783,274.8479,-155.633786,-82.382393,-15.560846,62.782481,32.881188,69.790442,64.215104,-63.061511,-29.860841,1,0.02
3454.589,206.103302,288.113953,274.989929,-155.731075,-82.362454,-15.420643,62.659409,32.881991,69.836565,64.061265,-62.915063,-29.860841,1,0.06
3470.202,206.695038,288.022888,275.144196,-155.830712,-82.346125,-15.233745,62.52866,32.883079,69.888647,63.929428,-62.75939,-29.860841,1,0.06
3486.055,207.425262,287.810852,275.198364,-156.099315,-82.267859,-14.896845,62.426617,32.883308,69.914774,63.819592,-62.599191,-29.860841,1,0.06
3502.142,207.988083,287.820374,275.368256,-155.92525,-82.243852,-14.894152,62.315348,32.883423,69.965538,63.577861,-62.41149,-29.794894,1,0.06
3505.726,208.182465,287.819611,275.433533,-155.900899,-82.231533,-14.869859,62.277877,32.883423,69.986565,63.511971,-62.347434,-29.78395,1,0.06
3515.723,208.709763,287.807465,275.624603,-155.720475,-82.214573,-14.924577,62.176578,32.883824,70.041569,63.325186,-62.196345,-29.740005,1,0.06
3531.392,209.263596,287.83609,275.889313,-155.477885,-82.223512,-15.019859,62.045714,32.885256,70.133758,63.039567,-62.00406,-29.696059,1,0.06
3541.681,209.712418,287.955872,276.216248,-155.372976,-82.255655,-14.975856,61.99346,32.886345,70.1922,62.907729,-61.921669,-29.696059,1,0.06
3561.077,210.530334,288.017883,276.794983,-155.068048,-82.375918,-15.104256,61.848731,32.888121,70.317334,62.589107,-61.802666,-29.696059,1,0.06
3575.902,211.287888,288.000427,277.331451,-154.614609,-82.472806,-15.470433,61.717238,32.88921,70.433473,62.369378,-61.729442,-29.696059,1,0.06
3592.149,211.820007,288.053009,277.741516,-154.368925,-82.570495,-15.597515,61.624304,32.891215,70.519359,62.149649,-61.665328,-29.696059,1,0.06
3607.819,212.509186,287.898468,278.066376,-154.147992,-82.62653,-15.786019,61.497967,32.891845,70.590979,61.995867,-61.601271,-29.696059,1,0.06
3623.715,213.191711,287.652191,278.244568,-154.103244,-82.623837,-15.832715,61.367733,32.892189,70.640138,61.896974,-61.509712,-29.696059,1,0.06
3638.52,213.624649,287.518097,278.308502,-154.185063,-82.577198,-15.732791,61.260991,32.895169,70.683397,61.831027,-61.363207,-29.696059,1,0.06
3652.505,214.150879,287.302307,278.226807,-154.449941,-82.454929,-15.474788,61.179345,32.904049,70.703164,61.831027,-61.230453,-29.696059,1,0.06
3668.503,214.807114,286.954803,277.963776,-155.023128,-82.265968,-14.915982,61.042121,32.919118,70.712961,61.831027,-60.992446,-29.696059,1,0.06
3683.505,215.210938,286.8302,277.776855,-155.195588,-82.111842,-14.652593,60.952568,32.92714,70.71743,61.743135,-60.768133,-29.630111,1,0.06
3699.504,215.662186,286.72818,277.575958,-155.273912,-82.000631,-14.445183,60.853847,32.946792,70.722702,61.578353,-60.562155,-29.531276,1,0.06
3715.003,216.192749,286.538666,277.315674,-155.532946,-81.865814,-14.110461,60.740688,32.97269,70.730551,61.468517,-60.351593,-29.465329,1,0.06
3729.185,216.516754,286.49823,277.161346,-155.611842,-81.790413,-13.935193,60.67222,32.995436,70.743958,61.34768,-60.205087,-29.399438,1,0.06
3744.686,216.856781,286.547516,276.94754,-155.758405,-81.6894,-13.64287,60.602434,33.03434,70.77358,61.193841,-60.008219,-29.32249,1,0.06
3761.91,217.23558,286.540039,276.739288,-155.819883,-81.640355,-13.5257,60.533908,33.090948,70.816208,61.094948,-59.90755,-29.267601,1,0.06
3777.367,217.625961,286.508362,276.630493,-155.832087,-81.643621,-13.51172,60.469278,33.14727,70.87104,61.029058,-59.875465,-29.245599,1,0.06
3792.847,217.940506,286.552734,276.58493,-155.873913,-81.653361,-13.456659,60.422181,33.199696,70.936186,60.974111,-59.843436,-29.245599,1,0.06
3807.897,218.343338,286.575867,276.486206,-155.845838,-81.608212,-13.472472,60.358124,33.259341,71.011243,60.930165,-59.761045,-29.223655,1,0.06
3823.225,218.673447,286.732605,276.483276,-155.733252,-81.610962,-13.52994,60.313319,33.322939,71.104521,60.842274,-59.701515,-29.201653,1,0.06
3839.655,219.002777,286.984375,276.603027,-155.300497,-81.649064,-13.898352,60.276822,33.393585,71.227248,60.732438,-59.67407,-29.157708,1,0.06
3852.957,219.31221,287.158081,276.638489,-155.102941,-81.684587,-14.072932,60.241642,33.46423,71.331584,60.66649,-59.664903,-29.146707,1,0.06
3868.837,219.665314,287.407684,276.824951,-154.633402,-81.693468,-14.54843,60.209384,33.537855,71.484277,60.655489,-59.642042,-29.146707,1,0.06
3884.981,219.942368,287.671417,276.814178,-154.443352,-81.654966,-14.724442,60.186753,33.622367,71.617031,60.655489,-59.577928,-29.146707,1,0.06
3901.711,220.203735,288.049042,276.777191,-154.368008,-81.650554,-14.72639,60.170137,33.725041,71.763594,60.589599,-59.509287,-29.146707,1,0.08
3914.757,220.537155,288.439117,276.832703,-154.179562,-81.730825,-14.839435,60.145213,33.837455,71.92597,60.468762,-59.504704,-29.146707,1,0.08
3929.686,220.848801,288.696716,276.902283,-153.927919,-81.768354,-15.067587,60.117425,33.922024,72.059871,60.413816,-59.495536,-29.146707,1,0.08
3947.048,221.196579,289.021606,276.67688,-153.938691,-81.765718,-15.040772,60.085855,34.102792,72.257312,60.380871,-59.454341,-29.146707,1,0.08
3961.481,221.505127,289.445953,276.490723,-153.770871,-81.758499,-15.207274,60.07938,34.218587,72.400895,60.380871,-59.445173,-29.146707,1,0.08
3976.682,221.777191,289.785736,276.263062,-153.724519,-81.743545,-15.253053,60.06689,34.355924,72.55227,60.380871,-59.422312,-29.146707,1,0.08
3992.258,222.12236,290.013519,275.710266,-154.043198,-81.691177,-14.947323,60.034002,34.521452,72.674654,60.380871,-59.376533,-29.135763,1,0.08
4006.489,222.440933,290.15152,275.390991,-153.855726,-81.647918,-15.164302,59.999739,34.63845,72.774865,60.380871,-59.358198,-29.080817,1,0.08
4021.687,222.623825,290.257507,274.995331,-153.98321,-81.601108,-15.046617,59.97556,34.768454,72.845969,60.380871,-59.307893,-29.036871,1,0.08
4038.992,222.808273,290.349152,274.446228,-154.268543,-81.537681,-14.77979,59.958658,34.877832,72.894384,60.402815,-59.298725,-29.003926,1,0.08
4053.428,222.922211,290.422852,274.011902,-154.049272,-81.46589,-15.041746,59.954361,34.947847,72.924636,60.424817,-59.298725,-28.926977,1,0.08
4070.56,222.988678,290.439697,273.697235,-154.195548,-81.415011,-14.894554,59.94187,35.008466,72.932428,60.424817,-59.262056,-28.894032,1,0.08
4085.536,223.027618,290.438354,273.388,-154.442378,-81.380748,-14.659011,59.938891,35.04462,72.932543,60.43576,-59.252946,-28.883032,1,0.08
4100.673,223.041168,290.407043,273.19046,-154.488673,-81.336573,-14.658495,59.938662,35.071893,72.932829,60.490707,-59.252946,-28.872088,1,0.08
4115.779,223.046631,290.39444,273.121918,-154.456931,-81.316577,-14.708915,59.938547,35.081346,72.933287,60.512708,-59.252946,-28.861087,1,0.08
4130.967,223.047241,290.395477,273.117798,-154.460426,-81.316405,-14.70542,59.938318,35.08232,72.933746,60.512708,-59.252946,-28.861087,1,0.08
4146.884,223.049362,290.394989,273.117828,-154.459739,-81.316462,-14.706452,59.938089,35.082435,72.934032,60.523652,-59.252946,-28.861087,1,0.08
4161.548,223.053146,290.36972,273.103699,-154.420663,-81.297153,-14.77131,59.938089,35.082435,72.934376,60.545653,-59.252946,-28.861087,1,0.08
4176.619,223.058578,290.327057,273.078369,-154.358612,-81.264953,-14.876276,59.937974,35.082435,72.93472,60.6006,-59.252946,-28.861087,1,0.08
4191.94,223.061447,290.301636,273.061371,-154.323604,-81.24553,-14.936952,59.937974,35.082664,72.934834,60.633545,-59.252946,-28.861087,1,0.08
4207.434,223.063339,290.284637,273.047882,-154.302691,-81.232524,-14.974997,59.937974,35.083065,72.934834,60.655489,-59.252946,-28.861087,1,0.08
4222.721,223.064804,290.275696,273.04184,-154.291575,-81.225992,-14.994764,59.93786,35.08318,72.934834,60.66649,-59.252946,-28.861087,1,0.08
4238.134,223.065826,290.267334,273.036957,-154.279085,-81.219575,-15.015791,59.93786,35.08318,72.934949,60.677491,-59.252946,-28.861087,1,0.08
4252.738,223.067703,290.250397,273.026733,-154.254906,-81.206683,-15.057102,59.93786,35.08318,72.935064,60.699435,-59.252946,-28.861087,1,0.08
4269.712,223.070892,290.224213,273.010651,-154.219841,-81.18726,-15.11795,59.937802,35.08318,72.935064,60.732438,-59.252946,-28.861087,1,0.08
4285.784,223.071884,290.215881,273.005768,-154.207523,-81.180843,-15.138863,59.937802,35.08318,72.935178,60.743381,-59.252946,-28.861087,1,0.08
4300.541,223.072784,290.207336,272.999695,-154.196579,-81.174311,-15.158343,59.937802,35.083294,72.935178,60.754382,-59.252946,-28.861087,1,0.08
4316.064,223.073654,290.198761,272.994324,-154.185005,-81.167837,-15.178511,59.937802,35.083294,72.935178,60.765383,-59.252946,-28.861087,1,0.08
4330.666,223.075638,290.182037,272.984558,-154.16054,-81.154945,-15.220108,59.937802,35.083294,72.93535,60.787327,-59.252946,-28.861087,1,0.08
4347.359,223.075775,290.182281,272.985046,-154.159852,-81.155003,-15.220796,59.937802,35.083294,72.935465,60.787327,-59.252946,-28.861087,1,0.08
4361.089,223.075775,290.182281,272.985046,-154.159852,-81.155003,-15.220796,59.937802,35.083294,72.935465,60.787327,-59.252946,-28.861087,1,0.1
4375.727,223.075897,290.182495,272.985504,-154.159108,-81.155003,-15.221483,59.937802,35.083294,72.935579,60.787327,-59.252946,-28.861087,1,0.1
4391.241,223.077316,290.173492,272.980133,-154.147591,-81.148528,-15.241651,59.937688,35.083294,72.935579,60.798328,-59.252946,-28.861087,1,0.1
4407.696,223.078171,290.164917,272.974792,-154.136132,-81.142054,-15.261705,59.937688,35.083294,72.935579,60.809329,-59.252946,-28.861087,0,0.1
4422.489,223.078171,290.164917,272.974792,-154.136132,-81.142054,-15.261705,59.937688,35.083294,72.935579,60.809329,-59.252946,-28.861087,0,0.1
4438.103,223.078171,290.164917,272.974792,-154.136132,-81.142054,-15.261705,59.937688,35.083294,72.935579,60.809329,-59.252946,-28.861087,0,0.1
4456.156,223.078171,290.164917,272.974792,-154.136132,-81.142054,-15.261705,59.937688,35.083294,72.935579,60.809329,-59.252946,-28.861087,0,0.1
4460.655,223.078171,290.164917,272.974792,-154.136132,-81.142054,-15.261705,59.937688,35.083294,72.935579,60.809329,-59.252946,-28.861087,0,0.1
4470.143,223.079041,290.156342,272.969421,-154.124616,-81.135579,-15.281758,59.937688,35.083294,72.935579,60.831273,-59.252946,-28.861087,0,0.1
4484.052,223.08075,290.139191,272.958679,-154.101755,-81.12263,-15.321751,59.937688,35.083294,72.935579,60.842274,-59.252946,-28.861087,0,0.1
4500.065,223.081604,290.130585,272.953308,-154.090353,-81.116156,-15.341747,59.937688,35.083294,72.935579,60.853274,-59.252946,-28.861087,0,0.1
4515.165,223.082458,290.122009,272.947937,-154.078951,-81.109682,-15.361686,59.937688,35.083294,72.935579,60.864275,-59.252946,-28.861087,0,0.1
4530.12,223.083298,290.113434,272.942596,-154.067606,-81.103207,-15.381568,59.937688,35.083294,72.935579,60.875219,-59.252946,-28.861087,0,0.1
4545.287,223.083862,290.113007,272.942596,-154.067606,-81.103207,-15.381682,59.937573,35.083294,72.935579,60.875219,-59.252946,-28.861087,0,0.1
4561.009,223.084839,290.104675,272.937683,-154.055574,-81.096733,-15.402309,59.937573,35.083294,72.935694,60.88622,-59.252946,-28.861087,0,0.1
4577.351,223.088211,290.070343,272.916199,-154.010425,-81.070835,-15.481663,59.937573,35.083294,72.935694,60.930165,-59.252946,-28.861087,0,0.1
4592.51,223.092377,290.027466,272.889343,-153.954562,-81.038406,-15.580384,59.937573,35.083294,72.935694,60.985112,-59.252946,-28.861087,0,0.1
4607.576,223.094864,290.00174,272.873199,-153.921273,-81.018982,-15.639341,59.937573,35.083294,72.935694,61.018057,-59.252946,-28.861087,0,0.1
4622.634,223.095688,289.993134,272.867828,-153.910215,-81.012508,-15.658937,59.937573,35.083294,72.935694,61.040059,-59.252946,-28.861087,0,0.1
4638.623,223.098145,289.967407,272.851715,-153.877212,-80.993027,-15.717607,59.937573,35.083294,72.935808,61.062003,-59.252946,-28.861087,0,0.1
4654.73,223.100037,289.950714,272.841888,-153.85395,-80.980079,-15.758001,59.937573,35.083294,72.935923,61.105949,-59.252946,-28.861087,0,0.1
4670.406,223.103271,289.916412,272.820374,-153.810463,-80.954124,-15.835751,59.937573,35.083294,72.935923,61.138894,-59.252946,-28.861087,0,0.1
4685.122,223.106476,289.882111,272.798828,-153.767262,-80.928169,-15.913215,59.937573,35.083294,72.935923,61.171896,-59.252946,-28.861087,0,0.1
4700.157,223.108871,289.856415,272.782684,-153.735119,-80.908688,-15.971027,59.937573,35.083294,72.935923,61.204841,-59.252946,-28.861087,0,0.1
4716.162,223.109787,289.848053,272.777771,-153.723774,-80.902214,-15.990966,59.937573,35.083294,72.936038,61.215842,-59.252946,-28.861087,0,0.1
4730.66,223.109787,289.848053,272.777771,-153.723774,-80.902214,-15.990966,59.937573,35.083294,72.936038,61.215842,-59.252946,-28.861087,0,0.1
4745.608,223.11058,289.839478,272.772369,-153.713117,-80.895739,-16.01016,59.937573,35.083294,72.936038,61.226786,-59.252946,-28.861087,0,0.1
4760.442,223.11058,289.839478,272.7724,-153.774653,-80.900552,-15.947879,59.937573,35.083294,72.936038,61.226786,-59.252946,-28.872088,0,0.1
4777.622,223.11058,289.839478,272.7724,-153.774653,-80.900552,-15.947879,59.937573,35.083294,72.936038,61.226786,-59.252946,-28.872088,0,0.1
4792.705,223.111374,289.830902,272.767059,-153.825474,-80.898948,-15.904793,59.937573,35.083294,72.936038,61.237786,-59.252946,-28.883032,0,0.1
4808.427,223.112167,289.822327,272.761658,-153.81476,-80.892416,-15.924101,59.937573,35.083294,72.936038,61.248787,-59.252946,-28.883032,0,0.1
4823.26,223.112167,289.822357,272.761688,-153.876296,-80.897286,-15.861764,59.937573,35.083294,72.936038,61.248787,-59.252946,-28.894032,0,0.07
4838.456,223.112167,289.822357,272.761719,-153.937889,-80.902099,-15.799368,59.937573,35.083294,72.936038,61.248787,-59.252946,-28.905033,0,0.07
4854.052,223.112167,289.822357,272.761749,-153.999539,-80.906912,-15.736916,59.937573,35.083294,72.936038,61.248787,-59.252946,-28.916034,0,0.07
4870.388,223.112183,289.822357,272.76178,-154.061304,-80.911725,-15.674406,59.937573,35.083294,72.936038,61.248787,-59.252946,-28.926977,0,0.07
4885.702,223.112183,289.822357,272.76181,-154.123069,-80.916538,-15.611839,59.937573,35.083294,72.936038,61.248787,-59.252946,-28.937978,0,0.07
4901.204,223.112183,289.822357,272.76181,-154.123069,-80.916538,-15.611839,59.937573,35.083294,72.936038,61.248787,-59.252946,-28.937978,0,0.07
4915.958,223.112183,289.822357,272.76181,-154.123069,-80.916538,-15.611839,59.937573,35.083294,72.936038,61.248787,-59.252946,-28.937978,0,0.07
4931.036,223.112183,289.822357,272.761841,-154.184948,-80.92135,-15.549158,59.937573,35.083294,72.936038,61.248787,-59.252946,-28.948979,0,0.07
4947.119,223.112183,289.822357,272.761841,-154.184948,-80.92135,-15.549158,59.937573,35.083294,72.936038,61.248787,-59.252946,-28.948979,0,0.07
4961.681,223.112183,289.822357,272.761841,-154.184948,-80.92135,-15.549158,59.937573,35.083294,72.936038,61.248787,-59.252946,-28.948979,0,0.07
4976.699,223.112183,289.822357,272.761841,-154.184948,-80.92135,-15.549158,59.937573,35.083294,72.936038,61.248787,-59.252946,-28.948979,0,0.07
4991.533,223.112183,289.822357,272.761841,-154.184948,-80.92135,-15.549158,59.937573,35.083294,72.936038,61.248787,-59.252946,-28.948979,0,0.07
5006.447,223.112183,289.822357,272.761871,-154.246885,-80.926106,-15.486419,59.937573,35.083294,72.936038,61.248787,-59.252946,-28.95998,0,0.07
5022.002,223.112183,289.822357,272.761871,-154.246885,-80.926106,-15.486419,59.937573,35.083294,72.936038,61.248787,-59.252946,-28.95998,0,0.07
5037.507,223.112183,289.822357,272.761871,-154.246885,-80.926106,-15.486419,59.937573,35.083294,72.936038,61.248787,-59.252946,-28.95998,0,0.07
5054.666,223.112198,289.822357,272.761902,-154.308879,-80.930862,-15.42368,59.937573,35.083294,72.936038,61.248787,-59.252946,-28.970923,0,0.07
5070.472,223.112198,289.822357,272.761932,-154.370987,-80.935617,-15.360827,59.937573,35.083294,72.936038,61.248787,-59.252946,-28.981924,0,0.07
5085.427,223.112198,289.822357,272.761932,-154.370987,-80.935617,-15.360827,59.937573,35.083294,72.936038,61.248787,-59.252946,-28.981924,0,0.07
5100.676,223.112198,289.822357,272.761932,-154.370987,-80.935617,-15.360827,59.937573,35.083294,72.936038,61.248787,-59.252946,-28.981924,0,0.07
5116.207,223.112198,289.822357,272.761932,-154.370987,-80.935617,-15.360827,59.937573,35.083294,72.936038,61.248787,-59.252946,-28.981924,0,0.07
5131.134,223.112198,289.822357,272.761932,-154.370987,-80.935617,-15.360827,59.937573,35.083294,72.936038,61.248787,-59.252946,-28.981924,0,0.07
5147.803,223.112198,289.822357,272.761932,-154.370987,-80.935617,-15.360827,59.937573,35.083294,72.936038,61.248787,-59.252946,-28.981924,0,0.07
5162.19,223.112198,289.822357,272.761932,-154.370987,-80.935617,-15.360827,59.937573,35.083294,72.936038,61.248787,-59.252946,-28.981924,0,0.07
5176.972,223.112198,289.822357,272.761963,-154.433096,-80.940373,-15.297916,59.937573,35.083294,72.936038,61.248787,-59.252946,-28.992925,0,0.07
5191.956,223.112213,289.822357,272.761993,-154.495262,-80.945071,-15.234948,59.937573,35.083294,72.936038,61.248787,-59.252946,-29.003926,0,0.07
5207.515,223.112213,289.822357,272.761993,-154.495262,-80.945071,-15.234948,59.937573,35.083294,72.936038,61.248787,-59.252946,-29.003926,0,0.07
5222.518,223.112213,289.822357,272.761993,-154.495262,-80.945071,-15.234948,59.937573,35.083294,72.936038,61.248787,-59.252946,-29.003926,0,0.07
5237.049,223.112213,289.822357,272.761993,-154.495262,-80.945071,-15.234948,59.937573,35.083294,72.936038,61.248787,-59.252946,-29.003926,0,0.07
5252.787,223.112213,289.822357,272.761993,-154.495262,-80.945071,-15.234948,59.937573,35.083294,72.936038,61.248787,-59.252946,-29.003926,0,0.07
5268.828,223.112213,289.822357,272.761993,-154.495262,-80.945071,-15.234948,59.937573,35.083294,72.936038,61.248787,-59.252946,-29.003926,0,0.07
5283.859,223.112213,289.822357,272.761993,-154.495262,-80.945071,-15.234948,59.937573,35.083294,72.936038,61.248787,-59.252946,-29.003926,0,0.05
5299.486,223.112213,289.822357,272.761993,-154.495262,-80.945071,-15.234948,59.937573,35.083294,72.936038,61.248787,-59.252946,-29.003926,0,0.05
5314.961,223.112213,289.822357,272.762024,-154.557542,-80.949826,-15.171865,59.937573,35.083294,72.936038,61.248787,-59.252946,-29.014869,0,0.05
5330.077,223.112213,289.822357,272.762024,-154.557542,-80.949826,-15.171865,59.937573,35.083294,72.936038,61.248787,-59.252946,-29.014869,0,0.05
5346.03,223.112213,289.822357,272.762024,-154.557542,-80.949826,-15.171865,59.937573,35.083294,72.936038,61.248787,-59.252946,-29.014869,0,0.05
5361.17,223.112213,289.822357,272.762054,-154.61988,-80.954525,-15.108782,59.937573,35.083294,72.936038,61.248787,-59.252946,-29.02587,0,0.05
5376.343,223.112213,289.822357,272.762054,-154.61988,-80.954525,-15.108782,59.937573,35.083294,72.936038,61.248787,-59.252946,-29.02587,0,0.05
5391.901,223.112213,289.822357,272.762054,-154.61988,-80.954525,-15.108782,59.937573,35.083294,72.936038,61.248787,-59.252946,-29.02587,0,0.05
5407.098,223.112213,289.822357,272.762085,-154.682218,-80.959223,-15.045585,59.937573,35.083294,72.936038,61.248787,-59.252946,-29.036871,0,0.05
5422.371,223.112213,289.822357,272.762085,-154.682218,-80.959223,-15.045585,59.937573,35.083294,72.936038,61.248787,-59.252946,-29.036871,0,0.05
5437.098,223.112213,289.822357,272.762085,-154.682218,-80.959223,-15.045585,59.937573,35.083294,72.936038,61.248787,-59.252946,-29.036871,0,0.05
5452.808,223.112228,289.822357,272.762146,-154.807237,-80.968619,-14.919076,59.937573,35.083294,72.936038,61.248787,-59.252946,-29.058815,0,0.05
5470.488,223.112228,289.822357,272.762146,-154.807237,-80.968619,-14.919076,59.937573,35.083294,72.936038,61.248787,-59.252946,-29.058815,0,0.05
5485.326,223.112228,289.822388,272.762177,-154.869804,-80.97326,-14.855707,59.937573,35.083294,72.936038,61.248787,-59.252946,-29.069816,0,0.05
5500.454,223.113022,289.813812,272.756805,-154.858231,-80.966843,-14.875818,59.937573,35.083294,72.936038,61.259788,-59.252946,-29.069816,0,0.05
5516.704,223.1138,289.805237,272.751404,-154.846714,-80.960369,-14.895871,59.937573,35.083294,72.936038,61.270732,-59.252946,-29.069816,0,0.05
5531.466,223.114578,289.796661,272.746033,-154.835198,-80.953894,-14.915982,59.937573,35.083294,72.936038,61.281732,-59.252946,-29.069816,0,0.05
5547.157,223.114578,289.796661,272.746063,-154.897708,-80.958535,-14.85267,59.937573,35.083294,72.936038,61.281732,-59.252946,-29.080817,0,0.05
5561.729,223.114578,289.796661,272.746063,-154.897708,-80.958535,-14.85267,59.937573,35.083294,72.936038,61.281732,-59.252946,-29.080817,0,0.05
5576.965,223.114578,289.796661,272.746063,-154.897708,-80.958535,-14.85267,59.937573,35.083294,72.936038,61.281732,-59.252946,-29.080817,0,0.05
5593.085,223.114578,289.796661,272.746063,-154.897708,-80.958535,-14.85267,59.937573,35.083294,72.936038,61.281732,-59.252946,-29.080817,0,0.05
5608.445,223.114578,289.796661,272.746063,-154.897708,-80.958535,-14.85267,59.937573,35.083294,72.936038,61.281732,-59.252946,-29.080817,0,0.05
5623.487,223.115372,289.788086,272.740662,-154.886191,-80.952118,-14.872781,59.937573,35.083294,72.936038,61.292733,-59.252946,-29.080817,0,0.05
5638.484,223.115372,289.788086,272.740662,-154.886191,-80.952118,-14.872781,59.937573,35.083294,72.936038,61.292733,-59.252946,-29.080817,0,0.05
5654.757,223.115372,289.788086,272.740662,-154.886191,-80.952118,-14.872781,59.937573,35.083294,72.936038,61.292733,-59.252946,-29.080817,0,0.05
5670.487,223.115372,289.788086,272.740662,-154.886191,-80.952118,-14.872781,59.937573,35.083294,72.936038,61.292733,-59.252946,-29.080817,0,0.05
5685.039,223.115372,289.788086,272.740662,-154.886191,-80.952118,-14.872781,59.937573,35.083294,72.936038,61.292733,-59.252946,-29.080817,0,0.05
5699.569,223.115372,289.788086,272.740662,-154.886191,-80.952118,-14.872781,59.937573,35.083294,72.936038,61.292733,-59.252946,-29.080817,0,0.05
5714.576,223.116135,289.77951,272.73526,-154.874675,-80.945644,-14.892835,59.937573,35.083294,72.936038,61.303734,-59.252946,-29.080817,0,0.05
5730.456,223.116913,289.770935,272.729889,-154.863158,-80.939169,-14.912888,59.937573,35.083294,72.936038,61.314677,-59.252946,-29.080817,0,0.05
5745.866,223.116913,289.770935,272.729889,-154.863158,-80.939169,-14.912888,59.937573,35.083294,72.936038,61.314677,-59.252946,-29.080817,0,0.11
5762.417,223.116913,289.770935,272.729889,-154.863158,-80.939169,-14.912888,59.937573,35.083294,72.936038,61.314677,-59.252946,-29.080817,0,0.11
5778.36,223.116913,289.770935,272.729889,-154.863158,-80.939169,-14.912888,59.937573,35.083294,72.936038,61.314677,-59.252946,-29.080817,0,0.11
5793.38,223.116913,289.770935,272.729889,-154.863158,-80.939169,-14.912888,59.937573,35.083294,72.936038,61.314677,-59.252946,-29.080817,0,0.11
5808.224,223.116913,289.770935,272.729889,-154.863158,-80.939169,-14.912888,59.937573,35.083294,72.936038,61.314677,-59.252946,-29.080817,0,0.11
5824.095,223.117691,289.76236,272.724487,-154.851699,-80.932695,-14.932884,59.937573,35.083294,72.936038,61.325678,-59.252946,-29.080817,0,0.11
5839.632,223.117691,289.76236,272.724487,-154.851699,-80.932695,-14.932884,59.937573,35.083294,72.936038,61.325678,-59.252946,-29.080817,0,0.11
5855.14,223.117691,289.76236,272.724487,-154.851699,-80.932695,-14.932884,59.937573,35.083294,72.936038,61.325678,-59.252946,-29.080817,0,0.11
5868.793,223.117691,289.76236,272.724487,-154.851699,-80.932695,-14.932884,59.937573,35.083294,72.936038,61.325678,-59.252946,-29.080817,0,0.11
5884.291,223.117691,289.76236,272.724487,-154.851699,-80.932695,-14.932884,59.937573,35.083294,72.936038,61.325678,-59.252946,-29.080817,0,0.11
5900.23,223.118469,289.753815,272.719086,-154.84024,-80.926221,-14.952938,59.937573,35.083294,72.936038,61.336679,-59.252946,-29.080817,0,0.11
5915.73,223.118469,289.753815,272.719086,-154.84024,-80.926221,-14.952938,59.937573,35.083294,72.936038,61.336679,-59.252946,-29.080817,0,0.11
5930.941,223.118469,289.753815,272.719086,-154.84024,-80.926221,-14.952938,59.937573,35.083294,72.936038,61.336679,-59.252946,-29.080817,0,0.11
5947.074,223.118469,289.753815,272.719086,-154.84024,-80.926221,-14.952938,59.937573,35.083294,72.936038,61.336679,-59.252946,-29.080817,0,0.11
5962.878,223.118469,289.753815,272.719086,-154.84024,-80.926221,-14.952938,59.937573,35.083294,72.936038,61.336679,-59.252946,-29.080817,0,0.11
5978.21,223.118469,289.753815,272.719086,-154.84024,-80.926221,-14.952938,59.937573,35.083294,72.936038,61.336679,-59.252946,-29.080817,0,0.11
5993.642,223.118469,289.753815,272.719086,-154.84024,-80.926221,-14.952938,59.937573,35.083294,72.936038,61.336679,-59.252946,-29.080817,0,0.11
6008.331,223.118469,289.753815,272.719086,-154.84024,-80.926221,-14.952938,59.937573,35.083294,72.936038,61.336679,-59.252946,-29.080817,0,0.11
6022.881,223.118469,289.753815,272.719086,-154.84024,-80.926221,-14.952938,59.937573,35.083294,72.936038,61.336679,-59.252946,-29.080817,0,0.11
6038.132,223.118469,289.753815,272.719086,-154.84024,-80.926221,-14.952938,59.937573,35.083294,72.936038,61.336679,-59.252946,-29.080817,0,0.11
6055.037,223.118469,289.753815,272.719086,-154.84024,-80.926221,-14.952938,59.937573,35.083294,72.936038,61.336679,-59.252946,-29.080817,0,0.11
6070.115,223.118469,289.753815,272.719086,-154.84024,-80.926221,-14.952938,59.937573,35.083294,72.936038,61.336679,-59.252946,-29.080817,0,0.11
6085.888,223.118469,289.753815,272.719086,-154.84024,-80.926221,-14.952938,59.937573,35.083294,72.936038,61.336679,-59.252946,-29.080817,0,0.11
6101.641,223.119232,289.745239,272.713684,-154.828781,-80.919803,-14.972877,59.937573,35.083294,72.936038,61.34768,-59.252946,-29.080817,0,0.11
6116.489,223.119232,289.745239,272.713684,-154.828781,-80.919803,-14.972877,59.937573,35.083294,72.936038,61.34768,-59.252946,-29.080817,0,0.11
6131.881,223.119232,289.745239,272.713684,-154.828781,-80.919803,-14.972877,59.937573,35.083294,72.936038,61.34768,-59.252946,-29.080817,0,0.11
