BAEK26/lfd/data/sepisode3/jeb.csv
timestamp,x,y,z,roll,pitch,yaw,joint1,joint2,joint3,joint4,joint5,joint6,gripper,scale
126.984,223.110916,289.488617,272.491608,-158.558621,-81.010159,-11.412001,59.938089,35.081862,72.9165,61.633299,-59.243779,-29.761949,0,0.03
128.491,223.110916,289.488617,272.491608,-158.558621,-81.010159,-11.412001,59.938089,35.081862,72.9165,61.633299,-59.243779,-29.761949,0,0.03
139.983,223.110916,289.488617,272.491608,-158.558621,-81.010159,-11.412001,59.938089,35.081862,72.9165,61.633299,-59.243779,-29.761949,0,0.03
155.984,223.110916,289.488617,272.491608,-158.558621,-81.010159,-11.412001,59.938089,35.081862,72.9165,61.633299,-59.243779,-29.761949,0,0.03
170.983,223.110916,289.488617,272.491608,-158.558621,-81.010159,-11.412001,59.938089,35.081862,72.9165,61.633299,-59.243779,-29.761949,0,0.03
186.414,223.110916,289.488617,272.491608,-158.558621,-81.010159,-11.412001,59.938089,35.081862,72.9165,61.633299,-59.243779,-29.761949,0,0.03
201.735,223.110916,289.488617,272.491608,-158.558621,-81.010159,-11.412001,59.938089,35.081862,72.9165,61.633299,-59.243779,-29.761949,0,0.03
218.973,223.110916,289.488617,272.491608,-158.558621,-81.010159,-11.412001,59.938089,35.081862,72.9165,61.633299,-59.243779,-29.761949,0,0.02
234.37,223.110916,289.488617,272.491608,-158.558621,-81.010159,-11.412001,59.938089,35.081862,72.9165,61.633299,-59.243779,-29.761949,0,0.02
249.899,223.110916,289.488617,272.491608,-158.558621,-81.010159,-11.412001,59.938089,35.081862,72.9165,61.633299,-59.243779,-29.761949,0,0.02
265.352,223.110916,289.488617,272.491608,-158.558621,-81.010159,-11.412001,59.938089,35.081862,72.9165,61.633299,-59.243779,-29.761949,0,0.02
280.15,223.110916,289.488617,272.491608,-158.558621,-81.010159,-11.412001,59.938089,35.081862,72.9165,61.633299,-59.243779,-29.761949,0,0.02
295.806,223.110916,289.488617,272.491608,-158.558621,-81.010159,-11.412001,59.938089,35.081862,72.9165,61.633299,-59.243779,-29.761949,0,0.02
310.938,223.110916,289.488617,272.491608,-158.558621,-81.010159,-11.412001,59.938089,35.081862,72.9165,61.633299,-59.243779,-29.761949,0,0.02
326.358,223.110916,289.488617,272.491608,-158.558621,-81.010159,-11.412001,59.938089,35.081862,72.9165,61.633299,-59.243779,-29.761949,0,0.02
342.142,223.110916,289.488617,272.491608,-158.558621,-81.010159,-11.412001,59.938089,35.081862,72.9165,61.633299,-59.243779,-29.761949,0,0.02
355.933,223.110916,289.488617,272.491608,-158.558621,-81.010159,-11.412001,59.938089,35.081862,72.9165,61.633299,-59.243779,-29.761949,0,0.02
371.434,223.110916,289.488617,272.491608,-158.558621,-81.010159,-11.412001,59.938089,35.081862,72.9165,61.633299,-59.243779,-29.761949,0,0.02
386.793,223.110916,289.488617,272.491608,-158.558621,-81.010159,-11.412001,59.938089,35.081862,72.9165,61.633299,-59.243779,-29.761949,0,0.02
402.328,223.110916,289.488617,272.491608,-158.558621,-81.010159,-11.412001,59.938089,35.081862,72.9165,61.633299,-59.243779,-29.761949,0,0.02
417.89,223.110916,289.488617,272.491608,-158.558621,-81.010159,-11.412001,59.938089,35.081862,72.9165,61.633299,-59.243779,-29.761949,0,0.02
434.946,223.110916,289.488617,272.491608,-158.558621,-81.010159,-11.412001,59.938089,35.081862,72.9165,61.633299,-59.243779,-29.761949,0,0.02
451.021,223.110916,289.488617,272.491608,-158.558621,-81.010159,-11.412001,59.938089,35.081862,72.9165,61.633299,-59.243779,-29.761949,0,0.02
465.516,223.110916,289.488617,272.491608,-158.558621,-81.010159,-11.412001,59.938089,35.081862,72.9165,61.633299,-59.243779,-29.761949,0,0.02
480.034,223.110352,289.489044,272.491608,-158.558621,-81.010159,-11.411887,59.938204,35.081862,72.9165,61.633299,-59.243779,-29.761949,0,0.02
496.715,223.111084,289.480469,272.486206,-158.609156,-81.00781,-11.369087,59.938204,35.081862,72.9165,61.6443,-59.243779,-29.77295,0,0.02
512.072,223.111084,289.480469,272.486206,-158.609156,-81.00781,-11.369087,59.938204,35.081862,72.9165,61.6443,-59.243779,-29.77295,0,0.02
527.667,223.111084,289.480469,272.486206,-158.609156,-81.00781,-11.369087,59.938204,35.081862,72.9165,61.6443,-59.243779,-29.77295,0,0.02
543.089,223.111084,289.480469,272.486206,-158.609156,-81.00781,-11.369087,59.938204,35.081862,72.9165,61.6443,-59.243779,-29.77295,0,0.02
558.39,223.111084,289.480469,272.486206,-158.609156,-81.00781,-11.369087,59.938204,35.081862,72.9165,61.6443,-59.243779,-29.77295,0,0.02
574.1,223.111084,289.480469,272.486206,-158.609156,-81.00781,-11.369087,59.938204,35.081862,72.9165,61.6443,-59.243779,-29.77295,0,0.02
589.912,223.111084,289.480469,272.486206,-158.609156,-81.00781,-11.369087,59.938204,35.081862,72.9165,61.6443,-59.243779,-29.77295,0,0.02
605.371,223.111084,289.480469,272.486206,-158.609156,-81.00781,-11.369087,59.938204,35.081862,72.9165,61.6443,-59.243779,-29.77295,0,0.02
620.175,223.111084,289.480469,272.486206,-158.609156,-81.00781,-11.369087,59.938204,35.081862,72.9165,61.6443,-59.243779,-29.77295,0,0.02
635.442,223.111084,289.480469,272.486206,-158.609156,-81.00781,-11.369087,59.938204,35.081862,72.9165,61.6443,-59.243779,-29.77295,0,0.02
651.044,223.111084,289.480469,272.486206,-158.609156,-81.00781,-11.369087,59.938204,35.081862,72.9165,61.6443,-59.243779,-29.77295,0,0.02
666.348,223.111084,289.480469,272.486206,-158.609156,-81.00781,-11.369087,59.938204,35.081862,72.9165,61.6443,-59.243779,-29.78395,0,0.02
681.876,223.111084,289.480469,272.486237,-158.673843,-81.01182,-11.303598,59.938204,35.081862,72.9165,61.6443,-59.243779,-29.78395,0,0.07
696.768,223.111084,289.480469,272.486237,-158.673843,-81.01182,-11.303598,59.938204,35.081862,72.9165,61.6443,-59.243779,-29.78395,0,0.07
712.429,223.111084,289.480469,272.486237,-158.673843,-81.01182,-11.303598,59.938204,35.081862,72.9165,61.6443,-59.243779,-29.78395,0,0.07
727.758,223.111084,289.480469,272.486237,-158.673843,-81.01182,-11.303598,59.938204,35.081862,72.9165,61.6443,-59.243779,-29.78395,0,0.07
743.081,223.111084,289.480469,272.486237,-158.673843,-81.01182,-11.303598,59.938204,35.081862,72.9165,61.6443,-59.243779,-29.78395,0,0.07
758.341,223.111084,289.480469,272.486237,-158.673843,-81.01182,-11.303598,59.938204,35.081862,72.9165,61.6443,-59.243779,-29.78395,0,0.07
773.502,223.111084,289.480469,272.486237,-158.673843,-81.01182,-11.303598,59.938204,35.081862,72.9165,61.6443,-59.243779,-29.78395,0,0.07
789.362,223.111084,289.480469,272.486237,-158.673843,-81.01182,-11.303598,59.938204,35.081862,72.9165,61.6443,-59.243779,-29.78395,0,0.07
803.862,223.111084,289.480469,272.486237,-158.673843,-81.01182,-11.303598,59.938204,35.081862,72.9165,61.6443,-59.243779,-29.78395,0,0.07
818.586,223.111084,289.480469,272.486237,-158.673843,-81.01182,-11.303598,59.938204,35.081862,72.9165,61.6443,-59.243779,-29.78395,0,0.07
834.091,223.111801,289.471924,272.480835,-158.659691,-81.005461,-11.32623,59.938204,35.081862,72.9165,61.666244,-59.243779,-29.78395,0,0.07
851.592,223.115356,289.429077,272.453796,-158.589389,-80.973776,-11.43916,59.938204,35.081862,72.9165,61.71019,-59.243779,-29.78395,0,0.07
866.35,223.119553,289.377655,272.422028,-158.505222,-80.935789,-11.574492,59.938204,35.081633,72.9165,61.809083,-59.243779,-29.78395,0,0.07
881.931,223.127975,289.265625,272.362671,-158.31689,-80.853799,-11.873519,59.938204,35.080029,72.9165,61.918919,-59.243779,-29.78395,0,0.07
896.832,223.132584,289.149353,272.37381,-158.066393,-80.775074,-12.233795,59.938318,35.067022,72.9165,62.061757,-59.243779,-29.78395,0,0.07
912.465,223.132263,289.034119,272.497559,-157.733218,-80.70758,-12.666836,59.938318,35.037057,72.9165,62.193595,-59.243779,-29.78395,0,0.07
927.458,223.125854,288.930054,272.726807,-157.341659,-80.656816,-13.139928,59.938433,34.992022,72.9165,62.303488,-59.243779,-29.78395,0,0.07
942.824,223.115738,288.812256,273.031311,-156.867193,-80.602671,-13.703202,59.938662,34.934096,72.9165,62.424325,-59.243779,-29.78395,0,0.07
958.837,223.107727,288.753571,273.244598,-156.462054,-80.572362,-14.149365,59.938777,34.880295,72.9165,62.490215,-59.243779,-29.740005,0,0.07
974.332,223.086945,288.703094,273.722473,-155.801147,-80.566919,-14.823278,59.939006,34.79756,72.9165,62.501216,-59.243779,-29.729004,0,0.07
987.757,223.062531,288.665802,274.262299,-155.294882,-80.589092,-15.322324,59.939006,34.73253,72.916614,62.501216,-59.243779,-29.729004,0,0.07
1004.564,223.027908,288.61087,275.025543,-154.57519,-80.61923,-16.031932,59.939006,34.611234,72.916614,62.501216,-59.243779,-29.729004,0,0.07
1020.097,222.988663,288.549805,275.861023,-153.781987,-80.650513,-16.814077,59.93912,34.47848,72.916729,62.501216,-59.243779,-29.729004,0,0.07
1035.805,222.937302,288.467896,276.936859,-153.775627,-80.77221,-16.792763,59.93912,34.307567,72.916729,62.501216,-59.243779,-29.915788,0,0.07
1052.243,222.883347,288.381592,278.033508,-154.554219,-80.956988,-15.976412,59.93912,34.13333,72.916729,62.501216,-59.243779,-30.245353,0,0.07
1067.854,222.825867,288.289398,279.165619,-155.074465,-81.123146,-15.421617,59.93912,33.953364,72.916729,62.501216,-59.243779,-30.53103,0,0.07
1083.028,222.773422,288.206451,280.157715,-155.236154,-81.246332,-15.233802,59.939178,33.747386,72.916729,62.501216,-59.243779,-30.783705,0,0.07
1098.096,222.712631,288.109863,281.278137,-155.799887,-81.411172,-14.636608,59.939292,33.545132,72.916729,62.501216,-59.243779,-31.091326,0,0.07
1113.956,222.629974,287.938599,282.78833,-156.445496,-81.601852,-13.980915,59.939292,33.373474,72.916729,62.545162,-59.243779,-31.387946,0,0.07
1129.035,222.561371,287.753326,284.016266,-157.26918,-81.748358,-13.18479,59.939407,33.170819,72.916729,62.633053,-59.243779,-31.750514,0,0.07
1144.341,222.473633,287.527649,285.527527,-157.651457,-81.891654,-12.836833,59.939521,32.921868,72.916729,62.731946,-59.243779,-32.09108,0,0.04
1160.009,222.384125,287.274841,286.999359,-157.732989,-81.996334,-12.817524,59.93998,32.676184,72.916729,62.863783,-59.243779,-32.3877,0,0.04
1173.452,222.307846,287.078461,288.215332,-157.746969,-82.089382,-12.840443,59.940209,32.474789,72.916729,62.951675,-59.243779,-32.61843,0,0.04
1188.951,222.214279,286.839203,289.6409,-157.702279,-82.191426,-12.933777,59.940725,32.237929,72.916729,63.061511,-59.243779,-32.882105,0,0.04
1204.64,222.099594,286.609314,291.327789,-157.092823,-82.316789,-13.552113,59.941068,31.963711,72.916729,63.116458,-59.243779,-33.090834,0,0.04
1219.952,221.997986,286.416443,292.782806,-157.006593,-82.457106,-13.632213,59.941183,31.728283,72.916729,63.149403,-59.243779,-33.332507,0,0.04
1235.451,221.875885,286.192383,294.461334,-156.961272,-82.624639,-13.666648,59.941527,31.45693,72.916729,63.182348,-59.243779,-33.618184,0,0.04
1251.055,221.752197,285.987854,296.080597,-157.355066,-82.819903,-13.244321,59.942157,31.19675,72.916729,63.193349,-59.243779,-33.947749,0,0.04
1267.253,221.614868,285.77652,297.741821,-157.469142,-83.004396,-13.102685,59.944162,30.929694,72.916729,63.204349,-59.243779,-34.24437,0,0.04
1281.994,221.512589,285.631836,298.914032,-158.160759,-83.16809,-12.381733,59.947314,30.681603,72.916729,63.204349,-59.243779,-34.617938,0,0.04
1298.597,221.337173,285.45108,300.52771,-158.393266,-83.356994,-12.108661,59.958887,30.429846,72.916729,63.204349,-59.243779,-34.892557,0,0.04
1313.903,221.119461,285.327179,301.845337,-158.501899,-83.490952,-11.976823,59.976993,30.268558,72.916729,63.237295,-59.243779,-35.06834,0,0.04
1328.858,220.812775,285.221191,303.24649,-158.046454,-83.592422,-12.418574,60.014923,30.037484,72.916729,63.303242,-59.243779,-35.266125,0,0.04
1344.201,220.457199,285.129089,304.516357,-157.430353,-83.644504,-13.051119,60.064541,29.822396,72.916729,63.424079,-59.243779,-35.441909,0,0.04
1359.859,219.960983,285.0914,305.593658,-157.06303,-83.630467,-13.481812,60.145729,29.628049,72.916729,63.654809,-59.243779,-35.650637,0,0.04
1374.074,219.517227,285.102997,306.442719,-157.701018,-83.664902,-12.873158,60.246913,29.433701,72.916729,63.907483,-59.243779,-36.013205,0,0.04
1389.081,218.848068,285.168915,307.202789,-159.03389,-83.634535,-11.633908,60.341222,29.321402,72.916729,64.171158,-59.243779,-36.320826,0,0.04
1404.682,218.178406,285.179108,308.232574,-160.664184,-83.646166,-10.087094,60.457131,29.124763,72.916729,64.500724,-59.243779,-36.79323,0,0.04
1420.187,217.359711,285.362885,308.888885,-162.176907,-83.596147,-8.642553,60.609366,28.985878,72.916729,64.852291,-59.243779,-37.199686,0,0.04
1437.027,216.554916,285.485992,309.626068,-163.548396,-83.528308,-7.364456,60.756903,28.830549,72.916729,65.236803,-59.243779,-37.6172,0,0.04
1451.484,215.617142,285.716003,310.036896,-165.072349,-83.388392,-5.95687,60.93664,28.720369,72.916729,65.698263,-59.243779,-38.034657,0,0.04
1468.175,214.58316,286.012177,310.44809,-167.53263,-83.269446,-3.585341,61.135055,28.609731,72.916729,66.159666,-59.243779,-38.573008,0,0.04
1484.115,213.502029,286.272797,310.709137,-169.233226,-83.046222,-2.048267,61.3447,28.511526,72.916729,66.741963,-59.243779,-39.056413,0,0.04
1498.602,212.692352,286.472656,310.892548,-170.225188,-82.871756,-1.174162,61.5532,28.422717,72.916729,67.313259,-59.243779,-39.506815,0,0.04
1513.772,211.577728,286.772461,310.924011,-171.15739,-82.584532,-0.422671,61.720217,28.375391,72.916729,67.785663,-59.243779,-39.77049,0,0.04
1529.8,210.343475,287.20932,310.982666,-171.7606,-82.32991,0.07374,61.961891,28.312996,72.916729,68.323957,-59.243779,-40.089112,0,0.04
1544.42,209.203598,287.601807,310.868591,-172.089077,-82.04578,0.267457,62.187006,28.277358,72.916729,68.873308,-59.243779,-40.352787,0,0.04
1559.701,207.959747,288.117371,310.789673,-171.765642,-81.790069,-0.125077,62.431888,28.24321,72.916729,69.345712,-59.243779,-40.495626,0,0.04
1574.719,206.762177,288.627899,310.558319,-171.4017,-81.51694,-0.56889,62.669551,28.233756,72.916729,69.818116,-59.243779,-40.605462,0,0.04
1590.328,205.704849,289.16156,310.403992,-171.178762,-81.343735,-0.781801,62.942336,28.22837,72.916729,70.202628,-59.243779,-40.693353,0,0.04
1604.905,204.390366,289.842804,310.204224,-170.897783,-81.141252,-1.032585,63.138975,28.227167,72.916729,70.455302,-59.243779,-40.737299,0,0.06
1620.41,202.896179,290.62677,309.980438,-170.398393,-80.918199,-1.484648,63.433876,28.226823,72.916729,70.81787,-59.243779,-40.770244,0,0.06
1635.805,201.537231,291.315857,309.762238,-170.412602,-80.713997,-1.436749,63.701276,28.226708,72.916729,71.169437,-59.243779,-40.880138,0,0.06
1651.31,200.06781,292.043182,309.547791,-170.520032,-80.516155,-1.301989,63.990505,28.226651,72.916729,71.542948,-59.26664,-41.011975,0,0.06
1668.637,198.722107,292.712891,309.371826,-170.788291,-80.357904,-0.995228,64.254982,28.226307,72.916729,71.86157,-59.294142,-41.154814,0,0.06
1684.377,197.290451,293.446808,309.190277,-170.884491,-80.190543,-0.830789,64.534872,28.226078,72.916729,72.169191,-59.307893,-41.26465,0,0.06
1699.923,195.884171,294.21579,309.062469,-171.132237,-80.078587,-0.459799,64.809204,28.225849,72.916729,72.38892,-59.321586,-41.374486,0,0.06
1714.75,194.710327,294.84491,308.975128,-171.083307,-79.997628,-0.417973,65.105882,28.225734,72.916729,72.630594,-59.367366,-41.440433,0,0.06
1730.622,193.34816,295.513153,308.872406,-171.152864,-79.905038,-0.296448,65.375917,28.225734,72.916729,72.883326,-59.449757,-41.517324,0,0.06
1745.317,191.864197,296.187286,308.770264,-170.77454,-79.800645,-0.672251,65.597938,28.22562,72.916729,73.124999,-59.545899,-41.528325,0,0.06
1761.179,190.557724,296.74411,308.69516,-170.324825,-79.719285,-1.152791,65.855998,28.22562,72.916729,73.410676,-59.683237,-41.528325,0,0.06
1775.776,189.131454,297.375946,308.660706,-169.93699,-79.678376,-1.543663,66.137893,28.22562,72.916729,73.66335,-59.84802,-41.528325,0,0.06
1791.126,187.803391,298.029327,308.67392,-169.720126,-79.687543,-1.690054,66.399277,28.225505,72.916729,73.806131,-59.985358,-41.528325,0,0.06
1806.107,186.792099,298.530731,308.669647,-169.5554,-79.68061,-1.791238,66.685355,28.225391,72.916729,73.937969,-60.099778,-41.528325,0,0.06
1820.475,185.28186,299.325531,308.67337,-169.393253,-79.683532,-1.803442,66.890817,28.225391,72.916729,74.025861,-60.173059,-41.528325,0,0.06
1836.298,183.8181,300.025909,308.650635,-169.135709,-79.65689,-1.977621,67.175692,28.225333,72.916729,74.201644,-60.292062,-41.528325,0,0.06
1851.417,182.321487,300.680023,308.669617,-168.843443,-79.669323,-2.242213,67.469562,28.225333,72.916729,74.399429,-60.48429,-41.528325,0,0.06
1866.923,180.919113,301.169586,308.787781,-168.501674,-79.774518,-2.682302,67.751572,28.225333,72.916729,74.619158,-60.82308,-41.528325,0,0.06
1883.894,179.329071,301.771545,308.992371,-168.232613,-79.966115,-3.006711,68.071282,28.225333,72.916729,74.77294,-61.221343,-41.528325,0,0.06
1898.734,178.181702,302.174225,309.208405,-168.046344,-80.170432,-3.26139,68.38343,28.225333,72.916729,74.882834,-61.747719,-41.528325,0,0.06
1914.581,176.480469,302.781586,309.617218,-167.83498,-80.561075,-3.555719,68.731444,28.225333,72.916729,74.915779,-62.297071,-41.528325,0,0.06
1929.555,174.882751,303.340302,310.0802,-167.656045,-81.004658,-3.814581,68.978675,28.225333,72.916729,74.915779,-62.763974,-41.528325,0,0.06
1944.917,173.165863,303.856537,310.669861,-167.369051,-81.56547,-4.261603,69.33305,28.225104,72.916729,74.915779,-63.528472,-41.528325,0,0.06
1960.314,171.600052,304.30777,311.215149,-167.035818,-82.081991,-4.747185,69.65488,28.224875,72.916729,74.915779,-64.233382,-41.528325,0,0.06
1975.511,169.768188,304.916016,311.729767,-166.649759,-82.567745,-5.210707,70.023464,28.224417,72.916729,74.915779,-64.897153,-41.528325,0,0.06
1989.676,168.464355,305.395325,312.024963,-166.391527,-82.845457,-5.466132,70.368843,28.223901,72.916729,74.915779,-65.386975,-41.528325,0,0.06
2005.409,166.52327,306.189789,312.34259,-166.080411,-83.14626,-5.676236,70.659218,28.223672,72.916729,74.915779,-65.689096,-41.528325,0,0.06
2020.931,164.769958,306.82901,312.50647,-165.620842,-83.29351,-6.107616,70.998466,28.223213,72.916729,75.047616,-66.014077,-41.528325,0,0.06
2036.436,162.941101,307.394989,312.537079,-164.956211,-83.307319,-6.828683,71.351064,28.222984,72.916614,75.344237,-66.311671,-41.528325,0,0.06
2051.601,161.2052,307.965515,312.483856,-164.410984,-83.243376,-7.381473,71.682062,28.222984,72.916614,75.640857,-66.503899,-41.528325,0,0.06
2066.955,159.237076,308.654877,312.378784,-163.913542,-83.130389,-7.830442,72.054084,28.22287,72.9165,75.959479,-66.650404,-41.528325,0,0.03
2084.406,157.44812,309.275452,312.263184,-163.498663,-83.008578,-8.195073,72.390868,28.22287,72.9165,76.256099,-66.764824,-41.528325,0,0.03
2099.456,155.527328,309.872864,312.206635,-162.984663,-82.940167,-8.712282,72.754868,28.22287,72.9165,76.574721,-66.975386,-41.528325,0,0.03
2114.852,154.253693,310.231506,312.225342,-162.598776,-82.947902,-9.130942,73.075782,28.22287,72.916385,76.827395,-67.250062,-41.528325,0,0.03
2129.866,152.576309,310.696259,312.327759,-162.06816,-83.0327,-9.704301,73.431417,28.22287,72.916385,77.014179,-67.565933,-41.528325,0,0.03
2143.946,150.608154,311.414673,312.478577,-161.685768,-83.17233,-9.951761,73.69091,28.22287,72.916385,77.058125,-67.767328,-41.528325,0,0.03
2160.648,148.781143,312.103638,312.686829,-161.326466,-83.368281,-10.151609,74.035658,28.22264,72.916385,77.058125,-68.042004,-41.528325,0,0.03
2175.575,146.739578,312.902374,312.865265,-160.996385,-83.537819,-10.260299,74.417649,28.222583,72.916385,77.058125,-68.280011,-41.528325,0,0.03
2190.845,144.965073,313.522308,313.096222,-160.538592,-83.752449,-10.587458,74.752085,28.222125,72.916271,77.058125,-68.582131,-41.528325,0,0.03
2206.332,143.484482,314.074829,313.234802,-160.244435,-83.882282,-10.728921,75.113506,28.221896,72.916271,77.058125,-68.820195,-41.528325,0,0.03
2221.799,141.635422,314.788483,313.364258,-159.954461,-84.00541,-10.79378,75.370707,28.221781,72.916271,77.058125,-68.939199,-41.528325,0,0.03
2237.024,139.590195,315.638611,313.417053,-159.831275,-84.057378,-10.592443,75.744562,28.221265,72.916271,77.058125,-69.012423,-41.528325,0,0.03
2252.431,137.71727,316.443085,313.417572,-159.82864,-84.060873,-10.258867,76.083925,28.220578,72.916271,77.058125,-69.017006,-41.528325,0,0.03
2268.413,135.702728,317.294525,313.415588,-159.830072,-84.064368,-9.896471,76.44804,28.220234,72.916271,77.058125,-69.02159,-41.528325,0,0.03
2284.253,133.943481,317.943359,313.326141,-159.785496,-83.980143,-9.708598,76.766547,28.220234,72.916156,77.178962,-69.02159,-41.528325,0,0.03
2299.296,131.9814,318.671478,313.243408,-159.7494,-83.903653,-9.468701,77.120749,28.220234,72.916041,77.288798,-69.02159,-41.528325,0,0.03
2313.905,130.554886,319.233032,313.223053,-159.652398,-83.884631,-9.325633,77.46206,28.220234,72.916041,77.3218,-69.02159,-41.517324,0,0.03
2328.789,128.480927,320.050537,313.208618,-159.467676,-83.869505,-9.147844,77.748597,28.220005,72.915927,77.3218,-69.02159,-41.49538,0,0.03
2343.634,126.537621,320.799194,313.199341,-159.272813,-83.85753,-9.00724,78.096096,28.219718,72.915927,77.332744,-69.026174,-41.473378,0,0.03
2359.161,124.594879,321.484863,313.201599,-158.989371,-83.851399,-9.005235,78.444798,28.219031,72.915927,77.37669,-69.071953,-41.451434,0,0.03
2374.349,122.783813,322.12561,313.181702,-158.948347,-83.833752,-8.766426,78.768347,28.21863,72.915927,77.420636,-69.090288,-41.451434,0,0.03
2390.858,121.240494,322.698029,313.176941,-158.861831,-83.829971,-8.579527,79.125758,28.218171,72.915698,77.420636,-69.090288,-41.440433,0,0.03
2406.455,119.373131,323.380188,313.171265,-158.776403,-83.826189,-8.334645,79.455094,28.217942,72.915698,77.420636,-69.090288,-41.418431,0,0.03
2421.397,117.34996,324.102844,313.167847,-158.401287,-83.813527,-8.35722,79.731202,28.217942,72.915698,77.420636,-69.094871,-41.385486,0,0.03
2436.389,115.525223,324.691315,313.16098,-158.236046,-83.804589,-8.254718,80.055497,28.217598,72.915583,77.464581,-69.131483,-41.374486,0,0.03
2451.917,113.861931,325.12851,313.141937,-157.864598,-83.772732,-8.473129,80.354466,28.217197,72.915468,77.585476,-69.218458,-41.352541,0,0.03
2468.331,112.005585,325.653046,313.133331,-157.717978,-83.762534,-8.400478,80.685807,28.216854,72.915411,77.673367,-69.291682,-41.352541,0,0.03
2482.844,110.687653,326.054352,313.127869,-157.66687,-83.758752,-8.260275,81.0203,28.216739,72.915411,77.728257,-69.328294,-41.341541,0,0.03
2497.8,108.822319,326.611115,313.108185,-157.51601,-83.738584,-8.142876,81.325171,28.216739,72.915411,77.783203,-69.36038,-41.33054,0,0.03
2512.287,107.065865,327.071014,313.08316,-157.300463,-83.709936,-8.160351,81.561287,28.216739,72.915239,77.860094,-69.415269,-41.33054,0,0.03
2527.331,105.297493,327.416107,313.04187,-156.865302,-83.652182,-8.505215,81.88031,28.216395,72.915182,78.057879,-69.54344,-41.308595,0,0.04
2542.713,103.710052,327.687592,312.992004,-156.266389,-83.577468,-9.054567,82.167763,28.216281,72.915067,78.266608,-69.671611,-41.26465,0,0.04
2558.167,101.931,328.066803,313.005371,-156.01996,-83.584687,-9.157871,82.486786,28.216166,72.914953,78.387445,-69.804365,-41.26465,0,0.04
2573.458,100.706604,328.34668,313.025909,-155.777885,-83.598668,-9.276989,82.705197,28.216166,72.914724,78.442391,-69.886756,-41.253649,0,0.04
2589.877,98.972351,328.770416,313.082611,-155.561995,-83.65138,-9.282833,83.08398,28.216051,72.914724,78.475336,-70.019511,-41.253649,0,0.04
2605.396,97.344574,329.171295,313.14975,-155.349141,-83.716124,-9.286271,83.301303,28.216051,72.914494,78.486337,-70.101902,-41.253649,0,0.04
2620.811,95.687088,329.517426,313.200989,-154.901718,-83.751934,-9.575958,83.596949,28.216051,72.914494,78.552227,-70.234656,-41.231705,0,0.04
2634.829,94.227928,329.787476,313.266205,-154.499158,-83.804474,-9.866333,83.858733,28.216051,72.914265,78.618175,-70.385745,-41.220704,0,0.04
2652.418,92.605385,330.144928,313.355103,-154.109661,-83.882568,-10.065952,84.146587,28.216051,72.914151,78.629175,-70.5185,-41.209703,0,0.04
2668.424,91.13369,330.489471,313.417297,-153.814703,-83.936942,-10.161005,84.405679,28.215994,72.914093,78.629175,-70.605475,-41.198759,0,0.04
2682.342,89.925865,330.791992,313.437622,-153.649863,-83.953959,-10.1374,84.679782,28.215994,72.913921,78.629175,-70.642087,-41.187759,0,0.04
2696.985,88.403847,331.188507,313.434509,-153.371348,-83.942557,-10.157167,84.879687,28.215994,72.913864,78.629175,-70.642087,-41.154814,0,0.04
2711.99,86.703789,331.626129,313.428619,-152.82784,-83.912878,-10.410185,85.173385,28.21588,72.913864,78.629175,-70.642087,-41.088866,0,0.04
2727.465,85.248093,331.987427,313.42926,-152.449344,-83.899069,-10.545403,85.424971,28.21588,72.913635,78.629175,-70.651254,-41.04492,0,0.04
2742.756,83.610992,332.369904,313.400848,-152.116857,-83.855868,-10.620689,85.707954,28.215765,72.913635,78.662121,-70.651254,-41.000974,0,0.04
2757.761,82.463631,332.648254,313.39624,-151.944511,-83.845727,-10.596625,85.970197,28.21565,72.913406,78.662121,-70.651254,-40.97903,0,0.04
2773.291,80.964516,333.00592,313.389618,-151.686222,-83.830372,-10.598688,86.163341,28.21565,72.913177,78.662121,-70.651254,-40.946028,0,0.04
2788.792,79.280838,333.399384,313.38269,-151.162825,-83.799031,-10.836007,86.452628,28.21565,72.913062,78.662121,-70.651254,-40.880138,0,0.04
2804.294,77.643234,333.773346,313.376648,-150.819165,-83.777946,-10.900751,86.733663,28.215536,72.912947,78.662121,-70.651254,-40.836192,0,0.04
2819.792,75.838455,334.173065,313.372864,-150.379878,-83.754226,-11.036198,87.043233,28.215536,72.912833,78.662121,-70.655837,-40.781245,0,0.04
2835.79,74.297409,334.502533,313.37442,-149.8421,-83.72764,-11.318953,87.307595,28.215307,72.912604,78.662121,-70.665005,-40.715355,0,0.04
2850.793,72.604889,334.877319,313.382202,-149.230926,-83.704092,-11.62921,87.596423,28.215307,72.912432,78.640119,-70.665005,-40.638407,0,0.04
2867.29,70.934654,335.305298,313.45874,-148.435431,-83.742365,-12.060246,87.877975,28.215192,72.912088,78.519282,-70.665005,-40.550515,0,0.04
2882.792,69.121048,335.760376,313.541321,-147.877943,-83.804646,-12.220044,88.183189,28.215192,72.91163,78.387445,-70.665005,-40.495626,0,0.04
2897.792,67.798172,336.072937,313.5896,-147.1979,-83.816506,-12.625297,88.483878,28.215077,72.911515,78.299553,-70.669531,-40.396733,0,0.04
2913.795,65.742218,336.477448,313.636536,-146.206052,-83.807167,-13.261624,88.836648,28.215077,72.9114,78.266608,-70.7062,-40.275896,0,0.04
2928.792,63.980247,336.765411,313.679108,-144.840121,-83.760929,-14.374136,89.059471,28.214963,72.911229,78.266608,-70.76109,-40.155002,0,0.04
2943.792,62.062531,337.068756,313.723663,-143.722796,-83.733656,-15.213003,89.389036,28.214963,72.910885,78.266608,-70.829787,-40.034165,0,0.04
2959.293,60.18248,337.368683,313.751129,-143.013188,-83.71641,-15.634872,89.710752,28.214963,72.910656,78.266608,-70.875567,-39.957274,0,0.04
2974.793,58.086884,337.704926,313.76355,-142.295845,-83.680371,-16.017436,90.067648,28.214963,72.910426,78.266608,-70.903011,-39.869383,0,0.04
2990.979,56.062614,338.025177,313.76712,-141.710797,-83.641697,-16.271314,90.411422,28.214848,72.910426,78.266608,-70.916762,-39.792492,0,0.06
3005.661,54.271488,338.299103,313.785706,-141.155372,-83.622102,-16.532754,90.80344,28.214848,72.910426,78.255607,-70.948791,-39.715601,0,0.06
3021.004,52.245338,338.579132,313.809082,-140.48335,-83.598668,-16.890452,91.060641,28.214848,72.910197,78.255607,-70.980819,-39.649653,0,0.06
3036.51,49.975254,338.894379,313.833191,-139.903459,-83.583255,-17.101415,91.445668,28.214734,72.910083,78.244606,-71.012847,-39.583763,0,0.06
3053.567,47.671474,339.238495,313.89209,-139.010676,-83.579302,-17.580809,91.833618,28.214676,72.910083,78.178716,-71.040349,-39.484871,0,0.06
3069.276,45.029224,339.593872,313.952148,-138.0186,-83.567212,-18.119045,92.279437,28.214676,72.910083,78.123769,-71.081545,-39.374977,0,0.06
3084.849,42.713486,339.802368,314.039551,-136.818196,-83.564118,-19.008104,92.677012,28.214676,72.910083,78.123769,-71.205132,-39.265141,0,0.06
3100.34,40.235741,339.965271,314.187073,-135.431982,-83.61683,-20.101537,93.106387,28.214676,72.910083,78.123769,-71.406527,-39.17725,0,0.06
3114.43,38.397755,340.078827,314.290833,-134.693554,-83.67997,-20.616626,93.53387,28.214676,72.910083,78.123769,-71.598811,-39.133304,0,0.06
3129.917,35.805973,340.238495,314.449829,-133.360224,-83.753882,-21.619187,94.026041,28.214676,72.910083,78.079824,-71.791096,-39.078357,0,0.06
3145.369,32.916481,340.40625,314.674255,-131.853288,-83.900043,-22.741382,94.369014,28.214676,72.910083,78.035878,-71.987907,-39.056413,0,0.06
3160.768,30.492388,340.397217,314.958862,-129.95124,-84.086484,-24.447708,94.798274,28.214676,72.910083,78.024877,-72.354142,-39.045412,0,0.06
3176.002,27.720247,340.366058,315.263367,-127.827915,-84.284842,-26.345803,95.288725,28.214676,72.910083,78.024877,-72.756931,-39.045412,0,0.06
3191.639,24.876041,340.391724,315.574585,-125.578712,-84.489273,-28.282515,95.784964,28.214676,72.910083,77.958987,-73.109415,-39.045412,0,0.06
3206.878,22.449081,340.39328,315.788727,-123.888945,-84.620939,-29.707919,96.323716,28.214676,72.910083,77.937042,-73.475649,-39.045412,0,0.06
3222.6,19.922249,340.286682,316.087494,-121.371082,-84.787842,-32.03619,96.77154,28.214676,72.910083,77.937042,-73.88308,-39.045412,0,0.06
3238.105,16.913136,340.236542,316.316498,-119.29898,-84.910053,-33.785545,97.181091,28.214676,72.910083,77.937042,-74.075307,-39.045412,0,0.06
3253.025,13.798594,340.264557,316.419647,-118.282725,-84.966375,-34.365378,97.713941,28.214676,72.910083,77.937042,-74.221812,-39.045412,0,0.06
3268.521,10.708184,340.208099,316.405396,-118.190708,-84.943457,-34.082624,98.246907,28.214676,72.910083,78.057879,-74.327065,-39.045412,0,0.06
3284.379,8.086131,340.061768,316.29007,-118.780511,-84.832017,-33.252809,98.70533,28.214676,72.910083,78.288552,-74.400346,-39.023411,0,0.06
3300.531,4.775025,339.96405,316.144958,-119.329118,-84.66563,-32.288635,99.274335,28.214676,72.910083,78.486337,-74.409513,-38.94652,0,0.06
3314.91,1.578517,339.816315,315.988098,-119.696728,-84.451,-31.543389,99.825864,28.214676,72.910083,78.706066,-74.423207,-38.825683,0,0.06
3329.473,-0.630646,339.533447,315.788666,-120.719973,-84.26771,-30.418788,100.221376,28.214676,72.910083,79.046633,-74.487321,-38.792738,0,0.06
3345.025,-3.355207,339.131683,315.500488,-122.204048,-84.016354,-28.841664,100.712115,28.214676,72.910083,79.519036,-74.560545,-38.759793,0,0.06
3360.012,-6.818388,338.776489,315.287506,-122.988714,-83.797713,-27.75207,101.320882,28.214676,72.910083,79.870603,-74.624659,-38.693845,0,0.06
3376.42,-9.705028,338.342957,315.084015,-123.638104,-83.576551,-26.95457,101.838779,28.214676,72.910083,80.266116,-74.739079,-38.627955,0,0.06
3390.558,-12.429214,337.759583,314.851074,-124.454168,-83.340034,-26.142746,102.341607,28.214676,72.910083,80.782465,-74.926779,-38.584009,0,0.06
3405.564,-14.652454,337.426941,314.744537,-124.836331,-83.241486,-25.606286,102.881906,28.214676,72.910083,81.079086,-75.045783,-38.573008,0,0.06
3421.564,-17.922903,336.982147,314.642944,-125.199357,-83.154854,-24.944291,103.491991,28.214676,72.910083,81.364762,-75.196814,-38.573008,0,0.06
3436.532,-20.774031,336.379944,314.503815,-125.685454,-83.027257,-24.376031,103.839891,28.214676,72.910083,81.694328,-75.361654,-38.573008,0,0.06
3452.034,-23.355177,335.736847,314.355316,-126.202148,-82.890893,-23.8559,104.320431,28.214676,72.910083,82.133786,-75.590494,-38.573008,0,0.05
3467.649,-26.7796,335.223267,314.398712,-125.79827,-82.908483,-23.894746,104.927537,28.214676,72.910083,82.276625,-75.796529,-38.573008,0,0.05
3484.941,-29.506283,334.585144,314.438568,-125.3493,-82.908196,-24.24173,105.431053,28.214676,72.910083,82.5403,-76.10776,-38.573008,0,0.05
3499.94,-32.030506,333.895264,314.449585,-125.045346,-82.884819,-24.523167,105.905118,28.214676,72.910083,82.858865,-76.432799,-38.573008,0,0.05
3515.478,-34.79546,333.295776,314.587219,-124.103862,-82.956726,-25.266637,106.410065,28.214676,72.910083,82.990702,-76.748671,-38.573008,0,0.05
3531.069,-37.328293,332.80777,314.70282,-123.320055,-83.021012,-25.792325,106.988466,28.214676,72.910083,83.100595,-77.064485,-38.573008,0,0.05
3546.036,-39.683628,332.066193,314.839691,-122.490183,-83.112914,-26.625864,107.42082,28.214676,72.910083,83.408216,-77.549723,-38.649899,0,0.05
3561.662,-42.162086,331.175568,315.001953,-121.783153,-83.276207,-27.41414,107.799144,28.214676,72.910083,83.605944,-77.902207,-38.737791,0,0.05
3577.533,-44.939426,330.45166,315.2565,-120.286817,-83.46471,-28.726442,108.31452,28.214676,72.910083,83.682835,-78.318804,-38.803739,0,0.05
3591.889,-47.803982,329.612518,315.460693,-119.013934,-83.613908,-29.870181,108.852986,28.214676,72.910083,83.847675,-78.753679,-38.869629,0,0.05
3606.397,-49.975861,328.790222,315.554199,-118.543192,-83.712228,-30.394036,109.27749,28.214676,72.910083,84.133295,-79.156469,-38.95752,0,0.05
3623.402,-52.682312,327.936615,315.64679,-118.130949,-83.826877,-30.69799,109.789256,28.214676,72.910083,84.364025,-79.508952,-39.056413,0,0.05
3638.815,-54.812687,327.374969,315.688904,-118.106369,-83.918378,-30.52341,110.313398,28.214676,72.910083,84.517807,-79.728681,-39.166249,0,0.05
3654.074,-57.642441,326.508759,315.619476,-118.878487,-83.950005,-29.577227,110.815882,28.214676,72.910083,84.858373,-79.930133,-39.265141,0,0.05
3669.826,-59.885426,325.703217,315.426422,-120.497035,-83.899814,-27.912957,111.139259,28.214676,72.910083,85.165994,-80.021692,-39.331032,0,0.05
3683.808,-62.691402,324.874939,315.182373,-122.465088,-83.823668,-25.706554,111.657901,28.214676,72.910083,85.517561,-80.05372,-39.418923,0,0.05
3701.364,-65.494148,324.084045,314.953827,-124.025767,-83.70879,-23.851947,112.171385,28.214676,72.910083,85.814238,-80.05372,-39.451926,0,0.05
3717.451,-68.027664,323.181458,314.610779,-126.089963,-83.492327,-21.670868,112.651295,28.214676,72.910083,86.286642,-80.071998,-39.462869,0,0.05
3730.946,-70.253937,322.342773,314.265839,-128.164815,-83.285775,-19.516203,113.076028,28.214676,72.909968,86.748045,-80.076581,-39.495872,0,0.05
3745.983,-72.130539,321.710327,314.05658,-129.430306,-83.168548,-18.102487,113.591461,28.214676,72.909968,87.099612,-80.076581,-39.528817,0,0.05
3760.876,-75.039917,320.777679,313.802826,-130.690241,-82.994369,-16.54811,113.966691,28.214676,72.909968,87.352286,-80.076581,-39.528817,0,0.05
3776.298,-77.287766,319.849335,313.503845,-132.102696,-82.780598,-15.072342,114.401738,28.214676,72.909911,87.802745,-80.131528,-39.528817,0,0.05
3791.302,-79.648872,318.891571,313.235931,-133.303043,-82.586939,-13.770296,114.856896,28.214676,72.909911,88.220202,-80.195642,-39.528817,0,0.05
3808.231,-82.0821,317.996002,313.079956,-133.959309,-82.475384,-12.906447,115.318012,28.214676,72.909911,88.494878,-80.268866,-39.528817,0,0.05
3823.223,-84.794754,317.014252,312.960693,-134.434978,-82.391847,-12.159711,115.830408,28.214676,72.909796,88.736552,-80.360425,-39.528817,0,0.05
3837.504,-86.39904,316.341949,312.888794,-134.712404,-82.339879,-11.788377,116.240532,28.214676,72.909796,89.022229,-80.51604,-39.528817,0,0.05
3852.914,-88.641556,315.384399,312.79245,-135.13857,-82.278458,-11.230259,116.579436,28.214676,72.909796,89.209013,-80.616766,-39.539817,0,0.05
3870.023,-90.911552,314.511353,312.749298,-135.399954,-82.265739,-10.734135,117.126783,28.214676,72.909796,89.406741,-80.767798,-39.561762,0,0.05
3885.72,-93.565727,313.510956,312.712738,-135.515176,-82.243966,-10.306308,117.516795,28.214676,72.909796,89.527578,-80.845663,-39.561762,0,0.05
3901.221,-95.680908,312.524261,312.67572,-135.633377,-82.219329,-10.079932,117.937117,28.214676,72.909796,89.769308,-81.042474,-39.561762,0,0.05
3915.938,-97.855927,311.37027,312.601837,-135.908511,-82.167763,-9.793396,118.382649,28.214676,72.909682,90.120875,-81.298815,-39.561762,0,0.05
3931.517,-100.062233,310.296417,312.585083,-135.949707,-82.159799,-9.640359,118.825259,28.214676,72.909682,90.362549,-81.523128,-39.561762,0,0.05
3946.687,-102.025764,309.350128,312.536743,-136.133397,-82.128687,-9.336003,119.332269,28.214676,72.909682,90.659169,-81.73369,-39.561762,0,0.05
3962.353,-104.133965,308.22583,312.48291,-136.343558,-82.094367,-9.069062,119.749211,28.214676,72.909682,90.955789,-81.980921,-39.561762,0,0.05
3975.728,-106.209511,307.003448,312.451599,-136.296002,-82.055348,-9.138218,120.086167,28.214676,72.909567,91.219465,-82.214344,-39.528817,0,0.05
3990.743,-108.311058,305.852539,312.506195,-136.000528,-82.095456,-9.363219,120.520985,28.214734,72.909567,91.439194,-82.511881,-39.517816,0,0.05
4005.979,-110.819969,304.530151,312.645355,-135.387291,-82.205807,-9.82445,121.03573,28.214848,72.909567,91.603977,-82.868949,-39.517816,0,0.05
4021.118,-112.405571,303.601349,312.785217,-134.757955,-82.313351,-10.417461,121.371254,28.215077,72.909567,91.724871,-83.180237,-39.517816,0,0.05
4036.356,-114.232063,302.350067,313.055023,-133.508276,-82.512168,-11.751135,121.777825,28.215077,72.909452,91.900654,-83.715837,-39.517816,0,0.05
4052.16,-116.45153,301.023926,313.398224,-131.795534,-82.756305,-13.392373,122.251661,28.215192,72.909452,91.966544,-84.242271,-39.517816,0,0.05
4067.166,-118.643295,299.685516,313.843018,-129.385329,-83.057394,-15.729811,122.723434,28.215307,72.909338,91.966544,-84.837345,-39.517816,0,0.05
4083.929,-120.90081,298.333374,314.252533,-127.12885,-83.347999,-17.871413,123.205292,28.215536,72.909223,91.966544,-85.38664,-39.550761,0,0.05
4100.302,-122.715218,297.107178,314.700714,-124.36513,-83.636139,-20.630835,123.607737,28.215536,72.909223,91.966544,-85.981771,-39.572763,0,0.05
4115.164,-124.88269,295.807922,315.056885,-121.986668,-83.857358,-22.866516,124.068911,28.215536,72.909223,91.966544,-86.457842,-39.594707,0,0.05
4131.781,-127.084229,294.47757,315.355347,-119.804787,-84.028787,-24.895646,124.537476,28.215765,72.909109,91.999489,-86.892717,-39.605708,0,0.05
4146.273,-128.903778,293.357544,315.44516,-119.093861,-84.080754,-25.489002,125.028043,28.215994,72.909109,92.197274,-87.231449,-39.605708,0,0.05
4161.61,-130.663849,292.027893,315.44043,-119.13838,-84.090151,-25.508482,125.325522,28.215994,72.908879,92.46095,-87.47404,-39.605708,0,0.05
4176.749,-132.655518,290.523834,315.315033,-120.025548,-84.024834,-24.682735,125.777299,28.215994,72.908879,92.900408,-87.748716,-39.583763,0,0.05
4192.406,-134.679474,289.115051,315.217041,-120.257252,-83.896262,-24.405882,126.224207,28.216051,72.908879,93.240974,-87.963861,-39.47387,0,0.05
4207.918,-136.726944,287.581696,314.967896,-121.587603,-83.697274,-23.100054,126.686297,28.216395,72.908879,93.73538,-88.133227,-39.364034,0,0.05
4223.478,-138.289978,286.242493,314.690674,-122.651757,-83.407815,-22.174956,127.055683,28.216395,72.908879,94.262673,-88.293484,-39.166249,0,0.05
4239.012,-140.090759,284.790894,314.376495,-123.77103,-83.081401,-21.13372,127.471593,28.216395,72.908879,94.801024,-88.417071,-38.94652,0,0.05
4254.13,-141.399902,283.809601,314.197174,-123.939996,-82.818528,-20.957421,127.868882,28.21651,72.908879,95.207537,-88.508629,-38.6609,0,0.05
4269.639,-143.402618,282.338074,313.893158,-124.799719,-82.487244,-20.048538,128.312638,28.216739,72.908879,95.66894,-88.572686,-38.441171,0,0.05
4284.627,-144.981689,281.109833,313.67038,-125.057779,-82.179451,-19.790879,128.575511,28.216739,72.908879,95.954617,-88.64591,-38.243386,0,0.05
4300.133,-146.580307,279.879944,313.493988,-125.226572,-81.933652,-19.596646,128.939855,28.216854,72.908879,96.295183,-88.755803,-38.034657,0,0.05
4316.309,-148.062637,278.847992,313.517426,-124.328347,-81.800955,-20.371056,129.268962,28.217369,72.908765,96.41602,-88.916002,-37.83693,0,0.05
4331.827,-149.737869,277.735413,313.526825,-123.829587,-81.719767,-20.676271,129.635139,28.217484,72.908765,96.525856,-89.044173,-37.716093,0,0.05
4347.364,-151.241455,276.803864,313.581818,-123.16106,-81.674446,-21.109484,129.95737,28.217484,72.908765,96.547858,-89.144899,-37.6172,0,0.05
4363.227,-152.630081,275.894073,313.699493,-122.452311,-81.725611,-21.62062,130.261038,28.217484,72.908765,96.547858,-89.305098,-37.595199,0,0.05
4376.896,-153.3992,275.352203,313.794952,-121.900782,-81.77099,-22.084085,130.433613,28.217484,72.908765,96.547858,-89.433269,-37.584255,0,0.05
4392.37,-154.484543,274.603668,313.91037,-121.271158,-81.836364,-22.574251,130.675229,28.217484,72.908765,96.547858,-89.588941,-37.584255,0,0.05
4407.374,-155.618881,273.813507,313.896423,-121.360597,-81.839229,-22.348104,130.92693,28.217598,72.908765,96.635749,-89.662165,-37.584255,0,0.05
4424.238,-156.478424,273.129303,313.756653,-122.048032,-81.753801,-21.623083,131.12523,28.217598,72.908765,96.833477,-89.675916,-37.551253,0,0.05
4439.574,-157.390915,272.480316,313.655121,-122.416329,-81.664763,-21.154519,131.328057,28.217598,72.908765,96.965315,-89.675916,-37.496363,0,0.05
4455.07,-158.182083,271.908356,313.561127,-122.811785,-81.597842,-20.675698,131.504815,28.217828,72.908765,97.086209,-89.675916,-37.463361,0,0.05
4470.619,-158.800766,271.415131,313.452728,-123.413161,-81.550573,-20.040402,131.686442,28.217828,72.908765,97.283936,-89.675916,-37.463361,0,0.05
4485.982,-159.46463,270.803986,313.270813,-124.415035,-81.468754,-19.061561,131.853975,28.217828,72.908765,97.558612,-89.675916,-37.463361,0,0.05
4501.751,-160.27713,270.070923,313.063812,-125.323288,-81.328552,-18.169351,132.042249,28.217828,72.908765,97.800286,-89.675916,-37.38647,0,0.05
4517.352,-160.890747,269.473541,312.873779,-125.827319,-81.132371,-17.711959,132.15621,28.217828,72.908765,97.998071,-89.675916,-37.276634,0,0.05
4532.351,-161.60939,268.78009,312.657928,-126.561335,-80.951087,-17.023264,132.333484,28.218057,72.908765,98.28369,-89.675916,-37.177742,0,0.05
4546.923,-162.17482,268.196838,312.458344,-127.024342,-80.742015,-16.625688,132.476551,28.218401,72.908765,98.547366,-89.675916,-37.034903,0,0.05
4563.004,-162.627151,267.473358,312.080017,-127.821384,-80.345585,-16.082753,132.614863,28.220234,72.908765,99.041771,-89.675916,-36.760227,0,0.05
4578.143,-162.877121,267.050842,311.849274,-128.081277,-80.065409,-15.983861,132.717136,28.222125,72.908249,99.426283,-89.675916,-36.496609,0,0.05
4593.297,-163.22258,266.584839,311.602325,-128.611664,-79.862524,-15.583478,132.790188,28.227969,72.90802,99.624011,-89.675916,-36.408718,0,0.05
4608.305,-163.691406,266.280304,311.501221,-128.651542,-79.836741,-15.47009,132.891602,28.241319,72.907275,99.656956,-89.675916,-36.375715,0,0.05
4625.228,-164.205933,266.00293,311.41394,-128.636875,-79.861264,-15.362947,132.997542,28.259711,72.906473,99.635011,-89.675916,-36.375715,0,0.05
4640.217,-164.677444,266.003906,311.447845,-128.363001,-80.138117,-15.34232,133.070479,28.292885,72.905384,99.349392,-89.685084,-36.551499,0,0.05
4656.151,-165.211655,266.090851,311.544312,-127.685478,-80.557064,-15.630289,133.145078,28.341415,72.90441,98.909933,-89.735389,-36.79323,0,0.05
4670.723,-165.598022,266.181549,311.550415,-127.007096,-80.872764,-16.024541,133.211885,28.40931,72.902004,98.470475,-89.808671,-37.012959,0,0.05
4686.3,-166.098526,266.269958,311.552155,-125.912689,-81.260656,-16.774772,133.279552,28.478237,72.898566,98.05296,-89.891062,-37.144797,0,0.05
4701.823,-166.565994,266.325745,311.43634,-124.848134,-81.556302,-17.549353,133.328654,28.535762,72.893524,97.789285,-89.941425,-37.199686,0,0.05
4717.43,-167.011627,266.409363,311.158417,-123.761691,-81.824504,-18.367022,133.386236,28.634196,72.884758,97.45972,-90.000898,-37.243632,0,0.05
4732.412,-167.406357,266.516937,310.781586,-122.434721,-82.109493,-19.478502,133.433047,28.759559,72.880346,97.141098,-90.110791,-37.265633,0,0.05
4747.458,-167.777924,266.641571,310.451355,-120.389548,-82.423302,-21.315978,133.474987,28.893574,72.876164,96.767587,-90.289325,-37.265633,0,0.05
4763.372,-168.185379,266.735809,309.827148,-118.930282,-82.720209,-22.602039,133.52346,29.061565,72.868658,96.48191,-90.426663,-37.265633,0,0.05
4778.441,-168.472534,266.792786,309.385712,-117.78746,-82.931229,-23.63279,133.57113,29.22165,72.862986,96.207291,-90.568527,-37.265633,0,0.05
4794.886,-168.902283,266.824585,308.687042,-116.598974,-83.195133,-24.673568,133.629801,29.394568,72.850323,96.020507,-90.669253,-37.265633,0,0.05
4809.828,-169.349335,266.799103,307.736511,-116.125883,-83.395497,-25.044558,133.701077,29.583301,72.83915,95.932615,-90.742477,-37.188742,0,0.05
4824.369,-169.809738,266.68161,306.883362,-114.898779,-83.502468,-26.219981,133.758315,29.71955,72.831129,95.866725,-90.847787,-37.067848,0,0.05
4839.378,-170.152542,266.659912,305.643707,-113.618104,-83.566811,-27.476535,133.807991,29.952572,72.800017,95.789777,-90.962207,-36.804173,0,0.05
4854.853,-170.568237,266.570648,304.433319,-111.561873,-83.597522,-29.517296,133.875657,30.196136,72.773547,95.690942,-91.145324,-36.474608,0,0.05
4869.86,-170.930786,266.473114,302.91449,-109.430814,-83.432453,-31.679982,133.936333,30.473964,72.731893,95.65794,-91.305523,-35.914312,0,0.05
4885.59,-171.209702,266.409515,301.571411,-107.878098,-83.226818,-33.270914,133.992769,30.785252,72.68852,95.65794,-91.452028,-35.189234,0,0.05
4900.596,-171.501251,266.323242,299.777771,-106.064457,-82.860068,-35.128386,134.030585,31.015065,72.637412,95.66894,-91.520669,-34.606937,0,0.05
4918.216,-171.819687,266.13382,297.468506,-105.931187,-82.617191,-35.331729,134.095386,31.357636,72.543733,95.811779,-91.525252,-33.925805,0,0.05
4934.047,-172.029739,265.976898,295.392365,-105.474196,-82.301319,-35.854438,134.151651,31.744669,72.42473,95.965561,-91.53442,-33.024886,0,0.05
4948.295,-172.193802,265.844666,293.185272,-105.454601,-82.066865,-35.979458,134.178981,31.988864,72.361361,96.075454,-91.53442,-32.552483,0,0.05
4963.502,-172.377182,265.843384,290.920441,-104.864741,-81.812987,-36.599627,134.203732,32.347364,72.284355,96.1194,-91.53442,-31.849349,0,0.05
4979.024,-172.495193,265.882965,288.853516,-104.434163,-81.673816,-37.052722,134.214905,32.678075,72.215658,96.141344,-91.53442,-31.300054,0,0.05
4994.593,-172.554169,265.94281,287.230865,-104.095259,-81.589878,-37.414201,134.215936,33.022251,72.153606,96.152345,-91.539003,-30.783705,0,0.05
5009.103,-172.641891,266.026825,285.270721,-103.887275,-81.56186,-37.651177,134.217082,33.26805,72.119745,96.174289,-91.539003,-30.487084,0,0.05
5024.151,-172.750565,266.136322,283.358307,-103.444952,-81.521524,-38.117278,134.218228,33.602027,72.089779,96.174289,-91.561864,-30.06957,0,0.05
5039.396,-172.832367,266.210297,281.587311,-103.161509,-81.464514,-38.477095,134.218973,33.916007,72.075799,96.229236,-91.598534,-29.674057,0,0.05
5054.4,-172.92392,266.293152,279.713287,-102.939889,-81.361554,-38.789529,134.219546,34.251188,72.071845,96.306127,-91.625978,-29.223655,0,0.05
5069.783,-172.968277,266.325531,278.468842,-102.95937,-81.333192,-38.851179,134.220291,34.546605,72.068751,96.41602,-91.648839,-28.894032,0,0.05
5084.788,-173.031006,266.365051,276.605499,-103.356945,-81.437414,-38.564185,134.221609,34.794696,72.064168,96.503912,-91.648839,-28.751194,0,0.05
5102.382,-173.087372,266.384735,275.049652,-103.827,-81.570626,-38.189413,134.226021,35.125407,72.060673,96.64675,-91.648839,-28.597412,0,0.05
5117.955,-173.145966,266.390198,273.409088,-104.364606,-81.716788,-37.755111,134.231922,35.408505,72.058094,96.756586,-91.648839,-28.454574,0,0.05
5133.957,-173.217392,266.38446,272.0961,-104.721559,-81.809378,-37.469377,134.238855,35.577356,72.057006,96.822534,-91.648839,-28.355739,0,0.05
5148.543,-173.290268,266.362701,270.741425,-105.154658,-81.917781,-37.115003,134.249626,35.812555,72.055459,96.921369,-91.648839,-28.234844,0,0.05
5164.236,-173.395401,266.25882,269.444519,-105.80147,-82.027617,-36.570406,134.274034,36.032284,72.053912,97.064207,-91.648839,-28.136009,0,0.05
5179.65,-173.5495,266.095459,268.246216,-106.459569,-82.10617,-36.010627,134.312021,36.232934,72.052537,97.217989,-91.648839,-28.026116,0,0.05
5195.049,-173.716568,265.876617,267.078094,-107.345476,-82.213829,-35.242691,134.357973,36.423958,72.050302,97.404773,-91.648839,-27.960226,0,0.05
5210.69,-173.916855,265.643616,266.236938,-108.055085,-82.278859,-34.61536,134.426728,36.602377,72.04887,97.591557,-91.648839,-27.883278,0,0.05
5226.15,-174.181122,265.378387,265.193207,-108.697599,-82.32779,-34.044694,134.492847,36.770483,72.047437,97.75634,-91.648839,-27.773442,0,0.05
5241.984,-174.466782,265.082214,264.34729,-109.259098,-82.330082,-33.548398,134.54745,36.869147,72.046693,97.866233,-91.648839,-27.674549,0,0.05
5256.407,-174.767456,264.833649,263.438354,-109.589867,-82.346296,-33.239172,134.616491,37.022814,72.044401,97.965069,-91.648839,-27.542711,0,0.05
5271.561,-175.194626,264.551636,262.70401,-109.843458,-82.415624,-32.935791,134.707534,37.151901,72.044172,98.009015,-91.648839,-27.487765,0,0.05
5286.929,-175.50531,264.319153,262.07132,-109.968133,-82.476071,-32.792208,134.776862,37.264201,72.04188,98.05296,-91.667174,-27.432875,0,0.04
5302.962,-175.778244,264.04422,261.419678,-110.658032,-82.564078,-32.140354,134.864754,37.408013,72.041421,98.2068,-91.667174,-27.432875,0,0.04
5317.978,-176.085251,263.779388,260.798706,-111.094969,-82.612722,-31.71012,134.933394,37.495218,72.040963,98.294691,-91.667174,-27.355985,0,0.04
5334.096,-176.395798,263.421082,260.14032,-111.734219,-82.608768,-31.134698,135.021744,37.616398,72.0389,98.481418,-91.66259,-27.301038,0,0.04
5349.713,-176.761765,263.034637,259.316895,-112.810978,-82.704567,-30.112255,135.092275,37.703545,72.038671,98.602312,-91.653423,-27.301038,0,0.04
5364.465,-177.152512,262.639709,258.75,-113.567168,-82.758654,-29.383568,135.190308,37.791208,72.037926,98.745093,-91.653423,-27.290037,0,0.04
5380.028,-177.491013,262.232086,258.099609,-114.470493,-82.795209,-28.553008,135.281924,37.889183,72.036608,98.931878,-91.653423,-27.257092,0,0.04
5395.247,-177.961151,261.728912,257.522156,-115.461194,-82.847291,-27.604877,135.402876,37.974153,72.035692,99.118662,-91.653423,-27.257092,0,0.04
5410.921,-178.315048,261.371033,257.099548,-116.130065,-82.888486,-26.953138,135.520103,38.053565,72.035291,99.272444,-91.653423,-27.257092,0,0.04
5425.835,-178.706726,260.92392,256.662781,-117.030468,-82.916218,-26.102697,135.626215,38.114986,72.034832,99.448227,-91.653423,-27.257092,0,0.04
5441.491,-179.175354,260.482819,256.232147,-117.716299,-82.957069,-25.408558,135.709924,38.164661,72.034718,99.536119,-91.653423,-27.257092,0,0.04
5456.475,-179.704376,260.052063,255.947784,-118.118974,-82.987608,-24.94154,135.832422,38.209238,72.034374,99.602066,-91.653423,-27.257092,0,0.04
5471.232,-180.173706,259.598206,255.675323,-118.735247,-82.999984,-24.314782,135.948561,38.245735,72.033858,99.722903,-91.653423,-27.257092,0,0.04
5486.496,-180.571533,259.16507,255.489273,-119.393404,-82.990358,-23.677481,136.052037,38.264184,72.033515,99.865742,-91.653423,-27.257092,0,0.04
5514.454,-180.973801,258.762238,255.361649,-119.890502,-82.979701,-23.174882,136.153107,38.275471,72.033285,99.975578,-91.653423,-27.257092,0,0.04
5515.961,-180.973801,258.762238,255.361649,-119.890502,-82.979701,-23.174882,136.153107,38.275471,72.033285,99.975578,-91.653423,-27.257092,0,0.04
5533.037,-180.970428,258.762878,255.35791,-119.878527,-82.980332,-23.184164,136.152706,38.2753,72.031395,99.972312,-91.65285,-27.255545,0,0.04
5548.233,-180.933105,258.770081,255.316559,-119.747033,-82.987379,-23.28638,136.148351,38.273294,72.010768,99.935986,-91.646547,-27.238471,0,0.04
5563.2,-180.843613,258.787201,255.217316,-119.431219,-83.004052,-23.531892,136.137866,38.268539,71.961322,99.848782,-91.631421,-27.197504,0,0.04
5579.092,-180.742126,258.806458,255.104645,-119.072318,-83.022788,-23.810865,136.125949,38.263096,71.905172,99.749889,-91.614175,-27.15098,0,0.04
5593.832,-180.561142,258.840363,254.903336,-118.430491,-83.055618,-24.309854,136.098389,38.250548,71.775282,99.521107,-91.574412,-27.043436,0,0.04
5608.829,-180.328201,258.883148,254.643555,-117.601134,-83.096871,-24.954718,136.077247,38.240922,71.675588,99.345439,-91.543816,-26.960873,0,0.04
5624.328,-180.043655,258.934143,254.32515,-116.583332,-83.145573,-25.746145,136.043672,38.225624,71.517222,99.066523,-91.495344,-26.82978,0,0.04
5639.871,-179.718643,258.990601,253.960007,-115.415014,-83.199144,-26.65457,136.005169,38.208092,71.335881,98.747041,-91.439767,-26.679608,0,0.04
5655.37,-179.387054,259.046234,253.585892,-114.217418,-83.251455,-27.585511,135.965807,38.190158,71.150243,98.420112,-91.382872,-26.525941,0,0.04
5670.902,-179.056473,259.099701,253.211273,-113.018618,-83.301245,-28.516969,135.926445,38.172224,70.964662,98.093182,-91.326035,-26.372273,0,0.04
5686.603,-178.809204,259.138367,252.929993,-112.119189,-83.336998,-29.215462,135.89688,38.158817,70.82549,97.847956,-91.283349,-26.257051,0,0.04
5701.917,-178.480408,259.187988,252.55452,-110.920217,-83.382605,-30.145888,135.847663,38.136357,70.593442,97.439265,-91.212303,-26.064939,0,0.04
5718.556,-178.152588,259.235413,252.178528,-109.722335,-83.425806,-31.074652,135.808301,38.118481,70.407861,97.112336,-91.155408,-25.911271,0,0.04
5735.038,-177.82579,259.28064,251.802032,-108.526228,-83.466715,-32.000896,135.768939,38.100547,70.22228,96.785406,-91.098571,-25.757604,0,0.04
5750.058,-177.499969,259.323639,251.425003,-107.332871,-83.50539,-32.923759,135.729576,38.082614,70.036642,96.458419,-91.041676,-25.603937,0,0.08
5764.15,-177.175156,259.364441,251.047455,-106.14301,-83.541887,-33.842497,135.700012,38.069149,69.897471,96.21325,-90.999048,-25.488658,0,0.08
5779.658,-176.851303,259.402985,250.669373,-104.957446,-83.576208,-34.756307,135.66065,38.051216,69.71189,95.88632,-90.942153,-25.33499,0,0.08
5796.714,-176.528442,259.43927,250.290756,-103.776981,-83.608522,-35.664446,135.621287,38.033282,69.526251,95.559333,-90.885316,-25.181323,0,0.08
5811.358,-176.206558,259.473328,249.911575,-102.60236,-83.638832,-36.566109,135.581925,38.015349,69.34067,95.232404,-90.828421,-25.027656,0,0.08
5826.356,-175.96579,259.497375,249.626831,-101.72562,-83.660261,-37.237673,135.542563,37.997415,69.155032,94.905474,-90.771584,-24.873989,0,0.08
5841.419,-175.645584,259.527435,249.246674,-100.562974,-83.68719,-38.126273,135.512998,37.983951,69.01586,94.660248,-90.728955,-24.75871,0,0.08
5855.927,-175.326355,259.555237,248.865967,-99.408177,-83.712342,-39.006394,135.473636,37.966017,68.830279,94.333318,-90.672061,-24.605042,0,0.08
5871.678,-175.008072,259.58078,248.48468,-98.261803,-83.735776,-39.877519,135.434274,37.948083,68.644641,94.006389,-90.615223,-24.451375,0,0.08
5886.683,-174.69075,259.603973,248.102814,-97.124654,-83.757492,-40.738904,135.394854,37.93015,68.45906,93.679459,-90.558329,-24.297708,0,0.08
5903.526,-174.453369,259.619873,247.816025,-96.278109,-83.772732,-41.378153,135.355492,37.912216,68.273479,93.352472,-90.501434,-24.14404,0,0.08
5919.051,-174.058914,259.643494,247.337311,-94.880092,-83.796223,-42.430046,135.31613,37.894283,68.087841,93.025542,-90.444597,-23.990373,0,0.08
5933.893,-173.822937,259.655914,247.049637,-94.04936,-83.80923,-43.052679,135.276768,37.876406,67.90226,92.698612,-90.387759,-23.836706,0,0.08
5949.401,-173.509125,259.670441,246.665558,-92.951573,-83.825387,-43.872524,135.24726,37.862942,67.763031,92.453387,-90.345074,-23.721427,0,0.08
5965.349,-173.196228,259.682648,246.280869,-91.865532,-83.840169,-44.680051,135.207841,37.845008,67.57745,92.126457,-90.288236,-23.567759,0,0.08
5980.654,-172.884247,259.692474,245.895554,-90.791752,-83.853748,-45.474858,135.168479,37.827075,67.391869,91.799527,-90.231342,-23.414092,0,0.08
5996.409,-172.573166,259.699951,245.509644,-89.730462,-83.866182,-46.256544,135.129117,37.809141,67.20623,91.472597,-90.174504,-23.260425,0,0.08
6011.779,-172.340469,259.70401,245.219788,-88.943046,-83.874776,-46.833971,135.089754,37.791208,67.020649,91.14561,-90.11761,-23.106758,0,0.08
6027.063,-171.953735,259.707794,244.735931,-87.647302,-83.887782,-47.779065,135.050392,37.773274,66.835068,90.818681,-90.060772,-22.95309,0,0.08
6042.358,-171.722366,259.708282,244.44516,-86.879997,-83.894887,-48.335579,135.010973,37.75534,66.64943,90.491751,-90.003877,-22.799423,0,0.08
6058.189,-171.414658,259.706848,244.056885,-85.869127,-83.903596,-49.064954,134.981465,37.741876,66.510259,90.246525,-89.961249,-22.684144,0,0.08
6072.881,-171.107819,259.703003,243.667984,-84.872295,-83.911445,-49.779834,134.942103,37.723942,66.324678,89.919595,-89.904355,-22.530477,0,0.08
6086.906,-170.801865,259.696747,243.278427,-83.889845,-83.918607,-50.479816,134.902741,37.706009,66.139039,89.592666,-89.847517,-22.376809,0,0.08
6102.411,-170.49678,259.688049,242.888245,-82.921833,-83.925082,-51.164902,134.863321,37.688075,65.953458,89.265736,-89.790622,-22.223142,0,0.08
6118.263,-170.268524,259.679932,242.595169,-82.205463,-83.929551,-51.668761,134.833814,37.674668,65.81423,89.02051,-89.747994,-22.10792,0,0.08
6134.215,-169.889175,259.663391,242.105896,-81.030041,-83.936312,-52.489466,134.784597,37.652265,65.582239,88.611819,-89.67689,-21.915808,0,0.08
6150.792,-169.662201,259.651611,241.811844,-80.335902,-83.939979,-52.970349,134.745235,37.634332,65.396658,88.284889,-89.620053,-21.76214,0,0.08
6164.766,-169.360306,259.633759,241.419205,-79.423581,-83.944562,-53.598024,134.715728,37.620867,65.257486,88.039663,-89.577368,-21.646861,0,0.08
6181.081,-169.059235,259.613464,241.025894,-78.526272,-83.948802,-54.210287,134.676308,37.602934,65.071848,87.712734,-89.52053,-21.493194,0,0.08
6196.936,-168.759003,259.590668,240.631912,-77.644032,-83.952756,-54.806965,134.636946,37.585,64.886267,87.385804,-89.463635,-21.339527,0,0.08
6212.401,-168.459595,259.565399,240.237274,-76.776918,-83.95648,-55.388117,134.597584,37.567066,64.700629,87.058874,-89.406798,-21.185859,0,0.06
6227.539,-168.23558,259.54483,239.940842,-76.136523,-83.959173,-55.813767,134.558221,37.549133,64.515048,86.731945,-89.349903,-21.032192,0,0.06
6243.222,-167.86322,259.507385,239.445969,-75.088067,-83.963527,-56.503837,134.518802,37.531199,64.329467,86.404958,-89.293066,-20.878525,0,0.06
6259.206,-167.640396,259.483032,239.148529,-74.470361,-83.966105,-56.906226,134.47944,37.513266,64.143828,86.078028,-89.236171,-20.724857,0,0.06
6274.308,-167.344009,259.448364,238.751343,-73.659855,-83.969543,-57.429221,134.449932,37.499801,64.004657,85.832802,-89.193543,-20.609578,0,0.06
6289.315,-167.048401,259.411163,238.353485,-72.864361,-83.972981,-57.936862,134.41057,37.481868,63.819076,85.505872,-89.136648,-20.455911,0,0.06
6303.349,-166.753586,259.371399,237.954941,-72.083878,-83.976591,-58.429205,134.371208,37.463934,63.633438,85.178943,-89.079811,-20.302244,0,0.06
6318.853,-166.459534,259.329102,237.555725,-71.318177,-83.980372,-58.906249,134.331789,37.446058,63.447857,84.852013,-89.022916,-20.148577,0,0.06
6335.791,-166.239487,259.295715,237.255844,-70.753699,-83.983351,-59.254092,134.292426,37.428124,63.262276,84.525083,-88.966079,-19.994909,0,0.06
6350.814,-165.946777,259.248932,236.855423,-70.013838,-83.987534,-59.704666,134.253064,37.410191,63.076637,84.198096,-88.909184,-19.841242,0,0.06
6366.942,-165.654816,259.199585,236.4543,-69.288703,-83.992003,-60.140286,134.213702,37.392257,62.891056,83.871166,-88.852347,-19.687575,0,0.06
6382.147,-165.363586,259.147675,236.05249,-68.578063,-83.996816,-60.561009,134.184137,37.378793,62.751827,83.625998,-88.809719,-19.572296,0,0.06
6397.077,-165.073105,259.09314,235.649994,-67.881862,-84.00203,-60.967007,134.144775,37.360859,62.566246,83.299011,-88.752824,-19.418628,0,0.06
6412.302,-164.783356,259.036011,235.246796,-67.200043,-84.007645,-61.358279,134.105413,37.342925,62.380665,82.972081,-88.695929,-19.264961,0,0.06
6427.428,-164.494324,258.976257,234.842896,-66.532375,-84.013776,-61.735057,134.066051,37.324992,62.195027,82.645151,-88.639092,-19.111294,0,0.06
6443.094,-164.278015,258.929718,234.539536,-66.040949,-84.018703,-62.008185,134.036486,37.311527,62.055856,82.399925,-88.596464,-18.996015,0,0.06
6458.665,-163.990219,258.865387,234.13443,-65.397976,-84.02575,-62.35981,133.987269,37.289125,61.823865,81.991292,-88.52536,-18.803959,0,0.06
6473.945,-163.70314,258.798401,233.728622,-64.768925,-84.033371,-62.697167,133.947907,37.271191,61.638227,81.664305,-88.468465,-18.650292,0,0.06
6489.439,-163.416733,258.72876,233.322128,-64.153683,-84.041679,-63.020487,133.918399,37.257727,61.499055,81.419136,-88.425837,-18.535013,0,0.06
6503.95,-163.131027,258.656464,232.914932,-63.552135,-84.050559,-63.32977,133.879037,37.239793,61.313474,81.092149,-88.369,-18.381346,0,0.06
6520.097,-162.845978,258.581512,232.50705,-62.964223,-84.060185,-63.625187,133.839675,37.221859,61.127836,80.765219,-88.312105,-18.227678,0,0.06
6534.044,-162.561615,258.503876,232.098465,-62.38989,-84.070498,-63.906853,133.800256,37.203983,60.942255,80.43829,-88.255267,-18.074011,0,0.06
6550.09,-162.34877,258.443878,231.791565,-61.967907,-84.078749,-64.109107,133.770748,37.190519,60.803026,80.193064,-88.212582,-17.958732,0,0.06
6565.097,-162.065552,258.361542,231.381775,-61.41695,-84.090437,-64.366881,133.731386,37.172585,60.617445,79.866134,-88.155745,-17.805065,0,0.06
6580.615,-161.782974,258.276489,230.971283,-60.879229,-84.10287,-64.61119,133.691967,37.154651,60.431864,79.539204,-88.09885,-17.651397,0,0.06
6595.944,-161.501038,258.188721,230.560089,-60.354744,-84.11622,-64.842092,133.652604,37.136718,60.246226,79.212275,-88.042013,-17.49773,0,0.06
6611.106,-161.289993,258.121124,230.251251,-59.970003,-84.126763,-65.006474,133.613242,37.118784,60.060645,78.885288,-87.985118,-17.344063,0,0.06
6626.836,-160.939026,258.005035,229.735641,-59.34502,-84.145441,-65.263904,133.57388,37.100851,59.875064,78.558358,-87.92828,-17.190395,0,0.06
6641.842,-160.658951,257.909058,229.322388,-58.859668,-84.161427,-65.454985,133.534518,37.082917,59.689425,78.231428,-87.871386,-17.036728,0,0.06
6658.867,-160.449295,257.835297,229.011993,-58.504205,-84.173975,-65.589687,133.504953,37.069453,59.550254,77.986202,-87.828758,-16.921449,0,0.06
6674.795,-160.170258,257.734497,228.597534,-58.041484,-84.191622,-65.75785,133.455736,37.04705,59.318263,77.577569,-87.757654,-16.729394,0,0.03
6689.799,-159.89183,257.630951,228.182388,-57.591655,-84.210185,-65.91295,133.416374,37.029116,59.132625,77.250582,-87.700816,-16.575726,0,0.03
6705.523,-159.613968,257.524628,227.766571,-57.15466,-84.229781,-66.055044,133.386867,37.015709,58.993453,77.005413,-87.658131,-16.460447,0,0.03
6719.007,-159.405945,257.443054,227.454254,-56.835351,-84.245136,-66.153019,133.347504,36.997776,58.807872,76.678426,-87.601293,-16.30678,0,0.03
6735.014,-159.059952,257.303619,226.932877,-56.31923,-84.27195,-66.300155,133.308085,36.979842,58.622234,76.351496,-87.544399,-16.153113,0,0.03
6750.4,-158.783798,257.188904,226.515015,-55.920795,-84.294639,-66.40323,133.268723,36.961908,58.436653,76.024567,-87.487561,-15.999445,0,0.03
6766.405,-158.577026,257.101013,226.201187,-55.63042,-84.312287,-66.471985,133.239215,36.948444,58.297424,75.779341,-87.444876,-15.884166,0,0.03
6782.822,-158.233078,256.951019,225.677292,-55.1626,-84.343169,-66.570305,133.189998,36.926041,58.065434,75.370707,-87.373829,-15.692111,0,0.03
6798.335,-158.027115,256.858887,225.362442,-54.891649,-84.362478,-66.619522,133.150579,36.908108,57.879853,75.04372,-87.316935,-15.538444,0,0.03
6814.407,-157.75296,256.733551,224.942078,-54.541686,-84.389177,-66.673609,133.121071,36.894643,57.740624,74.798552,-87.274306,-15.423164,0,0.03
6827.267,-157.547668,256.637695,224.626373,-54.287866,-84.409919,-66.705523,133.081709,36.87671,57.555043,74.471622,-87.217412,-15.269497,0,0.03
6842.772,-157.206161,256.474365,224.099365,-53.881238,-84.445958,-66.742135,133.042347,36.858776,57.369462,74.144635,-87.160574,-15.11583,0,0.03
6858.079,-156.933502,256.340454,223.677032,-53.570866,-84.475981,-66.756401,133.002985,36.840842,57.183824,73.817705,-87.10368,-14.962163,0,0.03
6873.713,-156.72934,256.238159,223.359848,-53.346897,-84.4993,-66.758235,132.97342,36.827378,57.044652,73.572479,-87.061052,-14.846883,0,0.03
6889.14,-156.457535,256.099213,222.936386,-53.060074,-84.531386,-66.748781,132.934058,36.809444,56.859071,73.245549,-87.004214,-14.693216,0,0.03
6904.323,-156.186218,255.957382,222.512268,-52.787003,-84.564617,-66.725633,132.894696,36.791511,56.673433,72.91862,-86.947319,-14.539549,0,0.03
6919.469,-155.915344,255.812653,222.087509,-52.527739,-84.598995,-66.688506,132.855334,36.773635,56.487852,72.59169,-86.890482,-14.385882,0,0.03
6935.474,-155.712494,255.702179,221.768539,-52.342502,-84.62558,-66.651435,132.815914,36.755701,56.302271,72.26476,-86.833587,-14.232214,0,0.03
6952.229,-155.374969,255.514435,221.236115,-52.051669,-84.671302,-66.571737,132.776552,36.737767,56.116632,71.937773,-86.776693,-14.078547,0,0.03
6967.729,-155.105438,255.360931,220.809464,-51.83532,-84.709232,-66.491638,132.73719,36.719834,55.931051,71.610844,-86.719855,-13.92488,0,0.03
6982.822,-154.90358,255.243881,220.48909,-51.682741,-84.738395,-66.421851,132.707625,36.706369,55.791823,71.365618,-86.677227,-13.809601,0,0.03
6997.898,-154.634796,255.085236,220.061371,-51.492519,-84.778388,-66.315568,132.658465,36.683967,55.559832,70.956984,-86.606123,-13.617545,0,0.03
7014.015,-154.366409,254.92363,219.633026,-51.317595,-84.819526,-66.193929,132.619046,36.666033,55.374251,70.629997,-86.549228,-13.463878,0,0.03
7027.634,-154.09845,254.759064,219.204102,-51.158427,-84.86181,-66.056591,132.589538,36.652569,55.235022,70.384828,-86.5066,-13.348599,0,0.03
7042.817,-153.897736,254.633698,218.882004,-51.049623,-84.894354,-65.942973,132.560031,36.639104,55.095851,70.139603,-86.463972,-13.23332,0,0.03
7058.407,-153.56369,254.421005,218.344437,-50.888851,-84.949989,-65.733156,132.510814,36.616701,54.86386,69.730912,-86.392868,-13.041264,0,0.03
7074.867,-153.363541,254.291153,218.021454,-50.805084,-84.984251,-65.594558,132.471452,36.598768,54.678222,69.403982,-86.336031,-12.887597,0,0.03
7090.239,-153.097,254.115402,217.590302,-50.708598,-85.030948,-65.394538,132.441887,36.585303,54.53905,69.158813,-86.293345,-12.772318,0,0.03
7105.983,-152.830826,253.93663,217.158585,-50.630046,-85.078789,-65.176699,132.402525,36.567427,54.353469,68.831826,-86.236508,-12.618651,0,0.03
7120.972,-152.565018,253.754852,216.726288,-50.569943,-85.127777,-64.940469,132.363163,36.549493,54.167831,68.504897,-86.179613,-12.464983,0,0.02
7136.296,-152.29953,253.570053,216.293427,-50.528919,-85.177911,-64.685159,132.323743,36.53156,53.98225,68.177967,-86.122776,-12.311316,0,0.02
7151.409,-152.100647,253.429474,215.968414,-50.511042,-85.216242,-64.480785,132.284381,36.513626,53.796669,67.851037,-86.065881,-12.157649,0,0.02
7156.309,-151.968155,253.334793,215.751572,-50.505485,-85.24214,-64.338233,132.274526,36.5091,53.750259,67.769276,-86.051672,-12.119203,0,0.02
7167.261,-151.769577,253.19136,215.426041,-50.506917,-85.281559,-64.114722,132.245019,36.495693,53.611031,67.52405,-86.009044,-12.003981,0,0.02
7182.383,-151.571167,253.046204,215.10022,-50.520267,-85.321552,-63.879236,132.205657,36.477759,53.42545,67.19712,-85.952149,-11.850314,0,0.02
7197.84,-151.3069,252.849991,214.665298,-50.557337,-85.375811,-63.546119,132.176092,36.464295,53.286221,66.951952,-85.909521,-11.735035,0,0.02
7213.717,-151.042938,252.650711,214.229858,-50.617212,-85.431101,-63.190255,132.13673,36.446361,53.10064,66.624965,-85.852626,-11.581368,0,0.02
7228.683,-150.779266,252.448364,213.7939,-50.700921,-85.48748,-62.81067,132.097368,36.428427,52.915059,66.298035,-85.795789,-11.427701,0,0.02
7243.922,-150.515869,252.242935,213.357437,-50.809496,-85.544891,-62.406277,132.058006,36.410494,52.72942,65.971105,-85.738894,-11.274033,0,0.02
7259.331,-150.318512,252.086838,213.029739,-50.907988,-85.58855,-62.08605,132.018643,36.39256,52.543839,65.644176,-85.682057,-11.120366,0,0.02
7276.404,-149.989899,251.822815,212.482971,-51.106002,-85.662576,-61.518593,131.979281,36.374627,52.358258,65.317189,-85.625162,-10.966699,0,0.02
7290.43,-149.792938,251.662064,212.154541,-51.24609,-85.707668,-61.156942,131.939862,36.356693,52.17262,64.990259,-85.568325,-10.813031,0,0.02
7304.442,-149.530533,251.445007,211.716217,-51.458944,-85.768631,-60.648729,131.910354,36.343229,52.033449,64.74509,-85.525639,-10.697752,0,0.02
7319.81,-149.268356,251.224838,211.277405,-51.702967,-85.830396,-60.109518,131.870992,36.325352,51.847868,64.418103,-85.468802,-10.544085,0,0.02
7335.52,-149.006424,251.001541,210.838135,-51.979877,-85.89302,-59.537534,131.831573,36.307419,51.662229,64.091174,-85.411907,-10.390418,0,0.02
7352.217,-148.74472,250.775116,210.398407,-52.291394,-85.956389,-58.931116,131.79221,36.289485,51.476648,63.764244,-85.35507,-10.23675,0,0.02
7368.046,-148.483215,250.545532,209.958237,-52.639466,-86.020503,-58.288314,131.752848,36.271552,51.291067,63.437314,-85.298175,-10.083083,0,0.02
7383.63,-148.221924,250.312805,209.517624,-53.026213,-86.085247,-57.607067,131.713486,36.253618,51.105429,63.110327,-85.241338,-9.929416,0,0.02
7399.009,-147.960831,250.07692,209.076569,-53.453754,-86.150622,-56.885083,131.674124,36.235684,50.919848,62.783397,-85.184443,-9.775749,0,0.02
7413.64,-147.765137,249.897934,208.745514,-53.802685,-86.200011,-56.315506,131.644559,36.22222,50.780619,62.538229,-85.141815,-9.660469,0,0.02
7428.693,-147.504364,249.656494,208.303741,-54.307633,-86.266245,-55.516459,131.605197,36.204286,50.595038,62.211242,-85.084977,-9.506802,0,0.02
7443.439,-147.243774,249.41188,207.861572,-54.860537,-86.332822,-54.669685,131.565835,36.186353,50.409457,61.884312,-85.028083,-9.353135,0,0.02
7460.414,-146.983337,249.164093,207.418991,-55.46432,-86.399801,-53.772204,131.526473,36.168419,50.223819,61.557382,-84.971188,-9.199468,0,0.02
7475.411,-146.788116,248.976135,207.086823,-55.952423,-86.450107,-53.063971,131.48711,36.150486,50.038238,61.230453,-84.914351,-9.0458,0,0.02
7490.593,-146.527954,248.722748,206.643585,-56.652921,-86.517315,-52.070175,131.447691,36.132552,49.852657,60.903523,-84.857513,-8.892133,0,0.02
7506.518,-146.267929,248.466141,206.199982,-57.413465,-86.584523,-51.016506,131.408329,36.114618,49.667018,60.576536,-84.800618,-8.738466,0,0.02
7521.512,-146.008026,248.206314,205.756042,-58.237837,-86.651616,-49.899238,131.378821,36.101211,49.527847,60.331367,-84.75799,-8.623187,0,0.02
7536.775,-145.74826,247.943283,205.311737,-59.129989,-86.718423,-48.714476,131.339402,36.083278,49.342209,60.00438,-84.701096,-8.469519,0,0.02
7552.265,-145.488602,247.677002,204.867111,-60.094105,-86.784771,-47.457922,131.30004,36.065344,49.156628,59.67745,-84.644258,-8.315852,0,0.02
7568.028,-145.22905,247.407501,204.422165,-61.134539,-86.850547,-46.125337,131.260677,36.04741,48.971047,59.350521,-84.587364,-8.162185,0,0.02
7583.263,-145.034454,247.203232,204.088257,-61.967735,-86.899363,-45.073157,131.221315,36.029477,48.785408,59.023591,-84.530526,-8.008518,0,0.02
7598.888,-144.77507,246.92804,203.642761,-63.152841,-86.963649,-43.596301,131.181953,36.011543,48.599827,58.696661,-84.473631,-7.85485,0,0.04
7613.694,-144.515762,246.649597,203.196991,-64.427099,-87.026731,-42.030637,131.142591,35.99361,48.414246,58.369674,-84.416794,-7.701183,0,0.04
7627.961,-144.256531,246.367889,202.750946,-65.795207,-87.088382,-40.371294,131.113026,35.980145,48.275017,58.124506,-84.374109,-7.585904,0,0.04
7643.94,-143.99736,246.082901,202.304626,-67.261865,-87.14837,-38.613746,131.073664,35.962212,48.089436,57.797519,-84.317271,-7.432237,0,0.04
7658.882,-143.738251,245.794647,201.858047,-68.831425,-87.206411,-36.753524,131.034302,35.944278,47.903855,57.470589,-84.260377,-7.278569,0,0.04
7674.634,-143.479187,245.503113,201.411224,-70.508014,-87.26216,-34.78656,130.99494,35.926345,47.718217,57.143659,-84.203539,-7.124902,0,0.04
7689.639,-143.284927,245.282288,201.075974,-71.837792,-87.302267,-33.239172,130.965375,35.91288,47.579046,56.898433,-84.160854,-7.009623,0,0.04
7707.75,-143.025925,244.984985,200.628754,-73.709645,-87.35326,-31.077517,130.916158,35.890477,47.347055,56.4898,-84.089807,-6.817568,0,0.04
7721.887,-142.766953,244.684387,200.181335,-75.696033,-87.40093,-28.801557,130.876796,35.872544,47.161417,56.162813,-84.032912,-6.6639,0,0.04
7735.882,-142.508011,244.380478,199.733719,-77.797814,-87.444991,-26.410604,130.847288,35.859137,47.022245,55.917644,-83.990284,-6.548621,0,0.04
7750.89,-142.249054,244.073242,199.285919,-80.014072,-87.48504,-23.905403,130.807869,35.841203,46.836607,55.590714,-83.93339,-6.394954,0,0.04
7768.323,-141.990112,243.762695,198.837952,-82.342171,-87.520564,-21.288648,130.768507,35.823269,46.651026,55.263727,-83.876552,-6.241287,0,0.04
7783.91,-141.731171,243.448837,198.389832,-84.777471,-87.551217,-18.565093,130.729145,35.805336,46.465445,54.936798,-83.819657,-6.087619,0,0.04
7799.452,-141.536942,243.211243,198.053635,-86.670122,-87.570755,-16.456494,130.689782,35.787402,46.279806,54.609868,-83.76282,-5.933952,0,0.04
7814.142,-141.277954,242.891525,197.60527,-89.274502,-87.591897,-13.564375,130.65042,35.769469,46.094225,54.282938,-83.705925,-5.780285,0,0.04
7828.025,-141.018951,242.568481,197.156784,-91.960929,-87.606966,-10.590609,130.620855,35.756004,45.955054,54.037712,-83.663297,-5.665006,0,0.04
7843.026,-140.759888,242.242081,196.708191,-94.715653,-87.615732,-7.548834,130.581493,35.738071,45.769416,53.710783,-83.606403,-5.511338,0,0.04
7859.025,-140.500793,241.912323,196.259491,-97.522974,-87.617795,-4.454861,130.542131,35.720137,45.583835,53.383853,-83.549565,-5.357671,0,0.04
7874.524,-140.241638,241.579224,195.81073,-100.365475,-87.612925,-1.326054,130.502769,35.702203,45.398254,53.056866,-83.49267,-5.204004,0,0.04
7890.026,-139.982437,241.242737,195.361908,-103.224535,-87.60095,1.818969,130.463349,35.68427,45.212615,52.729936,-83.435833,-5.050336,0,0.04
7905.629,-139.787979,240.988174,195.025238,-105.368199,-87.587141,4.176805,130.433842,35.670805,45.073444,52.484767,-83.393148,-4.935057,0,0.04
7920.524,-139.528641,240.645798,194.57634,-108.210242,-87.562332,7.304181,130.39448,35.652929,44.887806,52.15778,-83.33631,-4.78139,0,0.04
7936.524,-139.269226,240.300034,194.127396,-111.017047,-87.530132,10.395918,130.355118,35.634995,44.702224,51.830851,-83.279473,-4.627723,0,0.04
7952.119,-139.009705,239.950882,193.678452,-113.771542,-87.490598,13.434944,130.315755,35.617062,44.516643,51.503921,-83.222578,-4.474056,0,0.04
7967.046,-138.750092,239.598358,193.229523,-116.458427,-87.443787,16.405959,130.276336,35.599128,44.331005,51.176991,-83.165683,-4.320388,0,0.04
7982.769,-138.490372,239.242416,192.780594,-119.064469,-87.389872,19.295843,130.236974,35.581195,44.145424,50.850004,-83.108846,-4.166721,0,0.04
7998.274,-138.230545,238.883087,192.331711,-121.579066,-87.329081,22.093826,130.197612,35.563261,43.959843,50.523075,-83.051951,-4.013054,0,0.04
8015.323,-138.035599,238.611359,191.995087,-123.399926,-87.279062,24.126909,130.158249,35.545328,43.774205,50.196145,-82.995114,-3.859386,0,0.04
8030.335,-137.775543,238.246063,191.546295,-125.735875,-87.206755,26.745555,130.118887,35.527394,43.588624,49.869215,-82.938219,-3.705719,0,0.04
8045.531,-137.515366,237.877365,191.09758,-127.963248,-87.128202,29.255225,130.089323,35.513929,43.449452,49.623989,-82.895591,-3.59044,0,0.04
8060.735,-137.255035,237.505234,190.648956,-130.079754,-87.043634,31.653569,130.04996,35.495996,43.263814,49.29706,-82.838754,-3.436773,0,0.04
8076.552,-136.994568,237.1297,190.200455,-132.084992,-86.95345,33.940301,130.010598,35.478062,43.078233,48.97013,-82.781859,-3.283105,0,0.04
8092.525,-136.733932,236.750732,189.75206,-133.98005,-86.857881,36.116337,129.971179,35.460129,42.892652,48.643143,-82.725022,-3.129438,0,0.04
8107.795,-136.473145,236.368332,189.303818,-135.767048,-86.757097,38.18397,129.931816,35.442195,42.707014,48.316213,-82.668127,-2.975771,0,0.04
8122.641,-136.277435,236.079269,188.967728,-137.038327,-86.678373,39.66541,129.892454,35.424262,42.521433,47.989283,-82.611289,-2.822104,0,0.04
8138.656,-136.016342,235.690857,188.51976,-138.644327,-86.569282,41.551243,129.853092,35.406328,42.335851,47.662354,-82.554395,-2.668379,0,0.04
8152.643,-135.755066,235.298996,188.071976,-140.152409,-86.455779,43.338757,129.823585,35.392921,42.196623,47.417128,-82.511767,-2.553157,0,0.04
8167.552,-135.493591,234.903702,187.62439,-141.567214,-86.338036,45.032535,129.784223,35.374987,42.011042,47.090198,-82.454872,-2.39949,0,0.04
8183.638,-135.231918,234.504944,187.177032,-142.893268,-86.216283,46.63716,129.744803,35.357054,41.825403,46.763268,-82.398035,-2.245823,0,0.04
8198.643,-134.970047,234.102753,186.729904,-144.135497,-86.090748,48.157446,129.705441,35.33912,41.639822,46.436339,-82.34114,-2.092155,0,0.04
8214.005,-134.773499,233.798828,186.394714,-145.014988,-85.994204,49.245207,129.666079,35.321186,41.454241,46.109352,-82.284302,-1.938488,0,0.04
8229.512,-134.511261,233.390579,185.948044,-146.12177,-85.862424,50.629301,129.636514,35.307722,41.315013,45.864183,-82.241617,-1.823209,0,0.04
8244.969,-134.248795,232.978867,185.501633,-147.157506,-85.72732,51.941833,129.597152,35.289788,41.129432,45.537196,-82.18478,-1.669542,0,0.04
8259.76,-133.986084,232.563675,185.055527,-148.126435,-85.589066,53.187214,129.55779,35.271855,40.943851,45.210266,-82.127885,-1.515874,0,0.04
8275.511,-133.725647,232.149017,184.613968,-149.024604,-85.449035,54.358626,129.518771,35.254093,40.759988,44.88643,-82.071563,-1.36364,0,0.04
8290.629,-133.491119,231.773041,184.21698,-149.783372,-85.320635,55.362906,129.483706,35.238108,40.594575,44.595081,-82.020914,-1.226703,0,0.04
8306.114,-133.297333,231.46051,183.889389,-150.376669,-85.212919,56.158687,129.454714,35.22493,40.45804,44.354496,-81.979031,-1.113601,0,0.04
8321.571,-133.178955,231.268799,183.689484,-150.724799,-85.146398,56.630232,129.437067,35.216851,40.374617,44.207647,-81.953534,-1.044617,0,0.04
8336.449,-133.057129,231.070847,183.483932,-151.072126,-85.077414,57.104469,129.418847,35.2086,40.288902,44.056558,-81.927235,-0.97357,0,0.04
8352.237,-132.976517,230.939499,183.348007,-151.296095,-85.031463,57.412319,129.406815,35.2031,40.232122,43.956634,-81.909875,-0.926587,0,0.04
8367.987,-132.937134,230.875229,183.281647,-151.403811,-85.008946,57.561002,129.400914,35.200407,40.204448,43.907818,-81.901337,-0.903669,0,0.04
8382.992,-132.930832,230.864944,183.271027,-151.420942,-85.005336,57.584665,129.399997,35.200006,40.199979,43.900026,-81.90002,-0.900002,0,0.04
8399.707,-132.930832,230.864944,183.271027,-151.420942,-85.005336,57.584665,129.399997,35.200006,40.199979,43.900026,-81.90002,-0.900002,0,0.04
8414.85,-132.930832,230.864944,183.271027,-151.420942,-85.005336,57.584665,129.399997,35.200006,40.199979,43.900026,-81.90002,-0.900002,0,0.04
8430.863,-132.930832,230.864944,183.271027,-151.420942,-85.005336,57.584665,129.399997,35.200006,40.199979,43.900026,-81.90002,-0.900002,0,0.04
8444.202,-132.930832,230.864944,183.271027,-151.420942,-85.005336,57.584665,129.399997,35.200006,40.199979,43.900026,-81.90002,-0.900002,0,0.04
8460.354,-132.930832,230.864944,183.271027,-151.420942,-85.005336,57.584665,129.399997,35.200006,40.199979,43.900026,-81.90002,-0.900002,0,0.04
8475.351,-132.930832,230.864944,183.271027,-151.420942,-85.005336,57.584665,129.399997,35.200006,40.199979,43.900026,-81.90002,-0.900002,0,0.04
8491.096,-132.930832,230.864944,183.271027,-151.420942,-85.005336,57.584665,129.399997,35.200006,40.199979,43.900026,-81.90002,-0.900002,0,0.04
8507.726,-132.930832,230.864944,183.271027,-151.420942,-85.005336,57.584665,129.399997,35.200006,40.199979,43.900026,-81.90002,-0.900002,0,0.07
8523.0,-132.930832,230.864944,183.271027,-151.420942,-85.005336,57.584665,129.399997,35.200006,40.199979,43.900026,-81.90002,-0.900002,0,0.07
8538.505,-132.930832,230.864944,183.271027,-151.420942,-85.005336,57.584665,129.399997,35.200006,40.199979,43.900026,-81.90002,-0.900002,0,0.07
8553.119,-132.930832,230.864944,183.271027,-151.420942,-85.005336,57.584665,129.399997,35.200006,40.199979,43.900026,-81.90002,-0.900002,0,0.07
8567.654,-132.930832,230.864944,183.271027,-151.420942,-85.005336,57.584665,129.399997,35.200006,40.199979,43.900026,-81.90002,-0.900002,0,0.07
8585.49,-132.930832,230.864944,183.271027,-151.420942,-85.005336,57.584665,129.399997,35.200006,40.199979,43.900026,-81.90002,-0.900002,0,0.07
8600.45,-132.930832,230.864944,183.271027,-151.420942,-85.005336,57.584665,129.399997,35.200006,40.199979,43.900026,-81.90002,-0.900002,0,0.07
8615.021,-132.930832,230.864944,183.271027,-151.420942,-85.005336,57.584665,129.399997,35.200006,40.199979,43.900026,-81.90002,-0.900002,0,0.07
8630.713,-132.930832,230.864944,183.271027,-151.420942,-85.005336,57.584665,129.399997,35.200006,40.199979,43.900026,-81.90002,-0.900002,0,0.07
8645.752,-132.930832,230.864944,183.271027,-151.420942,-85.005336,57.584665,129.399997,35.200006,40.199979,43.900026,-81.90002,-0.900002,0,0.07
8661.287,-132.930832,230.864944,183.271027,-151.420942,-85.005336,57.584665,129.399997,35.200006,40.199979,43.900026,-81.90002,-0.900002,0,0.07
8676.52,-132.930832,230.864944,183.271027,-151.420942,-85.005336,57.584665,129.399997,35.200006,40.199979,43.900026,-81.90002,-0.900002,0,0.07
8692.095,-132.930832,230.864944,183.271027,-151.420942,-85.005336,57.584665,129.399997,35.200006,40.199979,43.900026,-81.90002,-0.900002,0,0.07
8708.125,-132.930832,230.864944,183.271027,-151.420942,-85.005336,57.584665,129.399997,35.200006,40.199979,43.900026,-81.90002,-0.900002,0,0.07
8723.668,-132.930832,230.864944,183.271027,-151.420942,-85.005336,57.584665,129.399997,35.200006,40.199979,43.900026,-81.90002,-0.900002,0,0.07
8728.313,-132.930832,230.864944,183.271027,-151.420942,-85.005336,57.584665,129.399997,35.200006,40.199979,43.900026,-81.90002,-0.900002,0,0.07
8737.937,-132.930832,230.864944,183.271027,-151.420942,-85.005336,57.584665,129.399997,35.200006,40.199979,43.900026,-81.90002,-0.900002,0,0.07
8753.038,-132.930832,230.864944,183.271027,-151.420942,-85.005336,57.584665,129.399997,35.200006,40.199979,43.900026,-81.90002,-0.900002,0,0.07
8768.503,-132.930832,230.864944,183.271027,-151.420942,-85.005336,57.584665,129.399997,35.200006,40.199979,43.900026,-81.90002,-0.900002,0,0.07
8783.716,-132.930832,230.864944,183.271027,-151.420942,-85.005336,57.584665,129.399997,35.200006,40.199979,43.900026,-81.90002,-0.900002,0,0.07
8799.376,-132.930832,230.864944,183.271027,-151.420942,-85.005336,57.584665,129.399997,35.200006,40.199979,43.900026,-81.90002,-0.900002,0,0.07
8814.817,-132.930832,230.864944,183.271027,-151.420942,-85.005336,57.584665,129.399997,35.200006,40.199979,43.900026,-81.90002,-0.900002,0,0.07
8829.777,-132.930832,230.864944,183.271027,-151.420942,-85.005336,57.584665,129.399997,35.200006,40.199979,43.900026,-81.90002,-0.900002,0,0.07
8844.366,-132.930832,230.864944,183.271027,-151.420942,-85.005336,57.584665,129.399997,35.200006,40.199979,43.900026,-81.90002,-0.900002,0,0.07
8859.82,-132.930832,230.864944,183.271027,-151.420942,-85.005336,57.584665,129.399997,35.200006,40.199979,43.900026,-81.90002,-0.900002,0,0.07
8874.825,-132.930832,230.864944,183.271027,-151.420942,-85.005336,57.584665,129.399997,35.200006,40.199979,43.900026,-81.90002,-0.900002,0,0.07
8890.681,-132.930832,230.864944,183.271027,-151.420942,-85.005336,57.584665,129.399997,35.200006,40.199979,43.900026,-81.90002,-0.900002,0,0.07
8906.657,-132.930832,230.864944,183.271027,-151.420942,-85.005336,57.584665,129.399997,35.200006,40.199979,43.900026,-81.90002,-0.900002,0,0.07
8921.656,-132.930832,230.864944,183.271027,-151.420942,-85.005336,57.584665,129.399997,35.200006,40.199979,43.900026,-81.90002,-0.900002,0,0.07
8937.591,-132.930832,230.864944,183.271027,-151.420942,-85.005336,57.584665,129.399997,35.200006,40.199979,43.900026,-81.90002,-0.900002,0,0.07
8952.725,-132.930832,230.864944,183.271027,-151.420942,-85.005336,57.584665,129.399997,35.200006,40.199979,43.900026,-81.90002,-0.900002,0,0.07
8968.232,-132.930832,230.864944,183.271027,-151.420942,-85.005336,57.584665,129.399997,35.200006,40.199979,43.900026,-81.90002,-0.900002,0,0.07
8985.054,-132.930832,230.864944,183.271027,-151.420942,-85.005336,57.584665,129.399997,35.200006,40.199979,43.900026,-81.90002,-0.900002,0,0.07
9001.504,-132.930832,230.864944,183.271027,-151.420942,-85.005336,57.584665,129.399997,35.200006,40.199979,43.900026,-81.90002,-0.900002,0,0.07
9013.959,-132.930832,230.864944,183.271027,-151.420942,-85.005336,57.584665,129.399997,35.200006,40.199979,43.900026,-81.90002,-0.900002,0,0.07
9029.675,-132.930832,230.864944,183.271027,-151.420942,-85.005336,57.584665,129.399997,35.200006,40.199979,43.900026,-81.90002,-0.900002,0,0.07
9044.882,-132.930832,230.864944,183.271027,-151.420942,-85.005336,57.584665,129.399997,35.200006,40.199979,43.900026,-81.90002,-0.900002,0,0.07
9060.084,-132.930832,230.864944,183.271027,-151.420942,-85.005336,57.584665,129.399997,35.200006,40.199979,43.900026,-81.90002,-0.900002,0,0.07
9075.3,-132.930832,230.864944,183.271027,-151.420942,-85.005336,57.584665,129.399997,35.200006,40.199979,43.900026,-81.90002,-0.900002,0,0.07
9092.197,-132.930832,230.864944,183.271027,-151.420942,-85.005336,57.584665,129.399997,35.200006,40.199979,43.900026,-81.90002,-0.900002,0,0.07
9107.689,-132.930832,230.864944,183.271027,-151.420942,-85.005336,57.584665,129.399997,35.200006,40.199979,43.900026,-81.90002,-0.900002,0,0.07
9121.484,-132.930832,230.864944,183.271027,-151.420942,-85.005336,57.584665,129.399997,35.200006,40.199979,43.900026,-81.90002,-0.900002,0,0.07
9137.033,-132.930832,230.864944,183.271027,-151.420942,-85.005336,57.584665,129.399997,35.200006,40.199979,43.900026,-81.90002,-0.900002,0,0.07
9152.29,-132.930832,230.864944,183.271027,-151.420942,-85.005336,57.584665,129.399997,35.200006,40.199979,43.900026,-81.90002,-0.900002,0,0.07
9169.085,-132.930832,230.864944,183.271027,-151.420942,-85.005336,57.584665,129.399997,35.200006,40.199979,43.900026,-81.90002,-0.900002,0,0.07
9184.593,-132.930832,230.864944,183.271027,-151.420942,-85.005336,57.584665,129.399997,35.200006,40.199979,43.900026,-81.90002,-0.900002,0,0.07
9199.975,-132.930832,230.864944,183.271027,-151.420942,-85.005336,57.584665,129.399997,35.200006,40.199979,43.900026,-81.90002,-0.900002,0,0.07
9214.863,-132.930832,230.864944,183.271027,-151.420942,-85.005336,57.584665,129.399997,35.200006,40.199979,43.900026,-81.90002,-0.900002,0,0.07
9230.389,-132.930832,230.864944,183.271027,-151.420942,-85.005336,57.584665,129.399997,35.200006,40.199979,43.900026,-81.90002,-0.900002,0,0.07
9245.928,-132.930832,230.864944,183.271027,-151.420942,-85.005336,57.584665,129.399997,35.200006,40.199979,43.900026,-81.90002,-0.900002,0,0.07
9261.516,-132.930832,230.864944,183.271027,-151.420942,-85.005336,57.584665,129.399997,35.200006,40.199979,43.900026,-81.90002,-0.900002,0,0.07
9276.311,-132.930832,230.864944,183.271027,-151.420942,-85.005336,57.584665,129.399997,35.200006,40.199979,43.900026,-81.90002,-0.900002,0,0.07
9291.102,-132.930832,230.864944,183.271027,-151.420942,-85.005336,57.584665,129.399997,35.200006,40.199979,43.900026,-81.90002,-0.900002,0,0.07
9306.108,-132.930832,230.864944,183.271027,-151.420942,-85.005336,57.584665,129.399997,35.200006,40.199979,43.900026,-81.90002,-0.900002,0,0.07
9321.606,-132.930832,230.864944,183.271027,-151.420942,-85.005336,57.584665,129.399997,35.200006,40.199979,43.900026,-81.90002,-0.900002,0,0.07
9337.724,-132.930832,230.864944,183.271027,-151.420942,-85.005336,57.584665,129.399997,35.200006,40.199979,43.900026,-81.90002,-0.900002,0,0.07
9352.57,-132.930832,230.864944,183.271027,-151.420942,-85.005336,57.584665,129.399997,35.200006,40.199979,43.900026,-81.90002,-0.900002,0,0.07
9368.072,-132.930832,230.864944,183.271027,-151.420942,-85.005336,57.584665,129.399997,35.200006,40.199979,43.900026,-81.90002,-0.900002,0,0.07
9383.576,-132.930832,230.864944,183.271027,-151.420942,-85.005336,57.584665,129.399997,35.200006,40.199979,43.900026,-81.90002,-0.900002,0,0.07
9400.241,-132.930832,230.864944,183.271027,-151.420942,-85.005336,57.584665,129.399997,35.200006,40.199979,43.900026,-81.90002,-0.900002,0,0.07
9415.77,-132.930832,230.864944,183.271027,-151.420942,-85.005336,57.584665,129.399997,35.200006,40.199979,43.900026,-81.90002,-0.900002,0,0.07
9429.008,-132.930832,230.864944,183.271027,-151.420942,-85.005336,57.584665,129.399997,35.200006,40.199979,43.900026,-81.90002,-0.900002,0,0.04
9445.84,-132.930832,230.864944,183.271027,-151.420942,-85.005336,57.584665,129.399997,35.200006,40.199979,43.900026,-81.90002,-0.900002,0,0.04
9461.737,-132.930832,230.864944,183.271027,-151.420942,-85.005336,57.584665,129.399997,35.200006,40.199979,43.900026,-81.90002,-0.900002,0,0.04
9476.57,-132.930832,230.864944,183.271027,-151.420942,-85.005336,57.584665,129.399997,35.200006,40.199979,43.900026,-81.90002,-0.900002,0,0.04
9492.184,-132.930832,230.864944,183.271027,-151.420942,-85.005336,57.584665,129.399997,35.200006,40.199979,43.900026,-81.90002,-0.900002,0,0.04
9507.725,-132.930832,230.864944,183.271027,-151.420942,-85.005336,57.584665,129.399997,35.200006,40.199979,43.900026,-81.90002,-0.900002,0,0.04
9522.702,-132.930832,230.864944,183.271027,-151.420942,-85.005336,57.584665,129.399997,35.200006,40.199979,43.900026,-81.90002,-0.900002,0,0.04
9537.96,-132.930832,230.864944,183.271027,-151.420942,-85.005336,57.584665,129.399997,35.200006,40.199979,43.900026,-81.90002,-0.900002,0,0.04
9552.969,-132.930832,230.864944,183.271027,-151.420942,-85.005336,57.584665,129.399997,35.200006,40.199979,43.900026,-81.90002,-0.900002,0,0.04
9568.682,-132.930832,230.864944,183.271027,-151.420942,-85.005336,57.584665,129.399997,35.200006,40.199979,43.900026,-81.90002,-0.900002,0,0.04
9583.716,-132.930832,230.864944,183.271027,-151.420942,-85.005336,57.584665,129.399997,35.200006,40.199979,43.900026,-81.90002,-0.900002,0,0.04
9597.716,-132.930832,230.864944,183.271027,-151.420942,-85.005336,57.584665,129.399997,35.200006,40.199979,43.900026,-81.90002,-0.900002,0,0.04
9613.771,-132.930832,230.864944,183.271027,-151.420942,-85.005336,57.584665,129.399997,35.200006,40.199979,43.900026,-81.90002,-0.900002,0,0.04
9630.52,-132.930832,230.864944,183.271027,-151.420942,-85.005336,57.584665,129.399997,35.200006,40.199979,43.900026,-81.90002,-0.900002,0,0.04
9644.36,-132.930832,230.864944,183.271027,-151.420942,-85.005336,57.584665,129.399997,35.200006,40.199979,43.900026,-81.90002,-0.900002,0,0.04
9659.729,-132.930832,230.864944,183.271027,-151.420942,-85.005336,57.584665,129.399997,35.200006,40.199979,43.900026,-81.90002,-0.900002,0,0.04
9674.734,-132.930832,230.864944,183.271027,-151.420942,-85.005336,57.584665,129.399997,35.200006,40.199979,43.900026,-81.90002,-0.900002,0,0.04
9690.871,-132.930832,230.864944,183.271027,-151.420942,-85.005336,57.584665,129.399997,35.200006,40.199979,43.900026,-81.90002,-0.900002,0,0.04
9707.311,-132.930832,230.864944,183.271027,-151.420942,-85.005336,57.584665,129.399997,35.200006,40.199979,43.900026,-81.90002,-0.900002,0,0.04
9722.398,-132.930832,230.864944,183.271027,-151.420942,-85.005336,57.584665,129.399997,35.200006,40.199979,43.900026,-81.90002,-0.900002,0,0.04
9737.529,-132.930832,230.864944,183.271027,-151.420942,-85.005336,57.584665,129.399997,35.200006,40.199979,43.900026,-81.90002,-0.900002,0,0.04
9752.36,-132.930832,230.864944,183.271027,-151.420942,-85.005336,57.584665,129.399997,35.200006,40.199979,43.900026,-81.90002,-0.900002,0,0.04
9768.642,-132.930832,230.864944,183.271027,-151.420942,-85.005336,57.584665,129.399997,35.200006,40.199979,43.900026,-81.90002,-0.900002,0,0.04
9784.245,-132.930832,230.864944,183.271027,-151.420942,-85.005336,57.584665,129.399997,35.200006,40.199979,43.900026,-81.90002,-0.900002,0,0.04
9799.32,-132.930832,230.864944,183.271027,-151.420942,-85.005336,57.584665,129.399997,35.200006,40.199979,43.900026,-81.90002,-0.900002,0,0.04
9815.163,-132.930832,230.864944,183.271027,-151.420942,-85.005336,57.584665,129.399997,35.200006,40.199979,43.900026,-81.90002,-0.900002,0,0.04
9819.66,-132.930832,230.864944,183.271027,-151.420942,-85.005336,57.584665,129.399997,35.200006,40.199979,43.900026,-81.90002,-0.900002,0,0.04
9829.663,-132.930832,230.864944,183.271027,-151.420942,-85.005336,57.584665,129.399997,35.200006,40.199979,43.900026,-81.90002,-0.900002,0,0.04
9844.162,-132.930832,230.864944,183.271027,-151.420942,-85.005336,57.584665,129.399997,35.200006,40.199979,43.900026,-81.90002,-0.900002,0,0.04
9860.378,-132.930832,230.864944,183.271027,-151.420942,-85.005336,57.584665,129.399997,35.200006,40.199979,43.900026,-81.90002,-0.900002,0,0.04
9875.719,-132.930832,230.864944,183.271027,-151.420942,-85.005336,57.584665,129.399997,35.200006,40.199979,43.900026,-81.90002,-0.900002,0,0.04
