BAEK26/lfd/data/sepisode3/jed.csv
timestamp,x,y,z,roll,pitch,yaw,joint1,joint2,joint3,joint4,joint5,joint6,gripper,scale
127.38,-133.248947,230.860901,183.247192,173.784574,-85.566548,92.760492,129.409394,35.202527,40.200839,43.637669,-81.866444,-3.757343,0,-0.01
128.381,-133.248947,230.860901,183.247192,173.784574,-85.566548,92.760492,129.409394,35.202527,40.200839,43.637669,-81.866444,-3.757343,0,-0.01
140.381,-133.248947,230.860901,183.247192,173.784574,-85.566548,92.760492,129.409394,35.202527,40.200839,43.637669,-81.866444,-3.757343,0,-0.01
156.58,-133.248947,230.860901,183.247192,173.784574,-85.566548,92.760492,129.409394,35.202527,40.200839,43.637669,-81.866444,-3.757343,0,-0.01
171.584,-133.248947,230.860901,183.247192,173.784574,-85.566548,92.760492,129.409394,35.202527,40.200839,43.637669,-81.866444,-3.757343,0,-0.01
188.538,-133.248947,230.860901,183.247192,173.784574,-85.566548,92.760492,129.409394,35.202527,40.200839,43.637669,-81.866444,-3.757343,0,-0.01
204.262,-133.248947,230.860901,183.247192,173.784574,-85.566548,92.760492,129.409394,35.202527,40.200839,43.637669,-81.866444,-3.757343,0,-0.01
218.683,-133.248947,230.860901,183.247192,173.784574,-85.566548,92.760492,129.409394,35.202527,40.200839,43.637669,-81.866444,-3.757343,0,-0.03
233.757,-133.248947,230.860901,183.247192,173.784574,-85.566548,92.760492,129.409394,35.202527,40.200839,43.637669,-81.866444,-3.757343,0,-0.03
248.625,-133.248947,230.860901,183.247192,173.784574,-85.566548,92.760492,129.409394,35.202527,40.200839,43.637669,-81.866444,-3.757343,0,-0.03
263.136,-133.248947,230.860901,183.247192,173.784574,-85.566548,92.760492,129.409394,35.202527,40.200839,43.637669,-81.866444,-3.757343,0,-0.03
280.12,-133.248947,230.860901,183.247192,173.784574,-85.566548,92.760492,129.409394,35.202527,40.200839,43.637669,-81.866444,-3.757343,0,-0.03
295.663,-133.248947,230.860901,183.247192,173.784574,-85.566548,92.760492,129.409394,35.202527,40.200839,43.637669,-81.866444,-3.757343,0,-0.03
311.011,-133.248947,230.860901,183.247192,173.784574,-85.566548,92.760492,129.409394,35.202527,40.200839,43.637669,-81.866444,-3.757343,0,-0.03
326.55,-133.248947,230.860901,183.247192,173.784574,-85.566548,92.760492,129.409394,35.202527,40.200839,43.637669,-81.866444,-3.757343,0,-0.03
341.824,-133.248947,230.860901,183.247192,173.784574,-85.566548,92.760492,129.409394,35.202527,40.200839,43.637669,-81.866444,-3.757343,0,-0.03
357.926,-133.248947,230.860901,183.247192,173.784574,-85.566548,92.760492,129.409394,35.202527,40.200839,43.637669,-81.866444,-3.757343,0,-0.03
372.727,-133.248947,230.860901,183.247192,173.784574,-85.566548,92.760492,129.409394,35.202527,40.200839,43.637669,-81.866444,-3.757343,0,-0.03
388.168,-133.225739,230.859329,183.246063,173.804054,-85.565632,92.719239,129.409394,35.202527,40.200839,43.65967,-81.866444,-3.757343,0,-0.03
403.616,-133.20253,230.857758,183.244919,173.82342,-85.564715,92.677986,129.409394,35.202527,40.200839,43.681615,-81.866444,-3.757343,0,-0.03
418.744,-133.20253,230.857758,183.244919,173.82342,-85.564715,92.677986,129.409394,35.202527,40.200839,43.681615,-81.866444,-3.757343,0,-0.03
434.056,-133.20253,230.857758,183.244919,173.82342,-85.564715,92.677986,129.409394,35.202527,40.200839,43.681615,-81.866444,-3.757343,0,-0.03
449.219,-133.20253,230.857758,183.244919,173.82342,-85.564715,92.677986,129.409394,35.202527,40.200839,43.681615,-81.866444,-3.757343,0,-0.03
464.333,-133.20253,230.857758,183.244919,173.82342,-85.564715,92.677986,129.409394,35.202527,40.200839,43.681615,-81.866444,-3.757343,0,-0.03
479.551,-133.20253,230.857758,183.244919,173.82342,-85.564715,92.677986,129.409394,35.202527,40.200839,43.681615,-81.866444,-3.757343,0,-0.03
494.048,-133.20253,230.857758,183.244919,173.82342,-85.564715,92.677986,129.409394,35.202527,40.200839,43.681615,-81.866444,-3.757343,0,-0.03
509.18,-133.20253,230.857758,183.244919,173.82342,-85.564715,92.677986,129.409394,35.202527,40.200839,43.681615,-81.866444,-3.757343,0,-0.03
524.217,-133.20253,230.857758,183.244919,173.82342,-85.564715,92.677986,129.409394,35.202527,40.200839,43.681615,-81.866444,-3.757343,0,-0.03
539.723,-133.20253,230.857758,183.244919,173.82342,-85.564715,92.677986,129.409394,35.202527,40.200839,43.681615,-81.866444,-3.757343,0,-0.03
556.597,-133.20253,230.857758,183.244919,173.82342,-85.564715,92.677986,129.409394,35.202527,40.200839,43.681615,-81.866444,-3.757343,0,-0.03
572.231,-133.20253,230.857758,183.244919,173.82342,-85.564715,92.677986,129.409394,35.202527,40.200839,43.681615,-81.866444,-3.757343,0,-0.03
587.814,-133.20253,230.857758,183.244919,173.82342,-85.564715,92.677986,129.409394,35.202527,40.200839,43.681615,-81.866444,-3.757343,0,-0.03
601.668,-133.20253,230.857758,183.244919,173.82342,-85.564715,92.677986,129.409394,35.202527,40.200839,43.681615,-81.866444,-3.757343,0,-0.03
618.776,-133.20253,230.857758,183.244919,173.82342,-85.564715,92.677986,129.409394,35.202527,40.200839,43.681615,-81.866444,-3.757343,0,-0.03
633.737,-133.20253,230.857758,183.244919,173.82342,-85.564715,92.677986,129.409394,35.202527,40.200839,43.681615,-81.866444,-3.757343,0,-0.03
649.246,-133.20253,230.857758,183.244919,173.82342,-85.564715,92.677986,129.409394,35.202527,40.200839,43.681615,-81.866444,-3.757343,0,-0.03
664.753,-133.20253,230.857758,183.244919,173.82342,-85.564715,92.677986,129.409394,35.202527,40.200839,43.681615,-81.866444,-3.757343,0,-0.03
679.827,-133.20253,230.857758,183.244919,173.82342,-85.564715,92.677986,129.409394,35.202527,40.200839,43.681615,-81.866444,-3.757343,0,-0.02
694.876,-133.20253,230.857758,183.244919,173.82342,-85.564715,92.677986,129.409394,35.202527,40.200839,43.681615,-81.866444,-3.757343,0,-0.02
710.578,-133.20253,230.857758,183.244919,173.82342,-85.564715,92.677986,129.409394,35.202527,40.200839,43.681615,-81.866444,-3.757343,0,-0.02
726.069,-133.167709,230.855377,183.24321,173.852526,-85.56334,92.616107,129.409394,35.202527,40.200839,43.714617,-81.866444,-3.757343,0,-0.02
741.757,-133.063278,230.848114,183.238068,173.939616,-85.559215,92.430697,129.409394,35.202527,40.200839,43.813452,-81.866444,-3.757343,0,-0.02
756.364,-132.864029,230.83609,183.262756,174.058046,-85.583222,92.124738,129.409394,35.202527,40.200839,44.077128,-81.916807,-3.757343,0,-0.02
772.417,-132.475143,230.81311,183.347275,173.092498,-85.653638,92.727547,129.409394,35.202527,40.200839,44.461697,-82.022117,-3.88918,0,-0.02
787.845,-131.969849,230.778015,183.436096,170.005229,-85.701595,95.348199,129.409394,35.202527,40.200839,44.835208,-82.099925,-4.097909,0,-0.02
803.402,-131.465958,230.737473,183.505325,165.350921,-85.689734,99.540989,129.409394,35.202527,40.200839,45.307612,-82.1869,-4.47142,0,-0.02
818.213,-130.940979,230.688568,183.543549,161.028757,-85.62648,103.380895,129.409394,35.202527,40.200839,45.802017,-82.246373,-4.833988,0,-0.02
833.748,-130.383163,230.6297,183.554474,159.628792,-85.59829,104.259297,129.409394,35.202527,40.200839,46.329367,-82.283042,-4.976826,0,-0.02
848.915,-129.932007,230.576569,183.535767,159.89241,-85.587118,103.569856,129.409394,35.202527,40.200839,46.757825,-82.287626,-4.987769,0,-0.02
864.713,-129.585495,230.533188,183.51741,160.212063,-85.577893,102.922643,129.409394,35.202527,40.200839,47.197284,-82.287626,-4.987769,0,-0.02
879.222,-129.146515,230.475632,183.494019,160.61405,-85.565746,102.105605,129.409279,35.202527,40.200839,47.504905,-82.287626,-4.987769,0,-0.02
895.454,-128.672958,230.410202,183.468552,161.04394,-85.552167,101.227777,129.40905,35.202527,40.200839,47.955307,-82.287626,-4.987769,0,-0.02
909.595,-128.223419,230.344269,183.444107,161.449079,-85.53876,100.396644,129.408935,35.202527,40.200839,48.383765,-82.287626,-4.987769,0,-0.02
924.518,-127.704544,230.264496,183.41568,161.911914,-85.522774,99.442097,129.408591,35.202527,40.200839,48.87817,-82.287626,-4.987769,0,-0.02
941.761,-127.208466,230.184631,183.38826,162.349367,-85.506904,98.534531,129.408076,35.202527,40.200839,49.350574,-82.287626,-4.987769,0,-0.02
957.49,-126.74791,230.106522,183.362549,162.751985,-85.49172,97.694633,129.407388,35.202527,40.200839,49.932871,-82.287626,-4.987769,0,-0.02
974.032,-125.988762,229.971024,183.320938,163.409282,-85.465822,96.315638,129.406643,35.202298,40.200953,50.51511,-82.287626,-4.987769,0,-0.02
987.141,-125.438171,229.867279,183.290436,165.081001,-85.472927,94.115136,129.405898,35.202183,40.201297,51.042461,-82.287626,-4.888934,0,-0.02
1001.651,-124.740166,229.727707,183.251419,167.147717,-85.474703,91.376742,129.404982,35.201954,40.201641,51.71265,-82.287626,-4.76804,0,-0.02
1017.446,-123.929825,229.553848,183.204666,169.025815,-85.46078,88.718504,129.404122,35.201725,40.201698,52.492674,-82.287626,-4.669205,0,-0.02
1032.677,-123.122131,229.37146,183.159119,171.025782,-85.443477,85.937481,129.402919,35.201381,40.202386,53.272699,-82.287626,-4.559312,0,-0.02
1049.257,-122.419189,229.202225,183.118896,172.788315,-85.423653,83.4929,129.401716,35.200751,40.202844,54.162617,-82.287626,-4.427474,0,-0.02
1064.864,-121.570969,228.987244,183.07077,174.908373,-85.393515,80.547381,129.400283,35.200063,40.203245,54.975587,-82.287626,-4.306637,0,-0.02
1078.775,-120.636909,228.735107,183.015686,177.589873,-85.353465,76.951097,129.399424,35.199662,40.203818,55.689722,-82.287626,-4.1748,0,-0.02
1093.689,-119.718231,228.473022,182.962891,-179.389705,-85.303504,73.025075,129.397877,35.198631,40.204678,56.590583,-82.287626,-3.977072,0,-0.02
1109.169,-118.735458,228.175079,182.903305,-176.025182,-85.233259,68.687441,129.395986,35.197886,40.205365,57.557392,-82.287626,-3.746342,0,-0.02
1125.578,-117.802322,227.876587,182.846954,-173.443091,-85.156139,65.17796,129.393981,35.197027,40.206225,58.480198,-82.287626,-3.570558,0,-0.02
1141.549,-116.761993,227.527374,182.785187,-171.657754,-85.071284,62.357461,129.391059,35.195709,40.207428,59.512954,-82.287626,-3.460665,0,-0.0
1157.098,-116.067604,227.286957,182.74823,-171.198758,-85.021895,61.20656,129.386647,35.193188,40.209204,60.424817,-82.287626,-3.438721,0,-0.0
1172.319,-115.14315,226.96788,182.709793,-169.894076,-84.946035,58.983656,129.378626,35.188088,40.211037,61.424571,-82.287626,-3.350829,0,-0.0
1187.08,-114.144058,226.621582,182.668854,-168.243671,-84.855909,56.343065,129.368083,35.184593,40.213902,62.094702,-82.287626,-3.262937,0,-0.0
1202.389,-113.193367,226.362045,182.646942,-166.560034,-84.769048,53.777475,129.333018,35.177661,40.217455,62.940674,-82.287626,-3.142101,0,-0.0
1218.738,-112.20768,226.144791,182.637451,-165.265092,-84.688834,51.61582,129.278988,35.168551,40.221408,63.753644,-82.287626,-3.054209,0,-0.0
1233.284,-111.189476,226.069336,182.689728,-163.922423,-84.617902,49.494558,129.181299,35.147122,40.225018,64.434834,-82.287626,-2.966317,0,-0.0
1249.334,-110.38134,226.069656,182.793518,-162.909147,-84.569888,47.905173,129.052555,35.102832,40.228112,65.050018,-82.287626,-2.90037,0,-0.0
1264.673,-109.353523,226.212433,183.066452,-161.715963,-84.530813,46.067067,128.894247,35.023764,40.230518,65.533423,-82.287626,-2.878425,0,-0.0
1280.064,-108.317345,226.415833,183.508926,-160.479119,-84.491909,44.197162,128.76304,34.932549,40.231378,65.88499,-82.273875,-2.878425,0,-0.0
1295.289,-107.256622,226.749344,184.039871,-159.114849,-84.424815,42.266352,128.557806,34.790857,40.23281,66.258558,-82.223512,-2.878425,0,-0.0
1310.94,-106.221375,227.077606,184.72496,-158.447582,-84.383849,41.01484,128.359849,34.610203,40.234815,66.665015,-82.163981,-2.988261,0,-0.0
1326.406,-105.069237,227.506943,185.455307,-157.304073,-84.314693,39.288977,128.120009,34.415856,40.23619,67.027582,-82.090757,-3.054209,0,-0.0
1340.746,-103.982719,227.894058,186.389084,-156.067974,-84.195976,37.426062,127.902916,34.158369,40.237967,67.467041,-81.962587,-3.153101,0,-0.0
1357.327,-103.064987,228.18483,186.999893,-155.49599,-84.102641,36.344661,127.665425,33.925977,40.240602,67.939445,-81.829832,-3.273938,0,-0.0
1373.545,-101.880379,228.55896,188.066498,-154.567455,-84.000483,34.70709,127.439106,33.628268,40.242607,68.466795,-81.697078,-3.460665,0,-0.0
1389.004,-100.657326,228.953262,189.026505,-154.256682,-83.873974,33.709227,127.190786,33.352962,40.244556,68.928198,-81.541463,-3.65845,0,-0.0
1404.512,-99.511757,229.327377,190.176682,-153.797915,-83.765169,32.573567,127.021707,33.10447,40.24553,69.312767,-81.436153,-3.834234,0,-0.0
1419.462,-98.193779,229.754791,191.2901,-153.079311,-83.631899,31.135501,126.75276,32.795302,40.246675,69.807115,-81.289648,-4.021018,0,-0.0
1435.153,-96.897507,230.119858,192.591309,-153.242719,-83.573801,30.531087,126.501976,32.44448,40.247306,70.378411,-81.166061,-4.372585,0,-0.0
1449.817,-95.492668,230.482178,193.777695,-154.206835,-83.571051,30.706699,126.229822,32.12666,40.24828,70.949708,-81.069918,-4.801043,0,-0.0
1464.965,-94.508842,230.721313,194.833954,-154.787929,-83.590016,30.695354,125.985398,31.772802,40.249196,71.608895,-81.001278,-5.240501,0,-0.0
1482.907,-93.043159,230.986816,196.056702,-155.088617,-83.551685,30.112484,125.714331,31.445815,40.249712,72.235138,-80.928054,-5.592068,0,-0.0
1486.398,-92.342682,231.105713,196.677261,-155.08919,-83.523324,29.682995,125.651936,31.361017,40.249941,72.399921,-80.909719,-5.67996,0,-0.0
1495.896,-91.670662,231.250458,197.447739,-154.789247,-83.486654,28.96697,125.525599,31.158763,40.250171,72.718486,-80.868524,-5.844742,0,-0.0
1510.695,-90.266853,231.433701,198.595291,-154.398948,-83.306058,27.684117,125.276534,30.826676,40.251374,73.421619,-80.717492,-6.086416,0,-0.0
1525.903,-88.85836,231.651901,199.805634,-154.384853,-83.100022,26.799757,125.015323,30.468062,40.253494,74.102809,-80.520624,-6.383036,0,-0.0
1540.907,-87.384071,231.701599,200.73085,-155.904853,-82.883273,27.336848,124.768779,30.157691,40.254582,74.926779,-80.278033,-6.811551,0,-0.0
1558.059,-85.957077,231.796494,201.753738,-158.282284,-82.720667,28.805453,124.51662,29.824917,40.255213,75.684803,-80.035386,-7.393791,0,-0.0
1573.191,-84.891525,231.763916,202.367966,-159.401614,-82.538237,29.185439,124.287666,29.533453,40.256416,76.49783,-79.815656,-7.789304,0,-0.0
1588.723,-83.556862,231.823853,203.422195,-159.648444,-82.346869,28.560113,124.050462,29.216035,40.25865,77.200906,-79.673792,-8.12987,0,-0.0
1602.92,-82.225571,231.869522,204.442139,-160.147548,-82.216693,28.203045,123.873246,28.992352,40.260598,77.728257,-79.600511,-8.382544,0,0.0
1618.121,-80.95829,232.056061,205.563293,-161.095335,-82.16232,28.454402,123.620457,28.683642,40.263234,78.244606,-79.522703,-8.822003,0,0.0
1633.426,-79.785278,232.265808,206.54129,-162.757027,-82.127598,29.520676,123.376492,28.409768,40.267187,78.673121,-79.431144,-9.327409,0,0.0
1648.734,-78.468056,232.614334,207.683243,-163.3839,-82.107774,29.575623,123.081132,28.111143,40.271943,79.013687,-79.380782,-9.722922,0,0.0
1664.061,-77.509758,232.826492,208.446533,-163.625745,-82.068698,29.378239,122.87206,27.907456,40.275896,79.288306,-79.339586,-9.964595,0,0.0
1679.566,-76.138,233.148315,209.52446,-163.293143,-82.010715,28.441854,122.56822,27.626421,40.281397,79.639873,-79.302974,-10.206326,0,0.0
1695.227,-74.823013,233.443924,210.655563,-162.728322,-81.937262,27.287745,122.277616,27.330373,40.286095,79.99144,-79.261778,-10.425998,0,0.0
1710.733,-73.381096,233.844086,211.729721,-162.504925,-81.884091,26.508981,121.943066,27.052431,40.293773,80.266116,-79.215999,-10.67873,0,0.0
1726.168,-72.088676,234.256027,212.848679,-162.221197,-81.8178,25.754567,121.633153,26.762171,40.304029,80.485845,-79.147358,-10.931404,0,0.0
1741.593,-70.734978,234.728485,213.867477,-161.142145,-81.67118,24.18071,121.300838,26.496949,40.330786,80.705575,-79.042049,-11.04124,0,0.0
1756.598,-69.354401,235.205933,215.036865,-159.096972,-81.457524,21.548026,120.965313,26.205714,40.380232,81.013196,-78.941323,-11.04124,0,0.0
1772.082,-68.256081,235.616425,215.812012,-157.77195,-81.256302,19.758048,120.615465,25.946623,40.464972,81.342761,-78.799459,-11.052241,0,0.0
1788.133,-67.043633,236.187836,217.041275,-155.974983,-80.984032,17.369445,120.297417,25.66679,40.569537,81.716329,-78.662121,-11.107188,0,0.0
1802.985,-65.694313,236.845825,218.277161,-154.548261,-80.721388,15.318027,120.025548,25.46127,40.66568,81.958003,-78.556811,-11.184079,0,0.0
1819.716,-64.613533,237.602524,219.588577,-153.514301,-80.477766,13.768577,119.712942,25.196048,40.828056,82.254623,-78.401196,-11.370863,0,0.0
1835.051,-63.39259,238.413589,220.763672,-152.870583,-80.243885,12.567199,119.365329,24.972709,41.006016,82.562244,-78.240939,-11.590592,0,0.0
1849.774,-62.199425,239.321136,222.244247,-152.369302,-80.112219,11.484538,119.01697,24.723186,41.225345,82.891867,-78.163132,-11.942159,0,0.0
1865.587,-60.896065,240.211716,223.527649,-153.469095,-80.093713,11.950123,118.650048,24.526203,41.456934,83.276379,-78.085324,-12.557401,0,0.0
1880.989,-60.057358,240.947678,224.706467,-155.231742,-80.196387,13.269187,118.312232,24.316157,41.728688,83.660891,-78.057879,-13.645047,0,0.0
1896.71,-58.900368,241.857437,226.120071,-158.882572,-80.421158,16.355138,117.986449,24.115965,41.993509,84.023459,-78.057879,-14.6228,0,0.0
1911.498,-57.813801,242.901794,227.677979,-160.053239,-80.473813,16.963275,117.728274,23.977539,42.223666,84.287134,-78.057879,-15.117205,0,0.0
1926.039,-56.723633,243.898026,229.144165,-159.287481,-80.388729,15.59001,117.399339,23.80548,42.521146,84.649644,-78.057879,-15.457771,0,0.0
1941.038,-55.589664,245.016953,230.687088,-157.08039,-80.202861,12.74854,117.048689,23.641385,42.85392,85.001211,-78.057879,-15.556664,0,0.0
1957.757,-54.573647,245.961823,232.017365,-155.332984,-79.988289,10.326991,116.744219,23.514245,43.176266,85.44067,-78.057879,-15.6665,0,0.0
1973.745,-53.443691,246.979126,233.357513,-154.133611,-79.804598,8.442476,116.408809,23.397591,43.514311,85.869127,-78.057879,-15.875228,0,0.0
1988.869,-52.682133,247.622833,234.13092,-153.964417,-79.710404,7.783975,116.116372,23.332446,43.822906,86.297585,-78.057879,-16.19385,0,0.0
2003.964,-51.616581,248.596252,235.208954,-153.497399,-79.57616,6.683209,115.871719,23.29188,44.075924,86.594263,-78.057879,-16.380634,0,0.0
2019.374,-50.476593,249.480957,236.049881,-152.48206,-79.360671,4.978316,115.549888,23.276525,44.389905,87.022721,-78.057879,-16.468526,0,0.0
2034.745,-49.283562,250.469849,236.933746,-151.02096,-79.084104,2.791909,115.207259,23.274749,44.73918,87.462179,-78.057879,-16.468526,0,0.0
2050.364,-48.107231,251.324814,237.715714,-149.810186,-78.802151,0.850384,114.882163,23.274749,45.05912,87.923582,-78.057879,-16.468526,0,0.0
2065.656,-46.815441,252.298737,238.560272,-148.752964,-78.555951,-0.895361,114.521257,23.274749,45.389487,88.308094,-78.057879,-16.512472,0,-0.02
2081.092,-45.982666,252.996292,239.18486,-148.503499,-78.450413,-1.587093,114.200802,23.274749,45.707307,88.670662,-78.067047,-16.732201,0,-0.02
2096.615,-44.616035,253.983902,240.045105,-148.656765,-78.37885,-2.064768,113.813196,23.274749,46.054806,88.967282,-78.076157,-17.094711,0,-0.02
2111.972,-43.308029,255.064621,240.978485,-149.307244,-78.37249,-1.979626,113.535139,23.274749,46.294302,89.176011,-78.076157,-17.46828,0,-0.02
2127.498,-41.849464,256.133331,241.953568,-149.78446,-78.398846,-2.103042,113.136991,23.274749,46.633321,89.450687,-78.12652,-17.918682,0,-0.02
2142.872,-40.516045,257.269684,242.980011,-150.014331,-78.398732,-2.397198,112.759469,23.274749,46.986664,89.670416,-78.158548,-18.325196,0,-0.02
2158.424,-39.050068,258.387177,243.959091,-150.036046,-78.394263,-2.88003,112.358055,23.274749,47.3156,89.835199,-78.190634,-18.665762,0,-0.02
2173.361,-37.660549,259.584106,244.990173,-149.983735,-78.401711,-3.348766,111.967069,23.274749,47.653759,89.92309,-78.208911,-19.006328,0,-0.02
2189.425,-35.910728,260.73056,245.958908,-149.97176,-78.434771,-3.844833,111.508817,23.274749,47.962584,89.999981,-78.245523,-19.33595,0,-0.02
2204.943,-34.650349,261.645203,246.768585,-150.096321,-78.493098,-4.058718,111.060592,23.274749,48.291175,90.054928,-78.295886,-19.775409,0,-0.02
2219.726,-33.018883,262.770508,247.789169,-150.561276,-78.639374,-3.997068,110.746783,23.274749,48.520473,90.065929,-78.350833,-20.104974,0,-0.02
2235.742,-31.324448,263.966919,248.921677,-150.82753,-78.773332,-4.164372,110.304517,23.274749,48.857085,90.098874,-78.433224,-20.555434,0,-0.02
2250.704,-29.479168,265.001282,249.942719,-152.31384,-79.046919,-3.143304,109.847125,23.274749,49.151414,90.15382,-78.543117,-21.236566,0,-0.02
2264.62,-27.423264,266.180969,251.159912,-154.084222,-79.401809,-1.855925,109.339255,23.274405,49.485276,90.164821,-78.698733,-22.027592,0,-0.02
2280.117,-26.037352,266.999115,252.050858,-155.752446,-79.695851,-0.507583,108.886389,23.274405,49.805101,90.164821,-78.872683,-22.840561,0,-0.02
2295.218,-24.131851,268.218658,253.354599,-156.996165,-79.966402,0.287969,108.521644,23.274405,50.084934,90.164821,-78.968825,-23.334967,0,-0.02
2310.62,-22.269739,269.345612,254.541946,-158.69848,-80.220337,1.572196,108.062418,23.274405,50.419025,90.164821,-79.074077,-24.038101,0,-0.02
2326.156,-20.039772,270.543457,255.871109,-160.139011,-80.489398,2.496721,107.526818,23.274119,50.780906,90.164821,-79.225166,-24.719233,0,-0.02
2342.011,-18.10627,271.614075,257.16626,-162.3991,-80.817932,4.303658,107.064612,23.273775,51.121586,90.164821,-79.408283,-25.510258,0,-0.02
2356.87,-16.159748,272.735504,258.55481,-164.4543,-81.12074,5.896022,106.598912,23.273775,51.488279,90.164821,-79.595927,-26.268281,0,-0.02
2372.923,-14.188825,273.725891,259.724823,-166.753579,-81.347975,7.756817,106.136249,23.273775,51.806557,90.164821,-79.714988,-26.982416,0,-0.02
2388.451,-12.497627,274.508026,260.647217,-167.478199,-81.465374,8.101566,105.629926,23.27091,52.175141,90.164821,-79.815656,-27.476821,0,-0.02
2403.132,-10.704859,275.653564,261.968353,-167.46124,-81.543353,7.686172,105.310445,23.270566,52.437327,90.164821,-79.843158,-27.762441,0,-0.02
2418.874,-8.793825,276.708496,263.125946,-166.43215,-81.538541,6.246959,104.858553,23.270566,52.781159,90.164821,-79.843158,-27.960226,0,-0.02
2433.875,-6.907487,277.753784,264.32785,-164.878976,-81.489896,4.2498,104.41474,23.270566,53.143268,90.208767,-79.843158,-28.092063,0,-0.02
2449.907,-4.730639,278.75293,265.512482,-164.469942,-81.505882,3.36607,103.917012,23.269134,53.488933,90.230711,-79.856852,-28.388684,0,-0.02
2465.275,-2.904594,279.892975,266.89563,-164.398952,-81.551948,2.918303,103.486147,23.268847,53.889603,90.230711,-79.870603,-28.79514,0,-0.02
2482.044,-1.033791,280.927246,268.15744,-164.498704,-81.590107,2.642711,103.053736,23.268847,54.256639,90.230711,-79.870603,-29.190653,0,-0.02
2497.041,0.338711,281.733948,269.184357,-164.704854,-81.618812,2.557454,102.627914,23.268733,54.643042,90.263656,-79.87977,-29.696059,0,-0.02
2511.495,2.304086,282.622528,270.432892,-165.751476,-81.709053,3.168858,102.296973,23.26541,54.906144,90.296659,-79.920966,-30.058569,0,-0.02
2526.559,4.317636,283.656799,271.910217,-165.901362,-81.808232,2.896187,101.844566,23.261456,55.307788,90.296659,-79.985023,-30.509029,0,0.02
2541.564,6.033249,284.624664,273.231171,-165.656824,-81.846162,2.309192,101.456101,23.261456,55.681471,90.296659,-79.998774,-30.860595,0,0.02
2558.684,7.956381,285.65213,274.662018,-164.97804,-81.866903,1.247902,101.025465,23.261456,56.085521,90.296659,-80.007941,-31.179217,0,0.02
2573.665,9.887298,286.524231,276.027191,-165.087189,-81.969405,0.95237,100.604112,23.260941,56.451813,90.296659,-80.081165,-31.585674,0,0.02
2589.449,12.021894,287.476227,277.653992,-164.315071,-82.144329,-0.264191,100.143683,23.259508,56.8593,90.241712,-80.236838,-31.92624,0,0.02
2605.361,13.337196,288.121307,278.809357,-163.525077,-82.270093,-1.345133,99.769828,23.259508,57.243411,90.208767,-80.424481,-32.178971,0,0.02
2620.905,15.213694,289.014618,280.461273,-161.310423,-82.362626,-4.014773,99.360106,23.259508,57.657029,90.208767,-80.566403,-32.321752,0,0.02
2635.997,17.08637,289.771454,281.889465,-159.589544,-82.428344,-6.166286,99.061423,23.259508,57.930158,90.208767,-80.662545,-32.45359,0,0.02
2651.075,19.224489,290.523895,283.434662,-158.157837,-82.474868,-8.132964,98.614516,23.258362,58.333349,90.274657,-80.799883,-32.695321,0,0.02
2666.157,21.195333,291.166748,284.760956,-157.563394,-82.464268,-9.232986,98.204049,23.257617,58.700959,90.395494,-80.868524,-32.991941,0,0.02
2681.819,23.24115,291.801758,286.085083,-157.1535,-82.375116,-10.197789,97.778972,23.257617,59.091716,90.593279,-80.891442,-33.310563,0,0.02
2697.073,24.711815,292.18222,286.952942,-157.132472,-82.274218,-10.650942,97.37051,23.257617,59.452278,90.878899,-80.891442,-33.607183,0,0.02
2712.264,27.034077,292.595917,288.06427,-156.600996,-82.085773,-11.858909,96.887908,23.257617,59.828883,91.142574,-80.891442,-33.826913,0,0.02
2727.626,29.285318,293.158936,289.339569,-155.633557,-81.95892,-13.372548,96.54293,23.257503,60.087287,91.241466,-80.891442,-33.991695,0,0.02
2743.172,31.465302,293.682739,290.554047,-154.941252,-81.871773,-14.558113,96.099174,23.257503,60.434557,91.351302,-80.891442,-34.222425,0,0.02
2757.682,33.50621,294.205536,291.833588,-154.528952,-81.751967,-15.491404,95.683894,23.257503,60.81185,91.538086,-80.891442,-34.508045,0,0.02
2772.727,35.946442,294.535919,292.947296,-154.309108,-81.609931,-16.344366,95.195104,23.257503,61.150582,91.768817,-80.891442,-34.77172,0,0.02
2789.911,38.252491,295.049316,294.253479,-153.509431,-81.544327,-17.609801,94.731467,23.257159,61.509368,91.823706,-80.891442,-35.00245,0,0.02
2805.799,40.597561,295.496399,295.464691,-152.533168,-81.497402,-19.018188,94.263475,23.257159,61.832287,91.823706,-80.891442,-35.178234,0,0.02
2821.827,42.227131,295.836334,296.380432,-152.253851,-81.496314,-19.590286,93.826308,23.257159,62.146268,91.823706,-80.891442,-35.496855,0,0.02
2837.996,44.605839,296.12851,297.418884,-152.954693,-81.573949,-19.311714,93.301822,23.257159,62.416418,91.823706,-80.891442,-35.903312,0,0.02
2841.031,45.460526,296.154175,297.670074,-153.197054,-81.597842,-19.22451,93.175256,23.257044,62.502992,91.823706,-80.891442,-36.002204,0,0.02
2851.404,47.38142,296.35376,298.491302,-153.818828,-81.662013,-18.942672,92.924243,23.256873,62.632423,91.823706,-80.891442,-36.232934,0,0.02
2866.599,49.680828,296.738586,299.598145,-154.980099,-81.917953,-18.007491,92.473039,23.256873,62.884524,91.603977,-80.891442,-36.738283,0,0.02
2881.039,52.188576,297.035614,300.670776,-155.575975,-82.094138,-17.714193,91.983046,23.256873,63.136225,91.42825,-80.882275,-37.133796,0,0.02
2897.587,54.784271,297.228271,301.488831,-156.535335,-82.254852,-17.014784,91.476551,23.256873,63.327707,91.219465,-80.808993,-37.507307,0,0.02
2913.37,56.956581,297.388733,302.194977,-156.75157,-82.434417,-16.967286,90.935793,23.255956,63.516554,90.845953,-80.763271,-37.814928,0,0.02
2928.147,59.328102,297.730652,303.189362,-156.068432,-82.725136,-17.70451,90.594826,23.255956,63.64971,90.483386,-80.74952,-37.924821,0,0.02
2942.79,61.933559,297.937134,304.042023,-154.399234,-82.849697,-19.53024,90.089764,23.255956,63.818904,90.109875,-80.676296,-37.935765,0,0.02
2958.297,64.591629,298.011108,304.612854,-153.232406,-82.905102,-20.856695,89.573758,23.255956,63.93722,89.780252,-80.529791,-37.935765,0,0.02
2973.348,67.317009,298.129333,305.231842,-151.950642,-82.978154,-22.242565,89.044631,23.255841,64.06138,89.384739,-80.355841,-37.935765,0,0.02
2989.774,69.589378,298.294434,305.877747,-150.586315,-83.057452,-23.659834,88.604199,23.255841,64.189722,89.011228,-80.213919,-37.935765,0,0.0
3007.32,72.29377,298.226807,306.162872,-150.165191,-82.962971,-24.254335,88.077593,23.255841,64.279906,88.791499,-79.934717,-37.935765,0,0.0
3022.047,74.917,298.096802,306.365326,-149.885244,-82.906477,-24.687835,87.567202,23.255841,64.340869,88.549825,-79.673792,-37.935765,0,0.0
3035.991,76.8228,298.050049,306.634033,-149.406308,-82.899201,-25.25512,87.093538,23.255727,64.437698,88.264148,-79.458589,-37.935765,0,0.0
3052.674,78.984535,298.018494,307.046143,-148.636196,-82.900232,-26.134668,86.670065,23.256185,64.509834,88.044419,-79.289223,-37.935765,0,0.0
3067.844,81.53952,297.667145,307.081116,-148.724259,-82.827123,-26.290913,86.282574,23.256185,64.525246,87.934583,-79.115273,-37.935765,0,0.0
3083.067,83.910294,297.289337,307.145752,-148.630523,-82.850843,-26.603634,85.823119,23.255612,64.532179,87.736798,-78.977992,-37.935765,0,0.0
3098.688,86.155724,296.976593,307.369019,-148.082088,-82.981191,-27.315133,85.389676,23.255555,64.547878,87.440178,-78.913878,-37.935765,0,0.0
3114.219,88.184464,296.62265,307.510132,-147.041024,-83.021126,-28.548653,84.997601,23.255555,64.554696,87.220448,-78.858932,-37.83693,0,0.0
3129.634,90.453568,296.141663,307.494659,-146.858537,-82.981134,-28.996821,84.556367,23.255612,64.554811,87.099612,-78.726177,-37.792984,0,0.0
3143.426,92.043167,295.791595,307.47998,-146.884893,-82.956726,-29.159942,84.246912,23.255612,64.555785,87.022721,-78.630092,-37.781983,0,0.0
3158.863,94.03022,295.401642,307.559601,-146.121541,-82.957757,-30.11151,83.860739,23.255612,64.560254,86.835936,-78.538534,-37.694091,0,0.0
3174.514,96.03199,294.972443,307.676575,-144.417966,-82.922004,-32.029315,83.472273,23.255612,64.564036,86.638209,-78.488171,-37.485363,0,0.0
3190.019,97.824387,294.605927,307.723907,-142.558202,-82.796985,-34.052773,83.122654,23.255612,64.564437,86.462425,-78.387445,-37.210687,0,0.0
3205.349,99.911926,294.133759,307.731079,-141.323535,-82.673398,-35.503043,82.714536,23.255612,64.56478,86.308586,-78.25469,-37.001958,0,0.0
3223.255,101.906425,293.712921,307.777802,-140.130064,-82.588142,-36.861813,82.324409,23.255612,64.566671,86.110858,-78.12652,-36.815174,0,0.0
3237.12,103.474365,293.388947,307.849091,-139.17248,-82.554968,-37.932785,81.933824,23.255612,64.569078,85.869127,-78.002933,-36.63939,0,0.0
3252.189,105.157616,293.104065,307.89978,-137.958497,-82.466217,-39.201486,81.601738,23.255612,64.570052,85.627454,-77.819815,-36.430662,0,0.0
3266.959,107.123024,292.702301,307.843689,-137.266249,-82.301892,-40.010674,81.299617,23.255612,64.570166,85.506617,-77.655033,-36.298824,0,0.0
3282.604,108.988777,292.343658,307.692566,-137.3978,-82.115223,-39.957905,80.928913,23.255612,64.570911,85.374779,-77.343745,-36.188988,0,0.0
3298.363,111.039062,291.93689,307.491425,-137.676888,-81.878362,-39.767625,80.520337,23.255612,64.572916,85.253885,-76.972984,-36.068094,0,0.0
3313.877,112.779877,291.672424,307.233917,-137.867396,-81.566214,-39.570872,80.170432,23.255612,64.574005,85.133049,-76.538109,-35.892311,0,0.0
3329.036,114.604912,291.412964,306.929138,-138.106033,-81.206626,-39.298144,79.801963,23.255612,64.574234,85.001211,-76.03912,-35.694583,0,0.0
3343.879,115.927551,291.206726,306.743774,-138.407638,-81.010216,-38.977517,79.535308,23.255612,64.574349,84.891375,-75.709554,-35.606691,0,0.0
3359.384,118.056122,290.840485,306.521393,-139.177522,-80.83237,-38.186778,79.107366,23.255612,64.574349,84.682646,-75.247177,-35.58469,0,0.0
3375.974,120.14801,290.508453,306.473633,-139.250975,-80.774673,-38.047377,78.68968,23.255612,64.574693,84.342023,-74.89011,-35.5298,0,0.0
3391.154,122.281853,290.161591,306.556641,-138.895225,-80.81266,-38.327038,78.26592,23.255612,64.576412,83.913565,-74.615492,-35.463853,0,0.0
3407.273,124.198715,289.898041,306.778717,-138.322783,-80.990965,-38.767012,77.887482,23.255612,64.579162,83.397216,-74.436958,-35.441909,0,0.0
3421.261,126.44474,289.399689,306.98114,-137.770337,-81.153742,-39.326677,77.443497,23.255612,64.580594,82.946756,-74.295036,-35.419907,0,0.0
3438.761,128.638596,288.884521,307.284302,-136.929178,-81.391634,-40.188062,77.011429,23.255612,64.585235,82.463409,-74.235563,-35.408964,0,0.0
3454.19,130.885498,288.333405,307.644348,-135.847205,-81.64047,-41.309111,76.569106,23.255612,64.596637,81.969004,-74.203478,-35.386962,0,-0.0
3469.522,132.301056,288.03186,307.934265,-134.986164,-81.797403,-42.166772,76.201267,23.255727,64.62391,81.485599,-74.162282,-35.365018,0,-0.0
3484.149,134.132828,287.63916,308.256317,-134.228943,-81.961383,-42.922732,75.929799,23.255841,64.646198,81.232925,-74.089058,-35.365018,0,-0.0
3498.362,136.285278,287.000549,308.429657,-134.039122,-81.991865,-43.265877,75.502201,23.255841,64.679028,81.002195,-73.937969,-35.365018,0,-0.0
3513.395,138.292374,286.442596,308.561981,-134.11733,-81.956112,-43.307072,75.102448,23.255841,64.721885,80.815411,-73.722823,-35.365018,0,-0.0
3530.381,140.245178,285.921692,308.663666,-134.395272,-81.869023,-43.132377,74.712608,23.2563,64.773165,80.661629,-73.457315,-35.365018,0,-0.0
3544.452,141.900238,285.592896,308.580322,-135.306734,-81.684015,-42.191065,74.377542,23.257044,64.814304,80.529791,-73.036191,-35.365018,0,-0.0
3559.873,143.370407,285.235474,308.432465,-136.201808,-81.515851,-41.289058,73.985754,23.257044,64.838654,80.386953,-72.546369,-35.365018,0,-0.0
3575.066,145.184967,284.900421,308.271881,-137.242414,-81.338636,-40.123547,73.705864,23.257044,64.856989,80.200226,-72.15269,-35.365018,0,-0.0
3592.562,147.159943,284.535889,308.191437,-138.028856,-81.230404,-39.179542,73.211458,23.257388,64.884606,79.782711,-71.530171,-35.365018,0,-0.0
3607.052,148.868439,284.414124,308.093933,-138.916597,-81.125209,-37.965043,72.949903,23.258248,64.902596,79.453146,-71.081545,-35.365018,0,-0.0
3622.544,150.630371,284.263092,308.028839,-139.766408,-80.99784,-36.812825,72.586877,23.259164,64.937318,79.057633,-70.500165,-35.365018,0,-0.0
3637.254,152.295746,284.168365,308.088226,-140.387895,-80.859643,-35.909557,72.24654,23.25968,65.000744,78.695066,-69.95087,-35.365018,0,-0.0
3653.953,154.290207,283.825195,308.281586,-140.681708,-80.736629,-35.506596,71.844553,23.260826,65.087375,78.398445,-69.502244,-35.365018,0,-0.0
3668.897,155.686417,283.64209,308.556732,-140.604588,-80.732561,-35.463051,71.476714,23.261685,65.18495,78.002933,-69.154344,-35.365018,0,-0.0
3684.937,157.516678,283.413025,309.071838,-140.298456,-80.789513,-35.631042,71.127897,23.262889,65.304927,77.585476,-68.888836,-35.408964,0,-0.0
3700.227,159.103851,283.303741,309.737061,-139.850289,-81.004372,-35.897582,70.897396,23.265295,65.393564,77.211907,-68.769832,-35.463853,0,-0.0
3716.168,160.891968,282.965057,310.40152,-139.109684,-81.24066,-36.569089,70.548809,23.266498,65.497842,76.750504,-68.678274,-35.507799,0,-0.0
3731.211,162.547104,282.650879,311.161407,-138.020892,-81.554641,-37.592907,70.228869,23.266613,65.600574,76.256099,-68.678274,-35.551745,0,-0.0
3746.688,164.262192,282.215424,311.873474,-136.893254,-81.762223,-38.765465,69.897241,23.267186,65.713389,75.893531,-68.67369,-35.573746,0,-0.0
3762.161,165.796127,281.829651,312.39798,-136.09902,-81.905864,-39.572075,69.597527,23.271025,65.804375,75.574967,-68.609633,-35.58469,0,-0.0
3775.972,166.860733,281.615082,312.659302,-135.911949,-81.946487,-39.721732,69.295177,23.282312,65.893584,75.300291,-68.417349,-35.595691,0,-0.0
3791.482,168.342896,281.360291,312.915344,-135.922033,-81.907869,-39.655956,69.09596,23.300475,65.973455,75.135508,-68.202203,-35.595691,0,-0.0
3807.572,169.683624,281.227722,312.877502,-136.701943,-81.774255,-38.720488,68.826956,23.333764,66.056591,74.926779,-67.776495,-35.595691,0,-0.0
3822.082,171.159943,280.980469,312.816711,-137.488958,-81.644079,-37.810631,68.528674,23.365391,66.13119,74.717994,-67.355371,-35.595691,0,-0.0
3839.171,172.46402,280.860962,312.611694,-138.568869,-81.501413,-36.5146,68.261332,23.403836,66.188428,74.47632,-66.870133,-35.595691,0,-0.0
3854.565,173.844299,280.727631,312.451447,-139.54834,-81.39129,-35.294143,67.978005,23.441193,66.246583,74.1797,-66.384895,-35.595691,0,-0.0
3870.093,175.067307,280.671509,312.194672,-140.752239,-81.262031,-33.774831,67.720632,23.473279,66.282737,73.861078,-65.844711,-35.595691,0,-0.0
3885.685,176.260483,280.526123,311.965729,-141.718647,-81.186057,-32.571046,67.470994,23.507312,66.310812,73.564458,-65.41442,-35.595691,0,-0.0
3900.837,177.04483,280.432404,311.81073,-142.321513,-81.166347,-31.807637,67.253156,23.545701,66.332069,73.289782,-65.098548,-35.58469,0,-0.0
3915.884,178.256577,280.087219,311.596924,-142.58748,-81.16692,-31.502136,67.062189,23.588099,66.34983,73.113998,-64.961267,-35.540744,0,-0.05
3931.262,179.296509,279.815399,311.457703,-142.570979,-81.249197,-31.501162,66.857758,23.651239,66.379853,72.872325,-64.883402,-35.485855,0,-0.05
3945.069,180.3479,279.51709,311.279785,-142.501594,-81.349808,-31.634031,66.658024,23.737412,66.425518,72.68554,-64.878819,-35.441909,0,-0.05
3960.862,181.226151,279.346283,311.135986,-142.363568,-81.444518,-31.808038,66.495935,23.82582,66.483215,72.509757,-64.878819,-35.397963,0,-0.05
3975.867,182.013474,279.166016,311.101868,-142.169106,-81.525133,-32.034815,66.307202,23.909128,66.548819,72.290028,-64.869709,-35.354017,0,-0.05
3991.09,182.864548,279.137512,310.936584,-142.156845,-81.686478,-31.979983,66.193814,23.99192,66.597807,72.070298,-64.851374,-35.332015,0,-0.05
4007.227,183.83165,279.115997,310.844452,-141.622562,-81.795627,-32.452845,66.019348,24.102157,66.686329,71.773678,-64.814762,-35.222179,0,-0.05
4023.237,184.67868,279.243073,310.7742,-140.903099,-81.903916,-33.066426,65.873473,24.223624,66.792268,71.455056,-64.77815,-35.090342,0,-0.05
4038.711,185.672211,279.293945,310.441864,-140.693224,-81.927407,-33.216197,65.698549,24.372937,66.898839,71.213383,-64.67284,-34.969505,0,-0.05
4054.218,186.579147,279.560669,310.094604,-140.387494,-81.91102,-33.413065,65.550382,24.551012,67.047808,70.971709,-64.530919,-34.826667,0,-0.05
4068.999,187.618515,279.729614,309.879272,-139.899735,-81.896066,-33.878536,65.381073,24.726509,67.223133,70.784925,-64.434834,-34.70583,0,-0.05
4085.225,188.643341,280.032318,309.299072,-139.998857,-81.849313,-33.736041,65.221963,24.964344,67.411006,70.620142,-64.288328,-34.595937,0,-0.05
4100.442,189.457367,280.234467,308.994446,-139.876072,-81.830348,-33.87103,65.059931,25.207049,67.629761,70.488305,-64.201353,-34.508045,0,-0.05
4115.87,190.539001,280.668915,308.529114,-139.618585,-81.795741,-34.14456,64.948204,25.419616,67.840151,70.400413,-64.137239,-34.431154,0,-0.05
4131.744,191.553482,281.081085,308.07785,-139.783768,-81.778495,-34.030886,64.81184,25.691198,68.106748,70.345466,-64.064015,-34.420153,0,-0.05
4147.05,192.527237,281.662079,307.561951,-139.898933,-81.76165,-33.941103,64.694097,26.000596,68.408983,70.279519,-63.990791,-34.398209,0,-0.05
4162.956,193.5345,282.163727,307.109314,-139.971469,-81.751853,-33.862207,64.561916,26.281288,68.68641,70.169683,-63.894649,-34.365206,0,-0.05
4176.444,194.491333,282.845032,306.654724,-139.720915,-81.783709,-34.070649,64.451048,26.598362,68.998328,70.0049,-63.839702,-34.299316,0,-0.05
4192.662,195.148727,283.29837,306.255096,-139.624715,-81.786631,-34.145706,64.34528,26.896071,69.276499,69.862062,-63.775646,-34.211425,0,-0.05
4208.058,196.179108,283.92392,305.73172,-139.170303,-81.777177,-34.549412,64.222094,27.213891,69.57501,69.675278,-63.688671,-34.079587,0,-0.05
4223.568,196.959274,284.632202,305.118408,-139.106819,-81.785256,-34.497846,64.161132,27.444048,69.771305,69.521496,-63.615447,-34.013697,0,-0.05
4240.156,197.871399,285.285248,304.468323,-139.225536,-81.854298,-34.319026,64.056452,27.771895,70.054117,69.334711,-63.565084,-33.969751,0,-0.05
4256.22,198.77153,285.825592,303.875763,-139.174829,-81.891769,-34.343663,63.923927,28.152052,70.382594,69.147927,-63.514721,-33.881859,0,-0.05
4270.22,199.620132,286.509796,303.15448,-139.062013,-81.877846,-34.429492,63.8601,28.410513,70.610115,69.060035,-63.468941,-33.804911,0,-0.05
4285.072,200.332077,287.146393,302.484924,-138.931436,-81.793679,-34.546777,63.791001,28.712233,70.880838,69.005146,-63.38655,-33.695075,0,-0.05
4302.917,201.14476,287.723511,301.815674,-139.180387,-81.693869,-34.320287,63.703797,29.013895,71.166228,69.005146,-63.272073,-33.651129,0,-0.05
4317.576,201.842468,288.290527,300.953094,-139.867592,-81.609186,-33.623627,63.63149,29.315156,71.409907,68.994145,-63.139319,-33.629128,0,-0.05
4333.257,202.437271,288.698883,300.428619,-140.21469,-81.537738,-33.262377,63.545489,29.599573,71.666993,68.9612,-62.988287,-33.607183,0,-0.05
4347.983,203.078201,289.27356,299.654297,-140.801227,-81.465202,-32.662662,63.501829,29.815922,71.84885,68.9612,-62.905896,-33.596182,0,-0.05
4363.939,203.670944,289.871979,299.119232,-140.923324,-81.403208,-32.547211,63.452841,30.082633,72.112525,68.9612,-62.832614,-33.574238,0,-0.05
4379.14,204.211533,290.433197,298.314728,-141.07808,-81.324254,-32.410962,63.410557,30.370946,72.341995,68.9612,-62.777725,-33.49729,0,0.01
4394.194,204.746536,290.960236,297.853241,-140.527983,-81.249025,-32.99578,63.369247,30.618005,72.583038,68.950199,-62.768558,-33.376453,0,0.01
4409.6,205.240921,291.427002,297.205444,-140.504263,-81.271771,-32.9979,63.32553,30.863689,72.766385,68.851307,-62.768558,-33.299562,0,0.01
4423.922,205.705048,291.685059,296.841949,-140.610776,-81.322478,-32.879412,63.271386,31.024977,72.899025,68.763415,-62.763974,-33.288561,0,0.01
4440.344,206.398239,292.082245,296.265045,-140.829932,-81.343964,-32.674866,63.193807,31.273813,73.113884,68.697525,-62.736529,-33.277561,0,0.01
4455.55,206.774475,292.315369,295.94046,-141.082836,-81.306894,-32.417093,63.150606,31.40439,73.235637,68.686524,-62.667832,-33.277561,0,0.01
4471.285,207.240601,292.563202,295.538818,-141.246587,-81.251947,-32.271905,63.096576,31.563271,73.380424,68.686524,-62.603775,-33.255616,0,0.01
4486.292,207.739944,292.720825,295.149628,-141.44145,-81.247764,-32.100763,63.031775,31.710636,73.501375,68.653579,-62.571747,-33.244616,0,0.01
4502.286,208.246002,292.76651,295.012817,-141.222867,-81.247936,-32.367417,62.960098,31.810789,73.60743,68.620634,-62.571747,-33.21167,0,0.01
4519.349,208.811722,292.746246,294.552063,-141.660148,-81.243525,-31.9703,62.872091,31.936266,73.683862,68.587632,-62.525967,-33.21167,0,0.01
4532.385,209.447449,292.665283,294.337006,-141.760645,-81.232524,-31.945491,62.772167,32.03493,73.778114,68.576688,-62.498465,-33.21167,0,0.01
4547.816,209.888031,292.573212,294.171631,-141.890133,-81.222096,-31.864876,62.699516,32.095663,73.830081,68.565687,-62.471021,-33.21167,0,0.01
4563.231,210.608337,292.323059,293.68576,-142.536544,-81.166233,-31.251295,62.56659,32.181492,73.858099,68.521742,-62.347434,-33.20067,0,0.01
4579.276,211.357742,292.093781,293.386688,-142.845139,-81.16692,-30.907234,62.425413,32.24595,73.882277,68.367902,-62.232957,-33.156724,0,0.01
4593.997,212.078491,291.99057,293.139099,-142.65847,-81.180442,-31.036494,62.297873,32.331092,73.935047,68.170175,-62.155149,-33.046888,0,0.01
4609.162,212.887405,291.879547,292.883392,-142.815861,-81.213616,-30.828395,62.156582,32.426489,74.005578,67.98339,-62.059007,-33.002942,0,0.01
4624.947,213.716309,291.74585,292.689728,-143.0765,-81.209376,-30.520545,62.00979,32.506703,74.081151,67.829609,-61.921669,-32.98094,0,0.01
4640.453,214.334381,291.778717,292.416901,-143.489201,-81.185312,-29.950166,61.897719,32.581474,74.136384,67.620823,-61.720274,-32.936995,0,0.01
4655.516,214.930527,291.648102,292.356873,-143.557154,-81.157008,-29.841189,61.788342,32.618315,74.183309,67.510987,-61.601271,-32.904049,0,0.01
4671.439,215.572495,291.537872,292.277527,-143.56042,-81.132428,-29.7973,61.67375,32.669251,74.243757,67.39015,-61.486794,-32.860104,0,0.01
4685.705,216.044235,291.586884,292.273865,-143.50851,-81.097592,-29.80429,61.598463,32.723969,74.330961,67.313259,-61.381542,-32.838159,0,0.01
4701.842,216.485596,291.52417,292.245209,-143.534522,-81.046943,-29.806067,61.526099,32.767055,74.399716,67.313259,-61.308318,-32.838159,0,0.01
4716.908,216.922668,291.415466,292.28479,-143.569702,-80.998356,-29.776559,61.448177,32.785619,74.449735,67.291257,-61.216759,-32.838159,0,0.01
4733.208,217.121353,291.409576,292.289459,-143.686814,-81.005461,-29.60175,61.398215,32.795932,74.469616,67.170421,-61.138894,-32.838159,0,0.01
4749.156,217.41478,291.342041,292.349182,-143.750183,-81.064533,-29.472433,61.340976,32.79937,74.476549,67.049584,-61.106866,-32.838159,0,0.01
4764.434,217.658569,291.261292,292.40152,-143.768747,-81.141366,-29.408663,61.295369,32.802865,74.477752,66.92869,-61.102282,-32.838159,0,0.01
4779.685,217.844254,291.221252,292.429718,-143.841914,-81.19849,-29.277456,61.267981,32.805042,74.478211,66.851799,-61.084005,-32.838159,0,0.01
4795.202,217.990311,291.187103,292.397705,-144.012598,-81.19425,-29.062138,61.237271,32.807391,74.478383,66.796852,-61.024474,-32.838159,0,0.01
4810.743,218.181305,291.122162,292.34021,-144.234505,-81.170129,-28.802646,61.197164,32.810428,74.478841,66.752906,-60.946667,-32.838159,0,0.01
4826.253,218.364227,291.085541,292.25946,-144.502076,-81.15718,-28.477206,61.158661,32.818335,74.478956,66.687016,-60.864275,-32.838159,0,0.03
4841.481,218.533325,291.056519,292.140442,-144.80116,-81.136668,-28.125753,61.123424,32.831456,74.479185,66.632069,-60.781884,-32.838159,0,0.03
4857.263,218.634201,291.03714,292.013092,-145.054751,-81.096332,-27.846551,61.095636,32.845837,74.479185,66.621069,-60.685742,-32.838159,0,0.03
4873.332,218.741043,291.038452,291.832947,-145.462525,-81.000877,-27.385435,61.068592,32.857239,74.479299,66.621069,-60.534653,-32.838159,0,0.03
4887.918,218.869446,291.047729,291.583496,-145.98724,-80.879066,-26.791908,61.046877,32.870188,74.479299,66.621069,-60.401898,-32.838159,0,0.03
4903.072,218.985016,291.04599,291.255341,-146.553437,-80.720586,-26.182223,61.01949,32.893965,74.479299,66.665015,-60.218838,-32.838159,0,0.03
4917.066,219.10379,291.001678,290.82547,-147.085657,-80.569784,-25.669598,60.995196,32.937338,74.479299,66.752906,-60.09061,-32.838159,0,0.03
4932.563,219.260971,290.962341,290.35321,-147.598798,-80.512144,-25.174448,60.967637,33.003286,74.479299,66.774908,-60.035721,-32.838159,0,0.03
4947.905,219.404144,290.917542,289.964447,-147.973169,-80.507732,-24.828553,60.944432,33.065222,74.479299,66.774908,-60.035721,-32.838159,0,0.03
4962.91,219.574341,290.887146,289.355774,-148.558159,-80.500055,-24.277597,60.918764,33.162339,74.479529,66.774908,-60.035721,-32.838159,0,0.03
4978.342,219.757812,290.83136,288.833649,-148.890818,-80.475704,-23.984013,60.889199,33.245532,74.479529,66.774908,-60.035721,-32.805157,0,0.03
4993.347,219.943573,290.829956,287.953918,-149.455239,-80.43107,-23.458726,60.863359,33.385162,74.479815,66.774908,-60.031137,-32.750268,0,0.03
5010.07,220.10936,290.920807,287.25708,-149.609651,-80.43617,-23.255555,60.840498,33.508978,74.483138,66.654071,-60.031137,-32.629373,0,0.03
5025.608,220.270462,290.987854,286.568146,-149.401896,-80.393542,-23.435349,60.817808,33.628154,74.484571,66.555179,-60.031137,-32.442647,0,0.03
5041.562,220.382324,291.022186,285.797394,-149.698631,-80.32662,-23.161246,60.802167,33.790415,74.485659,66.555179,-60.017386,-32.321752,0,0.03
5056.742,220.475311,291.100647,284.898804,-149.697371,-80.228702,-23.193332,60.796151,33.924258,74.491675,66.555179,-60.017386,-32.145969,0,0.03
5072.769,220.568069,291.164551,283.98941,-149.501648,-80.105,-23.422457,60.789103,34.088353,74.492821,66.555179,-60.003635,-31.915296,0,0.03
5087.703,220.641342,291.282318,282.828217,-149.505659,-79.958495,-23.440506,60.7879,34.223285,74.49454,66.555179,-59.989942,-31.761457,0,0.03
5101.717,220.694397,291.356628,282.040283,-149.148649,-79.834392,-23.826736,60.786697,34.35031,74.49752,66.555179,-59.989942,-31.541728,0,0.03
5116.816,220.743881,291.477325,280.951874,-149.428367,-79.709487,-23.551373,60.786582,34.517842,74.498322,66.555179,-59.948746,-31.387946,0,0.03
5132.772,220.780731,291.546631,280.2901,-149.599853,-79.647894,-23.391288,60.786468,34.62361,74.501358,66.555179,-59.939579,-31.300054,0,0.03
5148.044,220.805359,291.596527,279.791534,-149.475808,-79.572092,-23.526965,60.786468,34.727029,74.502447,66.555179,-59.925828,-31.135271,0,0.03
5164.699,220.834183,291.653351,279.20282,-149.482741,-79.500415,-23.532293,60.786468,34.809306,74.504338,66.555179,-59.921244,-31.036379,0,0.03
5179.908,220.852707,291.726349,278.984314,-149.098057,-79.464261,-23.889017,60.786353,34.837324,74.508062,66.500232,-59.921244,-30.937486,0,0.03
5195.43,220.858536,291.829193,278.966187,-148.802411,-79.494227,-24.100266,60.786238,34.851819,74.510067,66.379395,-59.921244,-30.849595,0,0.03
5211.057,220.872482,291.861694,279.001099,-148.750844,-79.516572,-24.120836,60.784176,34.852392,74.513448,66.335449,-59.921244,-30.838594,0,0.03
5226.068,220.924271,291.874481,279.080658,-148.650233,-79.518062,-24.225916,60.777931,34.852392,74.531782,66.335449,-59.921244,-30.838594,0,0.03
5241.711,221.017471,291.915741,279.252075,-148.433368,-79.521328,-24.448854,60.768018,34.852392,74.571374,66.335449,-59.921244,-30.838594,0,0.03
5257.727,221.129913,291.943024,279.424622,-148.215072,-79.524365,-24.676948,60.754382,34.852392,74.611137,66.335449,-59.921244,-30.838594,0,0.03
5273.758,221.272827,291.913055,279.542664,-148.065186,-79.52637,-24.846315,60.732208,34.852564,74.638582,66.335449,-59.921244,-30.838594,0,0.03
5289.771,221.416702,291.842682,279.601227,-147.99116,-79.527344,-24.944405,60.706826,34.852564,74.651989,66.335449,-59.921244,-30.838594,0,-0.04
5305.271,221.49968,291.809631,279.646729,-147.933635,-79.528032,-25.014994,60.688778,34.852564,74.664422,66.335449,-59.921244,-30.838594,0,-0.04
5319.338,221.608383,291.741241,279.667572,-147.907336,-79.528375,-25.061174,60.672449,34.852564,74.667172,66.335449,-59.921244,-30.838594,0,-0.04
5334.654,221.75032,291.638275,279.673828,-147.899601,-79.528433,-25.096354,60.644832,34.852564,74.66849,66.335449,-59.921244,-30.838594,0,-0.04
5350.822,221.856979,291.558838,279.673767,-147.8992,-79.528375,-25.11761,60.623977,34.852793,74.668662,66.335449,-59.921244,-30.838594,0,-0.04
5366.697,221.916,291.515137,279.674255,-147.898398,-79.528375,-25.129929,60.61246,34.852908,74.668891,66.335449,-59.921244,-30.838594,0,-0.04
5381.587,221.958557,291.484619,279.676788,-147.895247,-79.528375,-25.141273,60.60421,34.852908,74.669464,66.335449,-59.921244,-30.838594,0,-0.04
5397.626,221.977402,291.4729,279.680664,-147.890319,-79.528433,-25.149581,60.600715,34.852908,74.670324,66.335449,-59.921244,-30.838594,0,-0.04
5412.716,221.98024,291.47229,279.683044,-147.88734,-79.52849,-25.153019,60.600256,34.852908,74.671011,66.335449,-59.921244,-30.838594,0,-0.04
5426.729,221.981277,291.472748,279.684967,-147.884933,-79.52849,-25.155483,60.600142,34.852908,74.671298,66.335449,-59.921244,-30.838594,0,-0.04
5441.734,221.982071,291.472748,279.685913,-147.88373,-79.528547,-25.156801,60.600027,34.852908,74.671527,66.335449,-59.921244,-30.838594,0,-0.04
5458.773,221.982437,291.473419,279.687347,-147.881897,-79.528547,-25.158577,60.600027,34.852908,74.671871,66.335449,-59.921244,-30.838594,0,-0.04
5473.76,221.982788,291.47406,279.688782,-147.880063,-79.528605,-25.160353,60.600027,34.852908,74.672214,66.335449,-59.921244,-30.838594,0,-0.04
5489.924,221.983139,291.483276,279.696625,-147.880808,-79.535595,-25.151128,60.600027,34.852908,74.672615,66.324448,-59.921244,-30.838594,0,-0.04
5505.373,221.983368,291.483704,279.697571,-147.879605,-79.535595,-25.152332,60.600027,34.852908,74.672959,66.324448,-59.921244,-30.838594,0,-0.04
5519.553,221.983734,291.484375,279.699005,-147.877829,-79.535652,-25.154108,60.600027,34.852908,74.673188,66.324448,-59.921244,-30.838594,0,-0.04
5536.492,221.983963,291.484802,279.699951,-147.876625,-79.535652,-25.155311,60.600027,34.852908,74.673418,66.324448,-59.921244,-30.838594,0,-0.04
5550.561,221.984207,291.485229,279.700897,-147.875365,-79.535652,-25.156514,60.600027,34.852908,74.673647,66.324448,-59.921244,-30.838594,0,-0.04
5565.699,221.984558,291.485901,279.702332,-147.873589,-79.535709,-25.15829,60.600027,34.852908,74.673933,66.324448,-59.921244,-30.838594,0,-0.04
5582.011,221.984924,291.486542,279.703766,-147.871755,-79.535709,-25.160066,60.600027,34.852908,74.674277,66.324448,-59.921244,-30.838594,0,-0.04
5597.291,221.985153,291.486969,279.704712,-147.870552,-79.535709,-25.161212,60.600027,34.852908,74.674506,66.324448,-59.921244,-30.838594,0,-0.04
5612.278,221.985519,291.48764,279.706146,-147.868719,-79.535767,-25.162989,60.600027,34.852908,74.67485,66.324448,-59.921244,-30.838594,0,-0.04
5627.042,221.985641,291.487854,279.706604,-147.868146,-79.535767,-25.163619,60.600027,34.852908,74.674965,66.324448,-59.921244,-30.838594,0,-0.04
5641.822,221.985992,291.488495,279.708038,-147.866369,-79.535767,-25.165395,60.600027,34.852908,74.675251,66.324448,-59.921244,-30.838594,0,-0.04
5657.827,221.986343,291.489166,279.709473,-147.864536,-79.535824,-25.167171,60.600027,34.852908,74.675595,66.324448,-59.921244,-30.838594,0,-0.04
5674.581,221.986847,291.472931,279.698578,-147.85703,-79.521844,-25.191407,60.600027,34.852908,74.675824,66.34645,-59.921244,-30.838594,0,-0.04
5689.573,221.987076,291.464844,279.693115,-147.853306,-79.514854,-25.203554,60.600027,34.852908,74.675939,66.357394,-59.921244,-30.838594,0,-0.04
5705.683,221.987198,291.465057,279.693573,-147.852733,-79.514911,-25.204127,60.600027,34.852908,74.676053,66.357394,-59.921244,-30.838594,0,-0.04
5721.164,221.987442,291.465485,279.69455,-147.85153,-79.514911,-25.20533,60.600027,34.852908,74.676282,66.357394,-59.921244,-30.838594,0,-0.04
5735.453,221.987671,291.465912,279.695496,-147.850327,-79.514911,-25.206533,60.600027,34.852908,74.676512,66.357394,-59.921244,-30.838594,0,-0.04
5752.046,221.987915,291.46637,279.696442,-147.849123,-79.514911,-25.207679,60.600027,34.852908,74.676741,66.357394,-59.921244,-30.838594,0,-0.05
5766.539,221.987335,291.469849,279.693939,-147.856228,-79.511588,-25.197996,60.600027,34.852908,74.677027,66.357394,-59.91666,-30.838594,0,-0.05
5782.085,221.987579,291.470276,279.694885,-147.855025,-79.511645,-25.199199,60.600027,34.852908,74.677256,66.357394,-59.91666,-30.838594,0,-0.05
5798.685,221.987701,291.47049,279.695374,-147.854452,-79.511645,-25.199772,60.600027,34.852908,74.677371,66.357394,-59.91666,-30.838594,1,-0.05
5812.694,221.987823,291.470703,279.695831,-147.853822,-79.511645,-25.200345,60.600027,34.852908,74.677486,66.357394,-59.91666,-30.838594,1,-0.05
5830.078,221.988052,291.471161,279.696777,-147.852618,-79.511645,-25.201549,60.600027,34.852908,74.677715,66.357394,-59.91666,-30.838594,1,-0.05
5843.228,221.988174,291.471375,279.697266,-147.852046,-79.511645,-25.202122,60.600027,34.852908,74.677829,66.357394,-59.91666,-30.838594,1,-0.05
5858.97,221.988525,291.472015,279.6987,-147.850212,-79.511702,-25.203898,60.600027,34.852908,74.678116,66.357394,-59.91666,-30.838594,1,-0.05
5874.721,221.988647,291.472229,279.699158,-147.849639,-79.511702,-25.204528,60.600027,34.852908,74.67823,66.357394,-59.91666,-30.838594,1,-0.05
5893.616,221.988892,291.472687,279.700134,-147.848436,-79.511702,-25.205674,60.600027,34.852908,74.67846,66.357394,-59.91666,-30.838594,1,-0.05
5895.122,221.988892,291.472687,279.700134,-147.848436,-79.511702,-25.205674,60.600027,34.852908,74.67846,66.357394,-59.91666,-30.838594,1,-0.05
5905.624,221.989243,291.473328,279.701538,-147.846602,-79.51176,-25.20745,60.600027,34.852908,74.678803,66.357394,-59.91666,-30.838594,1,-0.05
5921.49,221.989487,291.473755,279.702515,-147.845399,-79.51176,-25.208653,60.600027,34.852908,74.679033,66.357394,-59.91666,-30.838594,1,-0.05
5935.648,221.989609,291.473969,279.702972,-147.844826,-79.51176,-25.209226,60.600027,34.852908,74.679147,66.357394,-59.91666,-30.838594,1,-0.05
5951.154,221.989838,291.474426,279.703918,-147.843623,-79.51176,-25.210429,60.600027,34.852908,74.679376,66.357394,-59.91666,-30.838594,1,-0.05
5966.244,221.990082,291.474854,279.704895,-147.84242,-79.511817,-25.211633,60.600027,34.852908,74.679548,66.357394,-59.91666,-30.838594,1,-0.05
5983.163,221.990204,291.475067,279.705353,-147.84179,-79.511817,-25.212206,60.600027,34.852908,74.679663,66.357394,-59.91666,-30.838594,1,-0.05
5999.106,221.990311,291.475281,279.705841,-147.841217,-79.511817,-25.212779,60.600027,34.852908,74.679777,66.357394,-59.91666,-30.838594,1,-0.05
6013.769,221.990555,291.475739,279.706787,-147.840013,-79.511817,-25.213982,60.600027,34.852908,74.680007,66.357394,-59.91666,-30.838594,1,-0.05
6028.312,221.990677,291.475952,279.707275,-147.839383,-79.511817,-25.214555,60.600027,34.852908,74.680236,66.357394,-59.91666,-30.838594,1,-0.05
6043.811,221.990799,291.476166,279.707733,-147.83881,-79.511817,-25.215128,60.600027,34.852908,74.680236,66.357394,-59.91666,-30.838594,1,-0.05
6058.846,221.990906,291.476379,279.708191,-147.787989,-79.505973,-25.266809,60.600027,34.852908,74.68035,66.357394,-59.91666,-30.82765,1,-0.05
6074.778,221.99115,291.476807,279.709137,-147.786786,-79.50603,-25.268012,60.600027,34.852908,74.68058,66.357394,-59.91666,-30.82765,1,-0.05
6090.282,221.991501,291.477478,279.710571,-147.784952,-79.50603,-25.269788,60.600027,34.852908,74.680866,66.357394,-59.91666,-30.82765,1,-0.05
6106.19,221.991623,291.477692,279.71106,-147.784379,-79.50603,-25.270361,60.600027,34.852908,74.680981,66.357394,-59.91666,-30.82765,1,-0.05
6122.352,221.99173,291.48645,279.717926,-147.786213,-79.51302,-25.260048,60.600027,34.852908,74.68121,66.34645,-59.91666,-30.82765,1,-0.05
6137.457,221.991974,291.486877,279.718842,-147.734818,-79.507176,-25.312301,60.600027,34.852908,74.681439,66.34645,-59.91666,-30.81665,1,-0.05
6153.598,221.992081,291.487122,279.71933,-147.734245,-79.507176,-25.312874,60.600027,34.852908,74.681554,66.34645,-59.91666,-30.81665,1,-0.05
6168.1,221.992081,291.487122,279.71933,-147.734245,-79.507176,-25.312874,60.600027,34.852908,74.681668,66.34645,-59.91666,-30.81665,1,-0.05
6183.955,221.992325,291.487549,279.720276,-147.733042,-79.507233,-25.314078,60.600027,34.852908,74.681783,66.34645,-59.91666,-30.81665,1,-0.05
6197.67,221.992569,291.487976,279.721222,-147.731839,-79.507233,-25.315223,60.600027,34.852908,74.682012,66.34645,-59.91666,-30.81665,1,-0.05
6212.675,221.992126,291.488617,279.72171,-147.731209,-79.507233,-25.315739,60.600142,34.852908,74.682069,66.34645,-59.91666,-30.81665,1,0.0
6229.56,221.992355,291.489044,279.722656,-147.730006,-79.507233,-25.316885,60.600142,34.852908,74.682298,66.34645,-59.91666,-30.81665,1,0.0
6244.889,221.991913,291.489685,279.723145,-147.729433,-79.507233,-25.317401,60.600256,34.852908,74.682413,66.34645,-59.912134,-30.81665,1,0.0
6260.446,221.990433,291.49295,279.719177,-147.738371,-79.50391,-25.30577,60.600371,34.852908,74.682528,66.34645,-59.912134,-30.81665,1,0.0
6274.457,221.990662,291.493378,279.720154,-147.737167,-79.50391,-25.306973,60.600371,34.852908,74.682642,66.34645,-59.912134,-30.81665,1,0.0
6291.101,221.990662,291.493378,279.720154,-147.737167,-79.50391,-25.306973,60.600371,34.852908,74.682642,66.34645,-59.912134,-30.81665,1,0.0
6307.593,221.990906,291.493805,279.7211,-147.735964,-79.503967,-25.308119,60.600371,34.852908,74.682871,66.34645,-59.912134,-30.81665,1,0.0
6323.204,221.990341,291.494232,279.7211,-147.736022,-79.503967,-25.308004,60.600485,34.852908,74.682871,66.34645,-59.912134,-30.81665,1,0.0
6338.115,221.990585,291.494659,279.722046,-147.734761,-79.503967,-25.309207,60.600485,34.852908,74.683101,66.34645,-59.912134,-30.81665,1,0.0
6353.107,221.990707,291.494904,279.722534,-147.734188,-79.503967,-25.30978,60.600485,34.852908,74.683215,66.34645,-59.912134,-30.81665,1,0.0
6367.634,221.990707,291.494904,279.722534,-147.734188,-79.503967,-25.30978,60.600485,34.852908,74.683215,66.34645,-59.912134,-30.81665,1,0.0
6382.681,221.990936,291.495331,279.72345,-147.682851,-79.498123,-25.361977,60.600485,34.852908,74.683387,66.34645,-59.912134,-30.805649,1,0.0
6397.598,221.990616,291.496185,279.724365,-147.631571,-79.492279,-25.413944,60.6006,34.852908,74.683616,66.34645,-59.912134,-30.794648,1,0.0
6413.098,221.990845,291.496613,279.725311,-147.630368,-79.492279,-25.415147,60.6006,34.852908,74.683845,66.34645,-59.912134,-30.794648,1,0.0
6428.733,221.990967,291.496826,279.725769,-147.579776,-79.486378,-25.466599,60.6006,34.852908,74.68396,66.34645,-59.912134,-30.783705,1,0.0
6444.22,221.991074,291.49704,279.726196,-147.529241,-79.480533,-25.517993,60.6006,34.852908,74.684189,66.34645,-59.912134,-30.772704,1,0.0
6459.385,221.991196,291.497284,279.726685,-147.528611,-79.480533,-25.518566,60.6006,34.852908,74.684189,66.34645,-59.912134,-30.772704,1,0.0
6476.256,221.991318,291.497498,279.727173,-147.528038,-79.480533,-25.519139,60.6006,34.852908,74.684304,66.34645,-59.912134,-30.772704,1,0.0
6491.271,221.991547,291.497925,279.728119,-147.526835,-79.480533,-25.520342,60.6006,34.852908,74.684533,66.34645,-59.912134,-30.772704,1,0.0
6506.262,221.990738,291.500977,279.724609,-147.485353,-79.471309,-25.560106,60.6006,34.852908,74.684648,66.34645,-59.90755,-30.761703,1,0.0
6521.918,221.990982,291.501404,279.725555,-147.484149,-79.471309,-25.561309,60.6006,34.852908,74.684819,66.34645,-59.90755,-30.761703,1,0.0
6535.926,221.990967,291.509949,279.731964,-147.486441,-79.478356,-25.550595,60.6006,34.852908,74.684934,66.335449,-59.902967,-30.761703,1,0.0
6552.181,221.989914,291.521088,279.733978,-147.498359,-79.481966,-25.527733,60.6006,34.852908,74.684934,66.324448,-59.902967,-30.761703,1,0.0
6567.33,221.990021,291.521332,279.734406,-147.447881,-79.476064,-25.579071,60.6006,34.852908,74.685049,66.324448,-59.902967,-30.750759,1,0.0
6583.803,221.990143,291.521545,279.734894,-147.447251,-79.476122,-25.579643,60.6006,34.852908,74.685163,66.324448,-59.902967,-30.750759,1,0.0
6599.248,221.989334,291.524567,279.731415,-147.455673,-79.472799,-25.5687,60.6006,34.852908,74.685278,66.324448,-59.898383,-30.750759,1,0.0
6614.269,221.988403,291.527405,279.727478,-147.464726,-79.469475,-25.557126,60.6006,34.852908,74.685278,66.324448,-59.893799,-30.750759,1,0.0
6629.816,221.988266,291.535736,279.733398,-147.467591,-79.476408,-25.545839,60.6006,34.852908,74.685278,66.313448,-59.893799,-30.750759,1,0.0
6645.334,221.988251,291.544281,279.739807,-147.469883,-79.483456,-25.535125,60.6006,34.852908,74.685392,66.302504,-59.893799,-30.750759,1,0.0
6659.012,221.988129,291.552612,279.745728,-147.472747,-79.490446,-25.523837,60.6006,34.852908,74.685392,66.291503,-59.893799,-30.750759,1,0.0
6675.012,221.988113,291.561157,279.752136,-147.475039,-79.497436,-25.513123,60.6006,34.852908,74.685507,66.280503,-59.893799,-30.750759,1,-0.0
6690.576,221.988113,291.561157,279.752136,-147.475039,-79.497436,-25.513123,60.6006,34.852908,74.685507,66.280503,-59.893799,-30.750759,1,-0.0
6706.573,221.987411,291.564423,279.749146,-147.482946,-79.494113,-25.502753,60.6006,34.852908,74.685736,66.280503,-59.889216,-30.750759,1,-0.0
6722.041,221.987534,291.564636,279.749634,-147.482316,-79.494113,-25.503325,60.6006,34.852908,74.685851,66.280503,-59.889216,-30.750759,1,-0.0
6738.989,221.987534,291.564636,279.749634,-147.482316,-79.494113,-25.503325,60.6006,34.852908,74.685851,66.280503,-59.889216,-30.750759,1,-0.0
6754.518,221.987656,291.56485,279.750122,-147.481743,-79.494113,-25.503898,60.6006,34.852908,74.685965,66.280503,-59.889216,-30.750759,1,-0.0
6769.298,221.987656,291.56485,279.750122,-147.481743,-79.494113,-25.503898,60.6006,34.852908,74.685965,66.280503,-59.889216,-30.750759,1,-0.0
6784.992,221.987778,291.565063,279.75058,-147.481113,-79.494113,-25.504529,60.6006,34.852908,74.686023,66.280503,-59.889216,-30.750759,1,-0.0
6799.638,221.987076,291.568329,279.747589,-147.488962,-79.490789,-25.494101,60.6006,34.852908,74.686252,66.280503,-59.884632,-30.750759,1,-0.0
6815.623,221.987198,291.568542,279.748077,-147.488389,-79.490789,-25.494674,60.6006,34.852908,74.686366,66.280503,-59.884632,-30.750759,1,-0.0
6831.018,221.986267,291.57135,279.744141,-147.497442,-79.487466,-25.483157,60.6006,34.852908,74.686366,66.280503,-59.880048,-30.750759,1,-0.0
6846.89,221.986389,291.571594,279.744598,-147.496812,-79.487466,-25.48373,60.6006,34.852908,74.686481,66.280503,-59.880048,-30.750759,1,-0.0
6861.472,221.985947,291.572235,279.745087,-147.496239,-79.487466,-25.484189,60.600715,34.852908,74.686596,66.280503,-59.880048,-30.750759,1,-0.0
6876.491,221.985123,291.575256,279.741608,-147.504661,-79.4842,-25.473245,60.600715,34.852908,74.68671,66.280503,-59.875465,-30.750759,1,-0.0
6892.184,221.985245,291.57547,279.742096,-147.504031,-79.4842,-25.473818,60.600715,34.852908,74.686825,66.280503,-59.875465,-30.750759,1,-0.0
6907.705,221.985245,291.57547,279.742096,-147.504031,-79.4842,-25.473818,60.600715,34.852908,74.686825,66.280503,-59.875465,-30.750759,1,-0.0
6923.092,221.985489,291.575928,279.743042,-147.502828,-79.4842,-25.475021,60.600715,34.852908,74.687054,66.280503,-59.875465,-30.750759,1,-0.0
6938.606,221.984558,291.578735,279.739105,-147.51188,-79.480877,-25.463448,60.600715,34.852908,74.687054,66.280503,-59.870938,-30.750759,1,-0.0
6954.19,221.984665,291.578949,279.739594,-147.511308,-79.480877,-25.464021,60.600715,34.852908,74.687169,66.280503,-59.870938,-30.750759,1,-0.0
6969.371,221.984787,291.579163,279.740051,-147.510677,-79.480877,-25.464651,60.600715,34.852908,74.687283,66.280503,-59.870938,-30.750759,1,-0.0
6984.82,221.984909,291.579407,279.74054,-147.510104,-79.480877,-25.465224,60.600715,34.852908,74.68734,66.280503,-59.870938,-30.750759,1,-0.0
6999.334,221.984909,291.579407,279.74054,-147.510104,-79.480877,-25.465224,60.600715,34.852908,74.68734,66.280503,-59.870938,-30.750759,1,-0.0
7014.614,221.985031,291.57962,279.740997,-147.509474,-79.480877,-25.465797,60.600715,34.852908,74.687455,66.280503,-59.870938,-30.750759,1,-0.0
7030.402,221.983154,291.585266,279.733124,-147.527522,-79.474231,-25.442707,60.600715,34.852908,74.687455,66.280503,-59.861771,-30.750759,1,-0.0
7045.408,221.981293,291.590912,279.72525,-147.545513,-79.467585,-25.419674,60.600715,34.852908,74.687455,66.280503,-59.852604,-30.750759,1,-0.0
7060.895,221.979538,291.596771,279.717834,-147.562931,-79.460938,-25.397214,60.600715,34.852908,74.68757,66.280503,-59.843436,-30.750759,1,-0.0
7076.652,221.978043,291.600006,279.713898,-147.571926,-79.457615,-25.385583,60.600829,34.852908,74.68757,66.280503,-59.838853,-30.750759,1,-0.0
7092.157,221.976166,291.605652,279.706024,-147.58986,-79.450912,-25.362607,60.600829,34.852908,74.68757,66.280503,-59.829685,-30.750759,1,-0.0
7107.67,221.974289,291.611298,279.69812,-147.607794,-79.444265,-25.339631,60.600829,34.852908,74.68757,66.280503,-59.820575,-30.750759,1,-0.0
7123.725,221.972412,291.616943,279.690247,-147.625727,-79.437619,-25.316656,60.600829,34.852908,74.68757,66.280503,-59.811408,-30.750759,1,-0.0
7138.522,221.972412,291.616943,279.690247,-147.625727,-79.437619,-25.316656,60.600829,34.852908,74.68757,66.280503,-59.811408,-30.750759,1,0.01
7154.953,221.972534,291.617157,279.690735,-147.625097,-79.437619,-25.317229,60.600829,34.852908,74.687684,66.280503,-59.811408,-30.750759,1,0.01
7170.075,221.971603,291.619995,279.686798,-147.634035,-79.434238,-25.30577,60.600829,34.852908,74.687684,66.280503,-59.806824,-30.750759,1,0.01
7186.16,221.971603,291.619995,279.686798,-147.634035,-79.434238,-25.30577,60.600829,34.852908,74.687684,66.280503,-59.806824,-30.750759,1,0.01
7202.116,221.971603,291.619995,279.686798,-147.634035,-79.434238,-25.30577,60.600829,34.852908,74.687684,66.280503,-59.806824,-30.750759,1,0.01
7216.64,221.971603,291.619995,279.686798,-147.634035,-79.434238,-25.30577,60.600829,34.852908,74.687684,66.280503,-59.806824,-30.750759,1,0.01
7232.725,221.971603,291.619995,279.686798,-147.634035,-79.434238,-25.30577,60.600829,34.852908,74.687684,66.280503,-59.806824,-30.750759,1,0.01
7246.396,221.971603,291.619995,279.686798,-147.634035,-79.434238,-25.30577,60.600829,34.852908,74.687684,66.280503,-59.806824,-30.750759,1,0.01
7262.147,221.971603,291.619995,279.686798,-147.634035,-79.434238,-25.30577,60.600829,34.852908,74.687684,66.280503,-59.806824,-30.750759,1,0.01
7277.152,221.971603,291.619995,279.686798,-147.634035,-79.434238,-25.30577,60.600829,34.852908,74.687684,66.280503,-59.806824,-30.750759,1,0.01
7292.891,221.971603,291.619995,279.686798,-147.634035,-79.434238,-25.30577,60.600829,34.852908,74.687684,66.280503,-59.806824,-30.750759,1,0.01
7307.898,221.970657,291.622803,279.682861,-147.642973,-79.430915,-25.29431,60.600829,34.852908,74.687684,66.280503,-59.802241,-30.750759,1,0.01
7325.1,221.969727,291.625641,279.678894,-147.651911,-79.427592,-25.282851,60.600887,34.852908,74.687684,66.280503,-59.797657,-30.750759,1,0.01
7340.211,221.968216,291.628876,279.674957,-147.660849,-79.424269,-25.271335,60.600887,34.852908,74.687684,66.280503,-59.793073,-30.750759,1,0.01
7356.282,221.968216,291.628876,279.674957,-147.660849,-79.424269,-25.271335,60.600887,34.852908,74.687684,66.280503,-59.793073,-30.750759,1,0.01
7369.53,221.968338,291.629089,279.675446,-147.660219,-79.424269,-25.271908,60.600887,34.852908,74.687799,66.280503,-59.793073,-30.750759,1,0.01
7385.036,221.967407,291.631927,279.671509,-147.669157,-79.420946,-25.260449,60.600887,34.852908,74.687799,66.280503,-59.78849,-30.750759,1,0.01
7400.205,221.967407,291.631927,279.671509,-147.669157,-79.420946,-25.260449,60.600887,34.852908,74.687799,66.280503,-59.78849,-30.750759,1,0.01
7415.513,221.967407,291.631927,279.671509,-147.669157,-79.420946,-25.260449,60.600887,34.852908,74.687799,66.280503,-59.78849,-30.750759,1,0.01
7432.147,221.967407,291.631927,279.671509,-147.669157,-79.420946,-25.260449,60.600887,34.852908,74.687799,66.280503,-59.78849,-30.750759,1,0.01
7447.186,221.967407,291.631927,279.671509,-147.669157,-79.420946,-25.260449,60.600887,34.852908,74.687799,66.280503,-59.78849,-30.750759,1,0.01
7463.03,221.965897,291.635162,279.667572,-147.678096,-79.417623,-25.248932,60.601001,34.852908,74.687799,66.280503,-59.783963,-30.750759,1,0.01
7477.843,221.966034,291.626831,279.661652,-147.675002,-79.410633,-25.260391,60.601001,34.852908,74.687799,66.291503,-59.783963,-30.750759,1,0.01
7492.151,221.966293,291.610199,279.64978,-147.668928,-79.396652,-25.283252,60.601001,34.852908,74.687799,66.313448,-59.783963,-30.750759,1,0.01
7507.322,221.966431,291.601898,279.64386,-147.665949,-79.389662,-25.294712,60.601001,34.852908,74.687799,66.324448,-59.783963,-30.750759,1,0.01
7522.826,221.966431,291.601898,279.64386,-147.665949,-79.389662,-25.294712,60.601001,34.852908,74.687799,66.324448,-59.783963,-30.750759,1,0.01
7539.934,221.966553,291.593567,279.637939,-147.662912,-79.382672,-25.306113,60.601001,34.852908,74.687799,66.335449,-59.783963,-30.750759,1,0.01
7554.648,221.966553,291.593567,279.637939,-147.662912,-79.382672,-25.306113,60.601001,34.852908,74.687799,66.335449,-59.783963,-30.750759,1,0.01
7570.813,221.966553,291.593567,279.637939,-147.662912,-79.382672,-25.306113,60.601001,34.852908,74.687799,66.335449,-59.783963,-30.750759,1,0.01
7585.502,221.965057,291.596832,279.634003,-147.671793,-79.379349,-25.294597,60.601116,34.852908,74.687799,66.335449,-59.77938,-30.750759,1,0.01
7600.037,221.965057,291.596832,279.634003,-147.671793,-79.379349,-25.294597,60.601116,34.852908,74.687799,66.335449,-59.77938,-30.750759,1,0.01
7615.868,221.965057,291.596832,279.634003,-147.671793,-79.379349,-25.294597,60.601116,34.852908,74.687799,66.335449,-59.77938,-30.750759,1,0.01
7630.113,221.965057,291.596832,279.634003,-147.671793,-79.379349,-25.294597,60.601116,34.852908,74.687799,66.335449,-59.77938,-30.750759,1,0.01
7647.001,221.964111,291.59964,279.630066,-147.680674,-79.376026,-25.283252,60.601116,34.852908,74.687799,66.335449,-59.774796,-30.750759,1,0.01
7662.509,221.964249,291.591339,279.624146,-147.677637,-79.369036,-25.294654,60.601116,34.852908,74.687799,66.34645,-59.774796,-30.750759,1,0.01
7678.177,221.963425,291.585846,279.614288,-147.683481,-79.358665,-25.294712,60.601116,34.852908,74.687799,66.357394,-59.770212,-30.750759,1,0.01
7693.183,221.963425,291.585846,279.614288,-147.683481,-79.358665,-25.294712,60.601116,34.852908,74.687799,66.357394,-59.770212,-30.750759,1,0.01
7709.061,221.963425,291.585846,279.614288,-147.683481,-79.358665,-25.294712,60.60123,34.852908,74.687799,66.357394,-59.770212,-30.750759,1,0.01
7724.067,221.96286,291.586273,279.614288,-147.683481,-79.358665,-25.294597,60.60123,34.852908,74.687799,66.357394,-59.770212,-30.750759,1,0.01
7738.937,221.96286,291.586273,279.614288,-147.683481,-79.358665,-25.294597,60.60123,34.852908,74.687799,66.357394,-59.770212,-30.750759,1,0.01
7754.455,221.96286,291.586273,279.614288,-147.683481,-79.358665,-25.294597,60.60123,34.852908,74.687799,66.357394,-59.770212,-30.750759,1,0.01
7770.341,221.961929,291.589081,279.610352,-147.692305,-79.355342,-25.283252,60.60123,34.852908,74.687799,66.357394,-59.765629,-30.750759,1,0.01
7784.879,221.961929,291.589081,279.610352,-147.692305,-79.355342,-25.283252,60.60123,34.852908,74.687799,66.357394,-59.765629,-30.750759,1,0.01
7799.254,221.961365,291.589508,279.610352,-147.692305,-79.355342,-25.283138,60.601345,34.852908,74.687799,66.357394,-59.765629,-30.750759,1,0.01
7814.395,221.961365,291.589508,279.610352,-147.692305,-79.355342,-25.283138,60.601345,34.852908,74.687799,66.357394,-59.765629,-30.750759,1,0.01
7830.239,221.960419,291.592316,279.606415,-147.701128,-79.352019,-25.271736,60.601345,34.852908,74.687799,66.357394,-59.761045,-30.750759,1,0.01
7845.244,221.959473,291.595154,279.602478,-147.709952,-79.348696,-25.260391,60.601345,34.852908,74.687799,66.357394,-59.756461,-30.750759,1,0.01
7862.471,221.959473,291.595154,279.602478,-147.709952,-79.348696,-25.260391,60.601345,34.852908,74.687799,66.357394,-59.756461,-30.750759,1,0.01
