BAEK26/lfd/data/sepisode3/jee.csv
timestamp,x,y,z,roll,pitch,yaw,joint1,joint2,joint3,joint4,joint5,joint6,gripper,scale
128.14,221.801086,291.815704,279.670959,-149.42894,-79.618101,-23.379027,60.631998,34.852908,74.688028,66.225613,-59.751878,-31.11327,1,0.02
129.139,221.801086,291.815704,279.670959,-149.42894,-79.618101,-23.379027,60.631998,34.852908,74.688028,66.225613,-59.751878,-31.11327,1,0.02
139.639,221.800522,291.816132,279.670929,-149.42894,-79.618101,-23.378913,60.632113,34.852908,74.688028,66.225613,-59.751878,-31.11327,1,0.02
155.139,221.799973,291.816559,279.670929,-149.42894,-79.618101,-23.378798,60.632227,34.852908,74.688028,66.225613,-59.751878,-31.11327,1,0.02
170.639,221.798843,291.817413,279.670929,-149.42894,-79.618101,-23.378569,60.632571,34.852908,74.688028,66.225613,-59.751878,-31.11327,1,0.02
186.139,221.797729,291.818237,279.670929,-149.42894,-79.618101,-23.37834,60.632686,34.852908,74.688028,66.225613,-59.751878,-31.11327,1,0.02
201.879,221.797729,291.818237,279.670929,-149.42894,-79.618101,-23.37834,60.632686,34.852908,74.688028,66.225613,-59.751878,-31.11327,1,0.02
218.407,221.797165,291.818665,279.670929,-149.42894,-79.618101,-23.378225,60.6328,34.852908,74.688028,66.225613,-59.751878,-31.11327,1,-0.01
233.03,221.797165,291.818665,279.670929,-149.42894,-79.618101,-23.378225,60.6328,34.852908,74.688028,66.225613,-59.751878,-31.11327,1,-0.01
248.534,221.7966,291.819092,279.670929,-149.42894,-79.618101,-23.37811,60.632915,34.852908,74.688028,66.225613,-59.751878,-31.11327,1,-0.01
265.064,221.795486,291.819916,279.670929,-149.42894,-79.618101,-23.377881,60.633087,34.852908,74.688028,66.225613,-59.751878,-31.11327,1,-0.01
278.557,221.794922,291.820343,279.670929,-149.42894,-79.618101,-23.377767,60.633316,34.852908,74.688028,66.225613,-59.751878,-31.11327,1,-0.01
294.058,221.793808,291.821198,279.670929,-149.42894,-79.618101,-23.377537,60.633431,34.852908,74.688028,66.225613,-59.751878,-31.11327,1,-0.01
310.056,221.793808,291.821198,279.670929,-149.42894,-79.618101,-23.377537,60.633431,34.852908,74.688028,66.225613,-59.751878,-31.11327,1,-0.01
325.057,221.793808,291.821198,279.670929,-149.42894,-79.618101,-23.377537,60.633431,34.852908,74.688028,66.225613,-59.751878,-31.11327,1,-0.01
340.558,221.793243,291.821625,279.670929,-149.42894,-79.618101,-23.37748,60.633545,34.852908,74.688028,66.225613,-59.751878,-31.11327,1,-0.01
356.056,221.792679,291.822021,279.670929,-149.42894,-79.618101,-23.377366,60.63366,34.852908,74.688028,66.225613,-59.751878,-31.11327,1,-0.01
371.556,221.79213,291.822449,279.670929,-149.480621,-79.623716,-23.324711,60.633774,34.852908,74.688028,66.225613,-59.751878,-31.124271,1,-0.01
387.562,221.79213,291.822449,279.670929,-149.480621,-79.623716,-23.324711,60.633774,34.852908,74.688028,66.225613,-59.751878,-31.124271,1,-0.01
403.057,221.791565,291.822876,279.670929,-149.480621,-79.623716,-23.324596,60.633889,34.852908,74.688028,66.225613,-59.751878,-31.124271,1,-0.01
418.557,221.791016,291.823303,279.670959,-149.532359,-79.629273,-23.271884,60.634004,34.852908,74.688028,66.225613,-59.751878,-31.135271,1,-0.01
434.557,221.790451,291.82373,279.670959,-149.532359,-79.629273,-23.271769,60.634233,34.852908,74.688028,66.225613,-59.751878,-31.135271,1,-0.01
449.556,221.788773,291.824982,279.670959,-149.532359,-79.629273,-23.271426,60.634405,34.852908,74.688028,66.225613,-59.751878,-31.135271,1,-0.01
465.561,221.788208,291.825409,279.670959,-149.532359,-79.629273,-23.271368,60.634519,34.852908,74.688028,66.225613,-59.751878,-31.135271,1,-0.01
482.24,221.787659,291.825836,279.670959,-149.532359,-79.629273,-23.271254,60.634634,34.852908,74.688028,66.225613,-59.751878,-31.135271,1,-0.01
496.905,221.787094,291.826233,279.670959,-149.532359,-79.629273,-23.271139,60.634748,34.852908,74.688028,66.225613,-59.751878,-31.135271,1,-0.01
512.337,221.78653,291.82666,279.670959,-149.532359,-79.629273,-23.271025,60.634863,34.852908,74.688028,66.225613,-59.751878,-31.135271,1,-0.01
527.087,221.785965,291.827087,279.670959,-149.532359,-79.629273,-23.27091,60.634978,34.852908,74.688028,66.225613,-59.751878,-31.135271,1,-0.01
542.085,221.785416,291.827515,279.670959,-149.532359,-79.629273,-23.270795,60.635092,34.852908,74.688028,66.225613,-59.751878,-31.135271,1,-0.01
557.481,221.784851,291.827911,279.670959,-149.532359,-79.629273,-23.270681,60.635207,34.852908,74.688028,66.225613,-59.751878,-31.135271,1,-0.01
572.916,221.783737,291.828766,279.670929,-149.532416,-79.629273,-23.270452,60.635436,34.852908,74.688028,66.225613,-59.751878,-31.135271,1,-0.01
589.522,221.783173,291.829193,279.670929,-149.532416,-79.629273,-23.270337,60.635551,34.852908,74.688028,66.225613,-59.751878,-31.135271,1,-0.01
605.108,221.78093,291.830872,279.670929,-149.532416,-79.629273,-23.269879,60.635952,34.852908,74.688028,66.225613,-59.751878,-31.135271,1,-0.01
620.509,221.779816,291.831726,279.670929,-149.532416,-79.629273,-23.26965,60.636181,34.852908,74.688028,66.225613,-59.751878,-31.135271,1,-0.01
636.614,221.779816,291.831726,279.670929,-149.532416,-79.629273,-23.26965,60.636181,34.852908,74.688028,66.225613,-59.751878,-31.135271,1,-0.01
651.802,221.779251,291.832123,279.670929,-149.532416,-79.629273,-23.269535,60.636295,34.852908,74.688028,66.225613,-59.751878,-31.135271,1,-0.01
666.878,221.778687,291.83255,279.670929,-149.532416,-79.629273,-23.26942,60.63641,34.852908,74.688028,66.225613,-59.751878,-31.135271,1,-0.01
682.469,221.778137,291.832977,279.670929,-149.532416,-79.629273,-23.269306,60.636525,34.852908,74.688028,66.225613,-59.751878,-31.135271,1,-0.01
698.181,221.777008,291.833832,279.670959,-149.584212,-79.634831,-23.216479,60.636754,34.852908,74.688028,66.225613,-59.751878,-31.146215,1,-0.01
705.68,221.776459,291.834229,279.670959,-149.584212,-79.634831,-23.216364,60.636868,34.852908,74.688028,66.225613,-59.751878,-31.146215,1,-0.01
711.549,221.775345,291.835083,279.670959,-149.636007,-79.640389,-23.163423,60.63704,34.852908,74.688028,66.225613,-59.751878,-31.157216,1,-0.01
727.053,221.772537,291.837189,279.670959,-149.636007,-79.640389,-23.162907,60.637613,34.852908,74.688028,66.225613,-59.751878,-31.157216,1,-0.01
742.9,221.770309,291.838867,279.67099,-149.687917,-79.645946,-23.10968,60.638243,34.852908,74.688028,66.225613,-59.751878,-31.168217,1,-0.01
757.982,221.764709,291.843079,279.670959,-149.687974,-79.645946,-23.108591,60.63916,34.852908,74.688028,66.225613,-59.751878,-31.168217,1,-0.01
773.43,221.752899,291.851868,279.671631,-149.687401,-79.646004,-23.106815,60.641452,34.852793,74.688028,66.225613,-59.751878,-31.168217,1,-0.01
788.307,221.733856,291.86618,279.67157,-149.739426,-79.651504,-23.050207,60.645176,34.852793,74.688028,66.225613,-59.751878,-31.179217,1,-0.01
803.811,221.687927,291.900635,279.672302,-150.104171,-79.690064,-22.67045,60.654172,34.852679,74.688028,66.225613,-59.751878,-31.256108,1,-0.01
820.408,221.607864,291.960785,279.672455,-150.843,-79.765866,-21.903833,60.669928,34.852679,74.688028,66.225613,-59.751878,-31.40989,1,-0.01
836.614,221.492447,292.047363,279.673157,-151.592371,-79.83995,-21.119797,60.69256,34.852564,74.688028,66.225613,-59.751878,-31.563729,1,-0.01
851.59,221.384445,292.120178,279.667084,-152.019741,-79.874557,-20.672776,60.721322,34.85245,74.688028,66.247558,-59.751878,-31.673565,1,-0.01
866.588,221.198273,292.226593,279.64502,-152.374172,-79.882864,-20.309177,60.750314,34.852278,74.688028,66.280503,-59.751878,-31.728512,1,-0.01
882.558,220.9561,292.366577,279.616119,-152.723333,-79.883838,-19.948156,60.797869,34.852049,74.688028,66.335449,-59.751878,-31.805403,1,-0.01
897.566,220.609726,292.53476,279.552185,-153.470126,-79.882635,-19.212134,60.865994,34.851705,74.688028,66.456286,-59.751878,-31.970186,1,-0.01
912.794,220.111816,292.708221,279.411255,-154.229066,-79.799786,-18.540628,60.964027,34.851247,74.688028,66.719961,-59.751878,-32.15697,1,-0.01
928.052,219.728195,292.795746,279.268188,-154.705939,-79.691668,-18.177716,61.064409,34.851132,74.688028,67.082529,-59.751878,-32.321752,1,-0.01
942.37,219.152435,292.917145,279.046478,-154.969843,-79.484143,-18.10031,61.152416,34.851075,74.688028,67.39015,-59.751878,-32.398701,1,-0.01
957.186,218.486145,293.086487,278.811798,-155.2161,-79.262408,-18.039691,61.282592,34.85096,74.688028,67.818608,-59.751878,-32.508537,1,-0.01
972.991,217.745956,293.315552,278.582123,-155.467113,-79.047091,-17.951799,61.426748,34.850845,74.688028,68.236065,-59.751878,-32.61843,1,-0.01
987.996,217.074341,293.424622,278.304657,-155.963065,-78.80324,-17.693452,61.556809,34.850616,74.688028,68.741471,-59.751878,-32.794213,1,-0.01
1003.554,216.186157,293.753021,278.076965,-156.499411,-78.616685,-17.288027,61.728983,34.850502,74.688028,69.158928,-59.756461,-32.969997,1,-0.01
1019.523,215.453842,293.896912,277.822815,-156.9556,-78.39495,-17.061537,61.870733,34.850272,74.688028,69.653333,-59.77938,-33.145723,1,-0.01
1036.404,214.624939,294.130188,277.587982,-157.373172,-78.191894,-16.833385,62.030989,34.850272,74.688028,70.114736,-59.806824,-33.310563,1,-0.01
1051.605,214.00087,294.303253,277.403046,-157.577259,-78.020809,-16.773912,62.185459,34.850158,74.688028,70.565196,-59.825159,-33.442401,1,-0.01
1066.911,213.218094,294.532623,277.16684,-157.837096,-77.802569,-16.679604,62.300509,34.849929,74.687913,70.894761,-59.825159,-33.530292,1,-0.01
1082.3,212.338303,294.870453,276.9599,-157.848956,-77.59344,-16.779356,62.468786,34.849814,74.687913,71.268329,-59.829685,-33.585182,1,-0.01
1097.434,211.478226,295.292236,276.826172,-157.801973,-77.454154,-16.844615,62.633913,34.849757,74.687913,71.510003,-59.834269,-33.607183,1,-0.01
1112.55,210.636902,295.695099,276.696228,-157.890037,-77.330739,-16.777923,62.795315,34.849642,74.687913,71.751734,-59.843436,-33.66213,1,-0.01
1126.72,209.949051,296.103638,276.656586,-157.967787,-77.298882,-16.638408,62.966916,34.849528,74.687913,71.872571,-59.861771,-33.695075,1,-0.01
1142.209,209.129044,296.565674,276.595184,-158.108792,-77.251155,-16.444232,63.086377,34.849413,74.687799,71.971463,-59.875465,-33.750022,1,-0.01
1157.213,208.186676,297.100647,276.548706,-158.010243,-77.197125,-16.481876,63.268635,34.849298,74.687799,72.103301,-59.912134,-33.750022,1,-0.01
1172.647,207.321365,297.552521,276.50589,-157.88637,-77.143381,-16.586784,63.436397,34.849069,74.687799,72.257083,-59.967023,-33.750022,1,-0.01
1188.229,206.319519,298.053253,276.469666,-157.72302,-77.093534,-16.7479,63.63126,34.848955,74.687799,72.443867,-60.053998,-33.750022,1,-0.01
1203.33,205.44075,298.478912,276.495209,-157.547867,-77.10293,-16.933596,63.804408,34.848439,74.687799,72.586648,-60.182169,-33.750022,1,-0.01
1220.473,204.468735,298.923462,276.647949,-157.277087,-77.235055,-17.244483,64.001276,34.847981,74.687799,72.696541,-60.443094,-33.750022,1,-0.01
1236.995,203.46846,299.341675,276.969543,-156.874813,-77.527779,-17.729721,64.210693,34.847293,74.687799,72.751488,-60.868859,-33.750022,1,-0.01
1249.83,202.725998,299.55835,277.387665,-156.368261,-77.913666,-18.396357,64.374387,34.847179,74.687799,72.773432,-61.390709,-33.750022,1,-0.01
1267.745,201.53981,299.953918,278.02475,-155.553229,-78.499859,-19.406081,64.6953,34.846663,74.687799,72.773432,-62.379462,-33.739021,1,-0.01
1281.982,200.415726,300.15097,278.894775,-154.054657,-79.269685,-21.267678,64.88535,34.846319,74.687799,72.773432,-63.203433,-33.706076,1,-0.01
1297.592,199.07991,300.481323,279.74942,-152.094225,-79.99058,-23.543466,65.175095,34.845574,74.687799,72.773432,-64.224214,-33.618184,1,-0.01
1312.802,197.739319,300.771606,280.580048,-149.699491,-80.638825,-26.27699,65.461288,34.84185,74.687799,72.817378,-65.222192,-33.508291,1,-0.01
1329.164,196.352875,301.01062,281.195923,-147.141692,-81.014857,-29.224686,65.74748,34.833256,74.687799,73.048108,-66.059857,-33.365452,1,-0.01
1343.655,195.417206,301.035736,281.543579,-145.342433,-81.18938,-31.411494,66.007316,34.82701,74.687799,73.43262,-66.815187,-33.277561,1,-0.01
1358.67,193.922791,301.354248,281.884674,-143.834064,-81.393582,-33.250288,66.304223,34.823172,74.687799,73.773186,-67.410261,-33.266617,1,-0.01
1374.243,192.521515,301.668579,282.056915,-142.819413,-81.470187,-34.550673,66.511233,34.82151,74.687799,74.058863,-67.7353,-33.266617,1,-0.01
1388.234,190.936096,302.21579,282.133698,-142.171398,-81.484568,-35.328234,66.816963,34.820421,74.687799,74.377428,-68.055698,-33.266617,1,-0.01
1403.858,189.390823,302.789337,282.061829,-141.884518,-81.36419,-35.695786,67.110776,34.81939,74.687799,74.728994,-68.225121,-33.244616,1,-0.01
1419.585,187.748062,303.358948,281.945709,-141.681347,-81.203016,-36.014294,67.421777,34.818874,74.687799,75.146509,-68.394488,-33.222671,1,-0.01
1436.388,186.163971,303.804047,281.762146,-141.717329,-80.99148,-36.18005,67.720059,34.818645,74.687799,75.662858,-68.55927,-33.222671,1,-0.01
1451.946,184.800385,304.245514,281.673401,-141.635339,-80.876545,-36.371074,68.055469,34.818072,74.687799,76.135262,-68.760665,-33.222671,1,-0.01
1467.254,183.085541,304.772369,281.530731,-141.612707,-80.70546,-36.548749,68.380336,34.817671,74.687799,76.585721,-68.943782,-33.222671,1,-0.01
1482.789,181.185471,305.487335,281.453217,-141.507856,-80.599635,-36.685628,68.656329,34.816869,74.687799,76.849339,-69.076537,-33.222671,1,-0.01
1495.949,179.400589,306.150665,281.338776,-141.538967,-80.460807,-36.680643,68.989619,34.81515,74.687799,77.211907,-69.204707,-33.222671,1,-0.01
1511.459,177.497894,306.846039,281.278595,-141.435147,-80.361972,-36.809502,69.345368,34.812285,74.687799,77.563474,-69.383241,-33.222671,1,-0.01
1528.449,175.773544,307.344208,281.217834,-141.445231,-80.27345,-36.934922,69.667371,34.808962,74.687799,77.980931,-69.607554,-33.255616,1,-0.01
1542.947,174.393936,307.795532,281.226349,-141.536103,-80.282732,-36.890575,70.044549,34.805467,74.687799,78.310554,-69.845561,-33.343508,1,-0.01
1557.95,172.302765,308.594452,281.215454,-141.571282,-80.251448,-36.806866,70.314813,34.801858,74.687799,78.530283,-69.982899,-33.365452,1,-0.01
1574.457,170.307007,309.314362,281.205933,-141.467577,-80.192663,-36.891778,70.685288,34.795899,74.687799,78.837904,-70.1706,-33.376453,1,-0.01
1588.965,168.209335,310.016449,281.294586,-141.084383,-80.182751,-37.288494,71.075529,34.785471,74.687799,79.145525,-70.445276,-33.376453,1,-0.01
1604.477,166.322617,310.483734,281.442505,-140.570153,-80.207731,-37.954271,71.427382,34.772579,74.687799,79.508035,-70.816036,-33.387454,1,-0.03
1620.006,164.153336,311.183838,281.646698,-140.246776,-80.275111,-38.273581,71.829943,34.751838,74.687799,79.782711,-71.131908,-33.442401,1,-0.03
1636.827,162.057739,311.879547,282.011688,-139.678459,-80.371196,-38.788555,72.21795,34.711846,74.687799,79.980496,-71.443196,-33.486346,1,-0.03
1653.062,159.805252,312.670624,282.462219,-139.103209,-80.496617,-39.240848,72.633688,34.660853,74.687799,80.134278,-71.745317,-33.552237,1,-0.03
1668.067,157.792725,313.216492,283.206635,-138.217416,-80.727863,-40.120739,73.00611,34.579378,74.687799,80.28806,-72.180192,-33.673073,1,-0.03
1682.606,156.156799,313.677917,283.776337,-137.743638,-80.992397,-40.565526,73.40254,34.50518,74.68757,80.386953,-72.679123,-33.892803,1,-0.03
1698.2,154.075195,314.261108,284.788605,-136.666592,-81.417589,-41.569578,73.694748,34.424794,74.68757,80.397953,-73.072803,-34.068586,1,-0.03
1714.028,151.669693,314.947968,285.973907,-134.856732,-81.831838,-43.265304,74.13816,34.305275,74.68757,80.397953,-73.649599,-34.24437,1,-0.03
1728.912,149.456863,315.601532,287.275696,-133.125483,-82.232679,-44.821457,74.542783,34.159686,74.68757,80.343007,-74.134837,-34.464099,1,-0.03
1744.261,147.281738,316.15741,288.546021,-131.294883,-82.640911,-46.545888,74.939958,34.020057,74.68757,80.332006,-74.661271,-34.70583,1,-0.03
1761.182,145.226181,316.701172,290.083435,-129.349519,-82.91616,-48.300972,75.309401,33.816599,74.687455,80.299061,-75.032032,-34.925559,1,-0.03
1776.381,142.9366,317.497864,291.276978,-128.638078,-83.134572,-48.650419,75.718321,33.643108,74.687283,80.255115,-75.196814,-35.189234,1,-0.03
1792.015,141.416718,317.977448,292.492859,-128.73972,-83.257127,-48.266996,76.0692,33.378745,74.687169,80.255115,-75.205982,-35.595691,1,-0.03
1807.019,139.321442,318.676086,293.838776,-130.12519,-83.557415,-46.482175,76.434747,33.150135,74.686939,80.255115,-75.205982,-36.188988,1,-0.03
1822.241,137.473175,319.195923,295.517792,-132.156497,-83.939176,-44.091394,76.671952,32.931609,74.686825,80.255115,-75.205982,-36.738283,1,-0.03
1837.472,135.52652,319.734528,297.207336,-133.678731,-84.232531,-42.197425,77.00908,32.647422,74.686596,80.255115,-75.205982,-37.331524,1,-0.03
1852.255,133.612152,320.21344,299.07843,-135.053085,-84.490935,-40.450362,77.338244,32.330461,74.686023,80.255115,-75.192288,-37.913821,1,-0.03
1869.8,131.560211,320.776947,300.869354,-136.932616,-84.813796,-38.143577,77.692103,32.032638,74.685965,80.211169,-75.183121,-38.540063,1,-0.03
1884.156,129.641846,321.211975,303.019836,-138.813235,-85.163014,-35.849167,78.019205,31.677977,74.685736,80.145279,-75.183121,-39.221196,1,-0.03
1900.235,127.739601,321.590881,305.034058,-140.701819,-85.43643,-33.594693,78.343728,31.339359,74.685278,80.134278,-75.183121,-39.836438,1,-0.03
1914.998,126.461838,321.752472,306.85733,-142.745731,-85.696152,-31.290772,78.632785,30.942357,74.684533,80.090332,-75.183121,-40.594461,1,-0.03
1931.132,124.670769,322.08078,309.069275,-146.064646,-86.060954,-27.561103,78.963324,30.574288,74.68396,79.99144,-75.164786,-41.319596,1,-0.03
1946.131,122.68689,322.482452,311.282898,-148.96662,-86.395045,-24.195607,79.195602,30.306316,74.682757,79.903548,-75.155619,-41.803001,1,-0.03
1961.127,120.845398,322.807953,313.601685,-150.16542,-86.662044,-22.54354,79.504197,29.927877,74.682298,79.760767,-75.132758,-42.330351,1,-0.03
1976.208,118.857521,323.188202,315.825989,-150.185187,-86.912083,-22.04627,79.839205,29.569722,74.681439,79.595927,-75.128174,-42.758809,1,-0.03
1991.614,117.527245,323.336182,317.568634,-150.107437,-87.070849,-21.831239,80.134737,29.194721,74.679548,79.519036,-75.128174,-43.187267,1,-0.03
2006.952,115.722839,323.491272,319.630127,-149.947467,-87.190884,-21.66892,80.365639,28.931275,74.678059,79.519036,-75.128174,-43.472886,1,-0.03
2022.104,114.000595,323.627228,321.576294,-149.007071,-87.275624,-22.297111,80.655784,28.597756,74.675939,79.519036,-75.119007,-43.791508,1,-0.03
2037.396,112.13311,323.854645,323.283417,-146.870798,-87.307653,-24.09448,80.973203,28.304172,74.674621,79.519036,-75.105313,-44.000237,1,-0.03
2053.402,110.437782,324.024078,324.887054,-143.064869,-87.285135,-27.60333,81.261229,28.02984,74.673532,79.519036,-75.105313,-44.099129,1,0.02
2068.966,108.552452,324.316437,326.149658,-139.440853,-87.222225,-30.904656,81.585351,27.811887,74.672615,79.530037,-75.105313,-44.132074,1,0.02
2084.144,107.368736,324.386139,327.143921,-136.553203,-87.106373,-33.630617,81.853553,27.591585,74.670438,79.62893,-75.105313,-44.132074,1,0.02
2099.305,105.702591,324.593353,327.935059,-135.049705,-86.968633,-34.931002,82.146563,27.437459,74.66849,79.760767,-75.105313,-44.165019,1,0.02
2114.385,104.095772,324.757355,328.75354,-133.923327,-86.834332,-35.871398,82.357469,27.318169,74.667058,79.870603,-75.105313,-44.198022,1,0.02
2131.102,102.332481,325.075287,329.09259,-133.82071,-86.680378,-35.762708,82.740148,27.215667,74.665167,80.079332,-75.077811,-44.198022,1,0.02
2145.008,100.69175,325.384644,329.345428,-133.924244,-86.538228,-35.458639,82.955694,27.167539,74.664938,80.189225,-75.06406,-44.198022,1,0.02
2160.5,98.819649,325.9133,329.369202,-133.606768,-86.447815,-35.456003,83.284056,27.151954,74.664078,80.233171,-75.032032,-44.143075,1,0.02
2176.085,97.023727,326.437439,329.347137,-132.56324,-86.356772,-36.187957,83.599126,27.151381,74.663276,80.244114,-75.022865,-44.033182,1,0.02
2191.371,95.752716,326.79895,329.329163,-132.1522,-86.326348,-36.377377,83.92004,27.151381,74.657719,80.244114,-75.013754,-43.978292,1,0.02
2206.963,93.831223,327.365204,329.249481,-132.429912,-86.290481,-35.730164,84.236255,27.151381,74.650327,80.244114,-74.958808,-43.956291,1,0.02
2220.725,91.979462,327.902649,329.176636,-132.79523,-86.261718,-35.007836,84.478158,27.151381,74.645285,80.244114,-74.922196,-43.956291,1,0.02
2238.063,89.904984,328.588989,329.270752,-132.015206,-86.367773,-35.296263,84.835569,27.151381,74.641561,80.068388,-74.903861,-43.956291,1,0.02
2252.511,87.863518,329.265533,329.413849,-130.807124,-86.501444,-36.009538,85.186104,27.151381,74.640358,79.859602,-74.903861,-43.956291,1,0.02
2268.647,85.776527,329.850677,329.456787,-129.899158,-86.517773,-36.504688,85.546781,27.151381,74.638811,79.782711,-74.903861,-43.912345,1,0.02
2285.513,84.378578,330.199371,329.444794,-129.134374,-86.459847,-37.028543,85.874857,27.151381,74.636748,79.782711,-74.903861,-43.813452,1,0.02
2299.057,82.180885,330.735046,329.426605,-128.629369,-86.419224,-37.154078,86.261775,27.151381,74.634285,79.782711,-74.903861,-43.769506,1,0.02
2314.368,80.094749,331.228729,329.40802,-128.570755,-86.412807,-36.852244,86.530722,27.151381,74.632451,79.782711,-74.903861,-43.769506,1,0.02
2329.879,77.922127,331.750275,329.413696,-128.30158,-86.42673,-36.724647,86.905035,27.151381,74.62993,79.749766,-74.903861,-43.758563,1,0.02
2344.735,75.933121,332.2677,329.478821,-127.516742,-86.487177,-37.093803,87.244971,27.151381,74.627696,79.639873,-74.903861,-43.747562,1,0.02
2359.232,73.860741,332.815735,329.566376,-125.999779,-86.539373,-38.153088,87.597283,27.151381,74.623226,79.486091,-74.903861,-43.692616,1,0.02
2375.033,72.339996,333.275177,329.697205,-124.267384,-86.636891,-39.483381,87.93888,27.151381,74.618356,79.200414,-74.894694,-43.64867,1,0.02
2390.037,70.028465,333.984619,329.900024,-121.686839,-86.810497,-41.427312,88.237334,27.151381,74.613773,78.936797,-74.876416,-43.637669,1,0.02
2405.742,67.754082,334.716125,330.163147,-118.255911,-87.04031,-44.181406,88.61222,27.151381,74.607928,78.519282,-74.858082,-43.637669,1,0.02
2420.66,65.390381,335.405731,330.406921,-114.438923,-87.232022,-47.349175,89.002977,27.151381,74.602199,78.145771,-74.858082,-43.626725,1,0.02
2436.363,63.343761,335.993164,330.614746,-110.455892,-87.386778,-50.760107,89.339476,27.151381,74.593662,77.805205,-74.858082,-43.604724,1,0.02
2453.418,61.140472,336.634949,330.803925,-105.916634,-87.535002,-54.651923,89.698434,27.151381,74.579051,77.420636,-74.826054,-43.571779,1,0.02
2468.514,59.169991,337.27417,330.936768,-101.578255,-87.687753,-58.320113,90.0123,27.151381,74.556821,77.003179,-74.729911,-43.549777,1,0.02
2483.157,57.745644,337.706848,330.942871,-99.707662,-87.75095,-59.722829,90.340032,27.151381,74.525652,76.684557,-74.58799,-43.494888,1,0.02
2498.764,55.650826,338.292542,330.847137,-97.698643,-87.789739,-61.059597,90.649314,27.151381,74.478497,76.376936,-74.400346,-43.384995,1,0.02
2513.48,53.807365,338.773346,330.557404,-98.268908,-87.776561,-59.882168,90.864746,27.151381,74.426415,76.212153,-74.23098,-43.286159,1,0.02
2528.654,51.94809,339.102875,329.959839,-100.875694,-87.683226,-56.725629,91.162914,27.151381,74.308558,76.080315,-73.997499,-43.06643,1,-0.02
2543.717,50.131157,339.433563,329.371216,-102.190231,-87.500166,-54.841629,91.451398,27.151381,74.185601,75.904532,-73.764019,-42.736807,1,-0.02
2559.42,48.175549,339.661621,328.549866,-103.172969,-87.299517,-53.278429,91.764405,27.151381,74.002599,75.717805,-73.558041,-42.330351,1,-0.02
2575.155,46.366039,339.844513,327.842957,-101.651021,-87.211109,-54.237274,92.052373,27.151381,73.80997,75.421127,-73.452731,-41.967783,1,-0.02
2590.159,44.781368,339.916351,327.271393,-100.153825,-87.154386,-55.330935,92.311293,27.151381,73.648854,75.2234,-73.439037,-41.693107,1,-0.02
2605.929,42.987103,339.94458,326.545593,-98.483882,-87.114394,-56.548528,92.605278,27.151381,73.444251,74.99267,-73.439037,-41.385486,1,-0.02
2621.01,41.106499,339.930634,325.69342,-97.363807,-87.127744,-57.194939,92.91393,27.151381,73.212146,74.76194,-73.42987,-41.110868,1,-0.02
2637.211,39.233479,340.042053,325.076111,-93.863035,-87.123962,-60.126363,93.212842,27.151381,73.007657,74.377428,-73.42987,-40.792246,1,-0.02
2653.529,37.164875,340.168518,324.40152,-90.401911,-87.232022,-62.950529,93.541777,27.151381,72.788272,73.959971,-73.411535,-40.572517,1,-0.02
2668.988,35.259819,340.302795,323.794006,-86.140996,-87.360995,-66.579243,93.84046,27.151381,72.579314,73.509511,-73.393258,-40.385732,1,-0.02
2683.661,33.647205,340.357574,323.258972,-83.342613,-87.426713,-68.904477,94.180854,27.151381,72.363424,73.124999,-73.388674,-40.166003,1,-0.02
2699.149,31.703968,340.399811,322.661957,-81.036801,-87.377439,-70.690272,94.487387,27.151381,72.181796,72.894269,-73.388674,-39.869383,1,-0.02
2715.161,29.805113,340.307098,321.852783,-82.375345,-87.31407,-68.945043,94.806753,27.151381,71.987792,72.83938,-73.32456,-39.605708,1,-0.02
2730.643,27.906221,340.202515,321.019989,-85.459692,-87.21638,-65.485638,95.050203,27.151381,71.858361,72.83938,-73.260504,-39.385978,1,-0.02
2744.802,25.729597,340.121918,320.198792,-88.503702,-87.095486,-62.012196,95.41638,27.151381,71.687964,72.83938,-73.159778,-39.100359,1,-0.02
2759.308,23.656637,340.101776,319.444977,-91.895326,-86.8973,-58.174869,95.761015,27.151381,71.544266,72.83938,-72.999579,-38.770736,1,-0.02
2775.149,21.439352,340.100952,318.620087,-95.928605,-86.820581,-53.637616,96.126734,27.151381,71.395182,72.83938,-72.779849,-38.573008,1,-0.02
2791.757,20.050047,340.03717,317.942902,-99.83589,-86.724382,-49.440242,96.434813,27.150407,71.24862,72.927271,-72.532675,-38.36428,1,-0.02
2806.761,18.120142,340.03598,317.09967,-103.962046,-86.489583,-44.83664,96.673221,27.149319,71.145029,72.938215,-72.308362,-38.13355,1,-0.02
2822.324,15.923615,340.039032,316.221741,-106.761002,-86.07396,-41.499047,97.030574,27.149089,70.99818,72.938215,-72.010825,-37.650145,1,-0.02
2837.322,13.858441,340.098572,315.327545,-110.145349,-85.69787,-37.548503,97.359166,27.149089,70.865024,72.938215,-71.62173,-37.254633,1,-0.02
2853.339,11.573664,340.156342,314.419342,-112.889932,-85.442503,-34.153441,97.720645,27.149089,70.711758,72.850323,-71.250911,-36.936011,1,-0.02
2868.731,9.469129,340.267792,313.583527,-115.136155,-85.139007,-31.247628,98.045741,27.149089,70.5774,72.729486,-70.843481,-36.584501,1,-0.02
2883.529,7.872577,340.26416,312.848877,-116.444046,-84.846971,-29.474152,98.372041,27.148975,70.411586,72.61965,-70.468137,-36.068094,1,-0.02
2899.315,5.851599,340.282898,312.019714,-116.87428,-84.434384,-28.430108,98.694157,27.148975,70.260096,72.476812,-70.184351,-35.606691,1,-0.02
2913.883,3.624732,340.165497,311.236877,-117.133372,-84.21729,-27.610893,98.973188,27.148975,70.129117,72.366919,-70.060706,-35.343016,1,-0.02
2930.535,1.556809,340.019409,310.615906,-117.318494,-84.158562,-26.938871,99.313754,27.148975,69.980148,72.224138,-69.978315,-35.123287,1,-0.02
2945.333,-0.655163,339.786804,309.987854,-117.546245,-84.252412,-26.225997,99.684572,27.148975,69.810438,72.059355,-69.978315,-35.013451,1,-0.02
2960.015,-2.538444,339.560272,309.414734,-118.027071,-84.389808,-25.320781,100.000444,27.14823,69.653734,71.905516,-69.978315,-34.969505,1,-0.02
2975.525,-4.115098,339.334564,308.918579,-118.58771,-84.467042,-24.440202,100.352526,27.147313,69.491702,71.806623,-69.978315,-34.914558,1,-0.04
2991.028,-6.115908,339.057831,308.360199,-119.17843,-84.508639,-23.473107,100.70077,27.147313,69.352187,71.773678,-69.978315,-34.826667,1,-0.04
3006.519,-8.350541,338.679077,307.667694,-120.134868,-84.522104,-22.137657,101.000083,27.147313,69.22837,71.773678,-69.978315,-34.760719,1,-0.04
3021.622,-10.500786,338.337433,307.084869,-120.987659,-84.539235,-20.919434,101.373365,27.147313,69.093324,71.773678,-69.978315,-34.694829,1,-0.04
3036.137,-12.750419,337.876862,306.410156,-122.059376,-84.467845,-19.555737,101.775238,27.147313,68.951976,71.894515,-69.992066,-34.595937,1,-0.04
3053.103,-14.792844,337.358032,305.753113,-123.043374,-84.231213,-18.430391,102.153734,27.147313,68.838874,72.180192,-70.005817,-34.431154,1,-0.04
3068.504,-17.307606,336.770203,305.102966,-124.869276,-84.006728,-16.456322,102.620007,27.147313,68.748346,72.586648,-70.005817,-34.387208,1,-0.04
3083.678,-19.154034,336.314178,304.67691,-126.362175,-83.795994,-14.921196,103.085134,27.147313,68.699931,73.103055,-70.005817,-34.387208,1,-0.04
3098.968,-21.539383,335.759155,304.245758,-127.926808,-83.505963,-13.308721,103.417392,27.147313,68.685206,73.49851,-70.010401,-34.387208,1,-0.04
3114.513,-23.965153,335.221191,303.878113,-129.259737,-83.210546,-11.91122,103.871347,27.147313,68.67644,74.003916,-70.010401,-34.387208,1,-0.04
3130.932,-26.680689,334.834839,303.731384,-129.75185,-83.080771,-11.121913,104.354408,27.147313,68.676211,74.234646,-70.024094,-34.387208,1,-0.04
3145.399,-29.460377,334.568085,303.723572,-129.73088,-83.082032,-10.682225,104.831853,27.147313,68.675753,74.24559,-70.037845,-34.387208,1,-0.04
3160.399,-32.000008,334.295898,303.747772,-129.552117,-83.104148,-10.447771,105.269994,27.147313,68.675638,74.24559,-70.079041,-34.387208,1,-0.04
3175.325,-33.915993,334.032349,303.724731,-129.740563,-83.107528,-9.991926,105.715297,27.147199,68.675523,74.366484,-70.115653,-34.442155,1,-0.04
3190.675,-36.521416,333.643524,303.643616,-130.284415,-83.078365,-9.097195,106.064744,27.147084,68.675523,74.443375,-70.12482,-34.4751,1,-0.04
3205.724,-39.684048,333.209351,303.601837,-130.621658,-83.079969,-8.267781,106.614268,27.14697,68.675523,74.509265,-70.138571,-34.519046,1,-0.04
3221.164,-42.343948,332.607178,303.448944,-131.60365,-83.011329,-7.080899,107.104089,27.14697,68.675523,74.827887,-70.211795,-34.628882,1,-0.04
3236.827,-44.890091,331.912354,303.203278,-132.828347,-82.848036,-5.756106,107.585259,27.14697,68.675409,75.278346,-70.275852,-34.727774,1,-0.04
3252.844,-47.538506,331.167572,302.883972,-134.599532,-82.661767,-3.877549,108.085566,27.14697,68.675409,75.783695,-70.294187,-34.881613,1,-0.04
3266.901,-49.886204,330.57843,302.663177,-135.815807,-82.536748,-2.476324,108.64546,27.14697,68.675409,76.245098,-70.294187,-35.013451,1,-0.04
3282.86,-52.298508,329.738159,302.254211,-137.277823,-82.203859,-1.036882,109.094888,27.14697,68.675409,76.915287,-70.317105,-35.079341,1,-0.04
3298.853,-54.693588,328.910156,301.872467,-138.29001,-81.85848,-0.022002,109.456024,27.14697,68.675409,77.343745,-70.321631,-35.090342,1,-0.04
3313.585,-57.372234,328.226807,301.669708,-138.9712,-81.702693,0.924296,109.946762,27.14697,68.675294,77.640365,-70.321631,-35.134288,1,-0.04
3329.693,-60.434937,327.630524,301.676575,-139.245876,-81.7589,1.712915,110.485342,27.14697,68.675122,77.651366,-70.353717,-35.200178,1,-0.04
3344.697,-62.649761,327.109406,301.799347,-139.334741,-81.9301,2.111636,110.887559,27.14697,68.675122,77.651366,-70.513916,-35.310071,1,-0.04
3360.197,-65.198746,326.420349,302.040344,-138.707066,-82.16295,1.774393,111.362713,27.14697,68.675122,77.651366,-70.82062,-35.375961,1,-0.04
3374.889,-67.171532,325.970428,302.434753,-137.670299,-82.541904,1.061061,111.842565,27.14697,68.675122,77.354745,-71.264662,-35.485855,1,-0.04
3389.557,-69.86248,325.256256,303.124603,-136.020123,-83.244064,-0.214,112.224155,27.14697,68.675122,77.135016,-71.754484,-35.672582,1,-0.04
3405.168,-71.75177,324.541931,303.929718,-134.213702,-84.113814,-1.925711,112.608552,27.14697,68.674893,76.893285,-72.550953,-36.04615,1,-0.04
3421.215,-73.921455,323.710388,304.834534,-130.355519,-84.975542,-5.675433,113.047438,27.14697,68.674206,76.618667,-73.443621,-36.331769,1,-0.04
3436.222,-76.014626,323.054047,305.817871,-124.481956,-85.886087,-11.29105,113.447706,27.146798,68.672888,76.146263,-74.272175,-36.628447,1,-0.04
3451.512,-78.210411,322.406738,306.696594,-116.49269,-86.668633,-18.952928,113.856053,27.146683,68.667101,75.673859,-74.99542,-36.903066,1,1.0
3467.151,-80.113014,321.952087,307.442322,-105.789839,-87.217641,-29.257803,114.191348,27.146683,68.658392,75.157452,-75.535604,-37.067848,1,1.0
3481.95,-81.601059,321.604889,307.777466,-98.516254,-87.468138,-36.185837,114.448663,27.146683,68.63937,74.838888,-75.787362,-37.144797,1,1.0
3499.221,-83.896095,321.106689,307.966644,-90.517706,-87.654636,-43.571836,114.926224,27.146683,68.574683,74.289536,-75.952145,-37.15574,1,1.0
3514.418,-86.116859,320.637756,307.933167,-84.429342,-87.740293,-48.986001,115.20153,27.146683,68.514465,74.003916,-75.956728,-37.078849,1,1.0
3530.66,-88.560623,320.025604,307.704468,-79.667948,-87.509105,-52.99258,115.703384,27.146683,68.356844,73.399675,-75.956728,-36.452664,1,1.0
3544.945,-90.707664,319.423187,307.354218,-76.917693,-87.051082,-55.025033,115.96958,27.146683,68.236065,73.092054,-75.956728,-35.969259,1,1.0
3560.657,-92.783432,318.581787,306.647766,-77.045635,-86.59008,-54.289012,116.344753,27.146683,68.021492,72.795434,-75.956728,-35.244124,1,1.0
3575.801,-94.895569,317.701294,305.975525,-77.117827,-86.166321,-53.630225,116.730812,27.146683,67.817634,72.531759,-75.970479,-34.573992,1,1.0
3591.552,-96.613647,316.853027,305.249878,-77.380471,-85.972947,-52.92583,117.159728,27.146683,67.553156,72.333974,-75.984173,-34.02464,1,1.0
3606.054,-98.723511,315.761871,304.286316,-77.924724,-85.716262,-51.831309,117.466146,27.146683,67.355314,72.191192,-75.99334,-33.607183,1,1.0
3621.101,-100.775101,314.504028,303.149506,-78.95685,-85.575429,-50.345687,117.886353,27.146683,67.064595,72.125245,-76.025369,-33.167725,1,1.0
3636.432,-102.561501,313.293671,301.969391,-80.692855,-85.444279,-48.232332,118.264963,27.146683,66.779205,72.125245,-76.025369,-32.750268,1,1.0
3653.051,-104.638817,311.929535,300.727539,-82.291865,-85.378847,-46.198275,118.702531,27.146683,66.478173,72.125245,-76.025369,-32.3877,1,1.0
3668.982,-106.581001,310.605042,299.521729,-83.845899,-85.280413,-44.232972,119.116952,27.146683,66.185048,72.125245,-76.025369,-32.003188,1,1.0
3683.693,-108.044739,309.494659,298.440826,-85.035588,-85.336563,-42.72426,119.529825,27.146683,65.842362,72.125245,-76.025369,-31.761457,1,1.0
3698.51,-109.658852,308.223938,297.185211,-86.221955,-85.516472,-41.165413,119.799975,27.146683,65.6106,72.103301,-76.025369,-31.684566,1,1.0
3713.519,-111.497925,306.8414,295.868683,-87.078068,-85.798424,-39.842225,120.201847,27.146683,65.274274,72.015409,-76.025369,-31.629619,1,1.0
3728.017,-113.315201,305.645844,294.770081,-86.435439,-86.040614,-39.89528,120.57341,27.146683,64.963387,71.740733,-76.025369,-31.519783,1,1.0
3743.759,-115.291077,304.286072,293.477661,-85.407152,-86.321134,-40.235847,120.980325,27.146683,64.592913,71.389166,-76.025369,-31.376945,1,1.0
3759.259,-116.99604,303.026062,292.25882,-84.574014,-86.619817,-40.471447,121.340486,27.146683,64.248164,71.092546,-76.025369,-31.289053,1,1.0
3774.442,-118.136536,302.005676,291.239655,-85.154305,-86.849516,-39.54973,121.723165,27.146683,63.862563,70.960708,-76.025369,-31.212162,1,1.0
3789.858,-119.856499,300.526306,289.827942,-86.064793,-87.029482,-38.116075,121.997554,27.146683,63.606222,70.828871,-76.025369,-31.036379,1,1.0
3806.895,-121.48571,299.129242,288.508911,-86.794855,-87.056067,-36.857286,122.494595,27.146683,63.124938,70.576196,-76.025369,-30.59692,1,1.0
3822.467,-123.299644,297.534271,287.038208,-87.863307,-87.117832,-35.211981,122.786517,27.146683,62.853126,70.433358,-76.025369,-30.333245,1,1.0
3838.051,-124.771599,296.003723,285.59201,-90.24853,-87.166075,-32.41778,123.157851,27.146683,62.481105,70.378411,-76.029952,-30.025624,1,1.0
3853.658,-126.196815,294.371521,284.028717,-93.59088,-87.225032,-28.702665,123.537321,27.146683,62.086795,70.378411,-76.029952,-29.729004,1,1.0
3869.415,-127.59153,292.788025,282.614594,-96.158361,-87.159314,-25.792211,123.910718,27.146683,61.724056,70.389412,-76.057454,-29.344492,1,1.0
3885.199,-129.005234,291.030487,281.033997,-98.681724,-87.111415,-22.915504,124.307777,27.146683,61.31187,70.400413,-76.10776,-28.937978,1,1.0
3899.687,-129.976227,289.739105,279.887421,-100.515017,-87.065291,-20.855263,124.685815,27.146683,60.914352,70.455302,-76.171874,-28.564467,1,-0.0
3913.809,-131.118912,287.914551,278.255737,-103.867336,-87.102419,-17.2937,124.969372,27.146683,60.590344,70.565196,-76.245098,-28.355739,1,-0.0
3929.468,-131.931259,286.187653,276.679993,-107.603021,-87.049535,-13.506105,125.296531,27.146683,60.193972,70.81787,-76.345824,-28.048118,1,-0.0
3944.674,-132.934967,284.35611,275.164093,-109.364923,-87.014699,-11.60251,125.662192,27.146683,59.781671,70.971709,-76.510607,-27.696551,1,-0.0
3959.903,-133.754959,282.642883,273.76825,-108.942654,-86.899821,-11.891911,125.98746,27.146683,59.376705,71.059544,-76.725752,-27.224147,1,-0.0
3975.255,-134.560913,280.740295,272.344177,-107.782529,-87.012178,-12.936929,126.337709,27.146683,58.92573,71.125491,-77.073652,-26.905525,1,-0.0
3990.983,-135.07428,278.94812,271.138,-105.058916,-87.272702,-15.676813,126.640919,27.146683,58.50134,71.224384,-77.549723,-26.740742,1,-0.0
4005.922,-135.321793,277.449341,270.259003,-99.596852,-87.592814,-21.225164,126.872852,27.146683,58.139002,71.290274,-78.094491,-26.674795,1,-0.0
4021.173,-135.614166,275.628937,269.325623,-87.825549,-87.938766,-33.09748,127.154346,27.146683,57.702408,71.323219,-78.845238,-26.586903,1,-0.0
4036.678,-135.937881,273.60553,268.3479,-68.699989,-88.180611,-52.311677,127.466436,27.146683,57.215795,71.323219,-79.710404,-26.499012,1,-0.0
4053.588,-136.250015,271.777832,267.302185,-53.34409,-88.205936,-67.681499,127.748274,27.146683,56.761955,71.323219,-80.360425,-26.334229,1,-0.0
4069.997,-136.730377,269.866821,266.033417,-43.211961,-88.173506,-77.715136,128.062141,27.146683,56.286342,71.323219,-80.845663,-26.081554,1,-0.0
4085.044,-137.137909,268.146332,264.749084,-42.649202,-88.070775,-78.193785,128.34438,27.146683,55.860291,71.400167,-81.152367,-25.642096,1,-0.0
4100.36,-137.471115,266.370483,263.218964,-49.048682,-87.948735,-71.715351,128.625702,27.146683,55.409431,71.553949,-81.321733,-25.00491,1,-0.0
4115.811,-137.787506,265.084961,262.037842,-57.473568,-87.774957,-63.196271,128.912696,27.146683,54.984697,71.740733,-81.344594,-24.213884,1,-0.0
4131.527,-138.175766,263.353638,260.418854,-66.546928,-87.581412,-54.008377,129.220317,27.146683,54.509887,71.916517,-81.344594,-23.51075,1,-0.0
4145.199,-138.592148,261.502411,258.66687,-73.35212,-87.382309,-46.996806,129.430249,27.146683,54.177514,71.993407,-81.344594,-22.961398,1,-0.0
4161.077,-139.052338,259.834656,257.120514,-77.785381,-87.192373,-42.290989,129.712374,27.146683,53.737654,72.004408,-81.344594,-22.313211,1,-0.0
4176.6,-139.46759,258.079651,255.491135,-81.85298,-87.000834,-37.955532,130.001889,27.146683,53.272241,72.026353,-81.344594,-21.65408,1,-0.0
4191.97,-139.745956,256.40036,253.950073,-85.778084,-86.893232,-33.87676,130.269632,27.146683,52.841376,72.147247,-81.344594,-21.137674,1,-0.0
4207.668,-139.998596,255.020279,252.731537,-88.684642,-86.844302,-30.850683,130.565049,27.146683,52.394985,72.312029,-81.358345,-20.654269,1,-0.0
4222.667,-140.213272,253.326111,251.27739,-92.470747,-86.63437,-27.026018,130.767934,27.146683,52.098479,72.498756,-81.362929,-20.225811,1,-0.0
4238.462,-140.48494,251.523346,249.780273,-96.384335,-86.54602,-23.076047,131.067476,27.146683,51.6887,72.773432,-81.367513,-19.808354,1,-0.0
4253.961,-140.725891,249.871445,248.436935,-99.917422,-86.459847,-19.52898,131.344215,27.146683,51.322523,73.048108,-81.367513,-19.445786,1,-0.0
4270.055,-141.069794,248.108063,247.062164,-103.70347,-86.484026,-15.688043,131.653211,27.146683,50.94248,73.311783,-81.367513,-19.193112,1,-0.0
4284.54,-141.294647,246.509674,245.858093,-107.475423,-86.46042,-11.977339,131.929319,27.146683,50.620076,73.66335,-81.372096,-18.973383,1,-0.0
4298.845,-141.434967,245.199417,244.887283,-110.824934,-86.494625,-8.703802,132.220324,27.146683,50.279568,74.069807,-81.390374,-18.830544,1,-0.0
4316.72,-141.643555,243.580307,243.734695,-115.026205,-86.473311,-4.628582,132.507949,27.146683,49.983921,74.487321,-81.390374,-18.687763,1,-0.0
4332.9,-142.080368,241.520676,242.344406,-120.920508,-86.545905,1.199888,132.822274,27.146683,49.683118,74.871833,-81.390374,-18.643817,1,-0.0
4345.79,-142.323227,240.398026,241.588516,-123.978097,-86.566761,4.246076,133.033237,27.146683,49.476052,75.102563,-81.390374,-18.588871,1,-0.0
4361.721,-142.880295,238.89975,240.674088,-127.211871,-86.633281,7.619708,133.344124,27.146683,49.203496,75.267346,-81.413292,-18.51198,1,-0.02
4376.945,-143.320877,237.557022,239.81958,-129.713233,-86.643938,10.253252,133.614388,27.146683,48.946925,75.399183,-81.426986,-18.380142,1,-0.02
4392.514,-143.701965,236.056091,238.833435,-132.784459,-86.646975,13.432079,133.903044,27.146683,48.65231,75.574967,-81.440737,-18.237304,1,-0.02
4407.051,-143.990219,235.010681,238.183716,-134.800697,-86.627724,15.500342,134.179897,27.146683,48.396427,75.783695,-81.449904,-18.116467,1,-0.02
4422.062,-144.301773,233.579788,237.257156,-137.979467,-86.593862,18.724662,134.383756,27.146683,48.193084,75.959479,-81.449904,-18.017575,1,-0.02
4438.163,-144.632202,232.017578,236.240692,-141.984156,-86.588132,22.808132,134.681064,27.146683,47.892453,76.179208,-81.449904,-17.929683,1,-0.02
4453.754,-145.012268,230.62059,235.351593,-145.340313,-86.591627,26.31555,134.957344,27.146683,47.619554,76.300045,-81.449904,-17.841791,1,-0.02
4470.44,-145.324005,229.092239,234.329468,-149.908391,-86.616952,31.055229,135.244797,27.146683,47.300187,76.409938,-81.449904,-17.786844,1,-0.02
4485.046,-145.504761,227.693466,233.393524,-154.697459,-86.629442,35.938262,135.497013,27.146683,47.008494,76.56372,-81.459014,-17.775901,1,-0.02
4500.164,-145.577545,226.116104,232.314682,-160.183702,-86.590252,41.45321,135.767277,27.146683,46.6787,76.805451,-81.463598,-17.7649,1,-0.02
4513.717,-145.5849,224.979324,231.542938,-164.070705,-86.52906,45.315805,135.958874,27.146912,46.447569,77.025123,-81.463598,-17.7649,1,-0.02
4529.217,-145.602509,223.375458,230.455887,-169.417375,-86.430512,50.66196,136.230341,27.147199,46.115425,77.299799,-81.463598,-17.7649,1,-0.02
4552.718,-145.558456,222.620331,229.937088,-171.825516,-86.367085,53.040594,136.352324,27.147199,45.958033,77.453638,-81.463598,-17.7649,1,-0.02
4554.217,-145.558456,222.620331,229.937088,-171.825516,-86.367085,53.040594,136.352324,27.147199,45.958033,77.453638,-81.463598,-17.7649,1,-0.02
4560.217,-145.558395,222.620407,229.936935,-171.825459,-86.367085,53.040594,136.352267,27.147256,45.957976,77.453466,-81.463598,-17.764843,1,-0.02
4576.216,-145.552292,222.629578,229.917801,-171.814401,-86.370236,53.04025,136.349116,27.150866,45.955398,77.43834,-81.463827,-17.757223,1,-0.02
4591.738,-145.535568,222.654678,229.865356,-171.784149,-86.378773,53.039391,136.336339,27.165705,45.944798,77.376575,-81.464629,-17.726168,1,-0.02
4606.715,-145.495224,222.715134,229.738724,-171.710982,-86.399228,53.036984,136.312905,27.192863,45.925375,77.263531,-81.466119,-17.669331,1,-0.02
4622.216,-145.434311,222.806152,229.547165,-171.599714,-86.429939,53.032916,136.288382,27.221282,45.905092,77.1451,-81.467608,-17.609858,1,-0.02
4637.563,-145.35289,222.927277,229.290466,-171.449771,-86.470504,53.026499,136.246384,27.269926,45.870256,76.942388,-81.470244,-17.507929,1,-0.02
4653.068,-145.251053,223.077881,228.968353,-171.260122,-86.520466,53.016873,136.193729,27.330889,45.826711,76.688338,-81.473567,-17.380274,1,-0.02
4668.141,-145.128937,223.257233,228.580505,-171.029506,-86.579251,53.003065,136.130475,27.40417,45.774286,76.383066,-81.477521,-17.226836,1,-0.02
4684.454,-144.986679,223.464355,228.126495,-170.756549,-86.64623,52.983699,136.056621,27.489713,45.713094,76.026515,-81.482162,-17.047614,1,-0.02
4700.811,-144.866898,223.637253,227.742447,-170.523011,-86.701291,52.964677,135.972281,27.587345,45.643308,75.6196,-81.48749,-16.843068,1,-0.02
4716.348,-144.65242,223.943314,227.050629,-170.096444,-86.796861,52.924169,135.88227,27.69168,45.568709,75.185012,-81.493105,-16.6246,1,-0.02
4731.347,-144.522995,224.125778,226.6306,-169.833686,-86.852667,52.895693,135.791857,27.796417,45.493823,74.748647,-81.498777,-16.405329,1,-0.02
4745.991,-144.350891,224.365738,226.069138,-169.478166,-86.924573,52.853179,135.724019,27.874912,45.437673,74.421373,-81.503074,-16.240832,1,-0.02
4761.538,-144.179306,224.601898,225.506042,-169.116801,-86.993729,52.805395,135.633606,27.979649,45.362788,73.985066,-81.508747,-16.021504,1,-0.02
4777.549,-144.008255,224.834244,224.94133,-168.749592,-87.06002,52.752511,135.543193,28.084386,45.287902,73.548701,-81.514419,-15.802176,1,-0.02
4792.881,-143.837692,225.062744,224.374985,-168.376654,-87.123561,52.694585,135.45278,28.189122,45.213016,73.112394,-81.520091,-15.582905,1,-0.02
4808.346,-143.710098,225.231583,223.949158,-168.093384,-87.169341,52.647946,135.362425,28.293802,45.138131,72.676029,-81.525764,-15.363577,1,-0.02
4823.923,-143.54039,225.453339,223.37999,-167.711049,-87.227897,52.581655,135.272012,28.398539,45.063245,72.239722,-81.531436,-15.144249,1,-0.03
4837.911,-143.37114,225.671204,222.809189,-167.323615,-87.283703,52.510894,135.204174,28.477091,45.007095,71.912449,-81.535676,-14.979752,1,-0.03
4852.971,-143.202362,225.885178,222.236786,-166.931425,-87.336644,52.436066,135.113761,28.58177,44.93221,71.476141,-81.541348,-14.760481,1,-0.03
4868.478,-143.034027,226.09523,221.662796,-166.534939,-87.386778,52.357456,135.023349,28.686507,44.857381,71.039777,-81.54702,-14.541153,1,-0.03
4884.04,-142.866104,226.301376,221.087189,-166.134441,-87.434047,52.275409,134.932936,28.791244,44.782496,70.603469,-81.552693,-14.321825,1,-0.03
4899.008,-142.698624,226.503571,220.509995,-165.730563,-87.478566,52.190554,134.842523,28.89598,44.70761,70.167104,-81.558365,-14.102497,1,-0.03
4914.914,-142.573273,226.652618,220.07605,-165.425692,-87.510021,52.125351,134.774742,28.974476,44.65146,69.839888,-81.562662,-13.938058,1,-0.03
4930.489,-142.406479,226.84787,219.496094,-165.017059,-87.549555,52.036715,134.684329,29.079212,44.576575,69.403524,-81.568334,-13.71873,1,-0.03
4947.493,-142.240067,227.039154,218.914551,-164.606649,-87.586225,51.946817,134.571342,29.210133,44.482954,68.858125,-81.575382,-13.444569,1,-0.03
4961.303,-142.074036,227.226425,218.331436,-164.195151,-87.620086,51.856347,134.503504,29.288628,44.426804,68.530852,-81.579679,-13.280073,1,-0.03
4976.307,-141.908356,227.409683,217.746765,-163.783309,-87.651141,51.765992,134.413091,29.393365,44.351918,68.094544,-81.585351,-13.060802,1,-0.03
4992.87,-141.743042,227.588928,217.160538,-163.371868,-87.67933,51.676496,134.322679,29.498102,44.277032,67.65818,-81.591023,-12.841474,1,-0.03
5006.768,-141.619263,227.720688,216.719864,-163.064018,-87.698582,51.610491,134.232266,29.602839,44.202147,67.221872,-81.596696,-12.622146,1,-0.03
5022.087,-141.454514,227.892838,216.130936,-162.655327,-87.721786,51.524548,134.164485,29.681334,44.145997,66.894599,-81.600936,-12.457649,1,-0.03
5037.306,-141.29007,228.060913,215.540497,-162.249329,-87.742184,51.441812,134.074072,29.78607,44.071111,66.458234,-81.606608,-12.238379,1,-0.03
5053.209,-141.125931,228.224899,214.948532,-161.846998,-87.759774,51.363145,133.983659,29.890807,43.996283,66.021927,-81.61228,-12.01905,1,-0.03
5067.714,-140.962082,228.384781,214.355042,-161.449079,-87.774499,51.289348,133.893247,29.995486,43.921398,65.585562,-81.617953,-11.799722,1,-0.03
5085.15,-140.798523,228.540558,213.760071,-161.056603,-87.786416,51.221281,133.802834,30.100223,43.846512,65.149255,-81.623625,-11.580394,1,-0.03
5100.68,-140.635208,228.6922,213.163605,-160.670257,-87.795526,51.159803,133.712421,30.20496,43.771626,64.712947,-81.629297,-11.361123,1,-0.03
5115.462,-140.512894,228.803223,212.715286,-160.385039,-87.800511,51.118435,133.622008,30.309697,43.696741,64.276583,-81.634969,-11.141795,1,-0.03
5132.256,-140.350021,228.947601,212.116241,-160.01147,-87.804636,51.070364,133.531596,30.414376,43.621855,63.840275,-81.640699,-10.922466,1,-0.03
5146.055,-140.187378,229.087799,211.515732,-159.646153,-87.805954,51.030887,133.463815,30.492928,43.565705,63.513002,-81.644939,-10.75797,1,-0.03
5161.33,-140.024948,229.223831,210.913788,-159.289773,-87.804522,51.000692,133.373402,30.597665,43.49082,63.076637,-81.650611,-10.538699,1,-0.03
5176.676,-139.862732,229.355652,210.310394,-158.942961,-87.800224,50.980352,133.282989,30.702345,43.415934,62.64033,-81.656283,-10.319371,1,-0.03
5191.541,-139.741196,229.451752,209.856918,-158.689428,-87.795182,50.971815,133.192577,30.807081,43.341106,62.203965,-81.661956,-10.100043,1,-0.03
5207.064,-139.5793,229.576187,209.251053,-158.360435,-87.785958,50.969867,133.102164,30.911818,43.26622,61.767658,-81.667628,-9.880714,1,-0.03
5222.319,-139.417587,229.696396,208.643784,-158.042157,-87.773983,50.978863,133.034383,30.99037,43.210013,61.440384,-81.671868,-9.716218,1,-0.03
5237.464,-139.256027,229.812332,208.035126,-157.734937,-87.759201,50.999145,132.94397,31.09505,43.135185,61.004077,-81.67754,-9.496947,1,-0.03
5253.2,-139.094635,229.924011,207.42511,-157.438833,-87.741611,51.030887,132.853557,31.199786,43.060299,60.567712,-81.683212,-9.277619,1,-0.03
5268.702,-138.933365,230.031418,206.813721,-157.154015,-87.721214,51.074088,132.763145,31.304523,42.985414,60.131405,-81.688885,-9.058291,1,-0.03
5283.168,-138.8125,230.109146,206.354309,-156.947808,-87.704082,51.114023,132.672732,31.409203,42.910528,59.69504,-81.694557,-8.838963,1,-0.07
5298.447,-138.651459,230.209015,205.740585,-156.6827,-87.678872,51.177278,132.604951,31.487755,42.854378,59.367824,-81.698854,-8.674524,1,-0.07
5314.827,-138.490509,230.304581,205.125549,-156.428651,-87.650797,51.25182,132.491906,31.618676,42.760757,58.822368,-81.705902,-8.400363,1,-0.07
5331.377,-138.329651,230.395798,204.509201,-156.185487,-87.619972,51.33742,132.401494,31.723413,42.685871,58.386061,-81.711574,-8.181035,1,-0.07
5346.192,-138.168884,230.482666,203.891586,-155.952924,-87.586397,51.433791,132.333713,31.801908,42.629722,58.058787,-81.715871,-8.016539,1,-0.07
5361.875,-138.008194,230.565186,203.27269,-155.730616,-87.550014,51.54059,132.2433,31.906645,42.554836,57.62248,-81.721543,-7.797268,1,-0.07
5377.751,-137.847565,230.643326,202.652542,-155.518221,-87.510881,51.657416,132.152887,32.011381,42.480008,57.186115,-81.727216,-7.57794,1,-0.07
5392.499,-137.686981,230.717072,202.031158,-155.315279,-87.468998,51.783868,132.062475,32.116061,42.405122,56.749751,-81.732888,-7.358612,1,-0.07
5406.799,-137.566574,230.769501,201.564331,-155.169003,-87.435709,51.884652,131.994636,32.194613,42.348915,56.422535,-81.737128,-7.194115,1,-0.07
5422.362,-137.406036,230.835556,200.940826,-154.981474,-87.388955,52.026688,131.904281,32.29935,42.274087,55.98617,-81.7428,-6.974844,1,-0.07
5437.366,-137.245544,230.897171,200.316147,-154.802081,-87.339452,52.176917,131.813868,32.404086,42.199201,55.549863,-81.748472,-6.755516,1,-0.07
5454.867,-137.085037,230.954361,199.690277,-154.630308,-87.287198,52.334882,131.723455,32.508766,42.124315,55.113498,-81.754145,-6.536188,1,-0.07
5469.527,-136.924545,231.007095,199.063278,-154.465583,-87.232137,52.499951,131.633043,32.613503,42.04943,54.677191,-81.759817,-6.31686,1,-0.07
5485.72,-136.764038,231.055389,198.43515,-154.307504,-87.174325,52.671666,131.54263,32.718239,41.974544,54.240826,-81.765489,-6.097589,1,-0.07
5500.22,-136.6035,231.099182,197.805893,-154.155383,-87.113821,52.849455,131.452217,32.822919,41.899659,53.804518,-81.771161,-5.87826,1,-0.07
5516.341,-136.483078,231.129105,197.333252,-154.044974,-87.066552,52.986449,131.361805,32.927655,41.824773,53.368154,-81.776891,-5.658932,1,-0.07
5530.908,-136.322464,231.165054,196.702103,-153.902193,-87.001235,53.173635,131.271392,33.032392,41.749945,52.931846,-81.782563,-5.439604,1,-0.07
5546.733,-136.161819,231.196503,196.069901,-153.764111,-86.93311,53.365404,131.180979,33.137129,41.675059,52.495482,-81.788236,-5.220333,1,-0.07
5562.328,-136.001099,231.223419,195.436676,-153.63021,-86.862235,53.561412,131.113198,33.215624,41.618909,52.168266,-81.792475,-5.055837,1,-0.07
5577.452,-135.840302,231.245819,194.802414,-153.500034,-86.788667,53.761088,131.022785,33.320361,41.544024,51.731901,-81.798148,-4.836509,1,-0.07
5591.961,-135.679428,231.263672,194.167175,-153.373181,-86.712349,53.96403,130.932373,33.425097,41.469138,51.295594,-81.80382,-4.61718,1,-0.07
5608.826,-135.518463,231.276962,193.53096,-153.249136,-86.633281,54.169779,130.84196,33.529777,41.394253,50.859229,-81.809492,-4.397909,1,-0.07
5622.897,-135.397659,231.283951,193.053177,-153.157864,-86.572147,54.325738,130.774122,33.608329,41.338103,50.532013,-81.813732,-4.233413,1,-0.07
5638.769,-135.236511,231.289246,192.415314,-153.038001,-86.488323,54.535555,130.661134,33.73925,41.244481,49.986557,-81.820837,-3.959253,1,-0.07
5653.774,-135.075226,231.289978,191.776535,-152.920029,-86.401749,54.747206,130.593354,33.817803,41.188332,49.659341,-81.825077,-3.794757,1,-0.07
5671.37,-134.913834,231.286102,191.136871,-152.803661,-86.312425,54.960289,130.502941,33.922482,41.113446,49.222976,-81.830749,-3.575486,1,-0.07
5686.87,-134.752274,231.277618,190.496338,-152.688554,-86.220408,55.174575,130.412528,34.027219,41.03856,48.786669,-81.836421,-3.356158,1,-0.07
5702.159,-134.590591,231.264526,189.854965,-152.574421,-86.125698,55.389721,130.322115,34.131955,40.963675,48.350304,-81.842094,-3.136829,1,-0.07
5717.158,-134.428741,231.246796,189.212784,-152.461147,-86.028238,55.605497,130.231703,34.236635,40.888847,47.913997,-81.847823,-2.917501,1,-0.07
5731.695,-134.307236,231.230453,188.730621,-152.376464,-85.953352,55.767586,130.14129,34.341371,40.813961,47.477632,-81.853495,-2.69823,1,-0.07
5747.194,-134.104523,231.197433,187.926041,-152.235803,-85.825182,56.037965,130.050877,34.446108,40.739075,47.041267,-81.859168,-2.478902,1,-0.02
5761.936,-133.982758,231.174118,187.442734,-152.151521,-85.746285,56.20017,129.983039,34.524661,40.682926,46.714051,-81.863408,-2.314406,1,-0.02
5777.61,-133.820221,231.138947,186.797699,-152.039164,-85.638684,56.416347,129.892683,34.62934,40.60804,46.277687,-81.86908,-2.095077,1,-0.02
5793.685,-133.657623,231.099136,186.152451,-151.926749,-85.528504,56.632008,129.802328,34.734019,40.533212,45.841723,-81.874752,-1.875978,1,-0.02
5808.512,-133.50174,231.056641,185.533997,-151.818862,-85.420502,56.837986,129.715811,34.834172,40.461592,45.424266,-81.880195,-1.666104,1,-0.02
5825.258,-133.363647,231.015457,184.986313,-151.723063,-85.322869,57.019843,129.639264,34.922809,40.398166,45.05488,-81.885008,-1.480466,1,-0.02
5840.862,-133.244598,230.977295,184.514282,-151.640271,-85.23727,57.175974,129.573374,34.999184,40.34362,44.736774,-81.889133,-1.32061,1,-0.02
5856.336,-133.144638,230.943344,184.118073,-151.570599,-85.164389,57.306666,129.518084,35.063241,40.297783,44.469947,-81.892571,-1.186481,1,-0.02
5871.902,-133.063828,230.914642,183.797821,-151.514105,-85.104744,57.411975,129.473393,35.114922,40.260828,44.254401,-81.895379,-1.078135,1,-0.02
5886.414,-133.015793,230.897049,183.607544,-151.48053,-85.069049,57.474428,129.446865,35.14569,40.238826,44.126345,-81.89704,-1.013792,1,-0.02
5901.719,-132.968567,230.879349,183.420456,-151.447413,-85.033698,57.535734,129.420795,35.175884,40.217225,44.000523,-81.898702,-0.950537,1,-0.02
5917.757,-132.940567,230.868683,183.309555,-151.427761,-85.01267,57.57206,129.405383,35.193761,40.204448,43.925924,-81.899676,-0.913008,1,-0.02
5932.061,-132.931198,230.865082,183.272476,-151.421172,-85.005623,57.584206,129.400226,35.199777,40.200151,43.901,-81.899962,-0.900518,1,-0.02
5948.673,-132.930832,230.864944,183.271027,-151.420942,-85.005336,57.584665,129.399997,35.200006,40.199979,43.900026,-81.90002,-0.900002,1,-0.02
5963.562,-132.930832,230.864944,183.271027,-151.420942,-85.005336,57.584665,129.399997,35.200006,40.199979,43.900026,-81.90002,-0.900002,1,-0.02
5979.601,-132.930832,230.864944,183.271027,-151.420942,-85.005336,57.584665,129.399997,35.200006,40.199979,43.900026,-81.90002,-0.900002,1,-0.02
5994.617,-132.930832,230.864944,183.271027,-151.420942,-85.005336,57.584665,129.399997,35.200006,40.199979,43.900026,-81.90002,-0.900002,1,-0.02
6009.624,-132.930832,230.864944,183.271027,-151.420942,-85.005336,57.584665,129.399997,35.200006,40.199979,43.900026,-81.90002,-0.900002,1,-0.02
6026.541,-132.930832,230.864944,183.271027,-151.420942,-85.005336,57.584665,129.399997,35.200006,40.199979,43.900026,-81.90002,-0.900002,1,-0.02
6041.998,-132.930832,230.864944,183.271027,-151.420942,-85.005336,57.584665,129.399997,35.200006,40.199979,43.900026,-81.90002,-0.900002,1,-0.02
6057.425,-132.930832,230.864944,183.271027,-151.420942,-85.005336,57.584665,129.399997,35.200006,40.199979,43.900026,-81.90002,-0.900002,1,-0.02
6073.219,-132.930832,230.864944,183.271027,-151.420942,-85.005336,57.584665,129.399997,35.200006,40.199979,43.900026,-81.90002,-0.900002,1,-0.02
6088.212,-132.930832,230.864944,183.271027,-151.420942,-85.005336,57.584665,129.399997,35.200006,40.199979,43.900026,-81.90002,-0.900002,1,-0.02
6103.697,-132.930832,230.864944,183.271027,-151.420942,-85.005336,57.584665,129.399997,35.200006,40.199979,43.900026,-81.90002,-0.900002,1,-0.02
6118.639,-132.930832,230.864944,183.271027,-151.420942,-85.005336,57.584665,129.399997,35.200006,40.199979,43.900026,-81.90002,-0.900002,1,-0.02
6134.645,-132.930832,230.864944,183.271027,-151.420942,-85.005336,57.584665,129.399997,35.200006,40.199979,43.900026,-81.90002,-0.900002,1,-0.02
6150.281,-132.930832,230.864944,183.271027,-151.420942,-85.005336,57.584665,129.399997,35.200006,40.199979,43.900026,-81.90002,-0.900002,1,-0.02
6165.674,-132.930832,230.864944,183.271027,-151.420942,-85.005336,57.584665,129.399997,35.200006,40.199979,43.900026,-81.90002,-0.900002,1,-0.02
6180.672,-132.930832,230.864944,183.271027,-151.420942,-85.005336,57.584665,129.399997,35.200006,40.199979,43.900026,-81.90002,-0.900002,1,-0.02
6195.362,-132.930832,230.864944,183.271027,-151.420942,-85.005336,57.584665,129.399997,35.200006,40.199979,43.900026,-81.90002,-0.900002,1,-0.02
6210.214,-132.930832,230.864944,183.271027,-151.420942,-85.005336,57.584665,129.399997,35.200006,40.199979,43.900026,-81.90002,-0.900002,1,0.02
6225.221,-132.930832,230.864944,183.271027,-151.420942,-85.005336,57.584665,129.399997,35.200006,40.199979,43.900026,-81.90002,-0.900002,1,0.02
6240.373,-132.930832,230.864944,183.271027,-151.420942,-85.005336,57.584665,129.399997,35.200006,40.199979,43.900026,-81.90002,-0.900002,1,0.02
6255.701,-132.930832,230.864944,183.271027,-151.420942,-85.005336,57.584665,129.399997,35.200006,40.199979,43.900026,-81.90002,-0.900002,1,0.02
6272.918,-132.930832,230.864944,183.271027,-151.420942,-85.005336,57.584665,129.399997,35.200006,40.199979,43.900026,-81.90002,-0.900002,1,0.02
6287.92,-132.930832,230.864944,183.271027,-151.420942,-85.005336,57.584665,129.399997,35.200006,40.199979,43.900026,-81.90002,-0.900002,1,0.02
6303.578,-132.930832,230.864944,183.271027,-151.420942,-85.005336,57.584665,129.399997,35.200006,40.199979,43.900026,-81.90002,-0.900002,1,0.02
6319.073,-132.930832,230.864944,183.271027,-151.420942,-85.005336,57.584665,129.399997,35.200006,40.199979,43.900026,-81.90002,-0.900002,1,0.02
6332.994,-132.930832,230.864944,183.271027,-151.420942,-85.005336,57.584665,129.399997,35.200006,40.199979,43.900026,-81.90002,-0.900002,1,0.02
6348.073,-132.930832,230.864944,183.271027,-151.420942,-85.005336,57.584665,129.399997,35.200006,40.199979,43.900026,-81.90002,-0.900002,1,0.02
6363.437,-132.930832,230.864944,183.271027,-151.420942,-85.005336,57.584665,129.399997,35.200006,40.199979,43.900026,-81.90002,-0.900002,1,0.02
6379.032,-132.930832,230.864944,183.271027,-151.420942,-85.005336,57.584665,129.399997,35.200006,40.199979,43.900026,-81.90002,-0.900002,1,0.02
6394.392,-132.930832,230.864944,183.271027,-151.420942,-85.005336,57.584665,129.399997,35.200006,40.199979,43.900026,-81.90002,-0.900002,1,0.02
6409.396,-132.930832,230.864944,183.271027,-151.420942,-85.005336,57.584665,129.399997,35.200006,40.199979,43.900026,-81.90002,-0.900002,1,0.02
6424.56,-132.930832,230.864944,183.271027,-151.420942,-85.005336,57.584665,129.399997,35.200006,40.199979,43.900026,-81.90002,-0.900002,1,0.02
6440.286,-132.930832,230.864944,183.271027,-151.420942,-85.005336,57.584665,129.399997,35.200006,40.199979,43.900026,-81.90002,-0.900002,1,0.02
6455.792,-132.930832,230.864944,183.271027,-151.420942,-85.005336,57.584665,129.399997,35.200006,40.199979,43.900026,-81.90002,-0.900002,1,0.02
6471.35,-132.930832,230.864944,183.271027,-151.420942,-85.005336,57.584665,129.399997,35.200006,40.199979,43.900026,-81.90002,-0.900002,1,0.02
6486.672,-132.930832,230.864944,183.271027,-151.420942,-85.005336,57.584665,129.399997,35.200006,40.199979,43.900026,-81.90002,-0.900002,1,0.02
6502.178,-132.930832,230.864944,183.271027,-151.420942,-85.005336,57.584665,129.399997,35.200006,40.199979,43.900026,-81.90002,-0.900002,1,0.02
6518.123,-132.930832,230.864944,183.271027,-151.420942,-85.005336,57.584665,129.399997,35.200006,40.199979,43.900026,-81.90002,-0.900002,1,0.02
6533.224,-132.930832,230.864944,183.271027,-151.420942,-85.005336,57.584665,129.399997,35.200006,40.199979,43.900026,-81.90002,-0.900002,1,0.02
6548.722,-132.930832,230.864944,183.271027,-151.420942,-85.005336,57.584665,129.399997,35.200006,40.199979,43.900026,-81.90002,-0.900002,1,0.02
6565.099,-132.930832,230.864944,183.271027,-151.420942,-85.005336,57.584665,129.399997,35.200006,40.199979,43.900026,-81.90002,-0.900002,1,0.02
6579.137,-132.930832,230.864944,183.271027,-151.420942,-85.005336,57.584665,129.399997,35.200006,40.199979,43.900026,-81.90002,-0.900002,1,0.02
6596.043,-132.930832,230.864944,183.271027,-151.420942,-85.005336,57.584665,129.399997,35.200006,40.199979,43.900026,-81.90002,-0.900002,1,0.02
6611.546,-132.930832,230.864944,183.271027,-151.420942,-85.005336,57.584665,129.399997,35.200006,40.199979,43.900026,-81.90002,-0.900002,1,0.02
6626.578,-132.930832,230.864944,183.271027,-151.420942,-85.005336,57.584665,129.399997,35.200006,40.199979,43.900026,-81.90002,-0.900002,1,0.02
6641.789,-132.930832,230.864944,183.271027,-151.420942,-85.005336,57.584665,129.399997,35.200006,40.199979,43.900026,-81.90002,-0.900002,1,0.02
6657.079,-132.930832,230.864944,183.271027,-151.420942,-85.005336,57.584665,129.399997,35.200006,40.199979,43.900026,-81.90002,-0.900002,1,0.02
6670.867,-132.930832,230.864944,183.271027,-151.420942,-85.005336,57.584665,129.399997,35.200006,40.199979,43.900026,-81.90002,-0.900002,1,-0.06
6686.447,-132.930832,230.864944,183.271027,-151.420942,-85.005336,57.584665,129.399997,35.200006,40.199979,43.900026,-81.90002,-0.900002,1,-0.06
6702.949,-132.930832,230.864944,183.271027,-151.420942,-85.005336,57.584665,129.399997,35.200006,40.199979,43.900026,-81.90002,-0.900002,1,-0.06
6718.12,-132.930832,230.864944,183.271027,-151.420942,-85.005336,57.584665,129.399997,35.200006,40.199979,43.900026,-81.90002,-0.900002,1,-0.06
6732.615,-132.930832,230.864944,183.271027,-151.420942,-85.005336,57.584665,129.399997,35.200006,40.199979,43.900026,-81.90002,-0.900002,1,-0.06
6748.631,-132.930832,230.864944,183.271027,-151.420942,-85.005336,57.584665,129.399997,35.200006,40.199979,43.900026,-81.90002,-0.900002,1,-0.06
6763.787,-132.930832,230.864944,183.271027,-151.420942,-85.005336,57.584665,129.399997,35.200006,40.199979,43.900026,-81.90002,-0.900002,1,-0.06
6778.386,-132.930832,230.864944,183.271027,-151.420942,-85.005336,57.584665,129.399997,35.200006,40.199979,43.900026,-81.90002,-0.900002,1,-0.06
6793.794,-132.930832,230.864944,183.271027,-151.420942,-85.005336,57.584665,129.399997,35.200006,40.199979,43.900026,-81.90002,-0.900002,1,-0.06
6809.298,-132.930832,230.864944,183.271027,-151.420942,-85.005336,57.584665,129.399997,35.200006,40.199979,43.900026,-81.90002,-0.900002,1,-0.06
6823.957,-132.930832,230.864944,183.271027,-151.420942,-85.005336,57.584665,129.399997,35.200006,40.199979,43.900026,-81.90002,-0.900002,1,-0.06
6841.833,-132.930832,230.864944,183.271027,-151.420942,-85.005336,57.584665,129.399997,35.200006,40.199979,43.900026,-81.90002,-0.900002,1,-0.06
6856.238,-132.930832,230.864944,183.271027,-151.420942,-85.005336,57.584665,129.399997,35.200006,40.199979,43.900026,-81.90002,-0.900002,1,-0.06
6871.523,-132.930832,230.864944,183.271027,-151.420942,-85.005336,57.584665,129.399997,35.200006,40.199979,43.900026,-81.90002,-0.900002,1,-0.06
6887.25,-132.930832,230.864944,183.271027,-151.420942,-85.005336,57.584665,129.399997,35.200006,40.199979,43.900026,-81.90002,-0.900002,1,-0.06
6903.084,-132.930832,230.864944,183.271027,-151.420942,-85.005336,57.584665,129.399997,35.200006,40.199979,43.900026,-81.90002,-0.900002,1,-0.06
6918.077,-132.930832,230.864944,183.271027,-151.420942,-85.005336,57.584665,129.399997,35.200006,40.199979,43.900026,-81.90002,-0.900002,1,-0.06
6932.482,-132.930832,230.864944,183.271027,-151.420942,-85.005336,57.584665,129.399997,35.200006,40.199979,43.900026,-81.90002,-0.900002,1,-0.06
6949.577,-132.930832,230.864944,183.271027,-151.420942,-85.005336,57.584665,129.399997,35.200006,40.199979,43.900026,-81.90002,-0.900002,1,-0.06
6965.563,-132.930832,230.864944,183.271027,-151.420942,-85.005336,57.584665,129.399997,35.200006,40.199979,43.900026,-81.90002,-0.900002,1,-0.06
6980.692,-132.930832,230.864944,183.271027,-151.420942,-85.005336,57.584665,129.399997,35.200006,40.199979,43.900026,-81.90002,-0.900002,1,-0.06
6995.874,-132.930832,230.864944,183.271027,-151.420942,-85.005336,57.584665,129.399997,35.200006,40.199979,43.900026,-81.90002,-0.900002,1,-0.06
7010.695,-132.930832,230.864944,183.271027,-151.420942,-85.005336,57.584665,129.399997,35.200006,40.199979,43.900026,-81.90002,-0.900002,1,-0.06
7025.049,-132.930832,230.864944,183.271027,-151.420942,-85.005336,57.584665,129.399997,35.200006,40.199979,43.900026,-81.90002,-0.900002,1,-0.06
7040.955,-132.930832,230.864944,183.271027,-151.420942,-85.005336,57.584665,129.399997,35.200006,40.199979,43.900026,-81.90002,-0.900002,1,-0.06
7055.603,-132.930832,230.864944,183.271027,-151.420942,-85.005336,57.584665,129.399997,35.200006,40.199979,43.900026,-81.90002,-0.900002,1,-0.06
7071.141,-132.930832,230.864944,183.271027,-151.420942,-85.005336,57.584665,129.399997,35.200006,40.199979,43.900026,-81.90002,-0.900002,1,-0.06
7086.442,-132.930832,230.864944,183.271027,-151.420942,-85.005336,57.584665,129.399997,35.200006,40.199979,43.900026,-81.90002,-0.900002,1,-0.06
7103.246,-132.930832,230.864944,183.271027,-151.420942,-85.005336,57.584665,129.399997,35.200006,40.199979,43.900026,-81.90002,-0.900002,1,-0.06
7117.246,-132.930832,230.864944,183.271027,-151.420942,-85.005336,57.584665,129.399997,35.200006,40.199979,43.900026,-81.90002,-0.900002,1,-0.06
7133.115,-132.930832,230.864944,183.271027,-151.420942,-85.005336,57.584665,129.399997,35.200006,40.199979,43.900026,-81.90002,-0.900002,1,-0.03
7148.328,-132.930832,230.864944,183.271027,-151.420942,-85.005336,57.584665,129.399997,35.200006,40.199979,43.900026,-81.90002,-0.900002,1,-0.03
7165.488,-132.930832,230.864944,183.271027,-151.420942,-85.005336,57.584665,129.399997,35.200006,40.199979,43.900026,-81.90002,-0.900002,1,-0.03
7179.152,-132.930832,230.864944,183.271027,-151.420942,-85.005336,57.584665,129.399997,35.200006,40.199979,43.900026,-81.90002,-0.900002,1,-0.03
7194.31,-132.930832,230.864944,183.271027,-151.420942,-85.005336,57.584665,129.399997,35.200006,40.199979,43.900026,-81.90002,-0.900002,1,-0.03
7209.315,-132.930832,230.864944,183.271027,-151.420942,-85.005336,57.584665,129.399997,35.200006,40.199979,43.900026,-81.90002,-0.900002,1,-0.03
7224.537,-132.930832,230.864944,183.271027,-151.420942,-85.005336,57.584665,129.399997,35.200006,40.199979,43.900026,-81.90002,-0.900002,1,-0.03
7241.101,-132.930832,230.864944,183.271027,-151.420942,-85.005336,57.584665,129.399997,35.200006,40.199979,43.900026,-81.90002,-0.900002,1,-0.03
7256.567,-132.930832,230.864944,183.271027,-151.420942,-85.005336,57.584665,129.399997,35.200006,40.199979,43.900026,-81.90002,-0.900002,1,-0.03
7271.467,-132.930832,230.864944,183.271027,-151.420942,-85.005336,57.584665,129.399997,35.200006,40.199979,43.900026,-81.90002,-0.900002,1,-0.03
7286.761,-132.930832,230.864944,183.271027,-151.420942,-85.005336,57.584665,129.399997,35.200006,40.199979,43.900026,-81.90002,-0.900002,1,-0.03
7302.602,-132.930832,230.864944,183.271027,-151.420942,-85.005336,57.584665,129.399997,35.200006,40.199979,43.900026,-81.90002,-0.900002,1,-0.03
7318.25,-132.930832,230.864944,183.271027,-151.420942,-85.005336,57.584665,129.399997,35.200006,40.199979,43.900026,-81.90002,-0.900002,1,-0.03
7333.25,-132.930832,230.864944,183.271027,-151.420942,-85.005336,57.584665,129.399997,35.200006,40.199979,43.900026,-81.90002,-0.900002,1,-0.03
7348.255,-132.930832,230.864944,183.271027,-151.420942,-85.005336,57.584665,129.399997,35.200006,40.199979,43.900026,-81.90002,-0.900002,1,-0.03
7363.211,-132.930832,230.864944,183.271027,-151.420942,-85.005336,57.584665,129.399997,35.200006,40.199979,43.900026,-81.90002,-0.900002,1,-0.03
7378.197,-132.930832,230.864944,183.271027,-151.420942,-85.005336,57.584665,129.399997,35.200006,40.199979,43.900026,-81.90002,-0.900002,1,-0.03
7392.705,-132.930832,230.864944,183.271027,-151.420942,-85.005336,57.584665,129.399997,35.200006,40.199979,43.900026,-81.90002,-0.900002,1,-0.03
7409.727,-132.930832,230.864944,183.271027,-151.420942,-85.005336,57.584665,129.399997,35.200006,40.199979,43.900026,-81.90002,-0.900002,1,-0.03
7424.584,-132.930832,230.864944,183.271027,-151.420942,-85.005336,57.584665,129.399997,35.200006,40.199979,43.900026,-81.90002,-0.900002,1,-0.03
7438.515,-132.930832,230.864944,183.271027,-151.420942,-85.005336,57.584665,129.399997,35.200006,40.199979,43.900026,-81.90002,-0.900002,1,-0.03
7453.521,-132.930832,230.864944,183.271027,-151.420942,-85.005336,57.584665,129.399997,35.200006,40.199979,43.900026,-81.90002,-0.900002,1,-0.03
7470.502,-132.930832,230.864944,183.271027,-151.420942,-85.005336,57.584665,129.399997,35.200006,40.199979,43.900026,-81.90002,-0.900002,1,-0.03
7486.275,-132.930832,230.864944,183.271027,-151.420942,-85.005336,57.584665,129.399997,35.200006,40.199979,43.900026,-81.90002,-0.900002,1,-0.03
