BAEK26/lfd/data/neo_show_scenario.csv
timestamp,x,y,z,roll,pitch,yaw,joint1,joint2,joint3,joint4,joint5,joint6
1732862239.8839667,263.492462,194.015442,254.530624,-174.854515,-84.828579,18.44884,39.620891,25.963869,52.701632,19.083276,-59.207167,-7.965087
1732862239.9014986,263.488007,194.016846,254.503922,-174.634843,-84.803426,18.231345,39.620891,25.963869,52.701288,19.083276,-59.184248,-7.943143
1732862239.9166546,263.502869,193.98024,254.493256,-173.597388,-84.783945,17.152638,39.620891,25.963869,52.701288,19.127222,-59.179665,-7.866195
1732862239.9326782,263.506744,193.970963,254.49176,-173.188755,-84.77833,16.732889,39.620891,25.963869,52.701288,19.138165,-59.179665,-7.83325
1732862239.9479418,263.506744,193.970963,254.49176,-173.188755,-84.77833,16.732889,39.620891,25.963869,52.701288,19.138165,-59.179665,-7.83325
1732862239.9651551,263.50647,193.970749,254.491302,-173.189213,-84.778273,16.733347,39.620891,25.963754,52.701174,19.138165,-59.179665,-7.83325
1732862239.981293,263.50647,193.970734,254.491928,-173.188755,-84.77833,16.732889,39.620891,25.963754,52.701174,19.138165,-59.179665,-7.83325
1732862240.0010045,263.506226,193.970535,254.49147,-173.189213,-84.778273,16.733347,39.620891,25.963754,52.701059,19.138165,-59.179665,-7.83325
1732862240.0402145,263.505981,193.970322,254.491013,-173.189729,-84.778159,16.733805,39.620891,25.963754,52.701002,19.138165,-59.179665,-7.83325
1732862240.059443,263.505463,193.969894,254.490097,-173.190646,-84.777929,16.734779,39.620891,25.963754,52.700773,19.138165,-59.179665,-7.83325
1732862240.0884888,263.505219,193.969681,254.489639,-173.191161,-84.777872,16.735238,39.620891,25.963754,52.700658,19.138165,-59.179665,-7.83325
1732862240.1235216,263.504974,193.969482,254.489182,-173.19162,-84.777757,16.735696,39.620891,25.963754,52.700543,19.138165,-59.179665,-7.83325
1732862240.1659987,263.504333,193.969971,254.484314,-173.196776,-84.773231,16.741483,39.620891,25.963754,52.700543,19.138165,-59.175138,-7.83325
1732862240.1890333,263.503845,193.969543,254.483398,-173.197693,-84.773059,16.742457,39.620891,25.963754,52.700314,19.138165,-59.175138,-7.83325
1732862240.2151005,263.503845,193.969543,254.483398,-173.197693,-84.773059,16.742457,39.620891,25.963754,52.700314,19.138165,-59.175138,-7.83325
1732862240.2390494,263.503845,193.969543,254.483398,-173.197693,-84.773059,16.742457,39.620891,25.963754,52.7002,19.138165,-59.175138,-7.83325
1732862240.2650418,263.503571,193.969345,254.482941,-173.198209,-84.772945,16.742915,39.620891,25.963754,52.7002,19.138165,-59.175138,-7.83325
1732862240.2991014,263.503571,193.969345,254.482941,-173.198209,-84.772945,16.742915,39.620891,25.963754,52.700085,19.138165,-59.175138,-7.83325
1732862240.3310866,263.503326,193.969131,254.482483,-173.198667,-84.77283,16.743374,39.620891,25.963754,52.700085,19.138165,-59.175138,-7.83325
1732862240.3541389,263.503082,193.968918,254.482025,-173.199125,-84.772715,16.743832,39.620891,25.963754,52.69997,19.138165,-59.175138,-7.83325
1732862240.3681316,263.503082,193.968918,254.482025,-173.199125,-84.772715,16.743832,39.620891,25.963754,52.69997,19.138165,-59.175138,-7.83325
1732862240.3841238,263.503082,193.968918,254.482025,-173.199125,-84.772715,16.743832,39.620891,25.963754,52.69997,19.138165,-59.175138,-7.83325
1732862240.401128,263.503082,193.968918,254.482025,-173.199125,-84.772715,16.743832,39.620891,25.963754,52.69997,19.138165,-59.175138,-7.83325
1732862240.4190266,263.502838,193.968704,254.481567,-173.199584,-84.772601,16.744348,39.620891,25.963754,52.699856,19.138165,-59.175138,-7.83325
1732862240.4470134,263.502838,193.968704,254.481567,-173.199584,-84.772601,16.744348,39.620891,25.963754,52.699856,19.138165,-59.175138,-7.83325
1732862240.4630027,263.502594,193.968491,254.48111,-173.200099,-84.772544,16.744806,39.620891,25.963754,52.699741,19.138165,-59.175138,-7.83325
1732862240.481004,263.502594,193.968491,254.48111,-173.200099,-84.772544,16.744806,39.620891,25.963754,52.699741,19.138165,-59.175138,-7.83325
1732862240.503051,263.502319,193.968277,254.480652,-173.200558,-84.772429,16.745265,39.620891,25.963754,52.699684,19.138165,-59.175138,-7.83325
1732862240.5351958,263.502319,193.968277,254.480652,-173.200558,-84.772429,16.745265,39.620891,25.963754,52.699684,19.138165,-59.175138,-7.83325
1732862240.5561702,263.502075,193.968079,254.480194,-173.201016,-84.772314,16.745723,39.620891,25.963754,52.699569,19.138165,-59.175138,-7.83325
1732862240.5711498,263.502075,193.968079,254.480194,-173.201016,-84.772314,16.745723,39.620891,25.963754,52.699569,19.138165,-59.175138,-7.83325
1732862240.5881503,263.501831,193.967865,254.479736,-173.201475,-84.7722,16.746181,39.620891,25.963754,52.699455,19.138165,-59.175138,-7.83325
1732862240.6022072,263.501831,193.967865,254.479736,-173.201475,-84.7722,16.746181,39.620891,25.963754,52.699455,19.138165,-59.175138,-7.83325
1732862240.6175613,263.501831,193.967865,254.479736,-173.201475,-84.7722,16.746181,39.620891,25.963754,52.699455,19.138165,-59.175138,-7.83325
1732862240.6355295,263.501831,193.967865,254.479736,-173.201475,-84.7722,16.746181,39.620891,25.963754,52.699455,19.138165,-59.175138,-7.83325
1732862240.650008,263.501587,193.967651,254.479279,-173.201933,-84.772142,16.746697,39.620891,25.963754,52.69934,19.138165,-59.175138,-7.83325
1732862240.666184,263.501587,193.967651,254.479279,-173.201933,-84.772142,16.746697,39.620891,25.963754,52.69934,19.138165,-59.175138,-7.83325
1732862240.694696,263.501587,193.967651,254.479279,-173.201933,-84.772142,16.746697,39.620891,25.963754,52.69934,19.138165,-59.175138,-7.83325
1732862240.721544,263.501587,193.967651,254.479279,-173.201933,-84.772142,16.746697,39.620891,25.963754,52.69934,19.138165,-59.175138,-7.83325
1732862240.7516716,263.501587,193.967651,254.479279,-173.201933,-84.772142,16.746697,39.620891,25.963754,52.69934,19.138165,-59.175138,-7.83325
1732862240.7747004,263.501587,193.967651,254.479279,-173.201933,-84.772142,16.746697,39.620891,25.963754,52.69934,19.138165,-59.175138,-7.83325
1732862240.7909214,263.501587,193.967651,254.479279,-173.201933,-84.772142,16.746697,39.620891,25.963754,52.69934,19.138165,-59.175138,-7.83325
1732862240.8058953,263.501587,193.967651,254.479279,-173.201933,-84.772142,16.746697,39.620891,25.963754,52.69934,19.138165,-59.175138,-7.83325
1732862240.8198872,263.501343,193.967438,254.478821,-173.202449,-84.772028,16.747155,39.620891,25.963754,52.699226,19.138165,-59.175138,-7.83325
1732862240.835937,263.501343,193.967438,254.478821,-173.202449,-84.772028,16.747155,39.620891,25.963754,52.699226,19.138165,-59.175138,-7.83325
1732862240.8509102,263.501343,193.967438,254.478821,-173.202449,-84.772028,16.747155,39.620891,25.963754,52.699226,19.138165,-59.175138,-7.83325
1732862240.865896,263.501343,193.967438,254.478821,-173.202449,-84.772028,16.747155,39.620891,25.963754,52.699111,19.138165,-59.175138,-7.83325
1732862240.8810315,263.501099,193.967224,254.478363,-173.202907,-84.771913,16.747614,39.620891,25.963754,52.699111,19.138165,-59.175138,-7.83325
1732862240.8950427,263.501099,193.967224,254.478363,-173.202907,-84.771913,16.747614,39.620891,25.963754,52.699111,19.138165,-59.175138,-7.83325
1732862240.9100237,263.501099,193.967224,254.478363,-173.202907,-84.771913,16.747614,39.620891,25.963754,52.699111,19.138165,-59.175138,-7.83325
1732862240.9280682,263.501099,193.967224,254.478363,-173.202907,-84.771913,16.747614,39.620891,25.963754,52.699111,19.138165,-59.175138,-7.83325
1732862240.9430218,263.501099,193.967224,254.478363,-173.202907,-84.771913,16.747614,39.620891,25.963754,52.699111,19.138165,-59.175138,-7.83325
1732862240.9670331,263.501099,193.967224,254.478363,-173.202907,-84.771913,16.747614,39.620891,25.963754,52.699111,19.138165,-59.175138,-7.83325
1732862241.0070462,263.501099,193.967224,254.478363,-173.202907,-84.771913,16.747614,39.620891,25.963754,52.699111,19.138165,-59.175138,-7.83325
1732862241.0346875,263.500824,193.967026,254.477905,-173.203365,-84.771799,16.748072,39.620891,25.963754,52.698996,19.138165,-59.175138,-7.83325
1732862241.0506854,263.500824,193.967026,254.477905,-173.203365,-84.771799,16.748072,39.620891,25.963754,52.698996,19.138165,-59.175138,-7.83325
1732862241.0692205,263.500824,193.967026,254.477905,-173.203365,-84.771799,16.748072,39.620891,25.963754,52.698996,19.138165,-59.175138,-7.83325
1732862241.0982215,263.500824,193.967026,254.477905,-173.203365,-84.771799,16.748072,39.620891,25.963754,52.698996,19.138165,-59.175138,-7.83325
1732862241.133123,263.500458,193.967514,254.477905,-173.203365,-84.771799,16.748187,39.621006,25.963754,52.698996,19.138165,-59.175138,-7.83325
1732862241.1820977,263.500214,193.967316,254.477448,-173.203881,-84.771741,16.748645,39.621006,25.96364,52.698882,19.138165,-59.175138,-7.83325
1732862241.2207308,263.500214,193.9673,254.478073,-173.203365,-84.771799,16.748187,39.621006,25.96364,52.698882,19.138165,-59.175138,-7.83325
1732862241.2422535,263.500214,193.9673,254.478073,-173.203365,-84.771799,16.748187,39.621006,25.96364,52.698882,19.138165,-59.175138,-7.83325
1732862241.290525,263.499939,193.967087,254.477615,-173.203881,-84.771741,16.748645,39.621006,25.96364,52.698767,19.138165,-59.175138,-7.83325
1732862241.3215015,263.499939,193.967087,254.477615,-173.203881,-84.771741,16.748645,39.621006,25.96364,52.698767,19.138165,-59.175138,-7.83325
1732862241.3475122,263.499939,193.967087,254.477615,-173.203881,-84.771741,16.748645,39.621006,25.96364,52.698767,19.138165,-59.175138,-7.83325
1732862241.3751774,263.499939,193.967087,254.477615,-173.203881,-84.771741,16.748645,39.621006,25.96364,52.698767,19.138165,-59.175138,-7.83325
1732862241.3893955,263.499939,193.967087,254.477615,-173.203881,-84.771741,16.748645,39.621006,25.96364,52.698767,19.138165,-59.175138,-7.83325
1732862241.406014,263.499939,193.967087,254.477615,-173.203881,-84.771741,16.748645,39.621006,25.96364,52.698767,19.138165,-59.175138,-7.83325
1732862241.4217408,263.499939,193.967087,254.477615,-173.203881,-84.771741,16.748645,39.621006,25.96364,52.698653,19.138165,-59.175138,-7.83325
1732862241.4374642,263.499695,193.966873,254.477158,-173.204339,-84.771627,16.749161,39.621006,25.96364,52.698653,19.138165,-59.175138,-7.83325
1732862241.4519072,263.499695,193.966873,254.477158,-173.204339,-84.771627,16.749161,39.621006,25.96364,52.698653,19.138165,-59.175138,-7.83325
1732862241.4699497,263.499695,193.966873,254.477158,-173.204339,-84.771627,16.749161,39.621006,25.96364,52.698653,19.138165,-59.175138,-7.83325
1732862241.485635,263.499695,193.966873,254.477158,-173.204339,-84.771627,16.749161,39.621006,25.96364,52.698653,19.138165,-59.175138,-7.83325
1732862241.502659,263.499695,193.966873,254.477158,-173.204339,-84.771627,16.749161,39.621006,25.96364,52.698653,19.138165,-59.175138,-7.83325
1732862241.5157309,263.499695,193.966873,254.477158,-173.204339,-84.771627,16.749161,39.621006,25.96364,52.698653,19.138165,-59.175138,-7.83325
1732862241.5327265,263.499695,193.966873,254.477158,-173.204339,-84.771627,16.749161,39.621006,25.96364,52.698653,19.138165,-59.175138,-7.83325
1732862241.5677307,263.499695,193.966873,254.477158,-173.204339,-84.771627,16.749161,39.621006,25.96364,52.698653,19.138165,-59.175138,-7.83325
1732862241.5942833,263.499695,193.966873,254.477158,-173.204339,-84.771627,16.749161,39.621006,25.96364,52.698653,19.138165,-59.175138,-7.83325
1732862241.6092806,263.499695,193.966873,254.477158,-173.204339,-84.771627,16.749161,39.621006,25.96364,52.698653,19.138165,-59.175138,-7.83325
1732862241.6479325,263.499695,193.966873,254.477158,-173.204339,-84.771627,16.749161,39.621006,25.96364,52.698653,19.138165,-59.175138,-7.83325
1732862241.668927,263.499451,193.96666,254.4767,-173.204798,-84.771512,16.749619,39.621006,25.96364,52.698538,19.138165,-59.175138,-7.83325
1732862241.6883633,263.499451,193.96666,254.4767,-173.204798,-84.771512,16.749619,39.621006,25.96364,52.698538,19.138165,-59.175138,-7.822249
1732862241.700266,263.499451,193.96666,254.476669,-173.085622,-84.770194,16.629928,39.621006,25.96364,52.698538,19.138165,-59.175138,-7.822249
1732862241.7222867,263.499451,193.96666,254.476669,-173.085622,-84.770194,16.629928,39.621006,25.96364,52.698538,19.138165,-59.175138,-7.822249
1732862241.750204,263.499451,193.96666,254.476669,-173.085622,-84.770194,16.629928,39.621006,25.96364,52.698538,19.138165,-59.175138,-7.822249
1732862241.7771735,263.499451,193.96666,254.476669,-173.085622,-84.770194,16.629928,39.621006,25.96364,52.698538,19.138165,-59.175138,-7.822249
1732862241.8126402,263.499451,193.96666,254.476669,-173.085622,-84.770194,16.629928,39.621006,25.96364,52.698538,19.138165,-59.175138,-7.822249
1732862241.8268352,263.499451,193.96666,254.476669,-173.085622,-84.770194,16.629928,39.621006,25.96364,52.698538,19.138165,-59.175138,-7.822249
1732862241.8412132,263.499451,193.96666,254.476669,-173.085622,-84.770194,16.629928,39.621006,25.96364,52.698538,19.138165,-59.175138,-7.822249
1732862241.8592298,263.499451,193.96666,254.476669,-173.085622,-84.770194,16.629928,39.621006,25.96364,52.698538,19.138165,-59.175138,-7.822249
1732862241.8732328,263.499451,193.96666,254.476669,-173.085622,-84.770194,16.629928,39.621006,25.96364,52.698538,19.138165,-59.175138,-7.822249
1732862241.8902254,263.49942,193.966644,254.477295,-173.085164,-84.770309,16.62947,39.621006,25.963525,52.698538,19.138165,-59.175138,-7.822249
1732862241.905267,263.49942,193.966644,254.477295,-173.085164,-84.770309,16.62947,39.621006,25.963525,52.698538,19.138165,-59.175138,-7.811306
1732862241.9327714,263.49942,193.966644,254.477234,-172.846928,-84.767616,16.39026,39.621006,25.963525,52.698538,19.138165,-59.175138,-7.800305
1732862241.9520223,263.507172,193.948074,254.474152,-171.679699,-84.750485,15.199253,39.621006,25.963525,52.698538,19.160167,-59.175138,-7.701412
1732862241.9670048,263.511017,193.938782,254.472626,-171.158021,-84.741948,14.666001,39.621006,25.963525,52.698538,19.171168,-59.175138,-7.657466
1732862241.9860146,263.518768,193.920242,254.469757,-170.824616,-84.734442,14.312371,39.621006,25.963525,52.698538,19.193112,-59.175138,-7.635522
1732862241.9989986,263.518768,193.920242,254.469757,-170.824616,-84.734442,14.312371,39.621006,25.963525,52.698538,19.193112,-59.175138,-7.635522
1732862242.0340343,263.518738,193.920227,254.470383,-170.824101,-84.734556,14.311855,39.621006,25.963468,52.698538,19.193112,-59.175138,-7.635522
1732862242.048928,263.518738,193.920227,254.470383,-170.824101,-84.734556,14.311855,39.621006,25.963468,52.698538,19.193112,-59.175138,-7.635522
1732862242.0609205,263.518738,193.920227,254.470383,-170.824101,-84.734556,14.311855,39.621006,25.963468,52.698538,19.193112,-59.175138,-7.635522
1732862242.0769205,263.518738,193.920227,254.470383,-170.824101,-84.734556,14.311855,39.621006,25.963468,52.698538,19.193112,-59.175138,-7.635522
1732862242.0933735,263.518738,193.920212,254.471008,-170.823585,-84.734671,14.31134,39.621006,25.963353,52.698538,19.193112,-59.175138,-7.635522
1732862242.1083786,263.518738,193.920212,254.471008,-170.823585,-84.734671,14.31134,39.621006,25.963353,52.698538,19.193112,-59.175138,-7.635522
1732862242.135902,263.518738,193.920212,254.471008,-170.823585,-84.734671,14.31134,39.621006,25.963353,52.698538,19.193112,-59.175138,-7.635522
1732862242.1552243,263.518097,193.920715,254.466232,-171.183861,-84.735301,14.673736,39.621006,25.963353,52.698538,19.193112,-59.170555,-7.668467
1732862242.169792,263.517456,193.921234,254.461456,-171.544194,-84.73576,15.036246,39.621006,25.963353,52.698538,19.193112,-59.165971,-7.701412
1732862242.1862965,263.516785,193.921722,254.457275,-171.786097,-84.734556,15.279753,39.621006,25.963239,52.698538,19.193112,-59.161387,-7.723414
1732862242.201908,263.516785,193.921722,254.457336,-172.022213,-84.73765,15.516843,39.621006,25.963239,52.698538,19.193112,-59.161387,-7.745358
1732862242.2168903,263.516785,193.921722,254.457977,-172.139898,-84.739255,15.635044,39.621006,25.963124,52.698538,19.193112,-59.161387,-7.756359
1732862242.2329185,263.516785,193.921722,254.458008,-172.2581,-84.740744,15.753761,39.621006,25.963124,52.698538,19.193112,-59.161387,-7.76736
1732862242.2537673,263.515472,193.922714,254.448959,-172.505732,-84.734728,16.003628,39.621006,25.96301,52.698538,19.193112,-59.147636,-7.800305
1732862242.2807498,263.51413,193.923676,254.441223,-172.98822,-84.731577,16.489439,39.621006,25.962666,52.698538,19.193112,-59.143053,-7.83325
1732862242.2967505,263.51413,193.923676,254.441895,-173.224393,-84.734327,16.726586,39.621006,25.962551,52.698538,19.193112,-59.143053,-7.855251
1732862242.3267558,263.514069,193.923645,254.443802,-173.341391,-84.735932,16.8441,39.621006,25.962207,52.698538,19.193112,-59.143053,-7.866195
1732862242.3447504,263.513794,193.923462,254.453766,-173.334,-84.737536,16.836709,39.621006,25.960489,52.698538,19.193112,-59.143053,-7.866195
1732862242.361334,263.513458,193.923203,254.466736,-172.850652,-84.734385,16.351413,39.621006,25.958139,52.698538,19.193112,-59.143053,-7.822249
1732862242.3783455,263.513123,193.922958,254.47847,-172.486939,-84.732093,15.986267,39.621006,25.956077,52.698538,19.193112,-59.143053,-7.789304
1732862242.4060872,263.511719,193.922714,254.516983,-171.984627,-84.732379,15.482236,39.62112,25.947712,52.698538,19.193112,-59.143053,-7.745358
1732862242.4313498,263.510895,193.922104,254.54808,-171.724103,-84.73427,15.220738,39.62112,25.942326,52.698538,19.193112,-59.147636,-7.723414
1732862242.4645457,263.523407,193.909042,254.74295,-171.506551,-84.850867,14.989034,39.62112,25.929148,52.698538,19.193112,-59.248362,-7.723414
1732862242.481514,263.52066,193.906128,254.870499,-171.156703,-84.871723,14.63804,39.62112,25.90325,52.698538,19.193112,-59.252946,-7.701412
1732862242.496599,263.517883,193.904892,254.958359,-171.083364,-84.88576,14.565103,39.621177,25.887608,52.698538,19.193112,-59.252946,-7.701412
1732862242.5216005,263.514893,193.90274,255.065521,-170.993295,-84.902834,14.475435,39.621177,25.861138,52.698538,19.160167,-59.252946,-7.701412
1732862242.5576875,263.46759,193.98938,255.378662,-171.25147,-84.970902,14.830955,39.621177,25.8204,52.698538,19.083276,-59.252946,-7.701412
1732862242.581656,263.416595,194.049942,256.047852,-171.106913,-85.092311,14.765753,39.621292,25.662722,52.698538,18.984384,-59.252946,-7.701412
1732862242.6157103,263.381195,194.036987,257.036865,-170.53871,-85.255547,14.211645,39.621407,25.504185,52.698538,18.984384,-59.252946,-7.734357
1732862242.6376104,263.324707,193.999924,258.573761,-170.036971,-85.497965,13.721079,39.621521,25.219138,52.698538,18.984384,-59.216334,-7.811306
1732862242.6514437,263.282959,193.990936,259.232117,-169.762353,-85.524837,13.464164,39.621636,25.120762,52.698538,18.984384,-59.133885,-7.822249
1732862242.6664464,263.274445,193.88504,260.00296,-169.037504,-85.557209,12.662138,39.621865,24.96423,52.698538,19.09422,-59.0378,-7.866195
1732862242.6818228,263.305023,193.682617,260.791565,-168.343423,-85.596228,11.795081,39.62198,24.805348,52.698538,19.313949,-58.959935,-7.965087
1732862242.696832,263.319489,193.549713,261.216431,-167.89027,-85.548157,11.229629,39.62198,24.673339,52.698538,19.511734,-58.799736,-8.041978
1732862242.7268212,263.346466,193.350159,261.916138,-167.855606,-85.562423,11.027489,39.622094,24.446906,52.698538,19.830298,-58.671566,-8.239763
1732862242.7648365,263.35144,193.033844,263.128693,-166.136504,-85.421991,9.054681,39.622209,24.199789,52.698538,20.104974,-58.360278,-8.250707
1732862242.793821,263.288422,192.890381,264.631561,-164.020628,-85.493324,6.865581,39.622209,23.971408,52.698538,20.170922,-58.241274,-8.250707
1732862242.805818,263.263977,192.871597,265.107635,-163.567762,-85.56695,6.415122,39.622209,23.887241,52.698538,20.170922,-58.241274,-8.261708
1732862242.8258204,263.191437,192.972656,265.584137,-163.750994,-85.671228,6.723259,39.622209,23.806626,52.698538,20.028084,-58.241274,-8.261708
1732862242.840837,263.123779,193.078354,265.94812,-164.235716,-85.761755,7.332828,39.622323,23.730136,52.698538,19.830298,-58.241274,-8.272708
1732862242.8662384,262.928589,193.412659,266.785522,-166.088375,-85.992313,9.567478,39.622438,23.608726,52.698538,19.445786,-58.241274,-8.294653
1732862242.883197,262.838196,193.573273,267.118439,-167.301843,-86.092638,10.96223,39.622438,23.55504,52.698538,19.237058,-58.241274,-8.316654
1732862242.9027667,262.756073,193.716995,267.418915,-168.477438,-86.181619,12.300143,39.622495,23.506453,52.698538,19.050274,-58.241274,-8.338599
1732862242.9287186,262.653076,193.875137,267.848328,-169.582157,-86.269396,13.590158,39.622724,23.427557,52.698538,18.819601,-58.200079,-8.371601
1732862242.949707,262.623901,193.926056,267.848938,-170.849196,-86.248196,14.91392,39.622839,23.420337,52.698538,18.786599,-58.158883,-8.42649
1732862242.983751,262.617157,193.931961,267.806641,-171.438082,-86.205797,15.5114,39.622839,23.420223,52.698538,18.786599,-58.090185,-8.437491
1732862243.0263662,262.591248,193.958557,267.582672,-172.312989,-86.004116,16.418679,39.622839,23.420223,52.698538,18.786599,-57.902542,-8.470436
1732862243.0527623,262.619904,193.873016,267.444702,-172.049887,-85.872164,16.069862,39.622839,23.420223,52.698538,18.907493,-57.788065,-8.492438
1732862243.0828545,262.627686,193.854858,267.441742,-171.913064,-85.868039,15.914189,39.622839,23.420223,52.698538,18.929437,-57.788065,-8.492438
1732862243.0988553,262.627686,193.854858,267.441742,-171.913064,-85.868039,15.914189,39.622839,23.420223,52.698538,18.929437,-57.788065,-8.492438
1732862243.114762,262.627686,193.854858,267.441742,-171.913064,-85.868039,15.914189,39.622839,23.420223,52.698538,18.929437,-57.788065,-8.492438
1732862243.1307182,262.615997,193.882095,267.446198,-172.11847,-85.874284,16.147784,39.622839,23.420223,52.698538,18.896492,-57.788065,-8.492438
1732862243.1477268,262.599976,193.918915,267.452118,-172.393318,-85.882477,16.460447,39.622954,23.420223,52.698538,18.841545,-57.788065,-8.492438
1732862243.1615634,262.58432,193.955215,267.458038,-172.669311,-85.890613,16.774084,39.622954,23.420223,52.698538,18.8086,-57.788065,-8.492438
1732862243.1765718,262.580017,193.964798,267.459534,-172.738525,-85.892619,16.852809,39.623068,23.420223,52.698538,18.797599,-57.788065,-8.492438
1732862243.1975708,262.580017,193.964798,267.459534,-172.738525,-85.892619,16.852809,39.623068,23.420223,52.698538,18.797599,-57.788065,-8.492438
1732862243.2275743,262.580017,193.964798,267.459534,-172.738525,-85.892619,16.852809,39.623068,23.420223,52.698538,18.797599,-57.788065,-8.492438
1732862243.2445707,262.580017,193.964798,267.459534,-172.738525,-85.892619,16.852809,39.623068,23.420223,52.698538,18.797599,-57.788065,-8.492438
1732862243.2557263,262.580017,193.964798,267.459534,-172.738525,-85.892619,16.852809,39.623068,23.420223,52.698538,18.797599,-57.788065,-8.492438
1732862243.2703824,262.58786,193.94664,267.456573,-172.600213,-85.888608,16.695704,39.623068,23.420223,52.698538,18.819601,-57.788065,-8.492438
1732862243.2874742,262.599609,193.919418,267.452118,-172.393318,-85.882477,16.460562,39.623068,23.420223,52.698538,18.852546,-57.788065,-8.492438
1732862243.3021815,262.60257,193.911407,267.44577,-172.332068,-85.875946,16.390661,39.623183,23.420223,52.698538,18.863547,-57.783481,-8.492438
1732862243.316193,262.60199,193.911972,267.440918,-172.339689,-85.871477,16.398969,39.623183,23.420223,52.698538,18.863547,-57.778955,-8.492438
1732862243.3321922,262.60199,193.911972,267.440918,-172.339689,-85.871477,16.398969,39.623183,23.420223,52.698538,18.863547,-57.778955,-8.492438
1732862243.3512356,262.60199,193.911972,267.440918,-172.339689,-85.871477,16.398969,39.623183,23.420223,52.698538,18.863547,-57.778955,-8.492438
1732862243.364199,262.60199,193.911972,267.440918,-172.339689,-85.871477,16.398969,39.623183,23.420223,52.698538,18.863547,-57.778955,-8.492438
1732862243.3791993,262.60199,193.911972,267.440918,-172.339689,-85.871477,16.398969,39.623183,23.420223,52.698538,18.863547,-57.778955,-8.492438
1732862243.3942418,262.60199,193.911972,267.440918,-172.339689,-85.871477,16.398969,39.623183,23.420223,52.698538,18.863547,-57.778955,-8.492438
1732862243.411243,262.6008,193.912857,267.435547,-172.347825,-85.866836,16.407907,39.623297,23.420223,52.698423,18.863547,-57.774371,-8.492438
1732862243.4452455,262.599976,193.913223,267.430206,-172.355961,-85.862252,16.416731,39.623412,23.420108,52.698366,18.863547,-57.769787,-8.492438
1732862243.4693818,262.596893,193.915207,267.420319,-172.371602,-85.853199,16.434091,39.623641,23.419994,52.698022,18.863547,-57.76062,-8.492438
1732862243.4853902,262.595062,193.916595,267.411346,-172.385984,-85.844318,16.449962,39.623756,23.41965,52.697908,18.863547,-57.751453,-8.492438
1732862243.5033944,262.594177,193.916687,267.415833,-172.381858,-85.845006,16.445894,39.623813,23.418905,52.697793,18.863547,-57.751453,-8.492438
1732862243.5203955,262.593353,193.916855,267.423309,-172.374696,-85.846209,16.438847,39.623928,23.417587,52.697793,18.863547,-57.751453,-8.492438
1732862243.5344524,262.592041,193.916595,267.435272,-172.363352,-85.848157,16.427674,39.624042,23.415353,52.697679,18.863547,-57.751453,-8.492438
1732862243.5514674,262.590027,193.91658,267.447998,-172.351377,-85.850163,16.415986,39.624271,23.412946,52.697449,18.863547,-57.751453,-8.492438
1732862243.566447,262.587799,193.916382,267.465088,-172.335277,-85.852913,16.400115,39.624501,23.409795,52.69722,18.863547,-57.751453,-8.492438
1732862243.5824494,262.572693,193.941727,267.507904,-172.504357,-85.865174,16.597671,39.624615,23.402748,52.696934,18.830544,-57.751453,-8.492438
1732862243.6014516,262.559662,193.957428,267.58313,-172.572883,-85.880988,16.685505,39.624959,23.38596,52.69659,18.8086,-57.751453,-8.492438
1732862243.613483,262.553864,193.954407,267.647888,-172.511347,-85.891358,16.62437,39.625131,23.374272,52.696246,18.8086,-57.751453,-8.492438
1732862243.6404533,262.547302,193.952454,267.725861,-172.284226,-85.902588,16.397536,39.625589,23.348489,52.695902,18.8086,-57.751453,-8.470436
1732862243.665287,262.525665,193.950043,267.989166,-171.943431,-85.945503,16.066825,39.625933,23.29675,52.695158,18.786599,-57.751453,-8.470436
1732862243.7036278,262.469879,193.982422,268.462311,-171.901319,-86.032936,16.082925,39.626277,23.234298,52.694184,18.731709,-57.751453,-8.470436
1732862243.7206266,262.419708,193.956711,269.105225,-171.306818,-86.138131,15.499883,39.626449,23.097132,52.690402,18.720708,-57.746869,-8.470436
1732862243.7356262,262.371216,193.929901,269.578613,-170.837336,-86.180244,15.038309,39.626792,23.024137,52.687136,18.720708,-57.710257,-8.470436
1732862243.7526278,262.32016,193.920609,269.923584,-170.617836,-86.173998,14.841268,39.627022,22.945585,52.682954,18.709708,-57.63245,-8.470436
1732862243.7682633,262.23407,193.967606,270.430145,-170.743657,-86.215022,15.054351,39.627365,22.842452,52.679344,18.621816,-57.563809,-8.470436
1732862243.783494,262.117523,194.041153,270.84967,-171.283384,-86.187921,15.720014,39.62748,22.738288,52.671323,18.500979,-57.421888,-8.470436
1732862243.8005347,261.981049,194.079437,271.082001,-171.824542,-86.017294,16.368545,39.627766,22.635213,52.65442,18.424088,-57.151795,-8.470436
1732862243.8165715,261.851105,194.05481,271.262177,-171.502884,-85.824379,16.097077,39.629027,22.53529,52.630471,18.413087,-56.886287,-8.437491
1732862243.8335419,261.670197,193.987274,271.514709,-171.164896,-85.639142,15.809166,39.630116,22.407921,52.587613,18.402087,-56.620778,-8.404546
1732862243.8665462,261.431305,193.85379,271.722351,-171.019709,-85.489887,15.704601,39.630746,22.276083,52.514103,18.391086,-56.4148,-8.382544
1732862243.8804042,260.804901,193.606293,272.341858,-170.866901,-85.483355,15.75187,39.631548,21.996251,52.313797,18.171414,-56.304906,-8.283709
1732862243.8944132,260.410248,193.570236,272.680939,-171.182944,-85.546953,16.28793,39.631663,21.853126,52.198575,17.907739,-56.304906,-8.195817
1732862243.912435,259.955841,193.631546,273.053284,-172.309895,-85.63685,17.746451,39.631777,21.704042,52.079801,17.512226,-56.304906,-8.107926
1732862243.9324112,259.49173,193.713913,273.545624,-174.264598,-85.754421,20.054096,39.632407,21.501444,51.93828,16.929929,-56.304906,-8.06398
1732862243.9614086,258.595123,194.024338,274.394775,-178.987317,-85.96378,25.565721,39.634298,21.191302,51.739579,16.040011,-56.304906,-7.965087
1732862243.977411,258.076782,194.12796,274.920319,179.409014,-86.070293,27.565916,39.635501,21.028353,51.614559,15.600609,-56.30038,-7.855251
1732862243.9974067,257.594788,194.051682,275.52771,178.987775,-86.166263,28.211754,39.638767,20.864602,51.512057,15.424826,-56.30038,-7.789304
1732862244.0282493,256.304749,193.654022,276.434204,-178.714589,-86.155377,26.119943,39.705116,20.386583,51.136942,15.270987,-56.172152,-7.580575
1732862244.0503268,254.98143,192.985794,277.132294,-175.9888,-86.039869,23.421655,39.784356,19.820902,50.64563,15.347878,-55.957006,-7.426736
1732862244.0723243,254.149963,192.57486,277.384796,-175.071723,-85.838188,22.542509,39.821713,19.440515,50.295954,15.369879,-55.632025,-7.360846
1732862244.1006765,252.445755,191.519455,277.743286,-174.23658,-85.215726,21.825739,39.843485,18.930239,49.867153,15.369879,-55.073563,-7.283955
1732862244.1356807,250.465393,190.482574,278.457153,-173.013544,-84.729171,20.978277,39.863481,17.97317,49.01419,14.875474,-54.364012,-6.888442
1732862244.177445,248.499435,189.602829,279.447845,-173.49523,-84.722524,21.974307,39.884108,16.938179,48.105193,13.820773,-54.290788,-6.624767
1732862244.204697,244.811295,188.314148,281.516602,-177.091342,-84.987288,26.818722,39.895739,16.153857,47.444916,12.941913,-54.245008,-6.350091
1732862244.2196987,243.534698,187.944214,282.296356,-177.73529,-85.077185,27.927854,39.908401,15.703283,47.073468,12.392561,-54.208396,-6.141363
1732862244.234274,242.137909,187.604355,282.839264,-179.194728,-85.135054,29.928966,39.926277,15.270528,46.667928,11.755375,-54.185478,-5.943578
1732862244.2532587,240.758957,187.310944,283.691437,179.335962,-85.198137,31.907217,39.969937,14.678377,46.202113,11.008295,-54.066475,-5.734849
1732862244.2811315,238.030548,186.996063,284.764923,178.418255,-85.125887,33.72676,40.118677,13.861339,45.515137,10.15138,-53.768938,-5.361338
1732862244.3141313,236.33223,186.849136,285.156128,178.312487,-85.035703,34.3789,40.330786,12.878487,44.686984,9.019788,-53.52629,-4.855932
1732862244.3283515,232.74527,186.844116,286.589417,176.965062,-85.058679,36.98265,40.432199,12.515633,44.384863,8.503439,-53.434732,-4.647203
1732862244.3473504,230.779861,186.835251,286.845215,176.605818,-84.968381,37.961605,40.583059,12.053199,43.928502,7.932142,-53.311145,-4.383528
1732862244.3880844,226.53891,187.097397,288.174957,177.284544,-85.139981,38.694189,41.087778,10.607282,42.691085,6.04247,-53.269949,-3.273938
1732862244.4133098,222.525726,187.481827,288.995056,178.171425,-85.215497,39.241478,41.425937,9.847941,41.983712,4.855932,-53.256198,-2.636694
1732862244.455912,217.547958,188.392181,289.985138,176.533339,-85.335532,42.791639,41.792745,9.123952,41.280578,3.515612,-53.256198,-2.043454
1732862244.4817903,209.555191,190.308105,290.62442,173.953252,-85.36481,48.449311,42.700997,7.773605,39.91224,0.823971,-53.306561,-0.81297
1732862244.5088217,207.479584,190.749786,290.457581,173.388774,-85.289122,49.771297,43.333829,7.059699,39.107807,-0.604241,-53.315728,-0.076891
1732862244.5288234,201.751358,192.347778,290.118378,175.652817,-85.178713,49.535123,43.81328,6.623449,38.52849,-1.538105,-53.375259,0.626243
1732862244.5438166,198.965164,193.160873,290.04245,178.253988,-85.217159,47.813844,44.135512,6.350435,38.205972,-1.966563,-53.462233,1.010755
1732862244.5598173,196.270493,193.860321,289.756012,-179.313788,-85.268381,46.225605,44.531884,6.042929,37.767029,-2.526858,-53.659045,1.505103
1732862244.5768564,193.494186,194.794632,289.636169,-177.594113,-85.376097,45.406275,44.978333,5.748829,37.374037,-3.087154,-53.887941,1.933618
1732862244.590834,190.689728,195.834335,289.316895,-176.883473,-85.474474,45.710172,45.423865,5.51787,36.995369,-3.779287,-54.162617,2.340074
1732862244.609076,187.961761,196.98613,289.322235,-175.867504,-85.803982,45.644339,45.899248,5.31023,36.664887,-4.339582,-54.643271,2.68064
1732862244.6386275,185.411255,198.035309,288.996582,-174.796073,-86.080778,45.517887,46.435708,5.154787,36.27138,-5.097663,-55.297876,3.120099
1732862244.6525943,180.618378,200.475998,288.950745,-175.331388,-86.969092,47.998794,47.300187,5.01722,35.816394,-6.350091,-56.602501,3.570558
1732862244.6686583,177.925171,202.079803,288.867584,-178.046979,-87.491859,51.836867,47.699539,5.012063,35.667883,-6.833496,-57.156379,3.680394
1732862244.6866677,175.489975,203.569733,288.897675,177.990771,-88.007062,56.847898,48.287565,5.011662,35.479667,-7.61352,-57.984933,3.856178
1732862244.7006855,172.864868,205.313507,288.736511,174.674033,-88.197571,61.300926,48.700954,5.011662,35.398937,-8.140871,-58.227523,4.053963
1732862244.7156413,170.199646,207.170593,288.534454,175.085646,-88.223125,62.102724,49.240623,5.011662,35.3315,-8.920896,-58.378612,4.449476
1732862244.732668,167.653458,209.018921,288.333893,179.374751,-88.156891,58.824316,49.814555,5.011662,35.29632,-9.437245,-58.383196,4.833988
1732862244.7486756,165.371094,210.714447,288.245148,-175.048175,-88.106069,54.106353,50.495687,5.011662,35.285033,-9.909649,-58.383196,5.284447
1732862244.7886674,162.654724,212.73494,288.199768,-170.118732,-88.050722,50.138505,51.603558,5.011662,35.284345,-10.459001,-58.383196,5.921633
1732862244.8223116,155.025558,218.136673,288.045532,-158.911964,-87.811684,41.533367,53.310285,5.011948,35.28383,-11.42581,-58.35111,6.602766
1732862244.857278,149.602814,221.712173,287.90863,-160.856927,-87.721385,45.374648,54.404405,5.011948,35.282913,-12.08494,-58.319082,6.899386
1732862244.8722785,144.289703,225.03624,287.807617,-161.499957,-87.648276,47.831433,55.295813,5.01298,35.282569,-12.590346,-58.319082,7.163061
1732862244.8880987,141.664734,226.636246,287.772003,-160.031352,-87.602898,47.144457,55.921082,5.013037,35.281481,-12.777073,-58.319082,7.327901
1732862244.913172,137.684433,228.987976,287.721405,-159.30381,-87.554827,47.596865,57.038923,5.013954,35.281251,-13.095695,-58.319082,7.54763
1732862244.9376063,132.449234,231.971024,287.631805,-157.005275,-87.449746,46.688669,58.128574,5.015042,35.279647,-13.216532,-58.28247,7.723414
1732862244.9511824,129.339127,233.674911,287.535767,-157.131383,-87.39033,47.638347,58.873763,5.02186,35.279074,-13.315425,-58.245858,7.789304
1732862244.9680705,126.135635,235.367401,287.338013,-157.382969,-87.244513,48.69935,59.644219,5.028908,35.274892,-13.381372,-58.126855,7.866195
1732862244.9837778,123.031639,236.9561,287.181244,-157.580411,-87.132213,49.665529,60.388892,5.034064,35.270709,-13.425318,-58.035296,7.921142
1732862245.0147228,119.698753,238.615616,286.989532,-158.02325,-87.013783,50.898763,61.19321,5.044836,35.265781,-13.425318,-57.93457,7.943143
1732862245.0467212,113.201431,241.620209,286.594818,-157.289061,-86.736987,51.716431,62.728966,5.054233,35.240629,-13.480207,-57.737759,8.107926
1732862245.0651162,107.133415,244.111206,286.160187,-159.552875,-86.573636,55.566593,64.461935,5.066322,35.165686,-13.864719,-57.600421,8.184817
1732862245.0853276,103.77536,245.329788,285.781464,-161.274613,-86.44919,58.17103,65.002463,5.068213,35.113088,-13.996557,-57.545475,8.217762
1732862245.1112804,96.572945,247.615463,284.847046,-164.14559,-86.208433,62.939356,66.365759,5.080302,34.959249,-14.381126,-57.513446,8.261708
1732862245.1396503,89.340576,249.352509,283.425964,-165.415379,-85.864544,65.984169,67.904322,5.098007,34.666926,-14.666746,-57.499695,8.338599
1732862245.15366,86.513451,249.966248,282.889709,-165.27277,-85.735514,66.467459,68.705546,5.100069,34.502258,-14.688747,-57.499695,8.371601
1732862245.1675305,83.079704,250.562119,282.069672,-165.037628,-85.537958,66.981574,69.265269,5.10471,34.365206,-14.688747,-57.499695,8.393545
1732862245.1835763,79.31266,251.185486,281.188477,-165.155428,-85.334042,67.916068,70.083739,5.114221,34.173495,-14.688747,-57.499695,8.393545
1732862245.2145586,75.858101,251.677505,280.36734,-165.228824,-85.149836,68.736945,70.831736,5.120295,33.98906,-14.688747,-57.508863,8.393545
1732862245.2356405,68.610405,252.719803,278.687195,-165.349317,-84.777299,70.437311,72.598737,5.183148,33.603688,-14.688747,-57.540891,8.393545
1732862245.2766004,62.300442,253.702972,277.33197,-165.029836,-84.587535,71.523525,73.980081,5.309027,33.397882,-14.688747,-57.724008,8.393545
1732862245.3049893,55.105637,254.819107,275.926544,-165.641067,-84.565247,73.769863,75.565627,5.50876,33.197518,-14.688747,-58.099353,8.239763
1732862245.3229458,47.983395,256.002625,274.626953,-165.38358,-84.446244,75.093625,76.967369,5.718692,33.103897,-14.644801,-58.296221,8.206761
1732862245.344952,44.728321,256.609589,274.173859,-164.859324,-84.411867,75.212342,77.722011,5.827382,33.090375,-14.501963,-58.383196,8.173816
1732862245.3699453,37.978561,257.870361,273.028015,-162.938655,-84.229322,74.453173,79.336778,6.110022,33.088427,-13.963612,-58.488448,8.107926
1732862245.4019692,34.532097,258.46405,272.438416,-161.939817,-84.153577,73.981571,80.953092,6.456776,33.088198,-13.194588,-58.575423,7.932142
1732862245.4156597,28.696407,259.390045,271.034027,-160.471441,-83.911445,73.416062,81.593487,6.603682,33.088083,-12.985859,-58.662398,7.921142
1732862245.4316196,25.411139,259.876465,269.991119,-159.850985,-83.73125,73.294938,82.390987,6.853607,33.087969,-12.634292,-58.731096,7.844251
1732862245.447669,21.851585,260.33786,268.894775,-158.952014,-83.528709,72.973165,83.24034,7.116193,33.087969,-12.315671,-58.808904,7.822249
1732862245.475289,18.506342,260.750916,267.575897,-158.232265,-83.254721,72.748451,84.723269,7.647783,33.08774,-11.700428,-58.87296,7.756359
1732862245.4929843,11.391041,261.450104,264.647675,-157.145421,-82.631056,72.778245,85.747718,8.0877,33.087396,-11.293972,-58.937074,7.756359
1732862245.5140173,7.76225,261.756134,263.010834,-156.121946,-82.309627,72.246368,86.835249,8.562969,33.087396,-10.733619,-59.097273,7.756359
1732862245.5460854,1.648141,262.180634,260.309448,-153.721769,-81.903515,70.594073,88.14165,9.169731,33.087396,-9.953595,-59.445173,7.756359
1732862245.5710852,-5.229328,262.462341,256.996887,-151.50998,-81.432543,69.245502,89.826776,10.021834,33.087396,-8.997787,-59.96244,7.756359
1732862245.5861208,-8.370753,262.527985,255.391159,-150.482609,-81.219804,68.585741,90.602504,10.440723,33.087396,-8.525383,-60.241699,7.756359
1732862245.6043274,-11.851494,262.529968,253.733337,-149.509383,-81.002997,68.044124,91.454263,10.873364,33.087396,-8.041978,-60.534653,7.756359
1732862245.6223335,-14.125049,262.526306,252.562775,-148.534152,-80.908172,67.316353,92.207129,11.302395,33.087396,-7.569575,-60.928332,7.756359
1732862245.64735,-20.338949,262.346527,249.321426,-146.915489,-80.553454,66.36404,93.570883,12.065403,33.087396,-6.657712,-61.495961,7.701412
1732862245.6653216,-23.064356,262.223999,247.904617,-146.079944,-80.462067,65.759111,94.509675,12.571553,33.087396,-5.987524,-61.967448,7.61352
1732862245.6811645,-26.029379,262.049255,246.282043,-145.423163,-80.381624,65.333461,95.037541,12.917964,33.087396,-5.504176,-62.297071,7.514628
1732862245.700874,-28.489685,261.857697,244.774796,-145.079216,-80.227785,65.159854,96.072016,13.553718,33.087396,-4.757097,-62.672415,7.426736
1732862245.7330048,-33.8297,261.27951,241.36264,-145.239014,-79.758132,65.773607,97.398413,14.3821,33.087396,-3.702396,-63.056927,7.294899
1732862245.762907,-38.849617,260.57486,237.826508,-145.251848,-79.177725,66.100594,98.577904,15.106548,33.087396,-2.735587,-63.38655,7.207007
1732862245.7749012,-41.08844,260.202789,235.907639,-145.562048,-78.86277,66.421794,99.005732,15.452041,33.087396,-2.241239,-63.482692,7.152118
1732862245.7889328,-42.681793,259.915009,234.602005,-145.611895,-78.623331,66.473532,99.620286,15.864571,33.087396,-1.625997,-63.62914,7.108172
1732862245.8069038,-45.701405,259.327362,232.177826,-146.065047,-78.303678,66.978938,100.301247,16.344481,33.087396,-0.922863,-63.839702,6.976334
1732862245.8213384,-46.868073,259.062714,230.798294,-146.088367,-78.041894,66.751359,100.839541,16.775001,33.087396,-0.021944,-63.958763,6.910387
1732862245.8367212,-48.951416,258.557465,228.666443,-146.36522,-77.621801,66.943472,101.480623,17.265338,33.087854,0.637186,-64.077766,6.910387
1732862245.8527093,-50.987141,258.055878,226.832733,-146.436095,-77.367694,67.001455,101.912805,17.60218,33.087969,1.120591,-64.265467,6.877442
1732862245.8687081,-52.574802,257.602875,224.798904,-146.616118,-77.114676,67.038354,102.532001,18.216849,33.087969,1.933618,-64.608784,6.811551
1732862245.8844266,-54.35244,257.1138,223.073074,-146.56226,-76.969489,67.038067,102.913648,18.557014,33.088313,2.252183,-64.874292,6.811551
1732862245.9004593,-56.474766,256.509705,221.107681,-146.817857,-76.884347,67.581862,103.449363,19.079724,33.088427,2.504857,-65.295416,6.767606
1732862245.9444041,-57.918243,256.072418,219.530334,-146.715526,-76.930929,67.570345,104.310118,20.052262,33.092037,2.944316,-66.329949,6.690657
1732862245.9634051,-63.8703,254.247589,214.544922,-146.399368,-77.275448,68.640688,105.210464,21.047146,33.093355,2.812478,-67.639157,6.635768
1732862245.9794035,-65.600342,253.679428,213.170151,-146.083497,-77.53093,68.747659,105.608039,21.511357,33.094214,2.801534,-68.353292,6.569821
1732862246.000444,-67.58799,252.954025,211.39856,-146.257504,-77.566797,69.414238,106.169652,22.128318,33.095876,2.724586,-68.984978,6.547876
1732862246.0524325,-71.67527,251.313263,207.634109,-147.761174,-77.225314,72.048583,106.963084,22.942663,33.097308,2.482913,-69.328294,6.547876
1732862246.0724304,-76.336746,249.102722,202.426224,-149.153003,-76.541718,74.218489,108.168989,24.197497,33.099715,2.856424,-69.836451,6.635768
1732862246.088432,-78.074348,248.258484,200.673431,-149.434154,-76.39676,74.757356,108.634803,24.649275,33.101262,3.054209,-70.129404,6.646711
1732862246.1039863,-79.235077,247.579849,198.952454,-149.282721,-76.399911,74.595037,109.014789,25.14706,33.102923,3.449722,-70.64667,6.646711
1732862246.1529937,-80.537094,246.920059,197.415161,-149.131346,-76.414464,74.478096,110.210896,26.554588,33.202675,4.306637,-71.97874,6.646711
1732862246.173998,-84.451218,245.091461,192.693771,-148.992461,-76.441737,74.595896,110.575984,27.042061,33.25682,4.724094,-72.459394,6.646711
1732862246.2067523,-86.478477,244.265549,190.132721,-148.855008,-76.332073,74.255846,111.355894,27.932495,33.42567,5.74585,-73.072803,6.72366
1732862246.2354152,-89.170425,243.573425,187.345123,-148.894198,-76.112344,74.253611,112.052955,28.710571,33.672672,6.416039,-73.443621,6.800551
1732862246.258502,-91.623428,243.466965,184.772278,-148.368624,-76.015285,73.432219,112.793102,29.655837,34.094197,7.437737,-73.95172,6.943332
1732862246.273672,-92.691605,243.659317,183.904266,-148.145858,-75.927107,73.167627,113.147533,30.124517,34.401933,7.800305,-74.043279,7.064226
1732862246.2899272,-94.381477,243.803909,182.463455,-148.196164,-75.768569,73.363292,113.513252,30.661092,34.737228,7.965087,-74.107335,7.130116
1732862246.3081334,-96.083282,244.280853,181.338821,-148.066561,-75.71093,73.445168,113.8309,31.165123,35.144257,8.06398,-74.189784,7.196063
1732862246.337197,-99.638069,245.660172,179.0,-147.718833,-75.566487,73.44236,114.466139,32.259472,36.115134,8.349599,-74.249257,7.349845
1732862246.3583953,-101.507652,246.455612,177.718216,-147.591407,-75.472235,73.468029,114.868126,32.990165,36.77902,8.558328,-74.249257,7.448738
1732862246.3810277,-104.881821,248.28186,175.972672,-147.178362,-75.451666,73.374923,115.321049,33.878307,37.67123,8.712167,-74.249257,7.492684
1732862246.4026144,-106.739288,249.297638,174.710083,-147.223339,-75.429435,73.628629,115.642192,34.594103,38.446098,8.81106,-74.249257,7.492684
1732862246.4375777,-110.088821,251.479477,172.164505,-147.022002,-75.31811,73.622326,116.191085,35.965707,39.782064,9.129624,-74.212645,7.60252
1732862246.4571955,-112.867271,253.262512,169.750183,-147.075115,-75.245631,73.839134,116.465303,36.754211,40.453284,9.316408,-74.208061,7.60252
1732862246.4721882,-114.326813,254.206085,168.37207,-147.189191,-75.196127,74.026491,116.620002,37.198597,40.873549,9.4043,-74.198894,7.60252
1732862246.487059,-115.727448,254.834229,166.695114,-147.447537,-75.082108,74.399429,116.835204,37.814699,41.357469,9.492192,-74.198894,7.624521
1732862246.5030994,-116.891258,255.595139,165.255707,-147.619654,-75.009515,74.65176,116.988929,38.373505,41.831018,9.558082,-74.198894,7.635522
1732862246.527394,-118.184425,256.06897,163.029404,-148.22315,-74.829835,75.397579,117.184766,39.092452,42.31173,9.591084,-74.198894,7.635522
1732862246.5520449,-119.788399,256.85672,160.222122,-148.563373,-74.583291,75.900349,117.403292,40.026832,42.974012,9.613029,-74.212645,7.734357
1732862246.5690446,-120.739326,257.338043,158.826599,-148.574832,-74.469215,76.018608,117.567559,40.636344,43.42894,9.613029,-74.226396,7.811306
1732862246.5840406,-121.550636,257.597137,157.230331,-148.912419,-74.356973,76.461275,117.647945,41.017017,43.670098,9.613029,-74.263008,7.822249
1732862246.6060543,-122.694572,257.996277,155.60614,-149.203195,-74.270686,76.906349,117.846188,41.669845,44.146169,9.613029,-74.290453,7.822249
1732862246.633046,-123.700478,258.239075,153.11441,-149.861237,-74.04345,77.457362,118.027644,42.299755,44.518591,9.909649,-74.290453,7.822249
1732862246.661051,-124.335968,258.156342,151.666809,-150.263625,-73.88921,77.855625,118.173863,42.696586,44.723596,10.041486,-74.290453,7.83325
1732862246.6830442,-125.1633,257.815765,148.768036,-151.103466,-73.534492,78.696498,118.385055,43.435128,45.031217,10.206326,-74.290453,7.877196
1732862246.7121577,-125.675407,257.180481,145.930923,-151.738132,-73.09658,79.418253,118.536087,44.094717,45.213818,10.206326,-74.290453,8.020034
1732862246.7292526,-125.780647,256.835999,144.667099,-151.834446,-72.866882,79.571462,118.585762,44.433335,45.270255,10.107434,-74.317955,8.184817
1732862246.7572372,-125.899849,256.309387,143.236603,-151.99602,-72.645605,79.941249,118.605128,44.683947,45.279938,9.93165,-74.377428,8.272708
1732862246.7722237,-125.921432,255.744949,141.752853,-152.258607,-72.436247,80.437258,118.61103,44.999647,45.280568,9.667975,-74.468986,8.3606
1732862246.7872238,-125.945145,255.493057,141.115479,-152.052571,-72.310711,80.345299,118.611144,45.139391,45.280568,9.525137,-74.528517,8.503439
1732862246.8062296,-125.880531,255.288757,140.522736,-151.76168,-72.163805,80.064664,118.611144,45.283777,45.280568,9.47019,-74.597157,8.690165
1732862246.8182402,-125.87751,255.226883,140.392349,-151.556676,-72.227804,79.893923,118.611144,45.322337,45.280568,9.448246,-74.711634,8.712167
1732862246.848228,-125.88871,255.216507,140.422028,-151.330472,-72.358267,79.701065,118.611144,45.353964,45.280568,9.415301,-74.954224,8.712167
1732862246.8642347,-125.965179,255.291214,140.782349,-150.750925,-72.658726,79.193711,118.611144,45.354308,45.281026,9.382298,-75.23801,8.712167
1732862246.879225,-126.029282,255.362778,141.110382,-150.057417,-72.899999,78.551368,118.611144,45.354308,45.282344,9.349353,-75.549298,8.767114
1732862246.896621,-126.068718,255.434799,141.427383,-149.456614,-73.147287,77.983452,118.611144,45.354308,45.282803,9.338353,-75.851419,8.789058
1732862246.9122908,-126.101692,255.488449,141.676651,-148.801207,-73.309835,77.348959,118.611259,45.354308,45.282917,9.327409,-76.089483,8.865949
1732862246.930526,-126.118492,255.532394,141.864578,-148.120075,-73.397441,76.667654,118.611259,45.354308,45.283318,9.327409,-76.268016,8.986843
1732862246.9575434,-126.133934,255.571518,142.037704,-147.490108,-73.47691,76.038146,118.611374,45.354308,45.283547,9.327409,-76.432799,9.096679
1732862246.9815524,-126.141342,255.591019,142.124222,-147.079297,-73.497995,75.623553,118.611374,45.354308,45.283662,9.327409,-76.51519,9.228517
1732862247.007543,-126.141335,255.590927,142.123856,-146.707333,-73.426031,75.235546,118.611374,45.354308,45.283662,9.327409,-76.51519,9.327409
1732862247.0341296,-126.141327,255.590897,142.123734,-146.58409,-73.401852,75.106975,118.611374,45.354308,45.283662,9.327409,-76.51519,9.360354
1732862247.051134,-126.141327,255.590897,142.123734,-146.58409,-73.401852,75.106975,118.611374,45.354308,45.283662,9.327409,-76.51519,9.360354
1732862247.0651364,-126.140533,255.58876,142.11409,-146.571485,-73.388273,75.092192,118.611374,45.354308,45.283662,9.327409,-76.506023,9.371355
1732862247.0801296,-126.139336,255.585571,142.099609,-146.537279,-73.364839,75.054148,118.611374,45.354308,45.283662,9.327409,-76.492329,9.393299
1732862247.097128,-126.137337,255.580231,142.075531,-146.521236,-73.3339,75.033464,118.611374,45.354308,45.283662,9.327409,-76.460244,9.415301
1732862247.1121418,-126.134132,255.571716,142.037094,-146.593544,-73.303705,75.102563,118.611374,45.354308,45.283662,9.327409,-76.432799,9.415301
1732862247.1309443,-126.130516,255.562073,141.993805,-146.61354,-73.257639,75.116257,118.611374,45.354308,45.283662,9.327409,-76.391603,9.437245
1732862247.1624508,-126.128906,255.55777,141.974472,-146.527711,-73.218391,75.023437,118.611374,45.354308,45.283662,9.327409,-76.373269,9.481191
1732862247.188443,-126.128906,255.557755,141.974442,-146.497344,-73.212318,74.991696,118.611374,45.354308,45.283662,9.327409,-76.373269,9.492192
1732862247.2027886,-126.128906,255.557739,141.97438,-146.436611,-73.200171,74.928269,118.611374,45.354308,45.283662,9.327409,-76.373269,9.514136
1732862247.2187788,-126.182785,255.538483,141.973755,-146.315373,-73.17519,74.856535,118.611374,45.354308,45.283662,9.272462,-76.373269,9.558082
1732862247.2347808,-126.268951,255.507599,141.9729,-146.284949,-73.168143,74.912685,118.611374,45.354308,45.283662,9.184571,-76.373269,9.569083
1732862247.2597904,-126.344315,255.480469,141.972153,-146.254582,-73.161153,74.957834,118.611374,45.354308,45.283662,9.063734,-76.373269,9.580084
1732862247.27833,-126.537933,255.410263,141.970306,-146.254124,-73.158861,75.15516,118.611374,45.354308,45.283662,8.909895,-76.373269,9.580084
1732862247.2943304,-126.666878,255.363083,141.96907,-146.25378,-73.157371,75.286654,118.611374,45.354308,45.283662,8.778057,-76.373269,9.580084
1732862247.3093233,-126.784981,255.319565,141.967957,-146.253436,-73.155996,75.407205,118.611374,45.354308,45.283662,8.65722,-76.373269,9.580084
1732862247.3263285,-126.902153,255.273682,141.95723,-146.271198,-73.147115,75.544944,118.611374,45.354308,45.283662,8.536384,-76.364159,9.580084
1732862247.3443265,-126.964386,255.24437,141.932602,-146.31606,-73.127577,75.653691,118.611374,45.354308,45.283662,8.470436,-76.34124,9.580084
1732862247.3599658,-126.964386,255.24437,141.932602,-146.31606,-73.127577,75.653691,118.611374,45.354308,45.283662,8.470436,-76.34124,9.580084
1732862247.3739758,-126.964386,255.24437,141.932602,-146.31606,-73.127577,75.653691,118.611374,45.354308,45.283662,8.470436,-76.34124,9.580084
1732862247.3949938,-126.964386,255.24437,141.932602,-146.31606,-73.127577,75.653691,118.611374,45.354308,45.283662,8.470436,-76.34124,9.580084
1732862247.4206405,-126.964386,255.24437,141.932602,-146.31606,-73.127577,75.653691,118.611374,45.354308,45.283662,8.470436,-76.34124,9.580084
1732862247.4376826,-126.964386,255.24437,141.932602,-146.31606,-73.127577,75.653691,118.611374,45.354308,45.283662,8.470436,-76.34124,9.580084
1732862247.451637,-126.964386,255.24437,141.932602,-146.31606,-73.127577,75.653691,118.611374,45.354308,45.283662,8.470436,-76.34124,9.580084
1732862247.4677172,-126.964386,255.24437,141.932602,-146.31606,-73.127577,75.653691,118.611374,45.354308,45.283662,8.470436,-76.34124,9.580084
1732862247.4847243,-126.964386,255.24437,141.932602,-146.31606,-73.127577,75.653691,118.611374,45.354308,45.283662,8.470436,-76.34124,9.580084
1732862247.4997191,-126.964386,255.24437,141.932602,-146.31606,-73.127577,75.653691,118.611374,45.354308,45.283662,8.470436,-76.34124,9.580084
1732862247.51673,-126.964386,255.24437,141.932602,-146.31606,-73.127577,75.653691,118.611374,45.354308,45.283662,8.470436,-76.34124,9.580084
1732862247.5347288,-126.964386,255.24437,141.932602,-146.31606,-73.127577,75.653691,118.611374,45.354308,45.283662,8.470436,-76.34124,9.580084
1732862247.5547938,-126.964386,255.24437,141.932602,-146.31606,-73.127577,75.653691,118.611374,45.354308,45.283662,8.470436,-76.34124,9.580084
1732862247.580653,-126.964386,255.24437,141.932602,-146.31606,-73.127577,75.653691,118.611374,45.354308,45.283662,8.470436,-76.34124,9.580084
1732862247.595651,-126.964386,255.24437,141.932602,-146.31606,-73.127577,75.653691,118.611374,45.354308,45.283662,8.470436,-76.34124,9.580084
1732862247.6226652,-126.964386,255.24437,141.932602,-146.31606,-73.127577,75.653691,118.611374,45.354308,45.283662,8.470436,-76.34124,9.580084
1732862247.6527286,-126.964386,255.24437,141.932602,-146.31606,-73.127577,75.653691,118.611374,45.354308,45.283662,8.470436,-76.34124,9.580084
1732862247.6817026,-126.964386,255.24437,141.932602,-146.31606,-73.127577,75.653691,118.611374,45.354308,45.283662,8.470436,-76.34124,9.580084
1732862247.7058449,-126.964386,255.24437,141.932602,-146.31606,-73.127577,75.653691,118.611374,45.354308,45.283662,8.470436,-76.34124,9.580084
1732862247.7228427,-126.964386,255.24437,141.932602,-146.31606,-73.127577,75.653691,118.611374,45.354308,45.283662,8.470436,-76.34124,9.580084
1732862247.7348392,-126.964386,255.24437,141.932602,-146.31606,-73.127577,75.653691,118.611374,45.354308,45.283662,8.470436,-76.34124,9.580084
1732862247.7608333,-126.964386,255.24437,141.932602,-146.31606,-73.127577,75.653691,118.611374,45.354308,45.283662,8.470436,-76.34124,9.580084
1732862247.7838366,-126.964386,255.24437,141.932602,-146.31606,-73.127577,75.653691,118.611374,45.354308,45.283662,8.470436,-76.34124,9.580084
1732862247.8198373,-126.964386,255.24437,141.932602,-146.31606,-73.127577,75.653691,118.611374,45.354308,45.283662,8.470436,-76.34124,9.580084
1732862247.839836,-126.964386,255.24437,141.932602,-146.31606,-73.127577,75.653691,118.611374,45.354308,45.283662,8.470436,-76.34124,9.580084
1732862247.8638384,-126.964386,255.24437,141.932602,-146.31606,-73.127577,75.653691,118.611374,45.354308,45.283662,8.470436,-76.34124,9.580084
1732862247.8838353,-126.964386,255.24437,141.932602,-146.31606,-73.127577,75.653691,118.611374,45.354308,45.283662,8.470436,-76.34124,9.580084
1732862247.9108374,-126.964386,255.24437,141.932602,-146.31606,-73.127577,75.653691,118.611374,45.354308,45.283662,8.470436,-76.34124,9.580084
1732862247.937832,-126.964386,255.24437,141.932602,-146.31606,-73.127577,75.653691,118.611374,45.354308,45.283662,8.470436,-76.34124,9.580084
1732862247.953833,-126.964386,255.24437,141.932602,-146.31606,-73.127577,75.653691,118.611374,45.354308,45.283662,8.470436,-76.34124,9.580084
1732862247.9887707,-126.964386,255.24437,141.932602,-146.31606,-73.127577,75.653691,118.611374,45.354308,45.283662,8.470436,-76.34124,9.580084
1732862248.021761,-126.964386,255.24437,141.932602,-146.31606,-73.127577,75.653691,118.611374,45.354308,45.283662,8.470436,-76.34124,9.580084
1732862248.061767,-126.964386,255.24437,141.932602,-146.31606,-73.127577,75.653691,118.611374,45.354308,45.283662,8.470436,-76.34124,9.580084
1732862248.0842798,-126.964386,255.24437,141.932602,-146.31606,-73.127577,75.653691,118.611374,45.354308,45.283662,8.470436,-76.34124,9.580084
1732862248.1092849,-126.964386,255.24437,141.932602,-146.31606,-73.127577,75.653691,118.611374,45.354308,45.283662,8.470436,-76.34124,9.580084
1732862248.1234481,-126.964386,255.24437,141.932602,-146.31606,-73.127577,75.653691,118.611374,45.354308,45.283662,8.470436,-76.34124,9.580084
1732862248.139064,-126.964386,255.24437,141.932602,-146.31606,-73.127577,75.653691,118.611374,45.354308,45.283662,8.470436,-76.34124,9.580084
1732862248.1630764,-126.964386,255.24437,141.932602,-146.31606,-73.127577,75.653691,118.611374,45.354308,45.283662,8.470436,-76.34124,9.580084
1732862248.1867118,-126.883881,255.276352,142.012329,-146.065506,-73.17794,75.328652,118.610571,45.354308,45.278849,8.547384,-76.428215,9.613029
1732862248.202718,-126.876801,255.25824,141.930695,-146.219288,-73.11417,75.475558,118.610571,45.354308,45.278849,8.547384,-76.350408,9.613029
1732862248.2197032,-126.875137,255.254013,141.911697,-146.466347,-73.141729,75.730467,118.610571,45.354308,45.278849,8.547384,-76.332073,9.536138
1732862248.256814,-126.875137,255.254028,141.911789,-146.557161,-73.159892,75.825292,118.610571,45.354308,45.278849,8.547384,-76.332073,9.503193
1732862248.2818153,-126.875443,255.254684,141.91394,-147.074542,-73.262337,76.365763,118.610571,45.353964,45.278849,8.547384,-76.332073,9.316408
1732862248.3008132,-126.875549,255.254959,141.914917,-147.505807,-73.345473,76.816051,118.610571,45.353849,45.278849,8.547384,-76.332073,9.162626
1732862248.3118103,-126.875557,255.25499,141.91507,-147.660964,-73.374923,76.978026,118.610571,45.353849,45.278849,8.547384,-76.332073,9.10768
1732862248.3388624,-126.875557,255.255035,141.915222,-147.816751,-73.404259,77.140517,118.610571,45.353849,45.278849,8.547384,-76.332073,9.052733
1732862248.3587024,-126.897125,255.247391,141.916229,-148.508254,-73.53157,77.883872,118.610571,45.353735,45.278849,8.525383,-76.332073,8.81106
1732862248.3960958,-126.897163,255.247604,141.917053,-149.37216,-73.68455,78.78439,118.610571,45.353677,45.278849,8.525383,-76.332073,8.195817
1732862248.4210885,-126.897491,255.248596,141.920776,-152.266972,-74.150765,81.797002,118.610571,45.353563,45.278849,8.525383,-76.332073,7.558574
1732862248.4371305,-126.897545,255.248795,141.921661,-153.269763,-74.296469,82.83904,118.610571,45.353563,45.278849,8.525383,-76.332073,7.240009
1732862248.453094,-126.779648,255.292877,141.924057,-154.756473,-74.499983,84.261637,118.610571,45.353563,45.278849,8.690165,-76.332073,6.646711
1732862248.4680908,-126.608002,255.356491,141.927353,-156.762284,-74.749965,86.165977,118.610571,45.353563,45.278849,8.822003,-76.332073,6.174308
1732862248.484103,-126.479179,255.403946,141.930222,-158.794393,-74.97571,88.139129,118.610571,45.353563,45.278849,8.953841,-76.332073,5.581067
1732862248.5000913,-126.371803,255.443359,141.933075,-161.121863,-75.202773,90.437664,118.610571,45.353563,45.278849,9.063734,-76.332073,4.921879
1732862248.5195973,-126.294662,255.465637,141.911835,-163.868107,-75.40646,93.197773,118.610571,45.353563,45.278849,9.140625,-76.309212,4.1748
1732862248.5326574,-126.217918,255.490311,141.900787,-167.469949,-75.630486,96.839665,118.610457,45.353563,45.278849,9.217516,-76.295461,3.218991
1732862248.5486655,-126.164406,255.510117,141.903763,-170.904659,-75.797905,100.328806,118.610457,45.353563,45.278849,9.272462,-76.295461,2.329073
1732862248.5826674,-126.154076,255.514557,141.906708,-174.974664,-75.924872,104.514778,118.610457,45.353563,45.278849,9.283463,-76.295461,0.362568
1732862248.5996633,-126.155052,255.515625,141.912064,177.2092,-75.962744,112.57131,118.610457,45.353563,45.278849,9.283463,-76.295461,-0.889918
1732862248.6296608,-126.285553,255.470505,141.91687,169.290923,-75.724509,120.86877,118.610457,45.353448,45.278849,9.151626,-76.295461,-2.669697
1732862248.6556625,-126.523361,255.38562,141.919342,162.776049,-75.302869,127.83926,118.610457,45.353448,45.278849,8.909895,-76.295461,-4.40553
1732862248.6706731,-126.674377,255.330933,141.920166,159.795236,-75.033808,131.07693,118.610457,45.353448,45.278849,8.756113,-76.295461,-5.240501
1732862248.6866603,-126.921677,255.239899,141.919724,157.378099,-74.775519,133.833716,118.610457,45.353448,45.278849,8.503439,-76.295461,-5.943578
1732862248.7026753,-127.243324,255.119324,141.917969,155.771984,-74.581515,135.829443,118.610457,45.353448,45.278849,8.173816,-76.295461,-6.426982
1732862248.7186635,-127.660301,254.959732,141.915329,154.211476,-74.375021,137.878741,118.610457,45.353448,45.278849,7.745358,-76.295461,-6.910387
1732862248.7336597,-128.044312,254.809723,141.913391,152.246804,-74.091121,140.316791,118.610457,45.353448,45.278849,7.349845,-76.295461,-7.53663
1732862248.7496607,-128.321198,254.700134,141.912186,150.977759,-73.891502,141.923537,118.610457,45.353448,45.278964,6.954333,-76.295461,-8.140871
1732862248.7656589,-128.693054,254.550293,141.910599,149.196892,-73.588751,144.16426,118.610457,45.353334,45.279078,6.580821,-76.295461,-8.701166
1732862248.796143,-129.074249,254.393265,141.908997,147.699811,-73.311554,146.122744,118.610457,45.353334,45.279136,6.141363,-76.295461,-9.294407
1732862248.8322244,-129.981461,254.008911,141.907043,143.695924,-72.460712,151.259655,118.610457,45.352875,45.279365,5.185555,-76.295461,-10.799567
1732862248.8765554,-131.30986,253.413086,141.905777,136.598009,-70.455646,160.144225,118.610457,45.352532,45.279594,3.94407,-76.295461,-13.710937
1732862248.889784,-131.963898,253.105667,141.906433,133.141526,-69.170502,164.521393,118.610457,45.352245,45.279823,3.186046,-76.295461,-15.776393
1732862248.9034812,-132.181793,253.001892,141.908295,131.48797,-68.46393,166.526344,118.610457,45.352016,45.279823,3.021264,-76.295461,-16.479469
1732862248.9199572,-132.316971,252.93718,141.909866,129.889589,-67.714215,168.392411,118.610457,45.352016,45.279938,2.878425,-76.295461,-17.46828
1732862248.9359593,-132.360016,252.91832,141.912766,128.428146,-66.964671,170.020069,118.610457,45.352016,45.280282,2.83448,-76.295461,-18.435032
1732862248.9504418,-132.362503,252.920502,141.917908,127.075393,-66.209284,171.493831,118.610457,45.351672,45.280683,2.83448,-76.295461,-19.390897
1732862248.96644,-132.364716,252.922318,141.921753,125.90845,-65.502884,172.772444,118.610457,45.351558,45.281141,2.83448,-76.295461,-20.269757
1732862248.9867272,-132.36702,252.923462,141.92627,124.466945,-64.551144,174.362344,118.610457,45.351328,45.28137,2.83448,-76.295461,-21.434351
1732862249.0187318,-132.360779,252.930023,141.932587,122.126126,-62.787637,176.962427,118.610457,45.351214,45.281886,2.84548,-76.295461,-23.873318
1732862249.0476909,-132.365921,252.932495,141.941666,119.897549,-60.800677,179.490202,118.610457,45.350813,45.282573,2.84548,-76.295461,-26.180447
1732862249.0692506,-132.36937,252.93486,141.947617,118.821649,-59.709364,-179.271218,118.610457,45.350469,45.283032,2.823479,-76.295461,-27.38893
1732862249.0982528,-132.571838,252.846069,141.960861,117.317291,-58.016159,-177.307405,118.610457,45.350125,45.284751,2.603749,-76.300045,-29.399438
1732862249.1288557,-132.659271,252.80986,141.967804,116.206784,-56.604334,-175.900507,118.610457,45.350011,45.285782,2.548803,-76.300045,-30.618922
1732862249.1538484,-132.745529,252.771484,141.972336,115.234819,-55.238976,-174.63914,118.610457,45.350011,45.286527,2.460911,-76.300045,-32.135025
1732862249.170866,-132.81781,252.734039,141.95993,114.827847,-54.587523,-174.05564,118.610457,45.350011,45.286985,2.38402,-76.286294,-32.849103
1732862249.1859202,-132.849609,252.718689,141.956787,114.534722,-54.116952,-173.658924,118.610457,45.350011,45.287501,2.340074,-76.277184,-33.530292
1732862249.2028508,-132.889908,252.694275,141.930649,114.212547,-53.517524,-173.197177,118.610457,45.350011,45.287959,2.307129,-76.254265,-34.013697
1732862249.2153604,-132.948898,252.65535,141.885559,113.819842,-52.719967,-172.608119,118.610457,45.350011,45.288589,2.241239,-76.208486,-34.870612
1732862249.2314959,-132.952652,252.634491,141.806854,113.539322,-51.99042,-172.186766,118.610457,45.350011,45.289162,2.230238,-76.130678,-35.639636
1732862249.2602408,-132.944138,252.614746,141.713333,113.281949,-51.235318,-171.790222,118.610457,45.350011,45.290022,2.230238,-75.947561,-37.023902
1732862249.2823834,-132.920319,252.562424,141.464676,112.941784,-49.805903,-171.161286,118.610457,45.350011,45.290709,2.230238,-75.764444,-38.122549
1732862249.3089387,-132.913315,252.540787,141.364517,112.277554,-48.08216,-170.197801,118.610457,45.350011,45.291225,2.230238,-75.695803,-39.968275
1732862249.3249354,-132.917313,252.544006,141.36882,111.882271,-47.196711,-169.663804,118.610457,45.350011,45.292428,2.230238,-75.695803,-40.957029
1732862249.339633,-132.903595,252.56102,141.376312,111.39497,-46.043118,-169.017336,118.610457,45.350011,45.29409,2.252183,-75.695803,-41.934838
1732862249.355209,-132.860977,252.59668,141.386124,110.958376,-44.94745,-168.4634,118.610457,45.350011,45.296955,2.307129,-75.695803,-43.110376
1732862249.3692086,-132.825867,252.623184,141.392654,110.618383,-44.043839,-168.024457,118.610457,45.350011,45.299476,2.373019,-75.695803,-44.362804
1732862249.3852916,-132.75264,252.6745,141.40274,110.259712,-43.045517,-167.595655,118.610457,45.350011,45.302799,2.471912,-75.695803,-45.384503
1732862249.4041698,-132.640076,252.74881,141.40686,109.935303,-42.063582,-167.244089,118.610457,45.350011,45.307096,2.603749,-75.682052,-46.428203
1732862249.4181533,-132.527908,252.82402,141.403427,109.666528,-41.171028,-166.958355,118.610457,45.350011,45.311909,2.746588,-75.654608,-47.362066
1732862249.4338386,-132.373993,252.892899,141.329056,109.487307,-40.241576,-166.761085,118.610457,45.350011,45.315633,2.91137,-75.558465,-48.317875
1732862249.4508343,-132.222549,252.94165,141.195862,109.418094,-39.403396,-166.651937,118.610457,45.350011,45.318383,3.054209,-75.407434,-49.17479
1732862249.4844785,-132.063324,252.97406,141.012054,109.37581,-38.420659,-166.521589,118.610457,45.350011,45.321477,3.306883,-75.077811,-51.163355
1732862249.5122578,-131.670944,253.087006,140.687637,109.032092,-35.540687,-165.929723,118.610457,45.350011,45.324342,3.570558,-74.93589,-52.932133
1732862249.530257,-131.497192,253.141098,140.574142,108.994392,-34.811598,-165.885319,118.610457,45.350011,45.326176,3.790288,-74.784858,-53.909885
1732862249.5452602,-131.376144,253.172607,140.449722,108.987745,-34.132815,-165.817252,118.610457,45.350011,45.329499,3.878179,-74.670381,-54.525128
1732862249.561284,-131.345184,253.181152,140.375214,108.946091,-33.536366,-165.661293,118.610457,45.350011,45.332994,3.900124,-74.597157,-55.206317
1732862249.5782673,-131.344406,253.1745,140.328125,108.854189,-32.862338,-165.42065,118.610457,45.350011,45.334541,3.900124,-74.542268,-55.865505
1732862249.59326,-131.337402,253.155594,140.244873,108.807149,-32.192608,-165.207395,118.610457,45.350011,45.334999,3.900124,-74.478154,-56.381855
1732862249.617277,-131.392044,253.107101,140.16095,108.740514,-31.408859,-164.884419,118.610457,45.350011,45.336317,3.72434,-74.349983,-57.843012
1732862249.6462724,-131.70343,252.956711,140.098495,108.488986,-29.744474,-163.947404,118.610457,45.350011,45.340442,3.460665,-74.322538,-59.117442
1732862249.6722846,-131.996872,252.795593,139.954788,108.437419,-28.545731,-163.260771,118.610686,45.350011,45.345198,3.186046,-74.176033,-60.183086
1732862249.6873221,-132.116516,252.699753,139.818832,108.474662,-27.900867,-162.952119,118.610801,45.350011,45.346172,3.043208,-74.043279,-60.842274
1732862249.7002618,-132.183044,252.65181,139.762863,108.437992,-27.330259,-162.692111,118.610801,45.350011,45.34663,2.966317,-73.988332,-61.435571
1732862249.7160733,-132.26506,252.608612,139.741318,108.346835,-26.639444,-162.359165,118.610801,45.350011,45.34749,2.878425,-73.965471,-62.16065
1732862249.7311351,-132.339584,252.575409,139.739182,108.232472,-25.909151,-162.01539,118.610801,45.350011,45.348464,2.801534,-73.960887,-62.929674
1732862249.7480927,-132.389633,252.544678,139.708313,108.168645,-25.278898,-161.747418,118.610801,45.350011,45.34938,2.746588,-73.928859,-63.588861
1732862249.7811625,-132.395309,252.526306,139.652985,108.121834,-24.572097,-161.509125,118.610801,45.350011,45.349781,2.735587,-73.873912,-64.32494
1732862249.7951534,-132.400192,252.525803,139.63533,107.927086,-23.054504,-160.979941,118.610801,45.350011,45.351672,2.735587,-73.850994,-65.917992
1732862249.8103309,-132.40451,252.529633,139.638962,107.834037,-22.375033,-160.741877,118.610801,45.350011,45.352875,2.735587,-73.850994,-66.632069
1732862249.8393602,-132.409012,252.533386,139.642639,107.73652,-21.63248,-160.484562,118.610801,45.350011,45.354308,2.735587,-73.850994,-67.598878
1732862249.855327,-132.394119,252.545303,139.646088,107.572024,-20.292389,-160.049687,118.610801,45.350011,45.354995,2.757589,-73.850994,-68.818362
1732862249.8724658,-132.325729,252.580811,139.648102,107.485851,-19.548117,-159.876482,118.610801,45.350011,45.355396,2.856424,-73.850994,-69.796172
1732862249.886464,-132.238052,252.627792,139.651413,107.396126,-18.740533,-159.706542,118.610801,45.350011,45.356084,2.933372,-73.850994,-70.444359
1732862249.9030156,-132.181473,252.661423,139.655472,107.320152,-18.027258,-159.537119,118.610801,45.350011,45.357287,2.999262,-73.850994,-71.191381
1732862249.919629,-132.141998,252.678513,139.643173,107.25684,-17.249467,-159.331828,118.610801,45.350011,45.357688,3.043208,-73.8373,-72.004408
1732862249.9515846,-132.119644,252.681091,139.615417,107.237359,-16.743259,-159.198787,118.610801,45.350011,45.357803,3.06521,-73.809798,-72.531759
1732862249.9666224,-132.119644,252.681091,139.615417,107.237359,-16.743259,-159.198787,118.610801,45.350011,45.357803,3.06521,-73.809798,-72.531759
1732862249.984593,-132.119644,252.681091,139.615417,107.237359,-16.743259,-159.198787,118.610801,45.350011,45.357803,3.06521,-73.809798,-72.531759
1732862250.0164719,-132.119644,252.681091,139.615417,107.237359,-16.743259,-159.198787,118.610801,45.350011,45.357803,3.06521,-73.809798,-72.531759
1732862250.0294762,-132.119644,252.681091,139.615417,107.237359,-16.743259,-159.198787,118.610801,45.350011,45.357803,3.06521,-73.809798,-72.531759
1732862250.044522,-132.515915,252.447113,139.485397,107.19307,-14.720718,-158.147123,118.610915,45.350011,45.358147,2.625751,-73.686211,-74.641103
1732862250.0664723,-132.516312,252.440521,139.462616,107.143108,-13.784734,-157.855201,118.61103,45.350011,45.358376,2.625751,-73.658767,-75.959479
1732862250.094478,-132.516907,252.438782,139.458054,107.114231,-13.332957,-157.713279,118.61103,45.350011,45.358376,2.625751,-73.658767,-76.091316
1732862250.1205535,-132.516907,252.438782,139.458054,107.114231,-13.332957,-157.713279,118.61103,45.350011,45.358376,2.625751,-73.658767,-76.091316
1732862250.1375563,-132.516907,252.438782,139.458054,107.114231,-13.332957,-157.713279,118.61103,45.350011,45.358376,2.625751,-73.658767,-76.091316
1732862250.1525915,-132.516907,252.438782,139.458054,107.114231,-13.332957,-157.713279,118.61103,45.350011,45.358376,2.625751,-73.658767,-76.091316
1732862250.1675663,-132.516907,252.438782,139.458054,107.114231,-13.332957,-157.713279,118.61103,45.350011,45.358376,2.625751,-73.658767,-76.091316
1732862250.1899471,-132.516907,252.438782,139.458054,107.114231,-13.332957,-157.713279,118.61103,45.350011,45.358376,2.625751,-73.658767,-76.091316
1732862250.2215972,-132.516907,252.438782,139.458054,107.114231,-13.332957,-157.713279,118.61103,45.350011,45.358376,2.625751,-73.658767,-76.091316
1732862250.2514365,-132.516907,252.438782,139.458054,107.114231,-13.332957,-157.713279,118.61103,45.350011,45.358376,2.625751,-73.658767,-76.091316
1732862250.2780387,-132.516907,252.438782,139.458054,107.114231,-13.332957,-157.713279,118.61103,45.350011,45.358376,2.625751,-73.658767,-76.091316
1732862250.2950518,-132.516907,252.438782,139.458054,107.114231,-13.332957,-157.713279,118.61103,45.350011,45.358376,2.625751,-73.658767,-76.091316
1732862250.3160453,-132.516907,252.438782,139.458054,107.114231,-13.332957,-157.713279,118.61103,45.350011,45.358376,2.625751,-73.658767,-76.091316
1732862250.3441112,-132.516907,252.438782,139.458054,107.114231,-13.332957,-157.713279,118.61103,45.350011,45.358376,2.625751,-73.658767,-76.091316
1732862250.3711429,-132.516907,252.438782,139.458054,107.114231,-13.332957,-157.713279,118.61103,45.350011,45.358376,2.625751,-73.658767,-76.091316
1732862250.3951116,-132.516907,252.438782,139.458054,107.114231,-13.332957,-157.713279,118.61103,45.350011,45.358376,2.625751,-73.658767,-76.091316
1732862250.4271128,-132.516907,252.438782,139.458054,107.114231,-13.332957,-157.713279,118.61103,45.350011,45.358376,2.625751,-73.658767,-76.091316
1732862250.4455514,-132.516907,252.438782,139.458054,107.114231,-13.332957,-157.713279,118.61103,45.350011,45.358376,2.625751,-73.658767,-76.091316
1732862250.4625483,-132.516907,252.438782,139.458054,107.114231,-13.332957,-157.713279,118.61103,45.350011,45.358376,2.625751,-73.658767,-76.091316
1732862250.4755466,-132.516907,252.438782,139.458054,107.114231,-13.332957,-157.713279,118.61103,45.350011,45.358376,2.625751,-73.658767,-76.091316
1732862250.498578,-132.516907,252.438782,139.458054,107.114231,-13.332957,-157.713279,118.61103,45.350011,45.358376,2.625751,-73.658767,-76.091316
1732862250.5225775,-132.516907,252.438782,139.458054,107.114231,-13.332957,-157.713279,118.61103,45.350011,45.358376,2.625751,-73.658767,-76.091316
1732862250.5395322,-132.516907,252.438782,139.458054,107.114231,-13.332957,-157.713279,118.61103,45.350011,45.358376,2.625751,-73.658767,-76.091316
1732862250.55553,-132.516907,252.438782,139.458054,107.114231,-13.332957,-157.713279,118.61103,45.350011,45.358376,2.625751,-73.658767,-76.091316
1732862250.5765262,-132.516907,252.438782,139.458054,107.114231,-13.332957,-157.713279,118.61103,45.350011,45.358376,2.625751,-73.658767,-76.091316
1732862250.6005242,-132.516907,252.438782,139.458054,107.114231,-13.332957,-157.713279,118.61103,45.350011,45.358376,2.625751,-73.658767,-76.091316
1732862250.6165428,-132.516907,252.438782,139.458054,107.114231,-13.332957,-157.713279,118.61103,45.350011,45.358376,2.625751,-73.658767,-76.091316
1732862250.6323607,-132.516907,252.438782,139.458054,107.114231,-13.332957,-157.713279,118.61103,45.350011,45.358376,2.625751,-73.658767,-76.091316
1732862250.665354,-132.516907,252.438782,139.458054,107.114231,-13.332957,-157.713279,118.61103,45.350011,45.358376,2.625751,-73.658767,-76.091316
1732862250.6811152,-132.516907,252.438782,139.458054,107.114231,-13.332957,-157.713279,118.61103,45.350011,45.358376,2.625751,-73.658767,-76.091316
1732862250.6956904,-132.516907,252.438782,139.458054,107.114231,-13.332957,-157.713279,118.61103,45.350011,45.358376,2.625751,-73.658767,-76.091316
1732862250.71025,-132.516907,252.438782,139.458054,107.114231,-13.332957,-157.713279,118.61103,45.350011,45.358376,2.625751,-73.658767,-76.091316
1732862250.7272587,-132.516907,252.438782,139.458054,107.114231,-13.332957,-157.713279,118.61103,45.350011,45.358376,2.625751,-73.658767,-76.091316
1732862250.7432604,-132.516907,252.438782,139.458054,107.114231,-13.332957,-157.713279,118.61103,45.350011,45.358376,2.625751,-73.658767,-76.091316
1732862250.7615662,-132.516907,252.438782,139.458054,107.114231,-13.332957,-157.713279,118.61103,45.350011,45.358376,2.625751,-73.658767,-76.091316
1732862250.7881532,-132.516907,252.438782,139.458054,107.114231,-13.332957,-157.713279,118.61103,45.350011,45.358376,2.625751,-73.658767,-76.091316
1732862250.8041596,-132.516907,252.438782,139.458054,107.114231,-13.332957,-157.713279,118.61103,45.350011,45.358376,2.625751,-73.658767,-76.091316
1732862250.8188853,-132.516907,252.438782,139.458054,107.114231,-13.332957,-157.713279,118.61103,45.350011,45.358376,2.625751,-73.658767,-76.091316
1732862250.834791,-132.516907,252.438782,139.458054,107.114231,-13.332957,-157.713279,118.61103,45.350011,45.358376,2.625751,-73.658767,-76.091316
1732862250.854788,-132.516907,252.438782,139.458054,107.114231,-13.332957,-157.713279,118.61103,45.350011,45.358376,2.625751,-73.658767,-76.091316
1732862250.8818204,-132.516907,252.438782,139.458054,107.114231,-13.332957,-157.713279,118.61103,45.350011,45.358376,2.625751,-73.658767,-76.091316
1732862250.8977728,-132.516907,252.438782,139.458054,107.114231,-13.332957,-157.713279,118.61103,45.350011,45.358376,2.625751,-73.658767,-76.091316
1732862250.9117734,-132.516907,252.438782,139.458054,107.114231,-13.332957,-157.713279,118.61103,45.350011,45.358376,2.625751,-73.658767,-76.091316
1732862250.9287765,-132.631882,252.393494,139.490921,107.119559,-13.840025,-157.744391,118.61103,45.350011,45.35872,2.504857,-73.690795,-75.388182
1732862250.9467657,-132.625031,252.384705,139.452621,107.213009,-14.551123,-157.981023,118.61103,45.350011,45.35872,2.504857,-73.622155,-74.674048
1732862250.9727678,-132.603653,252.370987,139.376526,107.330694,-15.059394,-158.176745,118.61103,45.350011,45.35872,2.548803,-73.576375,-74.069807
1732862250.9967775,-132.571503,252.385452,139.371841,107.372749,-15.49931,-158.353445,118.61103,45.350011,45.35872,2.548803,-73.576375,-73.784187
1732862251.0217996,-132.570511,252.38588,139.371643,107.405007,-15.866233,-158.472792,118.61103,45.350011,45.35872,2.548803,-73.576375,-73.43262
1732862251.036963,-132.569382,252.386368,139.371429,107.442879,-16.28558,-158.609615,118.61103,45.350011,45.35872,2.548803,-73.576375,-72.993162
1732862251.0528305,-132.568146,252.386902,139.37117,107.485908,-16.746697,-158.760875,118.61103,45.350011,45.35872,2.559804,-73.576375,-72.333974
1732862251.0698326,-132.515396,252.41304,139.371155,107.562971,-17.54265,-159.078581,118.61103,45.350011,45.35872,2.603749,-73.576375,-71.674786
1732862251.085839,-132.472992,252.433975,139.371063,107.635508,-18.25455,-159.359616,118.61103,45.350011,45.35872,2.647695,-73.576375,-70.927763
1732862251.0998538,-132.465103,252.446899,139.399277,107.664614,-18.80161,-159.543937,118.61103,45.350011,45.35872,2.658696,-73.60382,-70.356467
1732862251.1158984,-132.471313,252.464828,139.465103,107.696127,-19.69806,-159.821707,118.61103,45.350011,45.35872,2.658696,-73.667934,-69.422603
1732862251.132064,-132.47905,252.484955,139.540512,107.707758,-20.470006,-160.054328,118.61103,45.350011,45.35872,2.658696,-73.741158,-68.620634
1732862251.1480792,-132.487106,252.506271,139.62059,107.729702,-21.336948,-160.317888,118.61103,45.350011,45.35872,2.658696,-73.818966,-67.719715
1732862251.1741626,-132.486023,252.509567,139.629395,107.829683,-22.195927,-160.610269,118.61103,45.350011,45.35872,2.658696,-73.828133,-66.313448
1732862251.1947765,-132.512207,252.498947,139.63678,108.105104,-24.245683,-161.29587,118.61103,45.350011,45.35872,2.625751,-73.8373,-64.665506
1732862251.2097757,-132.561172,252.502594,139.725555,108.189501,-25.437493,-161.637754,118.61103,45.350011,45.35872,2.581805,-73.924275,-63.424079
1732862251.2275078,-132.590149,252.514648,139.810104,108.230467,-26.273725,-161.877307,118.61103,45.350011,45.35872,2.559804,-74.029528,-62.23754
1732862251.239249,-132.596878,252.53598,139.889511,108.36855,-27.620405,-162.332981,118.61103,45.350011,45.35872,2.559804,-74.084474,-61.149895
1732862251.2564945,-132.596313,252.54451,139.916214,108.626209,-29.218842,-162.924216,118.61103,45.350011,45.35872,2.559804,-74.111919,-59.469008
1732862251.2744784,-132.600891,252.562225,139.981018,108.839922,-30.696615,-163.461478,118.61103,45.350011,45.35872,2.559804,-74.203478,-57.436498
1732862251.289479,-132.616379,252.600693,140.131577,108.957493,-32.094231,-163.922939,118.61103,45.350011,45.35872,2.559804,-74.36826,-56.18407
1732862251.303588,-132.641327,252.655716,140.354095,108.936924,-33.182736,-164.214345,118.61103,45.350011,45.35872,2.559804,-74.537684,-55.360099
1732862251.31712,-132.66011,252.698685,140.529037,108.982245,-34.284534,-164.544541,118.61103,45.350011,45.35872,2.559804,-74.70705,-54.228507
1732862251.3371298,-132.668396,252.71965,140.613708,109.082341,-35.131251,-164.836692,118.61103,45.350011,45.35872,2.559804,-74.812303,-53.041969
1732862251.3718204,-132.670319,252.738525,140.681152,109.699989,-37.839909,-165.965591,118.61103,45.350011,45.35872,2.559804,-74.858082,-50.493166
1732862251.394819,-132.667175,252.747116,140.705261,110.474685,-40.560026,-167.223519,118.61103,45.350011,45.35872,2.559804,-74.885584,-47.60374
1732862251.4110098,-132.665985,252.751251,140.717453,110.856906,-41.776358,-167.819281,118.61103,45.350011,45.35872,2.559804,-74.899278,-46.307366
1732862251.4280074,-132.664108,252.753006,140.720337,111.213171,-42.813297,-168.353392,118.61103,45.350011,45.35872,2.559804,-74.903861,-45.197776
1732862251.4432895,-132.662064,252.754791,140.723022,111.620028,-43.929362,-168.950471,118.61103,45.350011,45.35872,2.559804,-74.908445,-44.000237
1732862251.4792948,-132.660782,252.757614,140.73056,112.020239,-44.982458,-169.530763,118.61103,45.350011,45.35872,2.581805,-74.963391,-41.385486
1732862251.5040152,-132.585953,252.851318,140.925949,113.070184,-48.051335,-171.25084,118.61103,45.350011,45.35872,2.658696,-75.10984,-39.605708
1732862251.5198736,-132.508026,252.929047,141.063339,113.358325,-49.080997,-171.845971,118.61103,45.350011,45.35872,2.757589,-75.242594,-38.529063
1732862251.536096,-132.408691,253.015335,141.196045,113.699636,-50.15833,-172.51891,118.61103,45.350011,45.35872,2.878425,-75.370764,-37.397471
1732862251.5522325,-132.321747,253.100388,141.34816,113.960618,-51.099585,-173.080466,118.61103,45.350011,45.35872,2.988261,-75.51727,-36.419661
1732862251.5868096,-132.255081,253.201263,141.595825,114.16843,-52.190897,-173.62214,118.61103,45.350011,45.35872,3.087154,-75.755334,-35.310071
1732862251.6167908,-131.828156,253.588989,142.284515,114.957622,-55.37448,-175.582,118.61103,45.350011,45.35872,3.669451,-76.451134,-31.783459
1732862251.628788,-131.695496,253.685974,142.41861,115.263008,-56.176277,-176.187043,118.61103,45.350011,45.35872,3.834234,-76.588414,-30.838594
1732862251.6459312,-131.503662,253.82048,142.595642,115.810527,-57.388312,-177.164967,118.61103,45.350011,45.35872,4.053963,-76.757781,-29.652113
1732862251.6679697,-131.280441,253.969147,142.778122,116.311693,-58.490339,-178.110692,118.61103,45.350011,45.35872,4.328639,-76.922621,-28.410628
1732862251.6986794,-130.760513,254.301819,143.177353,117.540859,-60.864906,179.677788,118.61103,45.350011,45.35872,4.987769,-77.43072,-25.587149
1732862251.7257214,-130.227829,254.74881,144.099579,118.018534,-63.428548,178.081012,118.61103,45.350011,45.35872,5.46023,-78.140271,-23.818371
1732862251.7396843,-129.9133,254.980576,144.545441,118.237347,-64.607752,177.2897,118.61103,45.350011,45.35872,5.822741,-78.561395,-22.68678
1732862251.754727,-129.647583,255.181763,144.972366,118.391415,-65.663828,176.644493,118.61103,45.350011,45.35872,6.130362,-78.964241,-21.687026
1732862251.7697353,-129.35907,255.362198,145.273056,119.110592,-66.878842,175.42839,118.61103,45.350011,45.35872,6.448984,-79.248027,-20.445541
1732862251.7846735,-129.180496,255.476364,145.481445,119.710249,-67.753978,174.507646,118.61103,45.350011,45.35872,6.646711,-79.444895,-19.544679
1732862251.802678,-128.91272,255.648773,145.816025,120.707024,-69.100085,173.029358,118.61103,45.350011,45.35872,6.943332,-79.760767,-18.160413
1732862251.8187063,-128.771072,255.731766,145.956894,121.230306,-69.701748,172.272882,118.61103,45.350011,45.35872,7.097171,-79.893521,-17.53417
1732862251.8496242,-128.407303,255.888565,146.027924,124.209859,-71.475568,168.718997,118.61103,45.350011,45.35872,7.503684,-79.962162,-15.194096
1732862251.866215,-128.254868,255.947632,146.026138,126.369165,-72.471254,166.294067,118.61103,45.350011,45.35872,7.624521,-79.962162,-14.249288
1732862251.8932178,-127.884621,256.088562,146.01857,131.208252,-74.268967,160.871136,118.61103,45.350011,45.35872,7.998032,-79.957578,-11.942159
1732862251.9202287,-127.742485,256.141266,146.0121,133.898346,-75.06767,157.939598,118.61103,45.350011,45.35872,8.162815,-79.952994,-10.590838
1732862251.9428902,-127.621658,256.186066,146.008423,138.946219,-76.296321,152.609314,118.61103,45.350011,45.35872,8.272708,-79.948411,-8.865949
1732862251.9594984,-127.544434,256.213623,146.001053,142.841587,-77.042025,148.529969,118.61103,45.350011,45.35872,8.338599,-79.948411,-7.888196
1732862251.9724934,-127.532158,256.215576,145.989136,145.504351,-77.465727,145.790142,118.61103,45.350011,45.358605,8.349599,-79.939243,-7.152118
1732862251.9964995,-127.507912,256.219849,145.965637,151.283318,-78.211432,139.858998,118.61103,45.350011,45.35849,8.371601,-79.920966,-5.701904
1732862252.0215085,-127.387222,256.263916,145.961395,160.085955,-79.015578,130.759569,118.61103,45.350011,45.35849,8.492438,-79.920966,-3.757343
1732862252.035499,-127.332397,256.283844,145.959503,164.396259,-79.280972,126.31588,118.61103,45.350011,45.35849,8.547384,-79.920966,-2.889426
1732862252.0524247,-127.30986,256.290863,145.952377,169.021805,-79.481622,121.588119,118.61103,45.350011,45.35849,8.569329,-79.916382,-1.999508
1732862252.06642,-127.309395,256.290558,145.949905,173.793111,-79.614835,116.736427,118.61103,45.350011,45.35849,8.569329,-79.916382,-1.109647
1732862252.0834248,-127.265472,256.306305,145.947662,179.014189,-79.675396,111.385058,118.61103,45.350011,45.35849,8.613275,-79.916382,-0.153782
1732862252.0994234,-127.19986,256.330048,145.945694,-175.928181,-79.651275,106.178132,118.61103,45.350011,45.35849,8.679222,-79.916382,0.769024
1732862252.1289535,-127.079681,256.37326,145.944138,-171.288139,-79.556966,101.339847,118.61103,45.350011,45.358376,8.800059,-79.916382,1.625997
1732862252.1699498,-126.850662,256.456024,145.943024,-165.17445,-79.321595,94.890233,118.61103,45.350011,45.358376,9.074735,-79.916382,3.010263
1732862252.2010078,-126.337158,256.637909,145.943314,-157.775273,-78.847759,86.838629,118.61103,45.350011,45.358261,9.591084,-79.916382,4.40553
1732862252.2319567,-125.93203,256.778168,145.943863,-152.57952,-78.367391,81.132142,118.61103,45.350011,45.358261,10.063488,-79.916382,5.74585
1732862252.2527902,-125.493042,256.926575,145.94487,-148.007031,-77.821821,76.019868,118.61103,45.350011,45.358261,10.393053,-79.916382,6.55882
1732862252.268783,-125.229134,257.013977,145.945496,-145.489855,-77.463149,73.17943,118.61103,45.350011,45.358261,10.656729,-79.916382,7.218008
1732862252.2877848,-124.95105,257.095795,145.897369,-142.975487,-76.998881,70.320428,118.61103,45.350011,45.358261,10.997295,-79.856852,8.118869
1732862252.299791,-124.706329,257.167694,145.863571,-140.959535,-76.590534,68.003329,118.61103,45.350011,45.358147,11.173078,-79.838575,8.580329
1732862252.3347836,-124.473976,257.239532,145.854645,-139.40957,-76.269449,66.176797,118.61103,45.350011,45.358147,11.601536,-79.806546,9.316408
1732862252.362151,-124.082169,257.345612,145.769989,-138.792895,-76.032015,65.143525,118.61103,45.350011,45.358147,11.78832,-79.737849,9.349353
1732862252.3771164,-124.068176,257.340515,145.721176,-138.919748,-75.998039,65.255424,118.61103,45.350011,45.358032,11.799321,-79.692069,9.349353
1732862252.3931932,-124.066277,257.334808,145.687057,-138.908518,-75.952489,65.23835,118.61103,45.350011,45.358032,11.799321,-79.664625,9.415301
1732862252.4202194,-124.109978,257.319427,145.676331,-138.311439,-75.807301,64.665048,118.61103,45.350011,45.358032,11.634538,-79.650874,9.810814
1732862252.4381907,-124.45031,257.205658,145.632675,-136.835156,-75.406574,63.474786,118.61103,45.350011,45.358032,11.414809,-79.623429,10.140379
1732862252.454001,-124.568329,257.157288,145.572571,-136.348199,-75.207472,63.081794,118.61103,45.350011,45.358032,11.293972,-79.568482,10.371109
1732862252.4706674,-124.662743,257.111542,145.488464,-136.025394,-75.014327,62.831755,118.61103,45.350011,45.358032,11.19508,-79.490675,10.568837
1732862252.4896648,-124.713837,257.082214,145.419525,-135.8189,-74.869083,62.660383,118.61103,45.350011,45.358032,11.140133,-79.412867,10.733619
1732862252.5046718,-124.720879,257.067413,145.35585,-135.835115,-74.788639,62.676426,118.61103,45.350011,45.357917,11.129132,-79.367088,10.766622
1732862252.5196726,-124.718338,257.060303,145.316711,-135.93418,-74.762742,62.771881,118.61103,45.350011,45.357803,11.129132,-79.330419,10.766622
1732862252.5362,-124.715721,257.052734,145.27301,-136.044818,-74.733578,62.878451,118.61103,45.350011,45.357803,11.129132,-79.289223,10.766622
1732862252.5513425,-124.713463,257.046417,145.238739,-136.130991,-74.710774,62.961415,118.61103,45.350011,45.357688,11.129132,-79.257195,10.766622
1732862252.5693412,-124.710533,257.037994,145.190369,-136.427439,-74.723781,63.259754,118.61103,45.350011,45.357688,11.129132,-79.211415,10.700674
1732862252.5813746,-124.662598,257.041595,145.136765,-136.766515,-74.740912,63.557406,118.61103,45.350011,45.357402,11.19508,-79.142775,10.601782
1732862252.5983372,-124.569298,257.05484,145.055237,-137.384909,-74.790358,64.095471,118.61103,45.350011,45.357287,11.282971,-79.069494,10.425998
1732862252.6143482,-124.477959,257.073486,145.003372,-138.177367,-74.916867,64.819116,118.61103,45.350011,45.357287,11.359862,-79.028298,10.162381
1732862252.6284087,-124.422287,257.089325,144.994858,-138.876432,-75.070706,65.486268,118.61103,45.350011,45.357287,11.403808,-79.023771,9.986597
1732862252.6453607,-124.421837,257.088623,144.994858,-139.44091,-75.199908,66.07017,118.61103,45.350011,45.357058,11.403808,-79.023771,9.755867
1732862252.662354,-124.421837,257.088715,144.995224,-139.822271,-75.285279,66.464594,118.61103,45.350011,45.357058,11.403808,-79.023771,9.624029
1732862252.6833665,-124.421837,257.088776,144.995621,-140.24053,-75.37701,66.896891,118.61103,45.350011,45.357058,11.403808,-79.023771,9.514136
1732862252.7093866,-124.322655,257.120087,144.996979,-140.696204,-75.475902,67.268912,118.61103,45.350011,45.357058,11.502701,-79.023771,9.360354
1732862252.7224452,-124.278564,257.133911,144.997421,-140.728748,-75.483293,67.258599,118.61103,45.350011,45.357058,11.55759,-79.023771,9.349353
1732862252.7372048,-124.234451,257.147705,144.997849,-140.728461,-75.483752,67.214366,118.61103,45.350011,45.357058,11.601536,-79.023771,9.349353
1732862252.754165,-124.212395,257.154602,144.998047,-140.728289,-75.483981,67.19225,118.61103,45.350011,45.357058,11.612537,-79.023771,9.349353
1732862252.773191,-124.20137,257.15802,144.998154,-140.728232,-75.484096,67.181192,118.61103,45.350011,45.357058,11.634538,-79.023771,9.360354
1732862252.7851603,-124.14621,257.17511,144.998337,-140.368357,-75.407892,66.754453,118.61103,45.350011,45.357058,11.700428,-79.023771,9.503193
1732862252.8016517,-124.035622,257.208771,144.998672,-139.915835,-75.310432,66.176969,118.61103,45.350011,45.356943,11.821265,-79.023771,9.656974
1732862252.8170927,-123.903099,257.24939,144.999527,-139.500555,-75.219446,65.615814,118.61103,45.350011,45.356943,11.953103,-79.023771,9.799813
1732862252.833299,-123.792587,257.28299,145.000229,-139.153171,-75.141811,65.146676,118.61103,45.350011,45.356943,12.051995,-79.023771,9.909649
1732862252.852194,-123.75943,257.292999,145.000214,-138.810084,-75.062857,64.758727,118.61103,45.350011,45.356943,12.062996,-79.023771,10.030543
1732862252.8880253,-123.781548,257.286102,144.999115,-137.924062,-74.850977,63.863251,118.61103,45.350011,45.356943,11.986105,-79.023771,10.393053
1732862252.9229982,-123.925217,257.242188,144.997269,-137.447132,-74.731229,63.511741,118.61103,45.350011,45.356943,11.876212,-79.023771,10.51389
1732862252.9399984,-124.024605,257.211639,144.996246,-137.35924,-74.70791,63.519362,118.61103,45.350011,45.356943,11.799321,-79.023771,10.535892
1732862252.9630766,-124.046463,257.204437,144.995758,-137.359756,-74.707623,63.541879,118.61103,45.350011,45.356829,11.766376,-79.023771,10.535892
1732862252.987999,-124.057503,257.201019,144.995651,-137.35987,-74.707509,63.552937,118.61103,45.350011,45.356829,11.766376,-79.023771,10.535892
1732862253.0306067,-124.056633,257.198425,144.981094,-137.395738,-74.697539,63.587486,118.610915,45.350011,45.356714,11.766376,-78.982519,10.535892
1732862253.0529215,-124.039154,257.184723,144.888474,-137.622514,-74.634399,63.794725,118.610915,45.350011,45.356485,11.799321,-78.918462,10.535892
1732862253.0801208,-123.994492,257.197052,144.883774,-137.634317,-74.631477,63.762181,118.610915,45.350011,45.356485,11.821265,-78.918462,10.535892
1732862253.097953,-123.994492,257.197021,144.883713,-137.575303,-74.616637,63.700932,118.610915,45.350011,45.356485,11.821265,-78.918462,10.568837
1732862253.1114776,-123.99427,257.196594,144.883316,-137.457904,-74.586901,63.579178,118.610915,45.350011,45.35637,11.821265,-78.918462,10.601782
1732862253.1377957,-123.99427,257.196564,144.883133,-137.282235,-74.542268,63.396978,118.610915,45.350011,45.35637,11.821265,-78.918462,10.667729
1732862253.1607854,-123.994286,257.196411,144.882431,-136.618291,-74.369807,62.707767,118.610915,45.350011,45.35637,11.821265,-78.918462,10.953349
1732862253.1737986,-123.994293,257.19635,144.882187,-136.39077,-74.30936,62.471536,118.610915,45.350011,45.35637,11.821265,-78.918462,11.04124
1732862253.1877959,-123.994301,257.196289,144.881912,-136.137007,-74.241006,62.207861,118.610915,45.350011,45.35637,11.821265,-78.918462,11.107188
1732862253.2028112,-123.994308,257.196259,144.88176,-135.996976,-74.202905,62.062387,118.610915,45.350011,45.35637,11.821265,-78.918462,11.162135
1732862253.2206461,-123.994308,257.196259,144.881699,-135.94117,-74.187607,62.004347,118.610915,45.350011,45.35637,11.821265,-78.918462,11.184079
1732862253.2452745,-123.994308,257.196259,144.881699,-135.94117,-74.187607,62.004347,118.610915,45.350011,45.356313,11.821265,-78.918462,11.184079
1732862253.2715135,-123.960968,257.206024,144.881729,-135.94117,-74.187893,61.971402,118.610915,45.350011,45.356313,11.854268,-78.918462,11.184079
1732862253.2954872,-123.795074,257.256226,144.88295,-135.88416,-74.174199,61.74749,118.610915,45.350011,45.356198,12.01905,-78.918462,11.20608
1732862253.3205178,-123.76194,257.266205,144.882904,-135.551845,-74.082526,61.369051,118.610915,45.350011,45.356198,12.051995,-78.918462,11.392807
1732862253.342488,-123.761276,257.264954,144.881866,-135.360935,-74.028439,61.170464,118.610915,45.350011,45.355855,12.051995,-78.918462,11.414809
1732862253.361487,-123.761047,257.264557,144.881577,-135.361279,-74.028382,61.170808,118.610915,45.350011,45.35574,12.051995,-78.918462,11.414809
1732862253.3885202,-123.761032,257.264679,144.882187,-135.913037,-74.181934,61.744453,118.610915,45.350011,45.35574,12.051995,-78.918462,11.19508
1732862253.4075239,-123.760796,257.264374,144.882309,-136.277897,-74.280941,62.123522,118.610915,45.350011,45.355626,12.051995,-78.918462,11.008295
1732862253.4195,-123.76078,257.264496,144.882858,-136.790236,-74.416962,62.655628,118.610915,45.350011,45.355626,12.051995,-78.918462,10.854514
1732862253.4354885,-123.760551,257.264191,144.88298,-137.166325,-74.514307,63.045927,118.610915,45.350011,45.355511,12.051995,-78.918462,10.711675
1732862253.4514806,-123.760544,257.264282,144.883408,-137.576334,-74.618471,63.471233,118.610915,45.350011,45.355511,12.051995,-78.918462,10.557836
1732862253.4674923,-123.782639,257.257629,144.88353,-137.902576,-74.699487,63.831509,118.610915,45.350011,45.355511,12.030051,-78.918462,10.436999
1732862253.4821413,-123.793686,257.254333,144.883713,-138.172095,-74.765492,64.121827,118.610915,45.350011,45.355511,12.01905,-78.918462,10.338107
1732862253.499157,-123.793457,257.253967,144.883575,-138.323127,-74.801989,64.278359,118.610915,45.350011,45.355396,12.01905,-78.918462,10.283217
1732862253.5137093,-123.793457,257.253967,144.883667,-138.413884,-74.823876,64.372381,118.610915,45.350011,45.355396,12.01905,-78.918462,10.250272
1732862253.5396485,-123.793457,257.253998,144.883698,-138.444193,-74.831153,64.403779,118.610915,45.350011,45.355396,12.01905,-78.918462,10.239271
1732862253.561767,-123.793457,257.253998,144.883698,-138.444193,-74.831153,64.403779,118.610915,45.350011,45.355396,12.01905,-78.918462,10.239271
1732862253.5777667,-123.771355,257.260712,144.883911,-138.444021,-74.831382,64.381663,118.610915,45.350011,45.355396,12.062996,-78.918462,10.239271
1732862253.595317,-123.660812,257.294128,144.884964,-138.443047,-74.832528,64.27091,118.610915,45.350011,45.355396,12.172832,-78.918462,10.239271
1732862253.6209908,-123.528084,257.333984,144.886215,-138.441959,-74.833846,64.137984,118.610915,45.350011,45.355396,12.359616,-78.918462,10.239271
1732862253.6510918,-123.184761,257.435516,144.889465,-138.438979,-74.837341,63.794553,118.610915,45.350011,45.355396,12.623292,-78.918462,10.239271
1732862253.6750796,-122.729782,257.56665,144.893784,-138.434968,-74.841982,63.340255,118.610915,45.350011,45.355396,13.073751,-78.918462,10.239271
1732862253.702688,-121.954071,257.797699,144.983688,-138.225782,-74.90707,62.369435,118.610686,45.349896,45.355396,13.996557,-79.014604,10.239271
1732862253.7202368,-121.309105,257.980438,145.054047,-138.063176,-74.957375,61.575373,118.610571,45.349781,45.355396,14.666746,-79.064967,10.239271
1732862253.7472515,-120.20137,258.264526,145.114883,-137.930021,-75.002066,60.359385,118.610571,45.349495,45.355396,15.567607,-79.101579,10.239271
1732862253.7898574,-117.964737,258.801056,145.387299,-137.427938,-75.215378,57.696965,118.609941,45.343765,45.355396,19.281004,-79.527287,10.129378
1732862253.8099766,-112.623932,259.76236,146.212433,-136.207824,-75.906251,51.409612,118.607649,45.327608,45.355511,22.906509,-79.962162,9.942651
1732862253.8265147,-110.688705,259.993561,146.439835,-136.200318,-76.087535,49.576434,118.603811,45.305434,45.355969,24.752178,-80.05372,9.810814
1732862253.8455195,-108.63736,260.169312,146.637177,-136.573944,-76.277642,48.024807,118.597508,45.275411,45.355969,26.696797,-80.081165,9.602028
1732862253.8575318,-107.236206,260.283905,146.840195,-136.754254,-76.39951,46.904101,118.581694,45.227111,45.355969,28.43263,-80.0995,9.437245
1732862253.8735125,-105.243996,260.422699,147.165985,-136.88867,-76.544927,45.211813,118.551041,45.162367,45.355969,30.234353,-80.113193,9.283463
1732862253.8882596,-103.394096,260.585144,147.589523,-136.822952,-76.654534,43.513108,118.510648,45.097565,45.355969,31.431892,-80.113193,9.206515
1732862253.9062557,-101.520294,260.769073,148.087448,-136.59268,-76.737212,41.690701,118.437137,44.998214,45.355969,32.969997,-80.113193,9.129624
1732862253.919289,-99.810898,261.036041,148.600571,-136.111224,-76.761734,39.924616,118.314868,44.894967,45.356198,34.145534,-80.113193,9.129624
1732862253.9342644,-98.161377,261.356506,149.121582,-135.621517,-76.781673,38.315235,118.159596,44.789486,45.35637,35.123287,-80.113193,9.129624
1732862253.9522598,-96.608841,261.827118,149.869003,-134.932134,-76.805164,36.711068,117.962041,44.636907,45.3566,35.859366,-80.113193,9.129624
1732862253.9652681,-94.964767,262.291016,150.556961,-134.094126,-76.77411,34.933982,117.746952,44.496189,45.356714,36.595445,-80.113193,9.195572
1732862253.9842618,-93.685852,262.71228,151.162918,-133.422619,-76.73005,33.589364,117.494622,44.302013,45.357058,37.243632,-80.090332,9.261462
1732862254.0152562,-91.516754,263.411865,152.235077,-132.345057,-76.696532,31.379581,116.956156,43.911256,45.357287,38.540063,-80.071998,9.305408
1732862254.0362756,-88.18589,264.529755,154.11142,-130.581321,-76.68639,27.933354,116.728176,43.755469,45.357287,39.144305,-80.071998,9.305408
1732862254.0618448,-84.143425,265.97403,156.736389,-128.273104,-76.620557,23.673814,116.073858,43.20308,45.357287,40.506569,-80.030802,9.305408
1732862254.0738344,-81.733376,266.806671,158.199783,-127.022108,-76.55948,21.338266,115.66723,42.89248,45.357287,41.220704,-79.998774,9.305408
1732862254.088511,-79.798714,267.410248,159.459869,-125.952854,-76.492902,19.31498,115.257565,42.537762,45.357287,42.121565,-79.962162,9.294407
1732862254.1055648,-77.086723,268.248749,161.205627,-124.648458,-76.455431,16.740509,114.765165,42.157719,45.357287,43.000483,-79.934717,9.184571
1732862254.1215107,-73.436378,269.403351,163.644852,-123.197328,-76.426497,13.667622,114.304278,41.72462,45.357287,43.857398,-79.852268,9.030789
1732862254.136561,-71.453423,270.067047,165.135956,-122.343162,-76.397333,11.961525,113.957753,41.399123,45.357287,44.40675,-79.788212,8.909895
1732862254.153597,-68.039505,271.002441,167.217468,-121.511801,-76.378655,9.650557,113.242473,40.817513,45.357287,45.725126,-79.595927,8.536384
1732862254.1695871,-64.636276,271.743378,169.171524,-121.206987,-76.352127,7.738483,112.703377,40.349178,45.357287,46.746824,-79.344169,8.217762
1732862254.183564,-61.336376,272.573181,171.254135,-121.174214,-76.195595,6.25074,112.269418,39.939341,45.357287,47.460959,-79.028298,7.998032
1732862254.2015822,-57.877728,273.215698,173.124146,-121.67326,-75.986007,5.112216,111.555628,39.304561,45.357287,48.889171,-78.396612,7.569575
1732862254.2454417,-53.900967,273.911957,175.01741,-122.625688,-75.685949,4.291397,110.314601,38.214967,45.357287,51.141353,-76.995845,6.822495
