BAEK26/lfd/data/neokalman2_processed.csv
timestamp,x,y,z,roll,pitch,yaw,joint1,joint2,joint3,joint4,joint5,joint6
0,263.49458219779024,194.01192635412258,254.52335791321855,-174.854515,-84.828579,18.44884,39.620891,25.963869,52.701632,19.083276,-59.207167,-7.965087
205,263.5030632009711,193.97286327058592,254.49429283948405,-173.191161,-84.777872,16.735238,39.620891,25.963754,52.700658,19.138165,-59.179665,-7.83325
484,263.5029210080362,193.96915874911497,254.48384312368572,-173.199125,-84.772715,16.743832,39.620891,25.963754,52.69997,19.138165,-59.175138,-7.83325
687,263.50213484724577,193.96812921780972,254.48066590263022,-173.201016,-84.772314,16.745723,39.620891,25.963754,52.699569,19.138165,-59.175138,-7.83325
891,263.50158807543863,193.96765766216797,254.47937629209576,-173.201933,-84.772142,16.746697,39.620891,25.963754,52.69934,19.138165,-59.175138,-7.83325
1044,263.50104560538625,193.9672601306146,254.4784758499446,-173.202907,-84.771913,16.747614,39.620891,25.963754,52.699111,19.138165,-59.175138,-7.83325
1337,263.50028955687884,193.96726405033453,254.47802680757184,-173.203365,-84.771799,16.748187,39.621006,25.96364,52.698882,19.138165,-59.175138,-7.83325
1568,263.49983573588656,193.96686852932723,254.47739299548644,-173.204339,-84.771627,16.749161,39.621006,25.96364,52.698653,19.138165,-59.175138,-7.83325
1785,263.4999448584407,193.96642333417861,254.47769916534688,-173.204798,-84.771512,16.749619,39.621006,25.96364,52.698538,19.138165,-59.175138,-7.83325
1989,263.50202941475703,193.96334851879263,254.48200199659482,-173.085622,-84.770194,16.629928,39.621006,25.96364,52.698538,19.138165,-59.175138,-7.822249
2177,263.5144276301012,193.92347946776897,254.507636814222,-170.824101,-84.734556,14.311855,39.621006,25.963468,52.698538,19.193112,-59.175138,-7.635522
2349,263.5095843658501,193.91974894751158,254.68228688873697,-172.2581,-84.740744,15.753761,39.621006,25.963124,52.698538,19.193112,-59.161387,-7.76736
2581,263.47593856499924,193.89409562182763,255.75405251819964,-171.506551,-84.850867,14.989034,39.62112,25.929148,52.698538,19.193112,-59.248362,-7.723414
2798,263.25241902414547,193.7023714275614,260.87022822046083,-168.343423,-85.596228,11.795081,39.62198,24.805348,52.698538,19.313949,-58.959935,-7.965087
3019,262.8184835798735,193.7301408728662,266.3010568045651,-168.477438,-86.181619,12.300143,39.622495,23.506453,52.698538,19.050274,-58.241274,-8.338599
3264,262.6341904550954,193.90397557223997,267.2604526069299,-172.393318,-85.882477,16.460447,39.622954,23.420223,52.698538,18.841545,-57.788065,-8.492438
3432,262.58675515069893,193.91181662983607,267.4531868370144,-172.339689,-85.871477,16.398969,39.623183,23.420223,52.698538,18.863547,-57.778955,-8.492438
3619,262.4783804490982,193.91793135227684,267.69499641515625,-172.381858,-85.845006,16.445894,39.623813,23.418905,52.697793,18.863547,-57.751453,-8.492438
3820,261.9068195438901,193.93787221112638,269.05345965392326,-171.901319,-86.032936,16.082925,39.626277,23.234298,52.694184,18.731709,-57.751453,-8.470436
3996,259.08302081424245,193.4628154158245,272.77651750838317,-170.866901,-85.483355,15.75187,39.631548,21.996251,52.313797,18.171414,-56.304906,-8.283709
4217,249.37170134156472,191.39356324079506,278.2382133963757,-174.23658,-85.215726,21.825739,39.843485,18.930239,49.867153,15.369879,-55.073563,-7.283955
4463,227.36416723514577,187.9255137412659,285.6796188698711,176.605818,-84.968381,37.961605,40.583059,12.053199,43.928502,7.932142,-53.311145,-4.383528
4707,191.69385806930973,196.57149470024626,288.4586398228508,-176.883473,-85.474474,45.710172,45.423865,5.51787,36.995369,-3.779287,-54.162617,2.340074
4905,160.0400691807125,213.4081389952959,287.8046400672333,-170.118732,-88.050722,50.138505,51.603558,5.011662,35.284345,-10.459001,-58.383196,5.921633
5131,117.92766101496512,237.72477212696646,285.57012858054884,-158.02325,-87.013783,50.898763,61.19321,5.044836,35.265781,-13.425318,-57.93457,7.943143
5352,68.73088490907828,252.14314000270858,277.65800341605933,-165.349317,-84.777299,70.437311,72.598737,5.183148,33.603688,-14.688747,-57.540891,8.393545
5591,20.016028439504606,260.1541412418787,265.6291119158071,-158.232265,-83.254721,72.748451,84.723269,7.647783,33.08774,-11.700428,-58.87296,7.756359
5797,-22.660082272050687,261.5343118352561,245.8130800787831,-145.423163,-80.381624,65.333461,95.037541,12.917964,33.087396,-5.504176,-62.297071,7.514628
5985,-51.859006071808736,257.19289170925646,224.12119655689153,-146.616118,-77.114676,67.038354,102.532001,18.216849,33.087969,1.933618,-64.608784,6.811551
6220,-78.19474615880172,248.29610168610628,199.71848326256605,-149.282721,-76.399911,74.595037,109.014789,25.14706,33.102923,3.449722,-70.64667,6.646711
6474,-100.36916288100156,247.3576748419148,178.37988701850458,-147.591407,-75.472235,73.468029,114.868126,32.990165,36.77902,8.558328,-74.249257,7.448738
6685,-117.98962312720765,256.4421684634432,159.68797484846118,-148.574832,-74.469215,76.018608,117.567559,40.636344,43.42894,9.613029,-74.226396,7.811306
6903,-124.61127188224431,255.57250056767336,144.44156607226248,-152.052571,-72.310711,80.345299,118.611144,45.139391,45.280568,9.525137,-74.528517,8.503439
7098,-125.89742816625818,255.58553897938515,142.49950558511378,-147.079297,-73.497995,75.623553,118.611374,45.354308,45.283662,9.327409,-76.51519,9.228517
7304,-126.20792911530478,255.53768827315378,142.0585794384201,-146.497344,-73.212318,74.991696,118.611374,45.354308,45.283662,9.327409,-76.373269,9.492192
7476,-126.8345225255705,255.26687393529727,141.95420304540687,-146.31606,-73.127577,75.653691,118.611374,45.354308,45.283662,8.470436,-76.34124,9.580084
7651,-126.94166203811818,255.2461033229657,141.93623083402107,-146.31606,-73.127577,75.653691,118.611374,45.354308,45.283662,8.470436,-76.34124,9.580084
7877,-126.9579057031386,255.24459185469738,141.93277395871957,-146.31606,-73.127577,75.653691,118.611374,45.354308,45.283662,8.470436,-76.34124,9.580084
8138,-126.9482281807133,255.2455454386221,141.93000491829625,-146.31606,-73.127577,75.653691,118.611374,45.354308,45.283662,8.470436,-76.34124,9.580084
8373,-126.8739193811411,255.25955945168093,141.9168475510578,-146.557161,-73.159892,75.825292,118.610571,45.354308,45.278849,8.547384,-76.332073,9.503193
8584,-126.7947401061333,255.3350340389717,141.92392438805055,-156.762284,-74.749965,86.165977,118.610571,45.353563,45.278849,8.822003,-76.332073,6.174308
8787,-127.46251325565869,255.17209794817035,141.91728677724535,159.795236,-75.033808,131.07693,118.610457,45.353448,45.278849,8.756113,-76.295461,-5.240501
9006,-131.28283142781882,253.24432794815118,141.8991322754215,133.141526,-69.170502,164.521393,118.610457,45.352245,45.279823,3.186046,-76.295461,-15.776393
9214,-132.37888331125419,252.85723514981126,141.85177487528364,117.317291,-58.016159,-177.307405,118.610457,45.350125,45.284751,2.603749,-76.300045,-29.399438
9425,-132.70311643970612,252.59421068270748,141.36807297628044,112.277554,-48.08216,-170.197801,118.610457,45.350011,45.291225,2.230238,-75.695803,-39.968275
9601,-132.18655532698244,252.92478269013142,140.89859498239892,109.37581,-38.420659,-166.521589,118.610457,45.350011,45.321477,3.306883,-75.077811,-51.163355
9803,-132.16291952218853,252.70782903234826,139.97528091811296,108.474662,-27.900867,-162.952119,118.610801,45.350011,45.346172,3.043208,-74.043279,-60.842274
9988,-132.32489780614864,252.58060906732334,139.67776252627888,107.485851,-19.548117,-159.876482,118.610801,45.350011,45.355396,2.856424,-73.850994,-69.796172
10183,-132.48355131470313,252.45114540589068,139.4988862395603,107.143108,-13.784734,-157.855201,118.61103,45.350011,45.358376,2.625751,-73.658767,-75.959479
10411,-132.51116208207026,252.4397306987984,139.46509091108297,107.114231,-13.332957,-157.713279,118.61103,45.350011,45.358376,2.625751,-73.658767,-76.091316
10639,-132.51579317771836,252.43885708946553,139.45944322693745,107.114231,-13.332957,-157.713279,118.61103,45.350011,45.358376,2.625751,-73.658767,-76.091316
10826,-132.51596898423983,252.4388178075273,139.45935245054176,107.114231,-13.332957,-157.713279,118.61103,45.350011,45.358376,2.625751,-73.658767,-76.091316
11014,-132.51239272772068,252.4391763870028,139.46445547631296,107.114231,-13.332957,-157.713279,118.61103,45.350011,45.358376,2.625751,-73.658767,-76.091316
11202,-132.49075938208424,252.443917044287,139.49516440733598,107.635508,-18.25455,-159.359616,118.61103,45.350011,45.35872,2.647695,-73.576375,-70.927763
11373,-132.54019556478465,252.55912486031494,140.02227896770307,108.626209,-29.218842,-162.924216,118.61103,45.350011,45.35872,2.559804,-74.111919,-59.469008
11559,-132.3651620066236,252.8367200131757,140.97365339888256,111.620028,-43.929362,-168.950471,118.61103,45.350011,45.35872,2.559804,-74.908445,-44.000237
11784,-131.00252047495692,254.02463753465483,142.92755342559232,116.311693,-58.490339,-178.110692,118.61103,45.350011,45.35872,4.328639,-76.922621,-28.410628
11982,-128.52819684311794,255.82911655229876,145.4791791546715,126.369165,-72.471254,166.294067,118.61103,45.350011,45.35872,7.624521,-79.962162,-14.249288
12182,-127.14718858375088,256.3167572621512,145.84296950243652,173.793111,-79.614835,116.736427,118.61103,45.350011,45.35849,8.569329,-79.916382,-1.109647
12416,-125.11735465938726,257.0955008847953,145.77901785994752,-140.959535,-76.590534,68.003329,118.61103,45.350011,45.358147,11.173078,-79.838575,8.580329
12621,-124.73162337257267,257.07209878294225,145.37685365724852,-135.835115,-74.788639,62.676426,118.61103,45.350011,45.357917,11.129132,-79.367088,10.766622
12778,-124.3888695760487,257.10076093600287,145.0587040835435,-139.822271,-75.285279,66.464594,118.61103,45.350011,45.357058,11.403808,-79.023771,9.624029
12949,-123.91424608371948,257.263266822428,144.9944748440124,-139.153171,-75.141811,65.146676,118.61103,45.350011,45.356943,12.051995,-79.023771,9.909649
13214,-123.92625892626812,257.2066262913872,144.90722898053087,-137.575303,-74.616637,63.700932,118.610915,45.350011,45.356485,11.821265,-78.918462,10.568837
13412,-123.66533947388922,257.2567112202032,144.9140470391728,-135.88416,-74.174199,61.74749,118.610915,45.350011,45.356198,12.01905,-78.918462,11.20608
13598,-122.88548191706714,257.3121874846105,145.04525325450595,-138.172095,-74.765492,64.121827,118.610915,45.350011,45.355511,12.01905,-78.918462,10.338107
13819,-118.47280802851358,258.0104913558001,145.82262048786276,-138.225782,-74.90707,62.369435,118.610686,45.349896,45.355396,13.996557,-79.014604,10.239271
14022,-100.13508225401436,261.07315473588017,149.9557176726705,-136.59268,-76.737212,41.690701,118.437137,44.998214,45.355969,32.969997,-80.113193,9.129624
14205,-76.25650949557262,267.5145040701839,161.5618935481602,-125.952854,-76.492902,19.31498,115.257565,42.537762,45.357287,42.121565,-79.962162,9.294407
14392,-38.20911871942138,275.1142541843073,181.57616761629077,-127.916724,-73.934417,3.388071,108.436273,36.693019,45.357287,54.085669,-74.615492,5.866687
14569,6.535197179044305,275.38601745740084,202.82504414958444,-133.839675,-76.569908,-6.735806,100.921703,31.998203,45.357287,63.720699,-74.098225,-2.263183
14787,65.14092579368723,269.4539080349476,226.73371728121592,-145.291898,-81.655137,-8.4034,87.610461,26.526685,45.356485,64.808345,-74.06614,-12.282725
14999,115.82588958307906,255.54574344524426,245.124255537711,-132.542098,-82.688066,-28.783222,75.869295,22.90542,45.35637,61.270732,-73.054525,-14.150396
15172,154.21049970478714,238.6334393582544,262.12808794505,-111.810422,-83.257299,-54.219684,67.173285,19.777816,45.356198,57.392552,-72.322056,-14.930421
15414,190.8360966456438,217.7791281407575,283.67027213258893,-94.869836,-83.103804,-67.970442,56.237355,14.574156,45.355969,44.033182,-65.794348,-13.853776
15585,213.36980016907555,202.23825182056598,296.5788488504835,-86.985536,-84.950275,-70.831793,48.911344,11.639924,45.355969,31.475838,-60.360703,-11.667483
15756,229.6439363688094,186.2915068399963,300.6772089703119,-91.024659,-84.282665,-65.624695,42.896032,10.84844,45.357173,23.774425,-57.52714,-7.349845
15952,235.73832604378083,182.6328711927186,299.60989297138747,-97.100934,-84.026438,-56.032579,40.800267,10.903903,45.357516,17.160659,-55.764779,-3.691395
16149,239.16651189387565,183.51200435342506,292.4959408580128,-133.023898,-84.442463,-20.568154,40.793564,12.595159,45.545389,18.05052,-54.354844,-5.526121
16336,247.28998131947307,189.15318588552046,289.14090017668894,-128.296824,-84.268341,-26.383389,40.739591,15.781206,48.964286,19.270003,-54.565406,-5.81174
16526,255.13099202296272,191.58869947895394,282.9958242021207,-132.656632,-85.375467,-22.555171,39.947821,19.298937,51.276801,18.786599,-56.062316,-6.284201
16733,257.7651348183033,191.99954061631956,277.9264530360349,-135.558205,-84.714961,-20.35719,39.923756,20.320292,51.566946,19.412841,-56.254601,-6.152364
16957,259.51462488685695,192.07738860168018,271.6131860140886,-140.96389,-84.699778,-15.292473,39.796331,21.807175,51.657474,19.434843,-57.270799,-6.130362
17118,261.8412905028383,193.43455438348758,266.12851904849697,-142.199645,-84.945577,-14.395679,39.755364,23.77729,52.53662,19.55568,-58.447253,-6.119361
17350,263.14151813017276,193.83329109293425,262.8923042768929,-147.091215,-84.955317,-9.866047,39.734795,24.57479,52.839199,19.896246,-58.753957,-6.481929
17532,263.60303427819827,192.92071772387231,261.6682986128601,-144.815312,-83.807912,-13.338801,39.734566,24.57479,52.839199,21.368404,-58.117687,-6.328147
17765,263.4506875390167,193.37688573116927,261.1115074002676,-143.851711,-83.105867,-13.792183,39.734566,24.574675,52.838855,20.830053,-57.531724,-5.592068
17954,263.1297789559021,194.4029840847908,261.17506178874567,-151.305663,-83.958542,-5.023751,39.734566,24.574332,52.837881,19.303005,-57.609531,-6.075415
18264,263.3586261963959,193.62701671386571,260.9692593322062,-157.211598,-84.091125,-0.08898,39.73468,24.573988,52.835532,20.511488,-57.609531,-7.229009
18514,263.4544742224732,193.42124616367053,260.32506620449124,-165.184305,-84.343627,7.689208,39.73468,24.576967,52.83049,20.786107,-57.63245,-8.195817
18702,263.4642871384432,194.17165520981445,256.8673698947413,-165.933906,-84.266622,9.156209,39.73468,25.557699,52.826193,19.764408,-58.360278,-7.492684
18931,263.5890606081859,194.10972214278527,255.4290811639563,-166.604897,-84.485778,9.629358,39.73468,25.848189,52.826193,19.907247,-58.859267,-7.580575
19160,263.6414885106721,194.11912399559202,254.8044090889965,-167.177282,-84.594755,10.197388,39.73468,25.981344,52.826193,19.874244,-59.078996,-7.60252
19328,263.66575445584664,194.10782579942082,254.56528137002255,-162.5275,-84.512077,5.512943,39.732274,26.019331,52.826193,19.874244,-59.15222,-7.141117
19601,263.6611422244076,194.1213587079254,254.3117671311387,-161.060327,-84.304552,4.051671,39.732159,26.050672,52.826193,19.874244,-59.028633,-6.943332
19880,263.6603508905988,194.12241059337896,254.26833341680967,-161.373506,-84.315151,4.366397,39.732159,26.050672,52.826193,19.874244,-59.028633,-6.965333
20121,263.66021511918484,194.12249129415386,254.2608813697192,-161.373506,-84.315151,4.366397,39.732159,26.050672,52.826193,19.874244,-59.028633,-6.965333
20322,263.6601918245099,194.1224974855267,254.2596028015051,-161.373506,-84.315151,4.366397,39.732159,26.050672,52.826193,19.874244,-59.028633,-6.965333
20537,263.6601878278745,194.12249796052944,254.2593834393115,-161.373506,-84.315151,4.366397,39.732159,26.050672,52.826193,19.874244,-59.028633,-6.965333
20721,263.660187142737,194.12249799697042,254.25934583436404,-161.373506,-84.315151,4.366397,39.732159,26.050672,52.826193,19.874244,-59.028633,-6.965333
20897,263.6601870285474,194.12249799974987,254.25933956687282,-161.373506,-84.315151,4.366397,39.732159,26.050672,52.826193,19.874244,-59.028633,-6.965333
