BAEK26/lfd/data/processed_ddd.csv
timestamp,x,y,z,roll,pitch,yaw,joint1,joint2,joint3,joint4,joint5,joint6,gripper
135.0,-133.052948,231.143112,183.506683,-150.143934,-85.009232,56.19169,129.40183,35.201095,40.297325,44.022238,-81.893946,-0.878917,0
137.77777777777777,-133.052948,231.143112,183.506683,-150.143934,-85.009232,56.19169,129.40183,35.201095,40.297325,44.022238,-81.893946,-0.878917,0
140.55555555555554,-133.052948,231.143112,183.506683,-150.143934,-85.009232,56.19169,129.40183,35.201095,40.297325,44.022238,-81.893946,-0.878917,0
143.33333333333331,-133.052948,231.143112,183.506683,-150.143934,-85.009232,56.19169,129.40183,35.201095,40.297325,44.022238,-81.893946,-0.878917,0
146.1111111111111,-133.052948,231.143112,183.506683,-150.143934,-85.009232,56.19169,129.40183,35.201095,40.297325,44.022238,-81.893946,-0.878917,0
148.88888888888886,-133.052948,231.143112,183.506683,-150.143934,-85.009232,56.19169,129.40183,35.201095,40.297325,44.022238,-81.893946,-0.878917,0
151.66666666666663,-133.052948,231.143112,183.506683,-150.143934,-85.009232,56.19169,129.40183,35.201095,40.297325,44.022238,-81.893946,-0.878917,0
154.4444444444444,-133.052948,231.143112,183.506683,-150.143934,-85.009232,56.19169,129.40183,35.201095,40.297325,44.022238,-81.893946,-0.878917,0
157.22222222222217,-133.052948,231.143112,183.506683,-150.143934,-85.009232,56.19169,129.40183,35.201095,40.297325,44.022238,-81.893946,-0.878917,0
159.99999999999994,-133.052948,231.143112,183.506683,-150.143934,-85.009232,56.19169,129.40183,35.201095,40.297325,44.022238,-81.893946,-0.878917,0
162.77777777777771,-133.052948,231.143112,183.506683,-150.143934,-85.009232,56.19169,129.40183,35.201095,40.297325,44.022238,-81.893946,-0.878917,0
165.5555555555555,-133.052948,231.143112,183.506683,-150.143934,-85.009232,56.19169,129.40183,35.201095,40.297325,44.022238,-81.893946,-0.878917,0
168.33333333333326,-133.052948,231.143112,183.506683,-150.143934,-85.009232,56.19169,129.40183,35.201095,40.297325,44.022238,-81.893946,-0.878917,0
171.11111111111103,-133.052948,231.143112,183.506683,-150.143934,-85.009232,56.19169,129.40183,35.201095,40.297325,44.022238,-81.893946,-0.878917,0
173.8888888888888,-133.052948,231.143112,183.506683,-150.143934,-85.009232,56.19169,129.40183,35.201095,40.297325,44.022238,-81.893946,-0.878917,0
176.66666666666657,-133.052948,231.143112,183.506683,-150.143934,-85.009232,56.19169,129.40183,35.201095,40.297325,44.022238,-81.893946,-0.878917,0
179.44444444444434,-133.052948,231.143112,183.506683,-150.143934,-85.009232,56.19169,129.40183,35.201095,40.297325,44.022238,-81.893946,-0.878917,0
182.2222222222221,-133.052948,231.143112,183.506683,-150.143934,-85.009232,56.19169,129.40183,35.201095,40.297325,44.022238,-81.893946,-0.878917,0
184.9999999999999,-133.052948,231.143112,183.506683,-150.143934,-85.009232,56.19169,129.40183,35.201095,40.297325,44.022238,-81.893946,-0.878917,0
187.7777777777777,-133.052948,231.143112,183.50668667407407,-150.15688368888888,-85.00987721481481,56.20468721481482,129.40183,35.201095,40.297325,44.022238,-81.893946,-0.8802208222222221,0
190.55555555555543,-133.052948,231.143112,183.5066924148148,-150.17711757777778,-85.01088536296297,56.22499536296296,129.40183,35.201095,40.297325,44.022238,-81.893946,-0.8822580444444443,0
193.3333333333332,-133.052948,231.143112,183.5066981555556,-150.19735146666667,-85.01189351111111,56.24530351111111,129.40183,35.201095,40.297325,44.022238,-81.893946,-0.8842952666666666,0
196.11111111111097,-133.052948,231.143112,183.5067038962963,-150.21758535555554,-85.01290165925926,56.265611659259264,129.40183,35.201095,40.297325,44.022238,-81.893946,-0.8863324888888887,0
198.88888888888877,-133.052948,231.143112,183.50670963703703,-150.23781924444444,-85.0139098074074,56.28591980740741,129.40183,35.201095,40.297325,44.022238,-81.893946,-0.888369711111111,0
201.6666666666665,-133.052948,231.143112,183.506714,-150.253197,-85.014676,56.301354,129.40183,35.201095,40.297325,44.022238,-81.893946,-0.889918,0
204.4444444444443,-133.052948,231.143112,183.506714,-150.253197,-85.014676,56.301354,129.40183,35.201095,40.297325,44.022238,-81.893946,-0.889918,0
207.2222222222221,-133.052948,231.143112,183.506714,-150.253197,-85.014676,56.301354,129.40183,35.201095,40.297325,44.022238,-81.893946,-0.889918,0
209.99999999999983,-133.052948,231.143112,183.506714,-150.253197,-85.014676,56.301354,129.40183,35.201095,40.297325,44.022238,-81.893946,-0.889918,0
212.7777777777776,-133.052948,231.143112,183.506714,-150.253197,-85.014676,56.301354,129.40183,35.201095,40.297325,44.022238,-81.893946,-0.889918,0
215.55555555555537,-133.052948,231.143112,183.506714,-150.253197,-85.014676,56.301354,129.40183,35.201095,40.297325,44.022238,-81.893946,-0.889918,0
218.33333333333317,-133.052948,231.143112,183.506714,-150.253197,-85.014676,56.301354,129.40183,35.201095,40.297325,44.022238,-81.893946,-0.889918,0
221.1111111111109,-133.052948,231.143112,183.506714,-150.253197,-85.014676,56.301354,129.40183,35.201095,40.297325,44.022238,-81.893946,-0.889918,0
223.8888888888887,-133.052948,231.143112,183.506714,-150.253197,-85.014676,56.301354,129.40183,35.201095,40.297325,44.022238,-81.893946,-0.889918,0
226.6666666666665,-133.052948,231.143112,183.506714,-150.253197,-85.014676,56.301354,129.40183,35.201095,40.297325,44.022238,-81.893946,-0.889918,0
229.44444444444423,-133.052948,231.143112,183.506714,-150.253197,-85.014676,56.301354,129.40183,35.201095,40.297325,44.022238,-81.893946,-0.889918,0
232.222222222222,-133.052948,231.143112,183.506714,-150.253197,-85.014676,56.301354,129.40183,35.201095,40.297325,44.022238,-81.893946,-0.889918,0
234.99999999999977,-133.052948,231.143112,183.506714,-150.253197,-85.014676,56.301354,129.40183,35.201095,40.297325,44.022238,-81.893946,-0.889918,0
237.77777777777757,-133.052948,231.143112,183.506714,-150.253197,-85.014676,56.301354,129.40183,35.201095,40.297325,44.022238,-81.893946,-0.889918,0
240.5555555555553,-133.052948,231.143112,183.506714,-150.253197,-85.014676,56.301354,129.40183,35.201095,40.297325,44.022238,-81.893946,-0.889918,0
243.3333333333331,-133.052948,231.143112,183.506714,-150.253197,-85.014676,56.301354,129.40183,35.201095,40.297325,44.022238,-81.893946,-0.889918,0
246.1111111111109,-133.052948,231.143112,183.506714,-150.253197,-85.014676,56.301354,129.40183,35.201095,40.297325,44.022238,-81.893946,-0.889918,0
248.88888888888863,-133.052948,231.143112,183.506714,-150.253197,-85.014676,56.301354,129.40183,35.201095,40.297325,44.022238,-81.893946,-0.889918,0
251.6666666666664,-133.052948,231.143112,183.506714,-150.253197,-85.014676,56.301354,129.40183,35.201095,40.297325,44.022238,-81.893946,-0.889918,0
254.44444444444417,-133.052948,231.143112,183.506714,-150.253197,-85.014676,56.301354,129.40183,35.201095,40.297325,44.022238,-81.893946,-0.889918,0
257.22222222222194,-133.052948,231.143112,183.506714,-150.253197,-85.014676,56.301354,129.40183,35.201095,40.297325,44.022238,-81.893946,-0.889918,0
259.9999999999997,-133.052948,231.143112,183.506714,-150.253197,-85.014676,56.301354,129.40183,35.201095,40.297325,44.022238,-81.893946,-0.889918,0
262.7777777777775,-133.052948,231.143112,183.506714,-150.253197,-85.014676,56.301354,129.40183,35.201095,40.297325,44.022238,-81.893946,-0.889918,0
265.55555555555526,-133.052948,231.143112,183.506714,-150.253197,-85.014676,56.301354,129.40183,35.201095,40.297325,44.022238,-81.893946,-0.889918,0
268.33333333333303,-133.052948,231.143112,183.506714,-150.253197,-85.014676,56.301354,129.40183,35.201095,40.297325,44.022238,-81.893946,-0.889918,0
271.1111111111108,-133.052948,231.143112,183.506714,-150.253197,-85.014676,56.301354,129.40183,35.201095,40.297325,44.022238,-81.893946,-0.889918,0
273.8888888888886,-133.052948,231.143112,183.506714,-150.253197,-85.014676,56.301354,129.40183,35.201095,40.297325,44.022238,-81.893946,-0.889918,0
276.66666666666634,-133.052948,231.143112,183.506714,-150.253197,-85.014676,56.301354,129.40183,35.201095,40.297325,44.022238,-81.893946,-0.889918,0
279.4444444444441,-133.0472785185185,231.1426917185185,183.50643044444445,-150.2691074,-85.01516146666667,56.311998251851854,129.40183,35.201095,40.297325,44.02760681481482,-81.893946,-0.8917014666666664,0
282.2222222222219,-133.0408359259259,231.14221412592596,183.50610822222225,-150.2871874,-85.01571313333334,56.324093992592594,129.40183,35.201095,40.297325,44.03370774074074,-81.893946,-0.8937281333333331,0
284.99999999999966,-133.03439333333333,231.14173653333333,183.505786,-150.3052674,-85.0162648,56.336189733333335,129.40183,35.201095,40.297325,44.039808666666666,-81.893946,-0.8957547999999997,0
287.77777777777743,-133.02795074074075,231.1412589407408,183.50546377777775,-150.3233474,-85.01681646666667,56.34828547407407,129.40183,35.201095,40.297325,44.045909592592594,-81.893946,-0.8977814666666665,0
290.5555555555552,-133.02150814814814,231.14078134814812,183.50514155555555,-150.3414274,-85.01736813333333,56.36038121481481,129.40183,35.201095,40.297325,44.052010518518514,-81.893946,-0.8998081333333331,0
293.333333333333,-133.00366091666666,231.1394280833333,183.5042365,-150.34594933333335,-85.01661891666667,56.34811675,129.40183,35.201095,40.297325,44.06891491666666,-81.893946,-0.900862,0
296.11111111111074,-132.9734586597222,231.1371261736111,183.50270004166669,-150.3357833611111,-85.01446040972223,56.3094620625,129.40183,35.201095,40.297325,44.09752307638888,-81.893946,-0.900862,0
298.8888888888885,-132.9432564027778,231.1348242638889,183.50116358333332,-150.3256173888889,-85.01230190277778,56.270807375,129.40183,35.201095,40.297325,44.12613123611111,-81.893946,-0.900862,0
301.6666666666663,-132.91305414583334,231.13252235416667,183.499627125,-150.31545141666666,-85.01014339583334,56.232152687500005,129.40183,35.201095,40.297325,44.15473939583333,-81.893946,-0.900862,0
304.44444444444406,-132.8828518888889,231.13022044444443,183.49809066666668,-150.30528544444445,-85.0079848888889,56.193498000000005,129.40183,35.201095,40.297325,44.18334755555555,-81.893946,-0.900862,0
307.22222222222183,-132.85264963194444,231.12791853472223,183.49655420833332,-150.2951194722222,-85.00582638194444,56.154843312500006,129.40183,35.201095,40.297325,44.211955715277774,-81.893946,-0.900862,0
309.9999999999996,-132.8148207333333,231.1249424,183.49462866666667,-150.29703233333333,-85.0038468,56.12113226666667,129.40183,35.201095,40.297325,44.24779639999999,-81.893946,-0.9023286666666664,0
312.7777777777774,-132.7740259185185,231.12170406666667,183.4925518148148,-150.3036425185185,-85.0019368,56.08934374814815,129.40183,35.201095,40.297325,44.28644973333333,-81.893946,-0.9043657037037034,0
315.55555555555515,-132.7332311037037,231.11846573333332,183.49047496296296,-150.3102527037037,-85.0000268,56.05755522962963,129.40183,35.201095,40.297325,44.32510306666666,-81.893946,-0.9064027407407405,0
318.3333333333329,-132.69243628888887,231.1152274,183.4883981111111,-150.3168628888889,-84.99811679999999,56.02576671111111,129.40183,35.201095,40.297325,44.36375639999999,-81.893946,-0.9084397777777774,0
321.1111111111107,-132.65164147407407,231.11198906666667,183.48632125925928,-150.32347307407406,-84.9962068,55.99397819259259,129.40183,35.201095,40.297325,44.40240973333333,-81.893946,-0.9104768148148144,0
323.88888888888846,-132.61102177777778,231.1087155,183.48424777777777,-150.3237281111111,-84.99398494444443,55.95597222222223,129.40183,35.201095,40.297325,44.44517294444444,-81.893946,-0.9124731666666664,0
326.66666666666623,-132.57077420833332,231.1053670625,183.4821814583333,-150.31047845833334,-84.99110039583333,55.90475416666667,129.40183,35.201095,40.297325,44.49666964583333,-81.893946,-0.9143830624999996,0
329.444444444444,-132.5305266388889,231.102018625,183.4801151388889,-150.29722880555556,-84.98821584722222,55.85353611111112,129.40183,35.201095,40.297325,44.54816634722221,-81.893946,-0.916292958333333,0
332.2222222222218,-132.49027906944443,231.0986701875,183.47804881944444,-150.2839791527778,-84.9853312986111,55.80231805555556,129.40183,35.201095,40.297325,44.59966304861111,-81.893946,-0.9182028541666664,0
334.99999999999955,-132.4500315,231.09532175,183.4759825,-150.27072950000002,-84.98244675,55.75110000000001,129.40183,35.201095,40.297325,44.65115974999999,-81.893946,-0.9201127499999996,0
337.7777777777773,-132.40978393055556,231.0919733125,183.4739161805556,-150.25747984722224,-84.97956220138889,55.69988194444445,129.40183,35.201095,40.297325,44.70265645138888,-81.893946,-0.922022645833333,0
340.5555555555551,-132.35723221481484,231.08743648888887,183.4712094,-150.25160841481485,-84.9763500074074,55.64445813333335,129.40183,35.201095,40.297325,44.75949802222221,-81.893946,-0.922863,0
343.33333333333286,-132.29501295555556,231.0819659333333,183.4679994,-150.25153415555556,-84.97288037777777,55.58572980000001,129.40183,35.201095,40.297325,44.82053913333333,-81.893946,-0.922863,0
346.11111111111063,-132.2327936962963,231.07649537777775,183.4647894,-150.2514598962963,-84.96941074814815,55.52700146666668,129.40183,35.201095,40.297325,44.88158024444444,-81.893946,-0.922863,0
348.8888888888884,-132.17057443703706,231.07102482222223,183.4615794,-150.25138563703703,-84.96594111851851,55.46827313333335,129.40183,35.201095,40.297325,44.942621355555545,-81.893946,-0.922863,0
351.6666666666662,-132.1083551777778,231.06555426666665,183.4583694,-150.25131137777777,-84.9624714888889,55.40954480000001,129.40183,35.201095,40.297325,45.00366246666666,-81.893946,-0.922863,0
354.44444444444395,-132.04515469444448,231.05993072222225,183.45510377777777,-150.24778577777778,-84.95876919444444,55.34642383333335,129.40183,35.201095,40.297325,45.06531230555554,-81.893946,-0.922863,0
357.2222222222217,-131.97680278472225,231.0535039861111,183.4515461388889,-150.2261406388889,-84.95384540972222,55.26024154166668,129.40183,35.201095,40.297325,45.13015796527777,-81.893946,-0.922863,0
359.9999999999995,-131.90845087500003,231.04707725,183.4479885,-150.2044955,-84.948921625,55.17405925000001,129.40183,35.201095,40.297325,45.19500362499999,-81.893946,-0.922863,0
362.77777777777726,-131.8400989652778,231.0406505138889,183.4444308611111,-150.18285036111112,-84.94399784027777,55.08787695833335,129.40183,35.201095,40.297325,45.259849284722215,-81.893946,-0.922863,0
365.55555555555503,-131.77174705555558,231.03422377777775,183.44087322222225,-150.16120522222224,-84.93907405555555,55.00169466666668,129.40183,35.201095,40.297325,45.32469494444444,-81.893946,-0.922863,0
368.3333333333328,-131.70339514583335,231.02779704166667,183.43731558333332,-150.13956008333335,-84.93415027083333,54.91551237500001,129.40183,35.201095,40.297325,45.389540604166655,-81.893946,-0.922863,0
371.1111111111106,-131.63411792592595,231.02112322222223,183.43371611111112,-150.1177707037037,-84.9291502962963,54.82826262962964,129.40183,35.201095,40.29733351851852,45.448794370370365,-81.893946,-0.922863,0
373.8888888888884,-131.56345274074076,231.0140787777778,183.4300538888889,-150.095764962963,-84.92403603703704,54.73941170370372,129.40183,35.201095,40.29735481481482,45.49966029629629,-81.893946,-0.922863,0
376.6666666666661,-131.49278755555557,231.0070343333333,183.42639166666663,-150.07375922222224,-84.91892177777778,54.65056077777779,129.40183,35.201095,40.29737611111111,45.55052622222222,-81.893946,-0.922863,0
379.4444444444439,-131.42212237037035,230.9999898888889,183.42272944444443,-150.05175348148148,-84.91380751851851,54.56170985185187,129.40183,35.201095,40.29739740740741,45.60139214814814,-81.893946,-0.922863,0
382.22222222222166,-131.35145718518518,230.99294544444444,183.41906722222225,-150.02974774074076,-84.90869325925925,54.47285892592595,129.40183,35.201095,40.297418703703705,45.65225807407407,-81.893946,-0.922863,0
384.9999999999994,-131.28079200000002,230.985901,183.415405,-150.007742,-84.903579,54.38400800000002,129.40183,35.201095,40.29744,45.703124,-81.893946,-0.922863,0
387.7777777777772,-131.20375218518518,230.9777008148148,183.41137555555557,-149.98443107407408,-84.89797677777777,54.28779355555557,129.40183,35.201095,40.29745055555556,45.77636714814813,-81.893946,-0.922863,0
390.555555555555,-131.12671237037037,230.96950062962964,183.4073461111111,-149.96112014814815,-84.89237455555555,54.19157911111113,129.40183,35.201095,40.29746111111111,45.84961029629629,-81.893946,-0.922863,0
393.3333333333328,-131.04967255555556,230.96130044444445,183.40331666666663,-149.93780922222223,-84.88677233333334,54.09536466666669,129.40183,35.201095,40.29747166666667,45.92285344444443,-81.893946,-0.922863,0
396.1111111111105,-130.97263274074075,230.9531002592593,183.39928722222223,-149.9144982962963,-84.88117011111112,53.99915022222224,129.40183,35.201095,40.29748222222222,45.99609659259257,-81.893946,-0.922863,0
398.8888888888883,-130.89559292592594,230.94490007407407,183.39525777777777,-149.89118737037035,-84.8755678888889,53.9029357777778,129.40183,35.201095,40.29749277777778,46.06933974074072,-81.893946,-0.922863,0
401.66666666666606,-130.83164422222225,230.9379649074074,183.3919534074074,-149.8718680925926,-84.87091311111112,53.82305907407409,129.40181944444444,35.201095,40.29752885185185,46.13017088888888,-81.893946,-0.922863,0
404.44444444444383,-130.77642292592594,230.93187308641976,183.38913241975308,-149.85520991358027,-84.86688996296297,53.75407419753088,129.40180185185184,35.201095,40.297581938271605,46.18272737037036,-81.893946,-0.922863,0
407.2222222222216,-130.72120162962966,230.9257812654321,183.3863114320988,-149.83855173456791,-84.86286681481482,53.68508932098767,129.40178425925924,35.201095,40.29763502469136,46.23528385185184,-81.893946,-0.922863,0
409.9999999999994,-130.66598033333335,230.91968944444443,183.38349044444445,-149.82189355555556,-84.85884366666667,53.61610444444446,129.40176666666665,35.201095,40.29768811111111,46.28784033333332,-81.893946,-0.922863,0
412.7777777777772,-130.61075903703704,230.9135976234568,183.38066945679012,-149.8052353765432,-84.85482051851852,53.54711956790125,129.40174907407408,35.201095,40.29774119753086,46.3403968148148,-81.893946,-0.922863,0
415.5555555555549,-130.55553774074076,230.90750580246916,183.3778484691358,-149.78857719753088,-84.85079737037037,53.47813469135804,129.40173148148148,35.201095,40.297794283950616,46.39295329629629,-81.893946,-0.922863,0
418.3333333333327,-130.5003930784314,230.9013799803921,183.37502911764707,-149.7719845490196,-84.84677729411764,53.40927627450982,129.401716,35.201095,40.29784998039216,46.44695815686273,-81.893946,-0.922863,0
421.11111111111046,-130.44581039869283,230.89500481699343,183.3722217647059,-149.75587245751635,-84.84277974509804,53.341345228758186,129.401716,35.201095,40.297924816993465,46.51158446405227,-81.893946,-0.922863,0
423.8888888888882,-130.39122771895427,230.8886296535948,183.36941441176472,-149.7397603660131,-84.83878219607844,53.27341418300655,129.401716,35.201095,40.29799965359477,46.57621077124181,-81.893946,-0.922863,0
426.666666666666,-130.3366450392157,230.8822544901961,183.36660705882352,-149.7236482745098,-84.83478464705883,53.20548313725492,129.401716,35.201095,40.29807449019608,46.64083707843135,-81.893946,-0.922863,0
429.4444444444438,-130.28206235947715,230.8758793267974,183.36379970588237,-149.70753618300654,-84.83078709803922,53.13755209150329,129.401716,35.201095,40.298149326797386,46.7054633856209,-81.893946,-0.922863,0
432.2222222222216,-130.2274796797386,230.8695041633987,183.3609923529412,-149.69142409150328,-84.82678954901961,53.06962104575165,129.401716,35.201095,40.29822416339869,46.77008969281045,-81.893946,-0.922863,0
434.9999999999993,-130.172897,230.863129,183.358185,-149.675312,-84.822792,53.00169000000002,129.401716,35.201095,40.298299,46.83471599999999,-81.893946,-0.922863,0
437.7777777777771,-130.1214515634921,230.85682106349205,183.35601724206347,-149.65804940079366,-84.81940995634922,52.93557819444447,129.40169328174602,35.201095,40.29835019047619,46.88376411507935,-81.89439510714286,-0.922863,0
440.55555555555486,-130.07000612698414,230.8505131269841,183.35384948412695,-149.6407868015873,-84.81602791269842,52.86946638888891,129.40167056349205,35.201095,40.29840138095238,46.93281223015872,-81.89484421428571,-0.922863,0
443.33333333333263,-130.0185606904762,230.84420519047617,183.3516817261905,-149.62352420238096,-84.81264586904763,52.80335458333335,129.4016478452381,35.201095,40.29845257142857,46.98186034523808,-81.89529332142857,-0.922863,0
446.1111111111104,-129.96711525396827,230.83789725396824,183.349513968254,-149.6062616031746,-84.80926382539683,52.737242777777794,129.40162512698413,35.201095,40.29850376190476,47.03090846031745,-81.89574242857142,-0.922863,0
448.8888888888882,-129.91566981746033,230.8315893174603,183.34734621031745,-149.58899900396827,-84.80588178174604,52.67113097222224,129.40160240873016,35.201095,40.29855495238096,47.079956575396814,-81.89619153571428,-0.922863,0
451.666666666666,-129.8642243809524,230.8252813809524,183.3451784523809,-149.5717364047619,-84.80249973809525,52.605019166666686,129.40157969047618,35.201095,40.29860614285714,47.12900469047618,-81.89664064285714,-0.922863,0
454.4444444444437,-129.81277894444446,230.81897344444445,183.34301069444444,-149.55447380555557,-84.79911769444445,52.53890736111113,129.4015569722222,35.201095,40.29865733333333,47.178052805555545,-81.89708974999999,-0.922863,0
457.2222222222215,-129.7613335079365,230.8126655079365,183.34084293650795,-149.5372112063492,-84.79573565079366,52.47279555555557,129.40153425396826,35.201095,40.29870852380952,47.22710092063491,-81.89753885714285,-0.922863,0
459.99999999999926,-129.7098880714286,230.80635757142855,183.33867517857144,-149.51994860714285,-84.79235360714286,52.40668375000001,129.4015115357143,35.201095,40.29875971428572,47.27614903571428,-81.8979879642857,-0.922863,0
462.777777777777,-129.65844263492065,230.80004963492064,183.3365074206349,-149.50268600793652,-84.78897156349207,52.340571944444456,129.40148881746032,35.201095,40.2988109047619,47.32519715079364,-81.89843707142856,-0.922863,0
465.5555555555548,-129.60121393055556,230.7928500833333,183.33396260416663,-149.48521681944445,-84.7848025,52.26852342361113,129.40146863194445,35.2010216875,40.29897967361111,47.38351695833332,-81.898473,-0.922863,0
468.3333333333326,-129.54348233333334,230.785573,183.331385,-149.46772966666668,-84.780565,52.19595866666669,129.40144866666668,35.200942000000005,40.29915866666666,47.44264299999998,-81.898473,-0.922863,0
471.1111111111104,-129.48575073611113,230.77829591666668,183.3288073958333,-149.4502425138889,-84.7763275,52.12339390972224,129.4014287013889,35.2008623125,40.29933765972222,47.501769041666655,-81.898473,-0.922863,0
473.8888888888881,-129.4280191388889,230.77101883333333,183.32622979166663,-149.4327553611111,-84.77209,52.050829152777794,129.4014087361111,35.200782625,40.299516652777776,47.56089508333332,-81.898473,-0.922863,0
476.6666666666659,-129.3702875416667,230.76374175,183.3236521875,-149.41526820833334,-84.7678525,51.97826439583336,129.40138877083334,35.200702937500004,40.29969564583333,47.62002112499999,-81.898473,-0.922863,0
479.44444444444366,-129.30617214529917,230.75559347863248,183.3208197863248,-149.3957955128205,-84.76313925641026,51.89757088888892,129.401372,35.20062423931624,40.29988712820513,47.6813303162393,-81.898473,-0.922863,0
482.22222222222143,-129.20854180341885,230.74287147008548,183.3166497008547,-149.3658987179487,-84.75592835897436,51.77420144444448,129.401372,35.20055073504274,40.300144179487184,47.75410104273502,-81.898473,-0.922863,0
484.9999999999992,-129.1109114615385,230.73014946153847,183.3124796153846,-149.33600192307694,-84.74871746153846,51.65083200000004,129.401372,35.20047723076923,40.30040123076923,47.82687176923075,-81.898473,-0.922863,0
487.777777777777,-129.01328111965816,230.71742745299147,183.3083095299145,-149.30610512820513,-84.74150656410256,51.5274625555556,129.401372,35.20040372649573,40.30065828205128,47.89964249572648,-81.898473,-0.922863,0
490.5555555555548,-128.9156507777778,230.70470544444444,183.30413944444444,-149.27620833333333,-84.73429566666667,51.40409311111115,129.401372,35.20033022222222,40.300915333333336,47.9724132222222,-81.898473,-0.922863,0
493.3333333333325,-128.8194023777778,230.69200546666667,183.30024166666664,-149.24624893333333,-84.72716937777778,51.28176917777782,129.40135164444445,35.200236,40.30127308888889,48.05420111111109,-81.898473,-0.922863,0
496.1111111111103,-128.7246510814815,230.67932935555555,183.29663888888888,-149.2162217111111,-84.72013474814815,51.16057788148152,129.40130923703703,35.20011933333333,40.30173994074074,48.14575759259257,-81.898473,-0.922863,0
498.88888888888806,-128.62989978518522,230.6666532444445,183.29303611111112,-149.1861944888889,-84.71310011851853,51.03938658518522,129.40126682962963,35.20000266666666,40.30220679259259,48.23731407407405,-81.898473,-0.922863,0
501.6666666666658,-128.53514848888892,230.6539771333333,183.2894333333333,-149.15616726666667,-84.7060654888889,50.91819528888893,129.4012244222222,35.199886,40.30267364444445,48.328870555555525,-81.898473,-0.922863,0
504.4444444444436,-128.44039719259263,230.64130102222225,183.28583055555555,-149.12614004444444,-84.69903085925927,50.79700399259263,129.40118201481482,35.19976933333333,40.30314049629629,48.42042703703701,-81.898473,-0.922863,0
507.2222222222214,-128.34350159722226,230.6282801111111,183.28217565277777,-149.09536533333335,-84.69183165277778,50.67294033333338,129.40113981944444,35.19965086111111,40.30363684722222,48.514119166666624,-81.898473,-0.922863,0
509.9999999999992,-128.22194656250005,230.611294,183.2779213125,-149.0559945,-84.6827398125,50.51584450000005,129.4011000625,35.199511625,40.3044724375,48.63237124999996,-81.898473,-0.922863,0
512.7777777777769,-128.10039152777782,230.5943078888889,183.27366697222223,-149.01662366666667,-84.67364797222223,50.35874866666671,129.40106030555555,35.19937238888889,40.30530802777778,48.750623333333294,-81.898473,-0.922863,0
515.5555555555547,-127.9788364930556,230.5773217777778,183.26941263194445,-148.97725283333332,-84.66455613194445,50.20165283333338,129.40102054861111,35.19923315277778,40.30614361805556,48.86887541666663,-81.898473,-0.922863,0
518.3333333333325,-127.85728145833338,230.56033566666667,183.2651582916667,-148.937882,-84.65546429166668,50.04455700000005,129.40098079166663,35.19909391666667,40.30697920833333,48.98712749999997,-81.898473,-0.922863,0
521.1111111111102,-127.73572642361115,230.5433495555556,183.2609039513889,-148.89851116666668,-84.6463724513889,49.88746116666672,129.40094103472222,35.19895468055556,40.30781479861111,49.105379583333296,-81.898473,-0.922863,0
523.888888888888,-127.60505827407412,230.52519366666667,183.25707422962964,-148.84769680740743,-84.63621411851852,49.70927345185192,129.40090042962964,35.198781896296296,40.309000955555554,49.233318466666624,-81.898473,-0.9222110888888896,0
526.6666666666658,-127.4550247555556,230.504552,183.25414682222225,-148.77256495555557,-84.6237894888889,49.48626548888896,129.40085802222222,35.19853782222222,40.310932066666666,49.381841799999954,-81.898473,-0.9201738666666672,0
529.4444444444435,-127.30499123703709,230.4839103333333,183.2512194148148,-148.69743310370373,-84.61136485925927,49.263257525926,129.40081561481483,35.19829374814815,40.31286317777778,49.53036513333328,-81.898473,-0.9181366444444452,0
532.2222222222213,-127.15495771851856,230.46326866666664,183.2482920074074,-148.62230125185187,-84.59894022962963,49.04024956296304,129.4007732074074,35.19804967407408,40.31479428888888,49.67888846666661,-81.898473,-0.9160994222222228,0
534.9999999999991,-127.00492420000003,230.442627,183.2453646,-148.54716940000003,-84.58651560000001,48.81724160000008,129.40073080000002,35.1978056,40.3167254,49.82741179999995,-81.898473,-0.9140622000000006,0
537.7777777777769,-126.85489068148154,230.4219853333333,183.24243719259255,-148.47203754814817,-84.57409097037038,48.59423363703711,129.4006883925926,35.19756152592593,40.31865651111111,49.97593513333329,-81.898473,-0.9120249777777784,0
540.5555555555546,-126.6688364583334,230.3962571527778,183.24182030555556,-148.3600262291667,-84.55777756250001,48.29565531944455,129.40062079166668,35.197102763888886,40.32215127083333,50.16328623611105,-81.898473,-0.9083570555555568,0
543.3333333333323,-126.47965000000006,230.37008666666668,183.2414043333333,-148.24480800000003,-84.541126,47.99050566666678,129.400551,35.19662533333333,40.325782,50.3540136666666,-81.898473,-0.9045473333333348,0
546.1111111111102,-126.29046354166674,230.3439161805556,183.2409883611111,-148.12958977083338,-84.5244744375,47.68535601388899,129.40048120833333,35.196147902777774,40.32941272916666,50.54474109722216,-81.898473,-0.9007376111111124,0
548.888888888888,-126.1012770833334,230.31774569444443,183.2405723888889,-148.0143715416667,-84.507822875,47.380206361111206,129.40041141666669,35.19567047222222,40.33304345833333,50.73546852777772,-81.898473,-0.8969278888888901,0
551.6666666666657,-125.91209062500006,230.2915752083333,183.24015641666668,-147.89915331250003,-84.4911713125,47.07505670833344,129.400341625,35.19519304166667,40.3366741875,50.92619595833327,-81.898473,-0.893118166666668,0
554.4444444444434,-125.72941861111116,230.26626813888888,183.24025247222224,-147.78507144444447,-84.47506883333334,46.77711833333343,129.4002734722222,35.194707638888886,40.34063913888888,51.11967197222215,-81.89860030555555,-0.8890012777777798,0
557.2222222222213,-125.5809474305556,230.24549400694443,183.24303667361116,-147.67695547222226,-84.46184904166667,46.51703916666676,129.40021392361112,35.19418038194444,40.34635875694444,51.32757804861104,-81.89939596527778,-0.8832717638888908,0
559.9999999999991,-125.43247625000004,230.224719875,183.245820875,-147.56883950000002,-84.44862925,46.256960000000085,129.400154375,35.193653125,40.352078375,51.53548412499993,-81.900191625,-0.8775422500000019,0
562.7777777777768,-125.2840050694445,230.2039457430556,183.24860507638888,-147.46072352777782,-84.43540945833334,45.99688083333343,129.40009482638888,35.19312586805555,40.35779799305556,51.74339020138882,-81.90098728472222,-0.8718127361111131,0
565.5555555555545,-125.13553388888894,230.1831716111111,183.25138927777775,-147.35260755555558,-84.42218966666667,45.73680166666677,129.40003527777776,35.19259861111111,40.36351761111111,51.9512962777777,-81.90178294444445,-0.8660832222222243,0
568.3333333333323,-124.98706270833338,230.16239747916669,183.25417347916667,-147.24449158333337,-84.408969875,45.47672250000009,129.39997572916664,35.192071354166664,40.36923722916666,52.1592023541666,-81.90257860416668,-0.8603537083333354,0
571.1111111111102,-124.80060970370378,230.13929025925927,183.26152933333333,-147.10796407407412,-84.39229081481483,45.14386448148163,129.39989325925924,35.19158951851852,40.37802507407408,52.39136496296288,-81.903056,-0.856916,0
573.8888888888879,-124.55718396296304,230.11268340740745,183.27574266666664,-146.9288192592593,-84.37042285185186,44.70183818518535,129.3997764074074,35.19117581481481,40.39141525925925,52.65991237037027,-81.903056,-0.856916,0
576.6666666666656,-124.31375822222232,230.0860765555556,183.289956,-146.7496744444445,-84.3485548888889,44.259811888889054,129.39965955555553,35.19076211111111,40.40480544444444,52.92845977777768,-81.903056,-0.856916,0
579.4444444444434,-124.07033248148156,230.0594697037037,183.30416933333333,-146.5705296296297,-84.32668692592593,43.81778559259275,129.3995427037037,35.190348407407406,40.41819562962962,53.197007185185086,-81.903056,-0.856916,0
582.2222222222213,-123.82690674074082,230.03286285185183,183.31838266666665,-146.39138481481487,-84.30481896296297,43.37575929629645,129.39942585185184,35.189934703703706,40.43158581481481,53.4655545925925,-81.903056,-0.856916,0
584.999999999999,-123.58348100000008,230.006256,183.332596,-146.2122400000001,-84.28295100000001,42.93373300000016,129.399309,35.189521,40.44497599999999,53.7341019999999,-81.903056,-0.856916,0
587.7777777777767,-123.37516936805564,229.9903825625,183.35540207638888,-146.03105215277785,-84.26335499305556,42.51391216666683,129.3991697638889,35.189411625,40.456892840277774,53.91530981249993,-81.903056,-0.856916,0
590.5555555555545,-123.1668577361112,229.97450912500005,183.37820815277777,-145.84986430555563,-84.24375898611112,42.09409133333349,129.39903052777777,35.18930225,40.46880968055555,54.09651762499993,-81.903056,-0.856916,0
593.3333333333323,-122.95854610416674,229.9586356875,183.40101422916663,-145.6686764583334,-84.22416297916668,41.67427050000015,129.39889129166667,35.189192875,40.48072652083333,54.27772543749994,-81.903056,-0.856916,0
596.1111111111101,-122.7502344722223,229.94276225,183.42382030555555,-145.4874886111112,-84.20456697222222,41.25444966666682,129.39875205555555,35.189083499999995,40.49264336111111,54.45893324999993,-81.903056,-0.856916,0
598.8888888888878,-122.54192284027786,229.9268888125,183.4466263819444,-145.30630076388897,-84.18497096527778,40.834628833333504,129.39861281944445,35.188974125,40.50456020138888,54.64014106249993,-81.903056,-0.856916,0
601.6666666666656,-122.3357882352942,229.91290119607845,183.47222986274508,-145.11582294117656,-84.16494388235296,40.40425162745116,129.39845084313723,35.18882582352941,40.519872333333325,54.85066958823518,-81.903056,-0.856916,0
604.4444444444434,-122.13654754901968,229.90488534640525,183.5066917908497,-144.89592686274517,-84.14355172549021,39.940445908496905,129.39821685620916,35.18855425490196,40.54593622222222,55.15404703921558,-81.903056,-0.856916,0
607.2222222222211,-121.93730686274516,229.896869496732,183.54115371895423,-144.6760307843138,-84.12215956862747,39.47664018954266,129.39798286928104,35.18828268627451,40.5720001111111,55.45742449019596,-81.903056,-0.856916,0
609.9999999999989,-121.73806617647068,229.8888536470588,183.5756156470588,-144.45613470588245,-84.10076741176472,39.01283447058842,129.39774888235294,35.18801111764706,40.59806399999999,55.76080194117635,-81.903056,-0.856916,0
612.7777777777767,-121.53882549019616,229.8808377973856,183.6100775751634,-144.23623862745106,-84.07937525490198,38.54902875163417,129.39751489542485,35.18773954901961,40.62412788888888,56.064179392156746,-81.903056,-0.856916,0
615.5555555555545,-121.33958480392164,229.8728219477124,183.644539503268,-144.0163425490197,-84.05798309803923,38.08522303267991,129.39728090849673,35.18746798039216,40.65019177777777,56.367556843137145,-81.903056,-0.856916,0
618.3333333333322,-121.14036604444452,229.8657859777778,183.6806934888889,-143.79953373333342,-84.03698966666667,37.62259591111129,129.39703806666668,35.187215,40.67562099999999,56.6582099777777,-81.90315786666667,-0.8581370222222182,0
621.11111111111,-120.94130808148157,229.8659357925926,183.72925589629628,-143.60536484444452,-84.01892022222223,37.168611837037226,129.39673028888888,35.18709833333334,40.69639599999999,56.855551459259175,-81.90400675555556,-0.8683122074074031,0
623.8888888888878,-120.7422501185186,229.8660856074074,183.7778183037037,-143.41119595555563,-84.00085077777779,36.71462776296315,129.3964225111111,35.18698166666667,40.71717099999999,57.05289294074066,-81.90485564444445,-0.8784873925925885,0
626.6666666666656,-120.54319215555564,229.86623542222225,183.8263807111111,-143.21702706666676,-83.98278133333334,36.26064368888906,129.39611473333332,35.186865000000004,40.737946,57.25023442222215,-81.90570453333333,-0.8886625777777739,0
629.4444444444433,-120.34413419259268,229.86638523703704,183.8749431185185,-143.02285817777786,-83.96471188888889,35.806659614815,129.39580695555554,35.186748333333334,40.758721,57.44757590370362,-81.90655342222222,-0.8988377629629588,0
632.222222222221,-120.14507622962972,229.86653505185183,183.92350552592592,-142.828689288889,-83.94664244444445,35.35267554074093,129.39549917777776,35.18663166666667,40.779496,57.6449173851851,-81.90740231111111,-0.9090129481481436,0
634.9999999999989,-119.93385093333345,229.8652383333333,183.97775446666665,-142.60147200000011,-83.92398940000001,34.84377146666689,129.39497753333333,35.1865378,40.80830766666666,57.91111313333321,-81.9082512,-0.9177214666666632,0
637.7777777777767,-119.7178938962964,229.8633790740741,184.034214837037,-142.36140255555566,-83.89955384444445,34.313509614815025,129.3943727185185,35.1864528,40.840244703703696,58.20408554074063,-81.90910008888889,-0.9258596148148116,0
640.5555555555544,-119.50193685925936,229.8615198148148,184.09067520740737,-142.12133311111123,-83.8751182888889,33.783247762963185,129.3937679037037,35.1863678,40.87218174074073,58.497057948148026,-81.90994897777777,-0.9339977629629596,0
643.3333333333321,-119.28597982222232,229.8596605555556,184.14713557777776,-141.88126366666677,-83.85068273333334,33.252985911111345,129.39316308888888,35.1862828,40.90411877777777,58.79003035555543,-81.91079786666667,-0.9421359111111076,0
646.11111111111,-119.07002278518527,229.8578012962963,184.2035959481481,-141.6411942222223,-83.82624717777779,32.722724059259484,129.39255827407408,35.1861978,40.93605581481481,59.08300276296284,-81.91164675555555,-0.9502740592592558,0
648.8888888888878,-118.86540062222228,229.8576510148148,184.26098408148144,-141.39821165185197,-83.8027486888889,32.201548074074275,129.39172264444443,35.18611967407408,40.96770431851851,59.363602666666566,-81.9135821037037,-0.957760296296294,0
651.6666666666655,-118.68486506666672,229.8611323111111,184.3203437111111,-141.149038688889,-83.78124146666667,31.69967955555577,129.39039653333333,35.186056155555555,40.99873968888888,59.61791099999989,-81.91782617777777,-0.9638612222222196,0
654.4444444444432,-118.50432951111118,229.86461360740745,184.37970334074072,-140.89986572592605,-83.75973424444446,31.197811037037265,129.38907042222223,35.18599263703704,41.02977505925925,59.87221933333322,-81.92207025185185,-0.9699621481481454,0
657.222222222221,-118.32379395555564,229.8680949037037,184.43906297037037,-140.65069276296308,-83.73822702222223,30.69594251851873,129.3877443111111,35.18592911851852,41.06081042962962,60.12652766666656,-81.92631432592592,-0.9760630740740714,0
659.9999999999989,-118.14325840000006,229.8715762,184.4984226,-140.4015198000001,-83.7167198,30.194074000000207,129.3864182,35.1858656,41.09184579999999,60.380835999999896,-81.9305584,-0.9821639999999976,0
662.7777777777766,-117.96272284444451,229.8750574962963,184.5577822296296,-140.15234683703716,-83.6952125777778,29.6922054814817,129.38509208888888,35.185802081481484,41.12288117037036,60.63514433333323,-81.93480247407408,-0.9882649259259232,0
665.5555555555543,-117.82017159722228,229.89594224305557,184.6236380069444,-139.99502297916675,-83.68144878472224,29.31431409722239,129.38297254166667,35.18564143055556,41.15682640277776,60.85728684722213,-81.93659706944445,-1.0080624583333238,0
668.3333333333321,-117.6809233333334,229.91834033333333,184.69005866666663,-139.8456860000001,-83.66835833333334,28.94720333333349,129.380784,35.18547233333334,41.19102466666665,61.07663233333325,-81.93817866666667,-1.0290509999999908,0
671.11111111111,-117.5416750694445,229.9407384236111,184.75647932638887,-139.6963490208334,-83.65526788194445,28.5800925694446,129.37859545833334,35.18530323611111,41.22522293055554,61.29597781944435,-81.93976026388889,-1.050039541666658,0
673.8888888888877,-117.40242680555562,229.96313651388888,184.82289998611108,-139.54701204166673,-83.64217743055556,28.21298180555572,129.37640691666667,35.18513413888889,41.25942119444443,61.51532330555546,-81.94134186111111,-1.071028083333324,0
676.6666666666654,-117.26317854166672,229.98553460416665,184.8893206458333,-139.39767506250007,-83.62908697916669,27.84587104166684,129.374218375,35.184965041666665,41.29361945833332,61.73466879166656,-81.94292345833334,-1.0920166249999903,0
679.4444444444432,-117.12636677037042,230.00699474814812,184.953278237037,-139.2826980148148,-83.6189584962963,27.51932291851857,129.37140557037037,35.1848195925926,41.32812312592591,61.955377785185085,-81.94465943703705,-1.1194119185184914,0
682.222222222221,-117.00234658518524,230.02353067407407,185.00430471851848,-139.3481106074074,-83.62438034814815,27.405728659259307,129.36531538518517,35.1847982962963,41.36423016296295,62.183245192592494,-81.94720591851852,-1.1804426592592332,0
684.9999999999987,-116.87832640000003,230.0400666,185.0553312,-139.4135232,-83.6298022,27.29213440000005,129.3592252,35.184777000000004,41.40033719999999,62.411112599999896,-81.94975240000001,-1.2414733999999723,0
687.7777777777765,-116.75430621481487,230.0566025259259,185.10635768148143,-139.47893579259255,-83.63522405185185,27.178540140740797,129.35313501481482,35.18475570370371,41.43644423703702,62.6389800074073,-81.95229888148148,-1.302504140740712,0
690.5555555555543,-116.63028602962969,230.07313845185183,185.15738416296293,-139.54434838518517,-83.6406459037037,27.06494588148153,129.34704482962962,35.18473440740741,41.47255127407406,62.86684741481472,-81.95484536296297,-1.363534881481454,0
693.3333333333321,-116.5062658444445,230.08967437777773,185.2084106444444,-139.60976097777774,-83.64606775555555,26.95135162222227,129.34095464444445,35.18471311111111,41.5086583111111,63.09471482222212,-81.95739184444444,-1.4245656222221956,0
696.1111111111098,-116.38632291851856,230.14341216296293,185.28360118518515,-139.7931639925925,-83.66693998518517,26.949675525925908,129.3330983037037,35.18469181481481,41.54118490370369,63.25145101481476,-81.95864815555557,-1.487144511111082,0
698.8888888888875,-116.2676675481482,230.20889790370367,185.36642248148144,-140.01382714074063,-83.69269128148147,26.98334200740739,129.32468422962964,35.18467051851852,41.572580829629615,63.38572471851845,-81.95949704444445,-1.5502122888888583,0
701.6666666666654,-116.14901217777783,230.2743836444444,185.44924377777767,-140.2344902888888,-83.71844257777776,27.017008488888877,129.31627015555557,35.18464922222222,41.60397675555554,63.51999842222216,-81.96034593333333,-1.6132800666666374,0
704.4444444444432,-116.03035680740746,230.33986938518515,185.53206507407404,-140.45515343703693,-83.74419387407407,27.05067497037036,129.3078560814815,35.18462792592592,41.63537268148146,63.65427212592587,-81.96119482222223,-1.6763478444444164,0
707.2222222222209,-115.9117014370371,230.4053551259259,185.61488637037036,-140.67581658518506,-83.76994517037036,27.084341451851834,129.2994420074074,35.18460662962963,41.66676860740739,63.78854582962957,-81.96204371111111,-1.7394156222221926,0
709.9999999999986,-115.78257140000008,230.470854,185.69489806666664,-140.95503213333313,-83.80032979999999,27.17785153333324,129.28788053333335,35.184551,41.69964279999998,63.93673859999992,-81.96441659999999,-1.8149356666666188,0
712.7777777777765,-115.6348197333334,230.5363762222222,185.76991491851848,-141.33834083703684,-83.83895146666666,27.377750237036945,129.2707236814815,35.184434333333336,41.735145022222206,64.1096763777777,-81.96949882222222,-1.912593074074028,0
715.5555555555543,-115.48706806666674,230.60189844444443,185.84493177037032,-141.72164954074057,-83.87757313333331,27.57764894074065,129.25356682962965,35.184317666666665,41.770647244444426,64.28261415555548,-81.97458104444445,-2.010250481481437,0
718.333333333332,-115.33931640000009,230.66742066666663,185.9199486222222,-142.10495824444425,-83.91619479999999,27.77754764444435,129.23640997777778,35.184201,41.806149466666646,64.45555193333325,-81.97966326666666,-2.1079078888888425,0
721.1111111111097,-115.1915647333334,230.73294288888889,185.99496547407404,-142.48826694814795,-83.95481646666666,27.97744634814805,129.21925312592597,35.18408433333333,41.84165168888888,64.62848971111103,-81.98474548888889,-2.2055652962962475,0
723.8888888888875,-115.04381306666674,230.79846511111108,186.06998232592588,-142.87157565185169,-83.99343813333331,28.17734505185176,129.20209627407408,35.18396766666667,41.87715391111109,64.8014274888888,-81.9898277111111,-2.303222703703657,0
726.6666666666654,-114.93188116666671,230.889526,186.15231849999995,-143.02822799999993,-84.01899933333333,28.193305166666665,129.18231133333336,35.1838675,41.91316149999998,64.92736733333328,-81.996897,-2.3712143333333024,0
729.4444444444431,-114.8214417569445,230.98165099999997,186.23495964583327,-143.17543633333327,-84.04401634722221,28.201601173611103,129.1624168888889,35.183768020833334,41.94919014583331,65.0513489305555,-82.00404908333333,-2.437969888888857,0
732.2222222222208,-114.71100234722228,231.07377599999995,186.31760079166665,-143.32264466666658,-84.06903336111111,28.20989718055555,129.14252244444447,35.18366854166667,41.98521879166665,65.17533052777772,-82.01120116666667,-2.5047254444444107,0
734.9999999999986,-114.60056293750004,231.165901,186.40024193749997,-143.46985299999992,-84.094050375,28.218193187499995,129.12262800000002,35.1835690625,42.02124743749998,65.29931212499994,-82.01835325,-2.5714809999999675,0
737.7777777777765,-114.49012352777784,231.258026,186.4828830833333,-143.61706133333325,-84.11906738888888,28.22648919444444,129.10273355555557,35.183469583333334,42.05727608333331,65.42329372222217,-82.02550533333333,-2.6382365555555243,0
740.5555555555542,-114.37686822222228,231.35379248148143,186.56523529629624,-143.74633807407403,-84.14205188888889,28.21784922222226,129.08151285185187,35.18337303703704,42.0933692222222,65.54485833333328,-82.03207581481482,-2.702221629629604,0
743.3333333333319,-114.2523493333334,231.46412488888885,186.6464317777777,-143.80388844444442,-84.15690633333332,28.14146533333337,129.05498711111113,35.183288222222224,42.12972033333331,65.65675499999995,-82.03631988888888,-2.7551247777777506,0
746.1111111111097,-114.1278304444445,231.57445729629623,186.7276282592592,-143.8614388148148,-84.17176077777778,28.06508144444448,129.0284613703704,35.18320340740741,42.16607144444443,65.76865166666661,-82.04056396296296,-2.8080279259259,0
748.8888888888875,-114.0033115555556,231.68478970370367,186.8088247407407,-143.91898918518515,-84.18661522222222,27.988697555555596,129.00193562962963,35.18311859259259,42.202422555555536,65.88054833333328,-82.04480803703704,-2.860931074074049,0
751.6666666666653,-113.87879266666673,231.79512211111103,186.89002122222217,-143.97653955555552,-84.20146966666667,27.912313666666705,128.9754098888889,35.18303377777778,42.238773666666646,65.99244499999995,-82.04905211111111,-2.913834222222196,0
754.444444444443,-113.75427377777784,231.90545451851847,186.97121770370367,-144.0340899259259,-84.2163241111111,27.835929777777817,128.94888414814815,35.18294896296296,42.27512477777776,66.10434166666661,-82.05329618518519,-2.9667373703703426,0
757.2222222222208,-113.6503506944445,232.02157863888883,187.04921061111108,-144.13323083333327,-84.23228999999999,27.82401911111111,128.92274552777778,35.18291602777778,42.31053347222221,66.19386044444441,-82.05478166666667,-3.021562999999972,0
759.9999999999986,-113.55157656250005,232.13915068749995,187.126402625,-144.24276937499997,-84.24853374999999,27.82822675,128.8967036875,35.1828960625,42.345706562499984,66.27778474999997,-82.0555775,-3.076869249999973,0
762.7777777777764,-113.4528024305556,232.25672273611107,187.2035946388889,-144.35230791666663,-84.2647775,27.832434388888885,128.87066184722224,35.18287609722222,42.38087965277776,66.36170905555551,-82.05637333333334,-3.132175499999972,0
765.5555555555541,-113.35402829861115,232.37429478472217,187.28078665277772,-144.4618464583333,-84.28102125,27.83664202777777,128.84462000694447,35.18285613194445,42.41605274305554,66.44563336111106,-82.05716916666667,-3.1874817499999706,0
768.3333333333319,-113.25525416666672,232.4918668333333,187.35797866666664,-144.57138499999996,-84.297265,27.840849666666664,128.81857816666667,35.18283616666667,42.45122583333331,66.52955766666662,-82.057965,-3.242787999999972,0
771.1111111111097,-113.15559698611118,232.6099065069444,187.43482068055556,-144.6881197222221,-84.31393131249999,27.85279979861101,128.79223234722224,35.18281580555556,42.48622664583332,66.61264243749997,-82.058729,-3.2987050138888536,0
773.8888888888874,-113.03474663888896,232.73916918055548,187.5032626944444,-144.97756277777765,-84.34073912499998,28.050569763888785,128.75859102777778,35.18278594444445,42.51709279166665,66.67557837499996,-82.058729,-3.369280361111074,0
776.6666666666652,-112.91389629166672,232.8684318541666,187.5717047083333,-145.2670058333332,-84.36754693749998,28.24833972916656,128.72494970833336,35.18275608333333,42.54795893749999,66.73851431249996,-82.058729,-3.439855708333295,0
779.444444444443,-112.7930459444445,232.9976945277777,187.6401467222222,-145.55644888888875,-84.39435474999999,28.44610969444434,128.6913083888889,35.18272622222222,42.57882508333332,66.80145024999996,-82.058729,-3.5104310555555185,0
782.2222222222208,-112.67219559722228,233.1269572013888,187.7085887361111,-145.8458919444443,-84.42116256249999,28.64387965972212,128.65766706944447,35.18269636111111,42.60969122916665,66.86438618749996,-82.058729,-3.5810064027777417,0
784.9999999999985,-112.55134525000008,233.25621987499997,187.77703075,-146.13533499999986,-84.44797037499998,28.841649624999896,128.62402575000002,35.1826665,42.64055737499999,66.92732212499996,-82.058729,-3.6515817499999614,0
787.7777777777762,-112.44517773333337,233.38097089629625,187.84293835555556,-146.39989873333323,-84.47322562962961,29.026153407407325,128.5900921481482,35.182633125925925,42.67346139259257,66.9828915185185,-82.058729,-3.72233365925922,0
790.5555555555541,-112.3767660666667,233.4941205259259,187.90232891111108,-146.60048706666657,-84.49448859259257,29.176544148148068,128.555406962963,35.18259071851852,42.71160565185183,67.01951837037035,-82.058729,-3.793539585185147,0
793.3333333333319,-112.30835440000004,233.60727015555548,187.96171946666664,-146.8010753999999,-84.51575155555554,29.32693488888881,128.5207217777778,35.18254831111111,42.749749911111095,67.0561452222222,-82.058729,-3.864745511111074,0
796.1111111111096,-112.23994273333336,233.72041978518516,188.0211100222222,-147.00166373333323,-84.5370145185185,29.47732562962955,128.48603659259263,35.18250590370371,42.78789417037035,67.09277207407405,-82.058729,-3.9359514370369983,0
798.8888888888873,-112.1715310666667,233.83356941481475,188.0805005777777,-147.20225206666657,-84.55827748148147,29.627716370370287,128.45135140740743,35.1824634962963,42.82603842962961,67.12939892592591,-82.058729,-4.007157362962923,0
801.6666666666652,-112.10311940000004,233.9467190444444,188.1398911333333,-147.4028403999999,-84.57954044444443,29.77810711111103,128.41666622222226,35.182421088888894,42.86418268888887,67.16602577777776,-82.058729,-4.07836328888885,0
804.444444444443,-112.01725641666673,234.1123939999999,188.22565883333328,-147.5621003888888,-84.60261906944443,29.877474249999956,128.3768510138889,35.18239858333334,42.89956351388887,67.19559602777777,-82.058729,-4.13390565277775,0
807.2222222222207,-111.9290137083334,234.2852314999999,188.3150234166666,-147.71572469444436,-84.6259452847222,29.96988362499995,128.33633625694446,35.18237879166667,42.934567506944425,67.22420401388888,-82.058729,-4.18731207638886,0
809.9999999999984,-111.84077100000005,234.4580689999999,188.40438799999995,-147.86934899999991,-84.6492715,30.062292999999947,128.29582150000002,35.182359000000005,42.96957149999998,67.25281199999999,-82.058729,-4.24071849999997,0
812.7777777777762,-111.7525282916667,234.6309064999999,188.49375258333328,-148.02297330555547,-84.67259771527777,30.15470237499995,128.25530674305557,35.18233920833333,43.00457549305553,67.2814199861111,-82.058729,-4.294124923611082,0
815.5555555555541,-111.66428558333338,234.8037439999999,188.58311716666665,-148.17659761111105,-84.69592393055555,30.24711174999995,128.21479198611112,35.182319416666665,43.03957948611109,67.31002797222222,-82.058729,-4.347531347222194,0
818.3333333333318,-111.57479931111116,234.9785196222221,188.67316139999997,-148.29205815555565,-84.71718184444445,30.30119231111124,128.17570633333335,35.182299444444446,43.07398117777776,67.33715615555555,-82.058729,-4.3967266222222126,0
821.1111111111095,-111.47619357037044,235.16750814074064,188.7681897333333,-148.12765111851863,-84.72327221481481,30.074194903703837,128.14710077777778,35.18227814814815,43.10396599259258,67.35343245185184,-82.058729,-4.4150401407407305,0
823.8888888888873,-111.37758782962968,235.3564966592592,188.8632180666666,-147.96324408148158,-84.72936258518519,29.847197496296424,128.11849522222224,35.182256851851854,43.13395080740739,67.36970874814814,-82.058729,-4.433353659259249,0
826.6666666666652,-111.27898208888894,235.5454851777777,188.95824639999995,-147.79883704444455,-84.73545295555556,29.62020008888901,128.08988966666666,35.18223555555556,43.163935622222205,67.38598504444444,-82.058729,-4.451667177777768,0
829.4444444444429,-111.1803763481482,235.7344736962962,189.0532747333333,-147.6344300074075,-84.74154332592593,29.39320268148161,128.06128411111112,35.18221425925926,43.19392043703702,67.40226134074074,-82.058729,-4.469980696296286,0
832.2222222222206,-111.14750338571606,235.79747826806548,189.08495506764433,-147.47002297037048,-84.7476336962963,29.16620527407421,128.03267855555555,35.182192962962965,43.22390525185183,67.41853763703703,-82.058729,-4.488294214814804,0
834.9999999999984,-111.11157714980709,235.87551539536022,189.12519596684265,-147.18550250000018,-84.747133125,28.82751887500022,127.998492,35.182172625,43.26155049999998,67.43545662499999,-82.058729,-4.501658249999993,0
837.7777777777762,-111.0760335137164,235.95935108212174,189.16906529917478,-146.85427125000018,-84.74406940972223,28.445397868055768,127.96213505555556,35.18215265972222,43.30217480555553,67.4526255486111,-82.058729,-4.513097486111104,0
840.555555555554,-111.04067594499836,236.04609995248578,189.21475626216306,-146.5230400000002,-84.74100569444445,28.063276861111333,127.92577811111111,35.18213269444444,43.34279911111109,67.4697944722222,-82.058729,-4.524536722222216,0
843.3333333333317,-111.00541921933758,236.13452802508397,189.26149589969114,-146.1918087500002,-84.73794197916666,27.681155854166896,127.88942116666668,35.18211272916667,43.38342341666664,67.48696339583331,-82.058729,-4.535975958333326,0
846.1111111111095,-110.9702198552743,236.22402060058377,189.30889895407924,-145.8605775000002,-84.73487826388889,27.299034847222444,127.85306422222224,35.18209276388889,43.4240477222222,67.50413231944442,-82.058729,-4.547415194444438,0
848.8888888888873,-110.93505292549453,236.31423821594572,189.35675247833075,-145.5293462500002,-84.73181454861111,26.916913840277992,127.8167072777778,35.18207279861111,43.46467202777775,67.52130124305553,-82.058729,-4.55885443055555,0
851.666666666665,-110.89817283822715,236.40699832330324,189.4052357132418,-145.3040566444446,-84.7367135111111,26.64693015555571,127.77361300000004,35.181990577777775,43.50550268888886,67.52588915555555,-82.058729,-4.582749688888875,0
854.4444444444428,-110.8599737498939,236.50170169335476,189.4541972564877,-145.0831812740742,-84.74194425185185,26.381618859259422,127.73023800000004,35.18190576296296,43.546341948148125,67.52995285925925,-82.058729,-4.607163948148133,0
857.2222222222206,-110.82077776084046,236.59788043490633,189.50352638485307,-144.86230590370383,-84.74717499259259,26.11630756296312,127.68686300000005,35.18182094814815,43.58718120740738,67.53401656296296,-82.058729,-4.631578207407393,0
859.9999999999984,-110.78080720059609,236.69521217768454,189.55314721197803,-144.64143053333348,-84.75240573333333,25.85099626666682,127.64348800000003,35.18173613333334,43.62802046666665,67.53808026666667,-82.058729,-4.655992466666653,0
862.7777777777761,-110.740220262192,236.7934680959389,189.6030062442373,-144.4205551629631,-84.75763647407408,25.58568497037053,127.60011300000004,35.18165131851852,43.66885972592591,67.54214397037036,-82.058729,-4.680406725925912,0
865.5555555555538,-110.69965894599295,236.89276019428002,189.6533526294473,-144.25223496296306,-84.76735934814815,25.376268000000103,127.55748072592596,35.181614,43.7112318296296,67.543932,-82.058729,-4.712794970370346,0
868.3333333333317,-110.65949952136836,236.99311835615848,189.70431663853606,-144.1252081111112,-84.78061175555555,25.2107680000001,127.51543202222226,35.181614,43.75480831111109,67.543932,-82.058729,-4.751448488888866,0
871.1111111111095,-110.61966441758875,237.09437367683785,189.75579913756806,-143.99818125925935,-84.79386416296296,25.045268000000096,127.47338331851854,35.181614,43.79838479259257,67.543932,-82.058729,-4.790102007407385,0
873.8888888888872,-110.58009290729709,237.19639592620234,189.80772360708656,-143.8711544074075,-84.80711657037037,24.879768000000094,127.43133461481484,35.181614,43.84196127407405,67.543932,-82.058729,-4.828755525925903,0
876.6666666666649,-110.54073667593946,237.2990833658611,189.860030188188,-143.74412755555565,-84.82036897777778,24.714268000000104,127.38928591111114,35.181614,43.88553775555553,67.543932,-82.058729,-4.86740904444442,0
879.4444444444428,-110.50150852795613,237.40238283169765,189.91259862146936,-143.61840916666674,-84.83396472222222,24.55337375000008,127.34668366666668,35.18160602777778,43.928255166666645,67.53996586111113,-82.058729,-4.905372027777757,0
882.2222222222206,-110.46214207965471,237.50636261266268,189.9650363999765,-143.4995602083334,-84.8493629861111,24.41665968750008,127.30117533333336,35.181556201388894,43.96646245833331,67.51517749305557,-82.058729,-4.9397097013888684,0
884.9999999999983,-110.4226489077671,237.6109497183648,190.01737049635776,-143.38071125000008,-84.86476125,24.27994562500008,127.25566700000005,35.181506375000005,44.00466974999998,67.49038912500001,-82.058729,-4.974047374999979,0
887.777777777776,-110.38303825118122,237.7160847337312,190.06962360039608,-143.26186229166674,-84.88015951388888,24.143231562500088,127.2101586666667,35.18145654861112,44.04287704166664,67.46560075694445,-82.058729,-5.008385048611089,0
890.5555555555538,-110.34331750004283,237.82171898525192,190.12181500868778,-143.1430133333334,-84.89555777777777,24.006517500000083,127.16465033333336,35.18140672222223,44.08108433333331,67.4408123888889,-82.058729,-5.042722722222201,0
893.3333333333317,-110.30349256755648,237.92781238709676,190.1739613006946,-143.02416437500008,-84.91095604166667,23.86980343750008,127.11914200000002,35.18135689583334,44.11929162499997,67.41602402083335,-82.058729,-5.077060395833312,0
896.1111111111094,-110.26435510215464,238.03388435649913,190.22591155984435,-142.86948329629644,-84.92228737037037,23.705727444444573,127.0736550740741,35.18131855555556,44.16058881481479,67.38243011111113,-82.05635225925926,-5.1049883333333215,0
898.8888888888871,-110.22696184341274,238.13930867720617,190.27745718919974,-142.66105403703716,-84.9275182962963,23.500608555555687,127.02820025925928,35.181297444444446,44.20652085185182,67.33562788888892,-82.05041040740741,-5.123301666666655,0
901.6666666666648,-110.1911232642926,238.2441719082433,190.3286497361192,-142.4526247777779,-84.93274922222223,23.2954896666668,126.98274544444448,35.18127633333334,44.25245288888885,67.2888256666667,-82.04446855555557,-5.141614999999988,0
904.4444444444428,-110.15667588994299,238.34854924886724,190.3795339145328,-142.24419551851864,-84.93798014814814,23.090370777777903,126.93729062962966,35.18125522222223,44.298384925925895,67.24202344444447,-82.03852670370371,-5.159928333333323,0
907.2222222222204,-110.1234779564238,238.45250642704576,190.43014874154812,-142.0357662592594,-84.94321107407407,22.88525188888902,126.89183581481484,35.18123411111111,44.34431696296293,67.19522122222226,-82.03258485185187,-5.178241666666655,0
909.9999999999982,-110.09140590969665,238.5561012222822,190.4805284539997,-141.82733700000014,-84.948442,22.680133000000136,126.84638100000002,35.181213,44.39024899999997,67.14841900000003,-82.026643,-5.196554999999988,0
912.777777777776,-110.05882021991593,238.66165432347495,190.53139832229206,-141.38800570370398,-84.93463792592594,22.23263170370399,126.8064013703704,35.1811917037037,44.42446733333331,67.11994085185188,-82.0190142962963,-5.196555,0
915.5555555555538,-110.02576054241382,238.76901130186238,190.58272393328738,-140.94867440740768,-84.92083385185187,21.785130407407685,126.76642174074075,35.18117040740741,44.458685666666646,67.09146270370373,-82.0113855925926,-5.196555,0
918.3333333333316,-109.99226167267936,238.8780365488318,190.63447520282492,-140.5093431111114,-84.9070297777778,21.3376291111114,126.72644211111114,35.18114911111111,44.49290399999998,67.06298455555557,-82.0037568888889,-5.196555,0
921.1111111111092,-109.9583542425733,238.98861058078552,190.68662575448204,-140.0700118148151,-84.89322570370372,20.890127814815116,126.68646248148151,35.181127814814815,44.52712233333331,67.03450640740742,-81.9961281851852,-5.196555,0
923.8888888888872,-109.92406530055355,239.10062779303954,190.73915240180816,-139.6306805185188,-84.87942162962965,20.442626518518807,126.64648285185189,35.18110651851852,44.561340666666645,67.00602825925928,-81.9884994814815,-5.196555,0
926.6666666666648,-109.88975213013039,239.21423716990816,190.79231856576507,-139.1787250000003,-84.86601866666668,19.984958444444736,126.60047433333337,35.181085333333336,44.6056303333333,66.96900033333336,-81.97985844444446,-5.1989933333333305,0
929.4444444444426,-109.85562764521761,239.32949499460017,190.84626940789647,-138.71835333333362,-84.85288311111113,19.52051251851882,126.5504465555556,35.18106422222222,44.65663422222219,66.92627255555558,-81.97054251851853,-5.20305722222222,0
932.2222222222204,-109.82167220450627,239.44629907614313,190.90095613094567,-138.25798166666698,-84.83974755555558,19.056066592592902,126.50041877777782,35.18104311111111,44.70763811111108,66.8835447777778,-81.9612265925926,-5.207121111111109,0
934.9999999999982,-109.78786801678571,239.56455798996478,190.95633507449418,-137.7976100000003,-84.82661200000001,18.59162066666697,126.45039100000004,35.181022,44.758641999999966,66.84081700000003,-81.95191066666668,-5.211184999999997,0
937.777777777776,-109.75419891672188,239.68418975819804,191.01236708536138,-137.33723833333363,-84.81347644444446,18.127174740741037,126.40036322222224,35.18100088888889,44.80964588888885,66.79808922222225,-81.94259474074074,-5.215248888888886,0
940.5555555555536,-109.72047118037482,239.80511428067769,191.069027961025,-136.87861740740772,-84.80054881481483,17.660717111111424,126.34948451851857,35.180979740740746,44.86053729629626,66.75821137037039,-81.93412340740741,-5.219720185185181,0
943.3333333333314,-109.68598205934593,239.92724044569349,191.1263283140697,-136.42699944444476,-84.7884528888889,17.18621266666699,126.29520211111117,35.18095844444445,44.91097877777774,66.72973322222224,-81.92903044444445,-5.225821111111107,0
946.1111111111092,-109.6507751476776,240.05051044529174,191.18423613177322,-135.97538148148178,-84.77635696296298,16.711708222222537,126.24091970370374,35.18093714814815,44.96142025925923,66.7012550740741,-81.92393748148149,-5.231922037037033,0
948.8888888888872,-109.61489000833328,240.174872062582,191.2427224643982,-135.52376351851882,-84.76426103703704,16.237203777778085,126.18663729629634,35.18091585185185,45.01186174074071,66.67277692592594,-81.91884451851853,-5.238022962962959,0
951.6666666666648,-109.57836261359243,240.30027805753457,191.30176108914705,-135.07214555555586,-84.75216511111113,15.76269933333365,126.13235488888893,35.180894555555554,45.06230322222219,66.64429877777779,-81.91375155555556,-5.244123888888885,0
954.4444444444424,-109.54122572925682,240.42668563109498,191.3613282169717,-134.6205275925929,-84.74006918518519,15.288194888889215,126.07807248148151,35.18087325925926,45.11274470370367,66.61582062962965,-81.9086585925926,-5.2502248148148105,0
957.2222222222204,-109.50372889112192,240.5539257479375,191.42156132478604,-134.23124733333358,-84.73041652777779,14.86576108333361,126.02796044444447,35.180853166666665,45.16664036111107,66.60249361111111,-81.90319166666667,-5.266707916666654,0
959.9999999999982,-109.4659408110462,240.6819386034108,191.48247073318265,-133.85755150000023,-84.7213746875,14.456344937500267,125.97889100000005,35.180833375,45.22139956249996,66.592954375,-81.89763125,-5.285786562499988,0
962.777777777776,-109.42787194634414,240.8107007529532,191.54402799900342,-133.48385566666693,-84.71233284722223,14.046928791666945,125.9298215555556,35.18081358333333,45.27615876388885,66.5834151388889,-81.89207083333334,-5.304865208333321,0
965.5555555555536,-109.38953182610639,240.94019094369614,191.60620709675138,-133.1101598333336,-84.70329100694445,13.63751264583362,125.88075211111116,35.180793791666666,45.33091796527774,66.57387590277779,-81.88651041666667,-5.323943854166654,0
968.3333333333314,-109.35092914229237,241.07038989771365,191.66898418294025,-132.73646400000024,-84.69424916666668,13.22809650000028,125.83168266666672,35.180774,45.38567716666663,66.56433666666666,-81.88095000000001,-5.343022499999987,0
971.1111111111092,-109.31203528137327,241.20129604193556,191.73233806223416,-132.36751225925943,-84.68564539259259,12.823146266666866,125.78220989629634,35.18075245185185,45.44042366666663,66.5546904962963,-81.87537474814816,-5.362721585185162,0
973.888888888887,-109.27199575288142,241.3332688998688,191.79626456965804,-132.1124187407409,-84.6875552074074,12.52537793333354,125.72305730370374,35.18068874814815,45.494865333333294,66.54247790370371,-81.86944345185186,-5.397311214814791,0
976.6666666666648,-109.23086218777823,241.46627444345822,191.86074441228337,-131.8573252222224,-84.68946502222222,12.22760960000021,125.66390471111116,35.18062504444444,45.54930699999996,66.53026531111112,-81.86351215555555,-5.43190084444442,0
979.4444444444424,-109.18868238725923,241.60028139087527,191.9257598312811,-131.6022317037039,-84.69137483703703,11.929841266666871,125.60475211851856,35.18056134074074,45.60374866666663,66.51805271851853,-81.85758085925926,-5.4664904740740505,0
982.2222222222204,-109.14550066148496,241.73526095942862,191.99129446429012,-131.34713818518537,-84.69328465185185,11.632072933333534,125.54559952592597,35.180497637037035,45.658190333333295,66.50584012592594,-81.85164956296296,-5.50108010370368,0
984.999999999998,-109.10135813329168,241.8711866439888,192.05733322200038,-131.09204466666685,-84.69519446666666,11.334304600000207,125.48644693333338,35.18043393333333,45.71263199999997,66.49362753333334,-81.84571826666667,-5.535669733333309,0
987.7777777777758,-109.05712542039844,242.0073588649418,192.1236996741508,-130.8412428222224,-84.69550854814814,11.05176767407427,125.43162678518524,35.18036347407407,45.77281849629625,66.48272563703705,-81.83870062962963,-5.575461022222192,0
990.5555555555536,-109.0132623447466,242.1434109666443,192.19029812743256,-130.59285504444463,-84.69492502962963,10.777798414815006,125.37924363703708,35.18028921481481,45.83623645925921,66.47256100740742,-81.83107192592593,-5.618178244444414,0
993.3333333333314,-108.96974630180912,242.27936733382919,192.25712756245764,-130.34446726666684,-84.6943415111111,10.503829155555742,125.32686048888893,35.18021495555556,45.89965442222218,66.4623963777778,-81.82344322222222,-5.660895466666638,0
996.1111111111092,-108.92655609805166,242.4152509755564,192.32418713664313,-130.09607948888907,-84.6937579925926,10.229859896296489,125.27447734074076,35.1801406962963,45.96307238518514,66.45223174814815,-81.81581451851852,-5.7036126888888585,0
998.8888888888868,-108.88367184004565,242.55108362980707,192.3914761675984,-129.84769171111128,-84.69317447407407,9.955890637037236,125.22209419259264,35.18006643703704,46.0264903481481,66.44206711851852,-81.80818581481482,-5.74632991111108,0
1001.6666666666648,-108.84082051252227,242.6870726492145,192.45903590681712,-129.6249023750001,-84.69306520833332,9.701959125000135,125.1721487916667,35.18001,46.08480783333331,66.434342,-81.79990754166667,-5.786119291666645,0
1004.4444444444424,-108.79719922088864,242.82381428958175,192.52699498633208,-129.48317477083344,-84.69445774305555,9.5114804791668,125.12992292361116,35.18001,46.12697380555553,66.434342,-81.78957229861112,-5.81663717361109,0
1007.2222222222202,-108.75283342761479,242.96129614604408,192.59534621440906,-129.34144716666677,-84.69585027777777,9.321001833333469,125.0876970555556,35.18001,46.16913977777775,66.434342,-81.77923705555556,-5.847155055555533,0
1009.999999999998,-108.70774698967398,243.09950674968923,192.66408292686393,-129.19971956250012,-84.6972428125,9.13052318750014,125.04547118750004,35.18001,46.211305749999966,66.434342,-81.7689018125,-5.877672937499977,0
1012.7777777777758,-108.6619622788978,243.23843549347615,192.73319894562755,-129.05799195833345,-84.69863534722222,8.940044541666804,125.00324531944447,35.18001,46.25347172222219,66.434342,-81.75856656944445,-5.908190819444422,0
1015.5555555555536,-108.6155002918711,243.37807256458302,192.80268854090747,-128.91626435416677,-84.70002788194444,8.749565895833467,124.96101945138892,35.18001,46.295637694444416,66.434342,-81.74823132638889,-5.938708701388867,0
1018.3333333333312,-108.56863443704368,243.51860855427853,192.8727362103149,-128.76411375000012,-84.69984,8.550636083333485,124.91430550000004,35.17998133333334,46.34929158333328,66.434342,-81.73446316666669,-5.97838441666663,0
1021.111111111109,-108.52164583347488,243.66024172935113,192.94353348767675,-128.60067156250014,-84.69794,8.342550840277934,124.86272945833338,35.17992161111111,46.41539071527773,66.434342,-81.71697601388891,-6.027981118055519,0
1023.8888888888868,-108.4745331469209,243.8029495315256,193.01506174409263,-128.43722937500013,-84.69604,8.134465597222373,124.8111534166667,35.17986188888889,46.48148984722217,66.434342,-81.69948886111112,-6.077577819444408,0
1026.6666666666647,-108.42729507024097,243.94671080362494,193.0873034612065,-128.27378718750012,-84.69414,7.926380354166815,124.75957737500003,35.17980216666667,46.54758897916662,66.434342,-81.68200170833335,-6.127174520833298,0
1029.4444444444423,-108.37993032306171,244.09150568952478,193.16024215324177,-128.1103450000001,-84.69224,7.718295111111256,124.70800133333336,35.17974244444444,46.61368811111107,66.434342,-81.66451455555557,-6.176771222222188,0
1032.22222222222,-108.33243765146827,244.23731554211204,193.23386229527443,-127.94690281250011,-84.69034,7.510209868055713,124.6564252916667,35.17968272222222,46.67978724305551,66.434342,-81.6470274027778,-6.226367923611074,0
1034.999999999998,-108.28433036636387,244.3841550396669,193.30811692475615,-127.8683200666667,-84.6929708,7.371663200000082,124.60051706666673,35.17965066666667,46.74607206666662,66.44606079999998,-81.62809740000002,-6.285663799999954,0
1037.7777777777758,-108.2354364804741,244.53201903376714,193.38298087087645,-127.82273821481483,-84.69736357777778,7.260159311111192,124.54292410370374,35.179629370370364,46.81242910370366,66.4623369111111,-81.60860628888891,-6.348731577777733,0
1040.5555555555534,-108.18577643820387,244.68089058743394,193.45844255499085,-127.777156362963,-84.70175635555555,7.148655422222309,124.48533114074078,35.17960807407407,46.87878614074069,66.4786130222222,-81.5891151777778,-6.411799355555506,0
1043.3333333333312,-108.13536959494569,244.83075374488888,193.5344910499351,-127.73157451111116,-84.70614913333333,7.037151533333419,124.42773817777784,35.17958677777777,46.94514317777773,66.49488913333332,-81.56962406666668,-6.4748671333332855,0
1046.111111111109,-108.08423428732736,244.98159346523397,193.61111603667086,-127.68599265925928,-84.71054191111111,6.925647644444528,124.37014521481488,35.179565481481475,47.01150021481477,66.51116524444443,-81.55013295555557,-6.537934911111065,0
1048.8888888888869,-108.03247722102832,245.13329855847874,193.68831523639,-127.59883438888902,-84.70811772222223,6.769235277777961,124.31501877777782,35.179544666666665,47.07835716666662,66.53321788888887,-81.53051916666668,-6.594247333333303,0
1051.6666666666647,-107.98030037683377,245.28565419428364,193.76609494600154,-127.4233262291668,-84.69120747916668,6.517392395833512,124.26513370833338,35.179524875,47.14627643749995,66.56754566666665,-81.51064468750002,-6.63620462499997,0
1054.4444444444423,-107.9277110100298,245.4386568442128,193.8444457391403,-127.24781806944458,-84.67429723611112,6.265549513889083,124.21524863888894,35.17950508333333,47.21419570833328,66.60187344444442,-81.49077020833334,-6.678161916666634,0
1057.22222222222,-107.87471599658188,245.5923032334422,193.92335868770894,-127.07230990972236,-84.65738699305557,6.013706631944634,124.16536356944448,35.179485291666666,47.28211497916661,66.6362012222222,-81.47089572916668,-6.720119208333302,0
1059.999999999998,-107.82132185714052,245.74659032157362,194.0028253300981,-126.89680175000012,-84.64047675,5.7618637500001855,124.11547850000004,35.1794655,47.35003424999995,66.67052899999997,-81.45102125000003,-6.762076499999969,0
1062.7777777777756,-107.76753477936475,245.90151528480538,194.08283764163403,-126.72129359027792,-84.62356650694446,5.510020868055757,124.0655934305556,35.17944570833333,47.41795352083328,66.70485677777775,-81.43114677083335,-6.804033791666633,0
1065.5555555555534,-107.71292766923285,246.0571261569277,194.16341680294747,-126.50522235555574,-84.60724305185185,5.210255318518782,124.01045912592598,35.17930031851852,47.48430872592587,66.74047203703701,-81.41623442962964,-6.843006037037008,0
1068.3333333333312,-107.65718067094615,246.21345857514365,194.24457722682382,-126.25728013333352,-84.59138064444446,4.872836244444702,123.95120042222229,35.179056244444446,47.54943502222217,66.77709888888886,-81.40522091111112,-6.879632888888861,0
1071.111111111109,-107.60032031621664,246.37050778726362,194.32631063021964,-126.0093379111113,-84.57551823703704,4.535417170370622,123.89194171851857,35.17881217037037,47.61456131851847,66.81372574074071,-81.3942073925926,-6.916259740740713,0
1073.8888888888869,-107.54237192310495,246.52826930974203,194.4086091313189,-125.76139568888908,-84.55965582962963,4.197998096296542,123.83268301481486,35.178568096296296,47.67968761481477,66.85035259259256,-81.38319387407408,-6.952886592592566,0
1076.6666666666645,-107.48335966512468,246.68673890894934,194.49146522519248,-125.51345346666686,-84.54379342222224,3.860579022222489,123.77342431111116,35.17832402222223,47.74481391111106,66.8869794444444,-81.37218035555556,-6.989513444444415,0
1079.4444444444423,-107.42344559947867,246.84590951467948,194.5749093147294,-125.25605725000024,-84.5285288888889,3.5177488055558426,123.71581019444449,35.17810308333333,47.8104889444444,66.92110258333331,-81.36178466666667,-7.026383583333304,0
1082.22222222222,-107.3633729641563,247.00576141494335,194.65912947008658,-124.94902756250023,-84.51640319444445,3.146510090278058,123.66683015972228,35.17800360416667,47.87904484722217,66.94208122916665,-81.35463258333333,-7.064530979166637,0
1084.9999999999975,-107.30314035790117,247.16629152268553,194.74411310266524,-124.64199787500026,-84.5042775,2.775271375000304,123.61785012500005,35.177904125000005,47.94760074999994,66.96305987499998,-81.3474805,-7.102678374999968,0
1087.7777777777756,-107.24274642611137,247.32749691630445,194.8298481768171,-124.33496818750024,-84.49215180555557,2.4040326597225192,123.56887009027784,35.17780464583333,48.01615665277773,66.98403852083331,-81.34032841666667,-7.140825770833303,0
1090.5555555555534,-107.1821898596575,247.48937482742866,194.91632317868556,-124.02793850000025,-84.48002611111112,2.0327939444447347,123.5198900555556,35.17770516666667,48.0847125555555,67.00501716666665,-81.33317633333333,-7.178973166666636,0
1093.3333333333312,-107.12146939376379,247.65192262947835,195.0035270869934,-123.72090881250024,-84.46790041666667,1.6615552291669502,123.47091002083336,35.1776056875,48.15326845833328,67.02599581249999,-81.32602425,-7.217120562499971,0
1096.111111111109,-107.06059345075673,247.8147636276821,195.09121921694947,-123.47056314814829,-84.4605147037037,1.3488194074075752,123.41851459259264,35.177546,48.22206948148143,67.05160396296294,-81.3196958148148,-7.261166037036998,0
1098.8888888888866,-106.99957499809685,247.97734652871293,195.17905187245876,-123.30524351851864,-84.46023896296296,1.123837925926108,123.36099607407412,35.177546,48.29123818518513,67.08415637037035,-81.31460285185184,-7.314058629629587,0
1101.6666666666645,-106.93841232214979,248.1396914106239,195.26702909154702,-123.13992388888902,-84.45996322222221,0.8988564444446224,123.3034775555556,35.177546,48.36040688888883,67.11670877777776,-81.30950988888888,-7.36695122222218,0
1104.4444444444423,-106.87710377258522,248.30181756622684,195.3551547586602,-122.97460425925938,-84.45968748148148,0.6738749629631369,123.24595903703708,35.177546,48.429575592592535,67.14926118518515,-81.30441692592592,-7.419843814814774,0
1107.22222222222,-106.81564776036014,248.46374353935576,195.44343261069645,-122.80928462962976,-84.45941174074073,0.4488934814816697,123.18844051851856,35.177546,48.49874429629624,67.18181359259256,-81.29932396296296,-7.472736407407363,0
1109.9999999999975,-106.75404275580856,248.6254871590406,195.53186624270208,-122.64396500000014,-84.459136,0.2239120000001841,123.13092200000004,35.177546,48.56791299999994,67.21436599999997,-81.294231,-7.525628999999957,0
1112.7777777777756,-106.69147807393291,248.7880877851914,195.6210691863607,-122.38934888888907,-84.44966081481482,-0.1217407777775012,123.090294962963,35.177546,48.62024318518514,67.24488137037035,-81.29084637037037,-7.560218629629603,0
1115.5555555555534,-106.62797075170934,248.9515386016088,195.71103085681034,-122.13473277777796,-84.44018562962964,-0.4673935555552853,123.04966792592596,35.177546,48.67257337037033,67.27539674074072,-81.28746174074074,-7.594808259259232,0
1118.3333333333312,-106.56353718539853,249.11583304647843,195.80174106654258,-121.88011666666684,-84.43071044444446,-0.8130463333330694,123.00904088888892,35.177546,48.72490355555552,67.30591211111108,-81.28407711111112,-7.629397888888862,0
1121.1111111111088,-106.49819316227718,249.2809647974482,195.8931900048733,-121.62550055555576,-84.42123525925928,-1.1586991111108254,122.96841385185188,35.177546,48.7772337407407,67.33642748148145,-81.28069248148148,-7.66398751851849,0
1123.8888888888866,-106.4319538905849,249.44692775757136,195.98536821857758,-121.37088444444464,-84.41176007407408,-1.5043518888886092,122.92778681481484,35.177546,48.82956392592588,67.36694285185183,-81.27730785185186,-7.69857714814812,0
1126.6666666666645,-106.36507346337633,249.6135545345016,196.07828761908962,-121.10136435416688,-84.39849239583336,-1.8649743541663732,122.88197495833336,35.177522145833336,48.89276954166661,67.4077610833333,-81.27404410416666,-7.737587374999967,0
1129.444444444442,-106.29771975899982,249.7807357368708,196.1719529150483,-120.821908277778,-84.3826963888889,-2.2355766111107944,122.8327065555556,35.17748238888889,48.96322544444438,67.45544788888884,-81.27086094444445,-7.779544666666631,0
1132.22222222222,-106.22989805996636,249.94847150125287,196.26635488655202,-120.54245220138912,-84.36690038194446,-2.6061788680552453,122.78343815277782,35.177442631944444,49.03368134722216,67.5031346944444,-81.26767778472222,-7.821501958333298,0
1134.9999999999975,-106.16161346908082,250.11676194187436,196.36148462985528,-120.26299612500024,-84.35110437500002,-2.9767811249996967,122.73416975000004,35.177402875,49.10413724999994,67.55082149999996,-81.26449462500001,-7.863459249999965,0
1137.7777777777756,-106.09287091859285,250.28560714919547,196.45733354163116,-119.98354004861132,-84.33530836805558,-3.347383381944148,122.68490134722228,35.17736311805556,49.17459315277772,67.59850830555551,-81.26131146527779,-7.905416541666633,0
1140.5555555555534,-106.02367517884899,250.45500718859992,196.55389330408713,-119.70408397222243,-84.31951236111112,-3.717985638888599,122.6356329444445,35.177323361111114,49.2450490555555,67.64619511111107,-81.25812830555556,-7.947373833333301,0
1143.333333333331,-105.95373502029821,250.62527410715703,196.6513563968754,-119.41265024444468,-84.30553222222224,-4.106498377777446,122.57955920000003,35.17725462222222,49.32030619999993,67.69312999999995,-81.25619302222223,-7.99510311111107,0
1146.1111111111088,-105.88300475463744,250.79646081566113,196.7497490297631,-119.1189350592595,-84.29189796296298,-4.498422637036713,122.52218920000006,35.177180362962964,49.3964778666666,67.73992166666662,-81.25449542962963,-8.043931814814774,0
1148.8888888888866,-105.81149559992028,250.96856003517524,196.8490589926354,-118.8252198740743,-84.27826370370371,-4.890346896295979,122.46481920000004,35.17710610370371,49.47264953333327,67.7867133333333,-81.25279783703704,-8.09276051851848,0
1151.6666666666642,-105.73921841370526,251.1415646987009,196.94927446399848,-118.53150468888914,-84.26462944444445,-5.282271155555213,122.40744920000006,35.17703184444444,49.54882119999993,67.83350499999996,-81.25110024444444,-8.14158922222218,0
1154.444444444442,-105.66618370953671,251.31546793987673,197.0503839929375,-118.23778950370397,-84.25099518518519,-5.674195414814479,122.35007920000004,35.176957585185185,49.6249928666666,67.88029666666662,-81.24940265185185,-8.190417925925885,0
1157.22222222222,-105.59234798311537,251.49012920707779,197.1522783245054,-118.00407915555569,-84.24364477777777,-6.007015940740525,122.29346551111117,35.17689734074074,49.69843335555549,67.92888092592588,-81.2473361925926,-8.24551182222217,0
1159.9999999999975,-105.51765405095648,251.66537480113146,197.25482410531654,-117.84673860000012,-84.244292,-6.264613533333122,122.23781440000003,35.17685493333333,49.76839779999994,67.97974666666661,-81.24480026666667,-8.308579599999948,0
1162.7777777777756,-105.44211377315166,251.84120410062337,197.35801507987227,-117.68939804444456,-84.24493922222221,-6.522211125925719,122.18216328888894,35.176812525925925,49.83836224444438,68.03061240740736,-81.24226434074075,-8.371647377777727,0
1165.5555555555532,-105.36573865143622,252.01761646506378,197.46184516773445,-117.53205748888902,-84.24558644444444,-6.779808718518296,122.12651217777784,35.17677011851852,49.90832668888883,68.0814781481481,-81.23972841481482,-8.434715155555502,0
1168.333333333331,-105.28853984490463,252.19461123378701,197.5663084551344,-117.37471693333346,-84.24623366666667,-7.037406311110893,122.07086106666672,35.17672771111111,49.97829113333327,68.13234388888884,-81.2371924888889,-8.49778293333328,0
1171.1111111111088,-105.21053573279553,252.3721872497289,197.67139483766235,-117.21549341666685,-84.2463576388889,-7.295954243055323,122.01526313888894,35.176687,50.04810812499994,68.18231932638886,-81.23447192361111,-8.560083083333296,0
1173.8888888888864,-105.13191724915593,252.55033244998006,197.77699474898492,-117.01107883333351,-84.23392361111112,-7.5773103194441935,121.96094161111117,35.176687,50.11438624999994,68.21092748611107,-81.2273200138889,-8.603960166666628,0
1176.6666666666642,-105.05269121143046,252.72904632168863,197.88310468862053,-116.80666425000018,-84.22148958333334,-7.858666395833088,121.90662008333338,35.176687,50.18066437499994,68.2395356458333,-81.22016810416667,-8.647837249999961,0
1179.444444444442,-104.97286425214598,252.90832832181965,197.98972123433492,-116.60224966666684,-84.20905555555557,-8.14002247222198,121.8522985555556,35.176687,50.246942499999946,68.26814380555552,-81.21301619444445,-8.691714333333294,0
1182.22222222222,-104.89244282704715,253.0881778767062,198.09684103802556,-116.3978350833335,-84.1966215277778,-8.421378548610875,121.79797702777782,35.176687,50.31322062499994,68.29675196527775,-81.20586428472222,-8.73559141666663,0
1184.9999999999975,-104.81143322283599,253.26859438165496,198.20446082181883,-116.19342050000016,-84.18418750000001,-8.702734624999769,121.74365550000005,35.176687,50.37949874999995,68.32536012499997,-81.198712375,-8.779468499999963,0
1187.777777777775,-104.72991860010508,253.4495437031773,198.31259151727824,-115.98368893055576,-84.16872597222225,-8.989727986110845,121.69106632638892,35.176687,50.44636176388883,68.35610454861107,-81.19133758333334,-8.821206499999967,0
1190.5555555555532,-104.6481011121557,253.63093986719056,198.42126599317288,-115.7602851111113,-84.14547944444446,-9.29121722222196,121.64293177777782,35.176687,50.51472877777772,68.39234222222218,-81.18338966666667,-8.857443999999969,0
1193.333333333331,-104.56598189906288,253.8127842100622,198.53048030124077,-115.53688129166686,-84.12223291666669,-9.592706458333078,121.5947972291667,35.176687,50.58309579166661,68.4285798958333,-81.17544175,-8.89368149999997,0
1196.1111111111086,-104.48356209197881,253.99507797833766,198.64023057411202,-115.31347747222244,-84.09898638888892,-9.894195694444171,121.5466626805556,35.176687,50.6514628055555,68.4648175694444,-81.16749383333334,-8.929918999999966,0
1198.8888888888864,-104.4008428141016,254.1778223307897,198.75051302137848,-115.09007365277796,-84.07573986111113,-10.195684930555288,121.49852813194448,35.176687,50.71982981944439,68.50105524305552,-81.15954591666667,-8.966156499999968,0
1201.6666666666642,-104.31782518158585,254.36101834040778,198.86132392585924,-114.86666983333352,-84.05249333333336,-10.497174166666404,121.45039358333338,35.176687,50.78819683333328,68.53729291666663,-81.151598,-9.002393999999969,0
1204.444444444442,-104.23421607225347,254.54458127434924,198.97256631681935,-114.67292009722236,-84.03419691666669,-10.775593909722003,121.3990418055556,35.17667661805556,50.8530464444444,68.57650470138886,-81.14571401388889,-9.041605791666631,0
1207.22222222222,-104.14975053230913,254.72843452598192,199.08415222585927,-114.50654336111124,-84.02046983333335,-11.032718736110896,121.34472027777782,35.17665665277778,50.914649222222174,68.6184618194444,-81.14173519444445,-9.083563083333296,0
1209.9999999999975,-104.06443879343443,254.91258158277813,199.19608103124526,-114.34016662500017,-84.00674275000002,-11.289843562499769,121.29039875000004,35.1766366875,50.976251999999945,68.66041893749997,-81.13775637500001,-9.125520374999962,0
1212.777777777775,-103.97829083910456,255.0970257826741,199.30835209381846,-114.17378988888905,-83.99301566666668,-11.54696838888866,121.23607722222226,35.17661672222222,51.03785477777773,68.70237605555552,-81.13377755555555,-9.16747766666663,0
1215.5555555555532,-103.8913164142111,255.2817703184125,199.4209647569419,-114.00741315277791,-83.97928858333334,-11.804093215277556,121.18175569444448,35.17659675694444,51.0994575555555,68.74433317361108,-81.12979873611111,-9.209434958333295,0
1218.3333333333308,-103.80352503425553,255.46681824172765,199.53391834646854,-113.84103641666682,-83.9655615,-12.061218041666429,121.12743416666672,35.17657679166667,51.16106033333328,68.78629029166663,-81.12581991666667,-9.25139224999996,0
1221.1111111111086,-103.71518149846077,255.6521896431153,199.64737662701833,-113.67466746527792,-83.96025603472222,-12.315764805555323,121.07730081944447,35.17651156944444,51.22643566666661,68.8297065833333,-81.124865,-9.304953791666614,0
1223.8888888888864,-103.62637137808338,255.8378924460391,199.76138812155048,-113.50830097222236,-83.95761002777778,-12.569497444444218,121.0284900555556,35.17643205555556,51.29300233333328,68.87358366666663,-81.124865,-9.362179833333284,0
1226.6666666666642,-103.53709838626052,256.02392895562923,199.8759487786767,-113.3419344791668,-83.95496402083333,-12.823230083333112,120.97967929166671,35.17635254166667,51.35956899999994,68.91746074999996,-81.124865,-9.419405874999953,0
1229.444444444442,-103.44736617016797,256.21030136009836,199.9910546135815,-113.17556798611125,-83.95231801388888,-13.076962722222008,120.93086852777782,35.176273027777775,51.42613566666661,68.9613378333333,-81.124865,-9.476631916666618,0
1232.2222222222197,-103.35717831377225,256.39701173393837,200.10670170512483,-113.0092014930557,-83.94967200694444,-13.330695361110878,120.88205776388894,35.17619351388889,51.49270233333327,69.00521491666663,-81.124865,-9.53385795833328,0
1234.9999999999975,-103.26653834045509,256.5840620410124,200.22288619308284,-112.84283500000016,-83.947026,-13.584427999999772,120.83324700000004,35.176114,51.55926899999994,69.04909199999996,-81.124865,-9.591083999999949,0
1237.777777777775,-103.1751196345052,256.771188120067,200.33934439003184,-112.73587284722232,-83.94629978472221,-13.786634423610934,120.78249647916672,35.176114,51.61824573611106,69.0986786319444,-81.124865,-9.646390423611065,0
1240.555555555553,-103.08293057178243,256.95839572497226,200.45607645994525,-112.62891069444454,-83.94557356944443,-13.988840847222033,120.73174595833338,35.176114,51.67722247222217,69.14826526388885,-81.124865,-9.70169684722217,0
1243.3333333333308,-102.98997935481869,257.1456904110274,200.5730825257887,-112.52194854166676,-83.94484735416667,-14.191047270833144,120.68099543750004,35.176114,51.73619920833328,69.19785189583328,-81.124865,-9.757003270833282,0
1246.1111111111086,-102.89627401905602,257.33307754095677,200.6903626704514,-112.41498638888898,-83.94412113888889,-14.39325369444426,120.63024491666673,35.176114,51.79517594444439,69.24743852777773,-81.124865,-9.812309694444394,0
1248.8888888888864,-102.80182243882005,257.5205622906903,200.80791693765664,-112.3080242361112,-83.94339492361111,-14.595460118055374,120.57949439583338,35.176114,51.8541526805555,69.29702515972218,-81.124865,-9.867616118055508,0
1251.6666666666642,-102.7067495410033,257.70803915478496,200.9256860385842,-112.21611420000004,-83.9443225111111,-14.779109044444334,120.52860920000003,35.17610888888889,51.91487268888883,69.34936091111106,-81.12466126666666,-9.928205177777713,0
1254.4444444444418,-102.61143166779256,257.8951652838183,201.04348338283182,-112.17186920000005,-83.95048714074073,-14.903992562962843,120.47729753333338,35.17608759259259,51.9811130592592,69.41040220740734,-81.12381237777778,-10.005522585185112,0
1257.2222222222197,-102.51586921887997,258.08195194863924,201.161312455586,-112.12762420000004,-83.95665177037037,-15.028876081481366,120.42598586666672,35.17606629629629,52.04735342962957,69.47144350370364,-81.12296348888889,-10.082839992592522,0
1259.9999999999975,-102.42006261490565,258.2684101030596,201.27917662507497,-112.08337920000004,-83.9628164,-15.153759599999889,120.37467420000004,35.176044999999995,52.11359379999994,69.53248479999995,-81.1221146,-10.16015739999993,0
1262.777777777775,-102.32401229705563,258.4545503936148,201.3970791460269,-112.03913420000003,-83.96898102962963,-15.278643118518398,120.32336253333338,35.1760237037037,52.17983417037031,69.59352609629623,-81.12126571111112,-10.237474807407333,0
1265.555555555553,-102.22771872666365,258.64038316896824,201.51502316300798,-111.99488920000005,-83.97514565925925,-15.40352663703692,120.27205086666672,35.1760024074074,52.24607454074068,69.65456739259253,-81.12041682222223,-10.314792214814744,0
1268.3333333333308,-102.13080554385219,258.8260588270168,201.6330564062295,-112.04857603921562,-84.00497762745096,-15.4397002352941,120.22470907843142,35.17599117647059,52.30094799999995,69.70654866666662,-81.11965196078432,-10.411607980392064,0
1271.1111111111086,-102.03320687294166,259.01161186644526,201.7511896815696,-112.12091656209144,-84.03931766013069,-15.458976705882336,120.17812345751638,35.1759818627451,52.35365633333328,69.75680422222217,-81.11890310457517,-10.512137718954158,0
1273.8888888888864,-101.93492940381233,259.1970494974639,201.8694250902094,-112.19325708496726,-84.07365769281043,-15.47825317647057,120.13153783660134,35.175972549019605,52.40636466666662,69.80705977777772,-81.11815424836601,-10.61266745751625,0
1276.666666666664,-101.83597971126405,259.3823787165358,201.98776465127307,-112.26559760784306,-84.10799772549016,-15.497529647058805,120.08495221568631,35.17596323529412,52.45907299999995,69.85731533333328,-81.11740539215687,-10.713197196078337,0
1279.4444444444418,-101.7363642588057,259.56760631266076,202.10621030414373,-112.33793813071888,-84.14233775816992,-15.51680611764704,120.03836659477128,35.17595392156863,52.51178133333328,69.90757088888884,-81.11665653594771,-10.81372693464043,0
1282.2222222222197,-101.63608940229082,259.75273887344304,202.22476391070535,-112.4102786535947,-84.17667779084965,-15.536082588235276,119.99178097385624,35.175944607843135,52.56448966666662,69.9578264444444,-81.11590767973856,-10.914256673202525,0
1284.9999999999973,-101.53520035742994,259.937922891979,202.34363216774258,-112.63352919999971,-84.24211433333326,-15.413466000000174,119.94479500000004,35.175942,52.6243818666666,70.02024026666659,-81.11509439999999,-11.049334199999857,0
1287.777777777775,-101.43371787747097,260.1232170755287,202.46289358191663,-112.9154669777775,-84.31964396296289,-15.23566877777795,119.89765333333338,35.175942,52.68706779259253,70.08738230370363,-81.11425606666667,-11.197846977777637,0
1290.555555555553,-101.33164729402716,260.3086248470967,202.5825460002559,-113.19740475555528,-84.39717359259252,-15.057871555555725,119.8505116666667,35.175942,52.74975371851846,70.15452434074068,-81.11341773333334,-11.346359755555415,0
1293.3333333333308,-101.22899385903574,260.49414950395925,202.70258727865345,-113.47934253333308,-84.47470322222215,-14.880074333333498,119.80337000000004,35.175942,52.81243964444439,70.22166637777771,-81.1125794,-11.494872533333195,0
1296.1111111111086,-101.12576274727398,260.6797942211805,202.8230152814452,-113.76128031111084,-84.55223285185178,-14.702277111111272,119.75622833333335,35.175942,52.87512557037032,70.28880841481475,-81.11174106666667,-11.643385311110976,0
1298.8888888888862,-101.0218113580646,260.8655314216843,202.94377427425346,-114.06097885925892,-84.62817694074066,-14.509526940740958,119.71111368888891,35.17592842962963,52.93161842962959,70.35074209629624,-81.111171,-11.778880488888785,0
1301.666666666664,-100.91683321584537,261.05129944002977,203.06474907962132,-114.39841904444413,-84.70075175555549,-14.28500175555577,119.6703064666667,35.17588602222222,52.97495102222218,70.40160802222216,-81.111171,-11.886713266666565,0
1304.4444444444418,-100.81083931378768,261.23710235649276,203.18593977558277,-114.73585922962933,-84.7733265703703,-14.06047657037058,119.62949924444447,35.175843614814816,53.01828361481477,70.4524739481481,-81.111171,-11.994546044444345,0
1307.2222222222194,-100.70384045785333,261.42294411743524,203.30734640394695,-115.07329941481449,-84.84590138518512,-13.835951385185409,119.58869202222226,35.17580120740741,53.06161620740736,70.50333987407402,-81.111171,-12.102378822222114,0
1309.9999999999973,-100.59584727228325,261.6088285390258,203.4289689712491,-115.41073959999969,-84.91847619999993,-13.61142620000022,119.54788480000003,35.175758800000004,53.10494879999995,70.55420579999995,-81.111171,-12.210211599999894,0
1312.777777777775,-100.4868702048816,261.7947593108448,203.5508074496782,-115.74817978518486,-84.99105101481474,-13.386901014815033,119.5070775777778,35.17571639259259,53.14828139259255,70.60507172592587,-81.111171,-12.318044377777673,0
1315.555555555553,-100.37689591292808,261.98081851042645,203.67305407539035,-116.35004046825338,-85.08680215079356,-12.916106238095702,119.45533666666672,35.17569200793651,53.2126282698412,70.69135742063483,-81.111171,-12.495130119047444,0
1318.3333333333308,-100.26593275834887,262.16701539523154,203.79572298670814,-116.97489423809466,-85.18456861904752,-12.42389671428617,119.40264500000004,35.17566919047619,53.278802476190414,70.78072309523802,-81.111171,-12.678237857142689,0
1321.1111111111084,-100.1539910132908,262.3533522190508,203.9188114213066,-117.59974800793589,-85.28233508730149,-11.931687190476678,119.3499533333334,35.17564637301587,53.34497668253962,70.87008876984117,-81.111171,-12.861345595237914,0
1323.8888888888862,-100.04108078663158,262.53983114265833,204.04231663554904,-118.22460177777717,-85.38010155555546,-11.439477666667146,119.29726166666671,35.17562355555555,53.41115088888883,70.95945444444436,-81.111171,-13.044453333333156,0
1326.666666666664,-99.92721202852773,262.72645423633924,204.1662359039385,-118.84945554761843,-85.47786802380942,-10.947268142857611,119.24457000000004,35.17560073809524,53.47732509523804,71.04882011904753,-81.111171,-13.227561071428395,0
1329.4444444444416,-99.81223571086434,262.9129880254602,204.29031651603836,-119.47368299259196,-85.55213051851844,-10.453710985185689,119.19128140000004,35.175598,53.53535022222216,71.1347448888888,-81.111171,-13.380225244444294,0
1332.2222222222194,-99.69614184025677,263.0994052916249,204.41452486748068,-120.097825029629,-85.62318792592585,-9.959970059259753,119.13791140000004,35.175598,53.59226411111106,71.22020044444436,-81.111171,-13.528738022222074,0
1334.9999999999973,-99.57894214686043,263.2857111548171,204.53886179516616,-120.72196706666604,-85.69424533333326,-9.46622913333382,119.08454140000006,35.175598,53.64917799999994,71.30565599999991,-81.111171,-13.677250799999854,0
1337.777777777775,-99.46064817841403,263.4719105941964,204.66332808877928,-121.3461091037031,-85.76530274074068,-8.972488207407883,119.03117140000006,35.175598,53.70609188888884,71.39111155555548,-81.111171,-13.825763577777636,0
1340.555555555553,-99.34127130510059,263.6580084518829,204.7879244920643,-121.97025114074016,-85.83636014814809,-8.478747281481947,118.97780140000006,35.175598,53.76300577777772,71.47656711111104,-81.111171,-13.974276355555416,0
1343.3333333333303,-99.22126983825477,263.8437107677088,204.91245307597268,-122.45446441666633,-85.88401474999998,-8.107181250000242,118.9284723333334,35.175598,53.81937724999994,71.5686119999999,-81.10926116666667,-14.104606666666555,0
1346.1111111111084,-99.10113321513363,264.02870254735444,205.03670196564994,-122.78708820138856,-85.90631631249998,-7.867971354166904,118.8835209444445,35.175598,53.87516110416661,71.66779533333323,-81.10528234722223,-14.215239305555446,0
1348.8888888888862,-98.9808609521546,264.21299582417134,205.160676815885,-123.1197119861108,-85.92861787499999,-7.628761458333567,118.8385695555556,35.175598,53.93094495833328,71.76697866666657,-81.10130352777777,-14.325871944444335,0
1351.6666666666638,-98.86045260349283,264.39660237656165,205.28438315255002,-123.452335770833,-85.95091943749998,-7.389551562500248,118.79361816666672,35.175598,53.98672881249994,71.86616199999989,-81.09732470833333,-14.436504583333218,0
1354.4444444444416,-98.73990776005694,264.5795337346301,205.40782637597678,-123.78495955555522,-85.97322099999998,-7.150341666666911,118.74866677777784,35.175598,54.04251266666661,71.96534533333323,-81.09334588888889,-14.547137222222108,0
1357.2222222222194,-98.61922604849131,264.76180118662916,205.5310117642302,-124.11758334027743,-85.99552256249999,-6.911131770833573,118.70371538888894,35.175598,54.09829652083328,72.06452866666656,-81.08936706944445,-14.657769861111,0
1359.9999999999973,-98.49750855313249,264.943673920526,205.65408001038566,-124.5971437333328,-86.01685486666665,-6.567742866667044,118.66031913333336,35.175598,54.142922933333296,72.1450350666666,-81.08580833333333,-14.738548466666598,0
1362.777777777775,-98.37441664217398,265.12525995102635,205.7770871879136,-125.13384614074025,-86.03781023703702,-6.183839903704074,118.6175276518519,35.175598,54.18321034074071,72.21827821481475,-81.08241296296296,-14.807717170370305,0
1365.5555555555527,-98.2499648808285,265.3065656152622,205.9000359888298,-125.6705485481476,-86.05876560740738,-5.799936940741135,118.5747361703704,35.175598,54.223497748148105,72.29152136296288,-81.07901759259259,-14.876885874074002,0
1368.3333333333303,-98.12416761913175,265.48759710337004,206.02292903229446,-126.207250955555,-86.07972097777775,-5.416033977778166,118.53194468888891,35.175598,54.26378515555552,72.36476451111103,-81.07562222222222,-14.946054577777709,0
1371.1111111111084,-97.99703899716995,265.6683604622523,206.14576886649996,-126.74395336296244,-86.10067634814813,-5.032131014815196,118.48915320740744,35.175598,54.30407256296292,72.43800765925918,-81.07222685185185,-15.015223281481411,0
1373.888888888886,-97.86872971524578,265.8488745945722,206.26860542425118,-127.24355520740696,-86.12088137777775,-4.6793392222225245,118.44434157777782,35.175598,54.349320503703645,72.51775960740731,-81.0696497925926,-15.092856518518415,0
