BAEK26/lfd/data/processed_a.csv
timestamp,x,y,z,roll,pitch,yaw,joint1,joint2,joint3,joint4,joint5,joint6,gripper
140.0,-133.209595,231.130341,183.414597,-150.548557,-84.935779,56.707065,129.411571,35.203959,40.300935,43.923346,-81.806971,-0.867916,1
142.77777777777777,-133.209595,231.130341,183.414597,-150.548557,-84.935779,56.707065,129.411571,35.203959,40.300935,43.923346,-81.806971,-0.867916,1
145.55555555555554,-133.209595,231.130341,183.414597,-150.548557,-84.935779,56.707065,129.411571,35.203959,40.300935,43.923346,-81.806971,-0.867916,1
148.33333333333331,-133.209595,231.130341,183.414597,-150.548557,-84.935779,56.707065,129.411571,35.203959,40.300935,43.923346,-81.806971,-0.867916,1
151.1111111111111,-133.209595,231.130341,183.414597,-150.548557,-84.935779,56.707065,129.411571,35.203959,40.300935,43.923346,-81.806971,-0.867916,1
153.88888888888886,-133.209595,231.130341,183.414597,-150.548557,-84.935779,56.707065,129.411571,35.203959,40.300935,43.923346,-81.806971,-0.867916,1
156.66666666666663,-133.209595,231.130341,183.414597,-150.548557,-84.935779,56.707065,129.411571,35.203959,40.300935,43.923346,-81.806971,-0.867916,1
159.4444444444444,-133.209595,231.130341,183.414597,-150.548557,-84.935779,56.707065,129.411571,35.203959,40.300935,43.923346,-81.806971,-0.867916,1
162.22222222222217,-133.209595,231.130341,183.414597,-150.548557,-84.935779,56.707065,129.411571,35.203959,40.300935,43.923346,-81.806971,-0.867916,1
164.99999999999994,-133.209595,231.130341,183.414597,-150.548557,-84.935779,56.707065,129.411571,35.203959,40.300935,43.923346,-81.806971,-0.867916,1
167.77777777777771,-133.209595,231.130341,183.414597,-150.548557,-84.935779,56.707065,129.411571,35.203959,40.300935,43.923346,-81.806971,-0.867916,1
170.5555555555555,-133.209595,231.130341,183.414597,-150.548557,-84.935779,56.707065,129.411571,35.203959,40.300935,43.923346,-81.806971,-0.867916,1
173.33333333333326,-133.209595,231.130341,183.414597,-150.548557,-84.935779,56.707065,129.411571,35.203959,40.300935,43.923346,-81.806971,-0.867916,1
176.11111111111103,-133.209595,231.130341,183.414597,-150.548557,-84.935779,56.707065,129.411571,35.203959,40.300935,43.923346,-81.806971,-0.867916,1
178.8888888888888,-133.209595,231.130341,183.414597,-150.548557,-84.935779,56.707065,129.411571,35.203959,40.300935,43.923346,-81.806971,-0.867916,1
181.66666666666657,-133.209595,231.130341,183.414597,-150.548557,-84.935779,56.707065,129.411571,35.203959,40.300935,43.923346,-81.806971,-0.867916,1
184.44444444444437,-133.209595,231.130341,183.414597,-150.548557,-84.935779,56.707065,129.411571,35.203959,40.300935,43.923346,-81.806971,-0.867916,1
187.2222222222221,-133.209595,231.130341,183.414597,-150.548557,-84.935779,56.707065,129.411571,35.203959,40.300935,43.923346,-81.806971,-0.867916,1
189.9999999999999,-133.209595,231.130341,183.414597,-150.548557,-84.935779,56.707065,129.411571,35.203959,40.300935,43.923346,-81.806971,-0.867916,1
192.7777777777777,-133.209595,231.130341,183.414597,-150.548557,-84.935779,56.707065,129.411571,35.203959,40.300935,43.923346,-81.806971,-0.867916,1
195.55555555555543,-133.209595,231.130341,183.414597,-150.548557,-84.935779,56.707065,129.411571,35.203959,40.300935,43.923346,-81.806971,-0.867916,1
198.3333333333332,-133.209595,231.130341,183.414597,-150.548557,-84.935779,56.707065,129.411571,35.203959,40.300935,43.923346,-81.806971,-0.867916,1
201.11111111111097,-133.209595,231.130341,183.414597,-150.548557,-84.935779,56.707065,129.411571,35.203959,40.300935,43.923346,-81.806971,-0.867916,1
203.88888888888877,-133.209595,231.130341,183.414597,-150.548557,-84.935779,56.707065,129.411571,35.203959,40.300935,43.923346,-81.806971,-0.867916,1
206.6666666666665,-133.209595,231.130341,183.414597,-150.548557,-84.935779,56.707065,129.411571,35.203959,40.300935,43.923346,-81.806971,-0.867916,1
209.4444444444443,-133.209595,231.130341,183.414597,-150.548557,-84.935779,56.707065,129.411571,35.203959,40.300935,43.923346,-81.806971,-0.867916,1
212.2222222222221,-133.209595,231.130341,183.414597,-150.548557,-84.935779,56.707065,129.411571,35.203959,40.300935,43.923346,-81.806971,-0.867916,1
214.99999999999983,-133.209595,231.130341,183.414597,-150.548557,-84.935779,56.707065,129.411571,35.203959,40.300935,43.923346,-81.806971,-0.867916,1
217.7777777777776,-133.209595,231.130341,183.414597,-150.548557,-84.935779,56.707065,129.411571,35.203959,40.300935,43.923346,-81.806971,-0.867916,1
220.55555555555537,-133.209595,231.130341,183.414597,-150.548557,-84.935779,56.707065,129.411571,35.203959,40.300935,43.923346,-81.806971,-0.867916,1
223.33333333333317,-133.209595,231.130341,183.414597,-150.548557,-84.935779,56.707065,129.411571,35.203959,40.300935,43.923346,-81.806971,-0.867916,1
226.1111111111109,-133.209595,231.130341,183.414597,-150.548557,-84.935779,56.707065,129.411571,35.203959,40.300935,43.923346,-81.806971,-0.867916,1
228.8888888888887,-133.209595,231.130341,183.414597,-150.548557,-84.935779,56.707065,129.411571,35.203959,40.300935,43.923346,-81.806971,-0.867916,1
231.6666666666665,-133.209595,231.130341,183.414597,-150.548557,-84.935779,56.707065,129.411571,35.203959,40.300935,43.923346,-81.806971,-0.867916,1
234.44444444444423,-133.209595,231.130341,183.414597,-150.548557,-84.935779,56.707065,129.411571,35.203959,40.300935,43.923346,-81.806971,-0.867916,1
237.222222222222,-133.209595,231.130341,183.414597,-150.548557,-84.935779,56.707065,129.411571,35.203959,40.300935,43.923346,-81.806971,-0.867916,1
239.99999999999977,-133.209595,231.130341,183.414597,-150.548557,-84.935779,56.707065,129.411571,35.203959,40.300935,43.923346,-81.806971,-0.867916,1
242.77777777777757,-133.209595,231.130341,183.414597,-150.548557,-84.935779,56.707065,129.411571,35.203959,40.300935,43.923346,-81.806971,-0.867916,1
245.5555555555553,-133.209595,231.130341,183.414597,-150.548557,-84.935779,56.707065,129.411571,35.203959,40.300935,43.923346,-81.806971,-0.867916,1
248.3333333333331,-133.209595,231.130341,183.414597,-150.548557,-84.935779,56.707065,129.411571,35.203959,40.300935,43.923346,-81.806971,-0.867916,1
251.1111111111109,-133.209595,231.130341,183.414597,-150.548557,-84.935779,56.707065,129.411571,35.203959,40.300935,43.923346,-81.806971,-0.867916,1
253.88888888888863,-133.209595,231.130341,183.414597,-150.548557,-84.935779,56.707065,129.411571,35.203959,40.300935,43.923346,-81.806971,-0.867916,1
256.6666666666664,-133.209595,231.130341,183.414597,-150.548557,-84.935779,56.707065,129.411571,35.203959,40.300935,43.923346,-81.806971,-0.867916,1
259.4444444444442,-133.209595,231.130341,183.414597,-150.548557,-84.935779,56.707065,129.411571,35.203959,40.300935,43.923346,-81.806971,-0.867916,1
262.22222222222194,-133.209595,231.130341,183.414597,-150.548557,-84.935779,56.707065,129.411571,35.203959,40.300935,43.923346,-81.806971,-0.867916,1
264.9999999999997,-133.209595,231.130341,183.414597,-150.548557,-84.935779,56.707065,129.411571,35.203959,40.300935,43.923346,-81.806971,-0.867916,1
267.7777777777775,-133.209595,231.130341,183.414597,-150.548557,-84.935779,56.707065,129.411571,35.203959,40.300935,43.923346,-81.806971,-0.867916,1
270.55555555555526,-133.209595,231.130341,183.414597,-150.548557,-84.935779,56.707065,129.411571,35.203959,40.300935,43.923346,-81.806971,-0.867916,1
273.33333333333303,-133.209595,231.130341,183.414597,-150.548557,-84.935779,56.707065,129.411571,35.203959,40.300935,43.923346,-81.806971,-0.867916,1
276.1111111111108,-133.209595,231.130341,183.414597,-150.548557,-84.935779,56.707065,129.411571,35.203959,40.300935,43.923346,-81.806971,-0.867916,1
278.8888888888886,-133.209595,231.130341,183.414597,-150.548557,-84.935779,56.707065,129.411571,35.203959,40.300935,43.923346,-81.806971,-0.867916,1
281.66666666666634,-133.209595,231.130341,183.414597,-150.548557,-84.935779,56.707065,129.411571,35.203959,40.300935,43.923346,-81.806971,-0.867916,1
284.4444444444441,-133.209595,231.130341,183.414597,-150.548557,-84.935779,56.707065,129.411571,35.203959,40.300935,43.923346,-81.806971,-0.867916,1
287.2222222222219,-133.209595,231.130341,183.414597,-150.548557,-84.935779,56.707065,129.411571,35.203959,40.300935,43.923346,-81.806971,-0.867916,1
289.99999999999966,-133.209595,231.130341,183.414597,-150.548557,-84.935779,56.707065,129.411571,35.203959,40.300935,43.923346,-81.806971,-0.867916,1
292.77777777777743,-133.209595,231.130341,183.414597,-150.548557,-84.935779,56.707065,129.411571,35.203959,40.300935,43.923346,-81.806971,-0.867916,1
295.5555555555552,-133.209595,231.130341,183.414597,-150.548557,-84.935779,56.707065,129.411571,35.203959,40.300935,43.923346,-81.806971,-0.867916,1
298.333333333333,-133.209595,231.130341,183.414597,-150.548557,-84.935779,56.707065,129.411571,35.203959,40.300935,43.92505711111112,-81.806971,-0.867916,1
301.11111111111074,-133.209595,231.130341,183.414597,-150.548557,-84.935779,56.707065,129.411571,35.203959,40.300935,43.92709414814815,-81.806971,-0.867916,1
303.8888888888885,-133.209595,231.130341,183.414597,-150.548557,-84.935779,56.707065,129.411571,35.203959,40.300935,43.929131185185184,-81.806971,-0.867916,1
306.6666666666663,-133.209595,231.130341,183.414597,-150.548557,-84.935779,56.707065,129.411571,35.203959,40.300935,43.93116822222222,-81.806971,-0.867916,1
309.44444444444406,-133.209595,231.130341,183.414597,-150.548557,-84.935779,56.707065,129.411571,35.203959,40.300935,43.93320525925926,-81.806971,-0.867916,1
312.22222222222183,-133.20392551851853,231.1299282148148,183.41430977777776,-150.5466429185185,-84.93537281481481,56.69981013333334,129.411571,35.203959,40.300935,43.93881851851852,-81.806971,-0.867916,1
314.9999999999996,-133.19104033333335,231.12899006666663,183.413657,-150.54229273333334,-84.93444966666667,56.6833218,129.411571,35.203959,40.300935,43.94898333333333,-81.806971,-0.867916,1
317.7777777777774,-133.17815514814816,231.1280519185185,183.4130042222222,-150.53794254814815,-84.93352651851852,56.666833466666674,129.411571,35.203959,40.300935,43.95914814814815,-81.806971,-0.867916,1
320.55555555555515,-133.16526996296298,231.1271137703704,183.41235144444445,-150.53359236296296,-84.93260337037037,56.65034513333334,129.411571,35.203959,40.300935,43.96931296296296,-81.806971,-0.867916,1
323.3333333333329,-133.1523847777778,231.1261756222222,183.41169866666667,-150.52924217777775,-84.93168022222223,56.6338568,129.411571,35.203959,40.300935,43.979477777777774,-81.806971,-0.867916,1
326.1111111111107,-133.13958548888888,231.125243237037,183.4110501851852,-150.52492211851853,-84.93076344444445,56.61747838518519,129.411571,35.203959,40.300935,43.9896430074074,-81.806971,-0.867916,1
328.88888888888846,-133.12884771111112,231.12444916296292,183.4105048148148,-150.52132508148148,-84.92999955555557,56.603738014814816,129.411571,35.203959,40.300935,43.99981819259259,-81.806971,-0.867916,1
331.66666666666623,-133.11810993333333,231.12365508888888,183.40995944444444,-150.51772804444445,-84.92923566666667,56.589997644444445,129.411571,35.203959,40.300935,44.009993377777775,-81.806971,-0.867916,1
334.444444444444,-133.10737215555557,231.1228610148148,183.40941407407408,-150.5141310074074,-84.92847177777779,56.57625727407408,129.411571,35.203959,40.300935,44.02016856296296,-81.806971,-0.867916,1
337.2222222222218,-133.09663437777778,231.12206694074075,183.4088687037037,-150.51053397037035,-84.92770788888889,56.56251690370371,129.411571,35.203959,40.300935,44.03034374814815,-81.806971,-0.867916,1
339.99999999999955,-133.0858966,231.1212728666667,183.40832333333333,-150.50693693333332,-84.926944,56.54877653333334,129.411571,35.203959,40.300935,44.04051893333333,-81.806971,-0.867916,1
342.7777777777773,-133.06785733333334,231.1199188888889,183.4074064444445,-150.50091188888888,-84.92565677777777,56.52573722222223,129.411571,35.203959,40.300935,44.05760833333333,-81.806971,-0.867916,1
345.5555555555551,-133.04571097916667,231.11824996527776,183.4062805763889,-150.49352109027777,-84.92407518055556,56.49746725694445,129.411571,35.203959,40.300935,44.078586979166666,-81.806971,-0.867916,1
348.33333333333286,-133.023564625,231.11658104166668,183.40515470833336,-150.48613029166668,-84.92249358333333,56.469197291666674,129.411571,35.203959,40.300935,44.099565625,-81.806971,-0.867916,1
351.11111111111063,-133.00141827083334,231.1149121180556,183.4040288402778,-150.47873949305557,-84.92091198611111,56.440927326388895,129.411571,35.203959,40.300935,44.12054427083333,-81.806971,-0.867916,1
353.8888888888884,-132.97927191666668,231.1132431944445,183.40290297222225,-150.47134869444446,-84.91933038888888,56.41265736111112,129.411571,35.203959,40.300935,44.141522916666666,-81.806971,-0.867916,1
356.6666666666662,-132.95712556249998,231.11157427083336,183.40177710416668,-150.46395789583335,-84.91774879166667,56.384387395833336,129.411571,35.203959,40.300935,44.1625015625,-81.806971,-0.867916,1
359.44444444444395,-132.92235077037037,231.10886502222223,183.4000032444445,-150.4524640666667,-84.91526203703704,56.34009862962964,129.411571,35.203959,40.300935,44.19545787407407,-81.806971,-0.867916,1
362.2222222222217,-132.8858539185185,231.10601391111112,183.39814102222223,-150.44041073333335,-84.91265185185185,56.29362548148149,129.411571,35.203959,40.300935,44.230047503703695,-81.806971,-0.867916,1
364.9999999999995,-132.84935706666667,231.1031628,183.3962788,-150.4283574,-84.91004166666667,56.24715233333334,129.411571,35.203959,40.300935,44.26463713333332,-81.806971,-0.867916,1
367.77777777777726,-132.8128602148148,231.1003116888889,183.39441657777775,-150.41630406666667,-84.90743148148148,56.2006791851852,129.411571,35.203959,40.300935,44.29922676296295,-81.806971,-0.867916,1
370.55555555555503,-132.77636336296297,231.09746057777775,183.39255435555555,-150.40425073333336,-84.90482129629629,56.15420603703705,129.411571,35.203959,40.300935,44.33381639259258,-81.806971,-0.867916,1
373.3333333333328,-132.73135483333334,231.09388625,183.39029666666667,-150.38932658333334,-84.90160191666666,56.09677975000002,129.411571,35.203959,40.30095408333334,44.376521416666655,-81.806971,-0.867916,1
376.1111111111106,-132.67712531944446,231.0895284375,183.38761055555557,-150.37129238194444,-84.89772257638889,56.02748756250001,129.411571,35.203959,40.300993840277776,44.42801811805554,-81.806971,-0.867916,1
378.8888888888884,-132.62289580555557,231.085170625,183.38492444444444,-150.35325818055557,-84.89384323611111,55.95819537500002,129.411571,35.203959,40.30103359722222,44.47951481944443,-81.806971,-0.867916,1
381.6666666666661,-132.56866629166666,231.0808128125,183.38223833333333,-150.33522397916667,-84.88996389583333,55.88890318750001,129.411571,35.203959,40.30107335416667,44.53101152083333,-81.806971,-0.867916,1
384.4444444444439,-132.51443677777775,231.076455,183.37955222222223,-150.31718977777777,-84.88608455555556,55.819611000000016,129.411571,35.203959,40.30111311111112,44.58250822222221,-81.806971,-0.867916,1
387.22222222222166,-132.4602072638889,231.0720971875,183.3768661111111,-150.2991555763889,-84.88220521527778,55.75031881250001,129.411571,35.203959,40.30115286805555,44.6340049236111,-81.806971,-0.867916,1
389.9999999999994,-132.39256326666668,231.06641126666668,183.37351386666663,-150.27699373333334,-84.87735273333334,55.66422473333335,129.4115556666667,35.203959,40.30120213333333,44.69823306666665,-81.806971,-0.867916,1
392.7777777777772,-132.31970252592595,231.0602088592593,183.3699025703704,-150.2532266962963,-84.87212180740741,55.571596585185205,129.41153437037036,35.203959,40.301255096296295,44.76741232592591,-81.806971,-0.867916,1
395.555555555555,-132.2468417851852,231.05400645185185,183.3662912740741,-150.22945965925925,-84.86689088148148,55.478968437037054,129.4115130740741,35.203959,40.30130805925926,44.83659158518517,-81.806971,-0.867916,1
398.3333333333328,-132.17398104444447,231.04780404444443,183.3626799777778,-150.20569262222222,-84.86165995555555,55.38634028888891,129.41149177777777,35.203959,40.301361022222224,44.905770844444426,-81.806971,-0.867916,1
401.1111111111105,-132.10112030370374,231.04160163703705,183.3590686814815,-150.18192558518518,-84.85642902962964,55.29371214074076,129.41147048148147,35.203959,40.30141398518519,44.97495010370368,-81.806971,-0.867916,1
403.8888888888883,-132.0289268814815,231.0352744296296,183.35544926666668,-150.1587119111111,-84.85123887407408,55.20228251111113,129.41143905185183,35.203959,40.30146357037037,45.0506382222222,-81.806971,-0.867916,1
406.66666666666606,-131.95815151111114,231.02868202222223,183.3518126,-150.13667413333334,-84.84613535555556,55.11339973333335,129.4113860888889,35.203959,40.30150597777778,45.140157666666646,-81.806971,-0.867916,1
409.44444444444383,-131.88737614074077,231.02208961481483,183.34817593333332,-150.11463635555555,-84.84103183703704,55.024516955555576,129.41133312592592,35.203959,40.30154838518519,45.22967711111109,-81.806971,-0.867916,1
412.2222222222216,-131.8166007703704,231.0154972074074,183.34453926666663,-150.09259857777778,-84.83592831851851,54.93563417777779,129.41128016296295,35.203959,40.30159079259259,45.319196555555536,-81.806971,-0.867916,1
414.9999999999994,-131.74582540000003,231.0089048,183.3409026,-150.0705608,-84.8308248,54.84675140000002,129.41122719999998,35.203959,40.3016332,45.408715999999984,-81.806971,-0.867916,1
417.7777777777772,-131.67505002962963,231.0023123925926,183.33726593333333,-150.04852302222224,-84.82572128148148,54.75786862222224,129.41117423703705,35.203959,40.30167560740741,45.498235444444425,-81.806971,-0.867916,1
420.5555555555549,-131.5861660138889,230.99356697222225,183.332734375,-150.02134659722225,-84.8192913125,54.64669737500002,129.41113342361112,35.203959,40.30173394444444,45.58611230555554,-81.806971,-0.867916,1
423.3333333333327,-131.49570733333334,230.98463433333333,183.328125,-149.99372333333335,-84.81274599999999,54.53358800000002,129.41109366666666,35.203959,40.30179366666667,45.67384633333332,-81.806971,-0.867916,1
426.11111111111046,-131.4052486527778,230.97570169444444,183.323515625,-149.96610006944445,-84.8062006875,54.42047862500003,129.41105390972223,35.203959,40.30185338888889,45.76158036111109,-81.806971,-0.867916,1
428.8888888888882,-131.31478997222226,230.9667690555556,183.31890625,-149.93847680555558,-84.799655375,54.30736925000003,129.4110141527778,35.203959,40.30191311111111,45.84931438888887,-81.806971,-0.867916,1
431.666666666666,-131.2243312916667,230.95783641666668,183.314296875,-149.91085354166668,-84.79311006249999,54.19425987500003,129.41097439583334,35.203959,40.30197283333333,45.93704841666665,-81.806971,-0.867916,1
434.4444444444438,-131.13101158333336,230.9484358055556,183.3095243055556,-149.88258091666668,-84.78634991666667,54.07776844444448,129.41093780555556,35.203959,40.30202936111111,46.02356174999998,-81.806971,-0.867916,1
437.2222222222216,-131.0226714791667,230.93657834027775,183.30389496527775,-149.85089914583335,-84.77846189583333,53.94352122222226,129.4109178402778,35.203959,40.30206911805556,46.10366643749998,-81.806971,-0.867916,1
439.9999999999993,-130.91433137500002,230.924720875,183.298265625,-149.81921737500002,-84.770573875,53.80927400000004,129.410897875,35.203959,40.302108875,46.18377112499998,-81.806971,-0.867916,1
442.7777777777771,-130.80599127083337,230.91286340972223,183.29263628472225,-149.78753560416666,-84.76268585416666,53.67502677777781,129.41087790972222,35.203959,40.30214863194445,46.263875812499975,-81.806971,-0.867916,1
445.55555555555486,-130.6976511666667,230.90100594444445,183.28700694444444,-149.75585383333333,-84.75479783333333,53.54077955555559,129.41085794444444,35.203959,40.302188388888894,46.34398049999998,-81.806971,-0.867916,1
448.33333333333263,-130.58931106250003,230.88914847916664,183.28137760416664,-149.7241720625,-84.7469098125,53.40653233333337,129.41083797916664,35.203959,40.30222814583333,46.424085187499976,-81.806971,-0.867916,1
451.1111111111104,-130.47470914814818,230.8761045925926,183.2754128148148,-149.72157929629628,-84.74018225925926,53.29552385185187,129.4108005185185,35.203959,40.302286,46.51935125925922,-81.806971,-0.8711712592592572,1
453.8888888888882,-130.35071451851854,230.86128107407407,183.26894485185184,-149.76262003703704,-84.7351954074074,53.2193734814815,129.4107368148148,35.203959,40.302371,46.637359407407374,-81.806971,-0.8793094074074053,1
456.666666666666,-130.2267198888889,230.8464575555556,183.2624768888889,-149.80366077777776,-84.73020855555556,53.143223111111126,129.4106731111111,35.203959,40.302456,46.75536755555552,-81.806971,-0.8874475555555534,1
459.4444444444437,-130.1027252592593,230.83163403703705,183.25600892592595,-149.84470151851852,-84.72522170370371,53.06707274074076,129.4106094074074,35.203959,40.302541000000005,46.87337570370367,-81.806971,-0.8955857037037016,1
462.2222222222215,-129.97873062962967,230.8168105185185,183.24954096296295,-149.88574225925925,-84.72023485185186,52.99092237037039,129.4105457037037,35.203959,40.302626,46.99138385185182,-81.806971,-0.9037238518518496,1
464.99999999999926,-129.85473600000003,230.801987,183.243073,-149.926783,-84.715248,52.91477200000002,129.410482,35.203959,40.302711,47.10939199999997,-81.806971,-0.9118619999999976,1
467.777777777777,-129.70767803703708,230.782727,183.2354378148148,-149.98036522222222,-84.70951837037038,52.82895570370373,129.41041829629629,35.203959,40.30287007407408,47.24976662962959,-81.806971,-0.9220373703703676,1
470.5555555555548,-129.5606200740741,230.763467,183.22780262962965,-150.03394744444444,-84.70378874074075,52.74313940740743,129.4103545925926,35.203959,40.30302914814815,47.39014125925922,-81.806971,-0.932212740740738,1
473.3333333333326,-129.41356211111116,230.744207,183.22016744444448,-150.08752966666663,-84.69805911111112,52.65732311111113,129.41029088888888,35.203959,40.30318822222223,47.53051588888885,-81.806971,-0.9423881111111084,1
476.1111111111104,-129.2665041481482,230.724947,183.2125322592593,-150.14111188888887,-84.69232948148148,52.57150681481484,129.41022718518516,35.203959,40.303347296296295,47.67089051851848,-81.806971,-0.9525634814814788,1
478.8888888888881,-129.1194461851852,230.705687,183.20489707407407,-150.1946941111111,-84.68659985185185,52.48569051851854,129.41016348148148,35.203959,40.30350637037037,47.81126514814811,-81.806971,-0.962738851851849,1
481.6666666666659,-128.96493456250005,230.68428341666663,183.1969189375,-150.26393908333333,-84.68119852083333,52.40830264583335,129.410072375,35.203959,40.30373114583333,47.95896885416663,-81.806971,-0.974818479166663,1
484.44444444444366,-128.80545383333336,230.6614507777778,183.18871216666668,-150.34362588888888,-84.67601605555555,52.33653372222224,129.40996299999998,35.203959,40.30399972222222,48.11155861111107,-81.806971,-0.9881676111111074,1
487.22222222222143,-128.6459731041667,230.6386181388889,183.1805053958333,-150.42331269444443,-84.67083359027778,52.26476479861113,129.40985362499998,35.203959,40.30426829861111,48.26414836805552,-81.806971,-1.0015167430555518,1
489.9999999999992,-128.48649237500004,230.6157855,183.172298625,-150.5029995,-84.665651125,52.19299587500002,129.40974425,35.203959,40.304536875,48.41673812499996,-81.806971,-1.014865874999996,1
492.777777777777,-128.32701164583338,230.59295286111112,183.16409185416663,-150.58268630555554,-84.66046865972221,52.12122695138891,129.409634875,35.203959,40.304805451388894,48.5693278819444,-81.806971,-1.028215006944441,1
495.5555555555548,-128.1675309166667,230.57012022222224,183.15588508333332,-150.6623731111111,-84.65528619444444,52.0494580277778,129.4095255,35.203959,40.30507402777778,48.72191763888885,-81.806971,-1.041564138888885,1
498.3333333333325,-127.99068691111115,230.5426551777778,183.1468412,-150.7919147333333,-84.65152477777777,52.010737844444456,129.40936535555554,35.203959,40.30545564444444,48.89159973333329,-81.806971,-1.060785599999994,1
501.1111111111103,-127.81053561481484,230.5143077703704,183.1376378666667,-150.9309525111111,-84.64803403703704,51.97831265925928,129.40919554074074,35.203959,40.3058587925926,49.06453751111106,-81.806971,-1.081125599999994,1
503.88888888888806,-127.63038431851857,230.48596036296297,183.12843453333332,-151.06999028888885,-84.64454329629629,51.94588747407408,129.40902572592591,35.203959,40.30626194074074,49.23747528888884,-81.806971,-1.1014655999999938,1
506.6666666666658,-127.45023302222226,230.4576129555556,183.1192312,-151.20902806666663,-84.64105255555555,51.9134622888889,129.40885591111112,35.203959,40.30666508888889,49.41041306666661,-81.806971,-1.121805599999994,1
509.4444444444436,-127.27008172592598,230.42926554814812,183.11002786666663,-151.3480658444444,-84.6375618148148,51.88103710370371,129.4086860962963,35.203959,40.30706823703704,49.5833508444444,-81.806971,-1.142145599999994,1
512.2222222222214,-127.10204789542487,230.4019214509804,183.10153237254903,-151.48036362745094,-84.63435055555556,51.85310388235295,129.4085209738562,35.203959,40.307516444444445,49.74496385620911,-81.806971,-1.161436803921563,1
514.9999999999991,-126.94943629411767,230.3758542941177,183.09393776470588,-151.60408323529407,-84.631495,51.83088770588236,129.40836182352942,35.203959,40.308022,49.89216352941172,-81.806971,-1.1793931764705825,1
517.7777777777769,-126.7968246928105,230.3497871372549,183.08634315686277,-151.72780284313723,-84.62863944444445,51.808671529411775,129.40820267320262,35.203959,40.30852755555556,50.03936320261433,-81.806971,-1.1973495490196022,1
520.5555555555547,-126.64421309150332,230.32371998039216,183.0787485490196,-151.85152245098035,-84.62578388888889,51.78645535294118,129.4080435228758,35.203959,40.30903311111111,50.18656287581695,-81.806971,-1.2153059215686222,1
523.3333333333325,-126.49160149019612,230.29765282352943,183.07115394117648,-151.97524205882348,-84.62292833333333,51.7642391764706,129.407884372549,35.203959,40.30953866666667,50.33376254901956,-81.806971,-1.2332622941176414,1
526.1111111111102,-126.33898988888896,230.27158566666668,183.06355933333333,-152.0989616666666,-84.62007277777778,51.74202300000001,129.4077252222222,35.203959,40.310044222222224,50.480962222222175,-81.806971,-1.2512186666666605,1
528.888888888888,-126.1905624444445,230.2455699047619,183.05614153968253,-152.22910223809518,-84.61769087301587,51.73011365079365,129.4075843015873,35.203959,40.31054082539683,50.62430447619043,-81.806971,-1.2697079206349142,1
531.6666666666658,-126.05102633333338,230.21966335714288,183.0490994761905,-152.37288735714282,-84.61631547619048,51.74010630952381,129.4074821190476,35.203959,40.31101840476191,50.75944971428567,-81.806971,-1.2893295476190416,1
534.4444444444435,-125.91149022222228,230.19375680952385,183.04205741269843,-152.51667247619042,-84.61494007936508,51.750098968253965,129.40737993650794,35.203959,40.311495984126985,50.894594952380906,-81.806971,-1.3089511746031683,1
537.2222222222213,-125.77195411111116,230.1678502619048,183.0350153492064,-152.66045759523806,-84.61356468253969,51.76009162698413,129.40727775396826,35.203959,40.31197356349207,51.02974019047614,-81.806971,-1.3285728015872948,1
539.9999999999991,-125.63241800000004,230.14194371428573,183.0279732857143,-152.80424271428566,-84.61218928571428,51.77008428571428,129.40717557142858,35.203959,40.31245114285714,51.16488542857138,-81.806971,-1.3481944285714222,1
542.7777777777769,-125.48682620261444,230.1144801045752,183.0206725620915,-152.95125922875812,-84.61053578431373,51.77741533986928,129.40699452941178,35.203959,40.313051895424834,51.31647605228752,-81.806971,-1.3698610457516256,1
545.5555555555546,-125.32566264052294,230.08301262091504,183.01270671241832,-153.1065850457516,-84.60816715686275,51.77790226797386,129.40661070588237,35.203959,40.313969379084966,51.51035481045745,-81.806971,-1.3967862091503178,1
548.3333333333323,-125.16449907843143,230.0515451372549,183.0047408627451,-153.26191086274503,-84.60579852941177,51.77838919607843,129.40622688235294,35.203959,40.3148868627451,51.70423356862738,-81.806971,-1.42371137254901,1
551.1111111111102,-125.00333551633992,230.0200776535948,182.9967750130719,-153.41723667973852,-84.6034299019608,51.77887612418301,129.40584305882354,35.203959,40.31580434640523,51.89811232679732,-81.806971,-1.4506365359477034,1
553.888888888888,-124.8421719542484,229.98861016993465,182.9888091633987,-153.572562496732,-84.6010612745098,51.77936305228758,129.40545923529413,35.203959,40.31672183006536,52.09199108496726,-81.806971,-1.4775616993463967,1
556.6666666666657,-124.68100839215693,229.95714268627447,182.9808433137255,-153.72788831372543,-84.59869264705883,51.77984998039216,129.4050754117647,35.203959,40.31763931372549,52.28586984313719,-81.806971,-1.504486862745089,1
559.4444444444434,-124.5149572222223,229.92437590476192,182.97276755555555,-153.89480393650786,-84.59651747619048,51.78699804761904,129.4047038888889,35.203959,40.31856641269841,52.4713989523809,-81.806971,-1.5309400952380865,1
562.2222222222213,-124.32324611111116,229.88478780952383,182.96411477777775,-154.12256603968245,-84.59535795238095,51.82911709523808,129.40439694444444,35.203959,40.31954399206349,52.61309240476186,-81.806971,-1.5549156904761825,1
564.9999999999991,-124.13153500000008,229.8451997142857,182.955462,-154.35032814285708,-84.59419842857143,51.87123614285713,129.40409,35.203959,40.32052157142857,52.754785857142814,-81.806971,-1.5788912857142778,1
567.7777777777768,-123.93982388888897,229.80561161904765,182.94680922222224,-154.57809024603165,-84.5930389047619,51.913355190476175,129.40378305555555,35.203959,40.32149915079365,52.89647930952376,-81.806971,-1.6028668809523727,1
570.5555555555545,-123.74811277777783,229.76602352380957,182.93815644444445,-154.80585234920625,-84.59187938095238,51.95547423809522,129.40347611111113,35.203959,40.32247673015873,53.03817276190471,-81.806971,-1.6268424761904674,1
573.3333333333323,-123.55471760000007,229.7258834,182.92970106666667,-155.02468131111107,-84.590216,51.98650131111113,129.40317542222223,35.203959,40.32363748888889,53.18752055555549,-81.806971,-1.6508707333333248,1
576.1111111111102,-123.34897260000008,229.6816950666667,182.9226932888889,-155.1780005703703,-84.58485766666666,51.93618723703705,129.40292060740742,35.203959,40.32614156296297,53.39300018518512,-81.806971,-1.6752851777777695,1
578.8888888888879,-123.14322760000007,229.63750673333337,182.91568551111112,-155.33131982962956,-84.57949933333333,51.88587316296298,129.4026657925926,35.203959,40.32864563703704,53.598479814814745,-81.806971,-1.6996996222222136,1
581.6666666666656,-122.93748260000008,229.5933184,182.9086777333333,-155.48463908888883,-84.574141,51.83555908888891,129.40241097777778,35.203959,40.33114971111111,53.80395944444437,-81.806971,-1.7241140666666577,1
584.4444444444434,-122.73173760000007,229.5491300666667,182.90166995555555,-155.6379583481481,-84.56878266666668,51.785245014814834,129.40215616296297,35.203959,40.333653785185184,54.009439074074,-81.806971,-1.7485285111111022,1
587.2222222222213,-122.52599260000008,229.5049417333333,182.89466217777775,-155.79127760740735,-84.56342433333334,51.73493094074076,129.40190134814813,35.203959,40.33615785925925,54.21491870370363,-81.806971,-1.7729429555555472,1
589.999999999999,-122.35737085714293,229.4683947142857,182.89175828571427,-155.98929842857137,-84.56350371428572,51.764322285714265,129.40165,35.203959,40.33954371428571,54.423124571428495,-81.80827242857143,-1.8095972857142704,1
592.7777777777767,-122.203185936508,229.43481931746032,182.89045034920636,-156.2047031904761,-84.56569776190476,51.82471018253966,129.4014,35.203959,40.34327248412698,54.63239064285706,-81.81007996825397,-1.8510115714285555,1
595.5555555555545,-122.04900101587307,229.40124392063493,182.8891424126984,-156.42010795238087,-84.56789180952381,51.88509807936506,129.40115,35.203959,40.34700125396825,54.841656714285634,-81.8118875079365,-1.8924258571428416,1
598.3333333333323,-121.89481609523816,229.3676685238096,182.88783447619048,-156.63551271428565,-84.57008585714286,51.94548597619045,129.40089999999998,35.203959,40.35073002380952,55.05092278571421,-81.81369504761905,-1.933840142857128,1
601.1111111111101,-121.74063117460324,229.33409312698416,182.8865265396825,-156.8509174761904,-84.5722799047619,52.00587387301585,129.40064999999998,35.203959,40.35445879365079,55.26018885714278,-81.81550258730158,-1.9752544285714129,1
603.8888888888878,-121.54490902962972,229.2887259185185,182.88267626666664,-157.10759638518508,-84.57182763703703,52.06524861481479,129.40035353333332,35.203959,40.3577372074074,55.44336637777771,-81.816081,-2.007879318518507,1
606.6666666666656,-121.32963995555563,229.23780962222224,182.8776296,-157.38369842222212,-84.57013004444444,52.12414657777776,129.4000352,35.203959,40.360803688888886,55.61426693333327,-81.816081,-2.036368022222211,1
609.4444444444434,-121.11437088148156,229.18689332592595,182.87258293333332,-157.65980045925917,-84.56843245185185,52.18304454074072,129.3997168666667,35.203959,40.36387017037037,55.78516748888882,-81.816081,-2.064856725925916,1
612.2222222222211,-120.89910180740748,229.1359770296297,182.86753626666663,-157.9359024962962,-84.56673485925926,52.24194250370368,129.39939853333334,35.203959,40.36693665185185,55.95606804444438,-81.816081,-2.0933454296296183,1
614.9999999999989,-120.68383273333345,229.08506073333336,182.8624896,-158.2120045333332,-84.56503726666668,52.30084046666664,129.3990802,35.203959,40.37000313333333,56.12696859999993,-81.816081,-2.121834133333321,1
617.7777777777767,-120.473143525926,229.03500445185188,182.85814552592592,-158.47072982222213,-84.56284054814816,52.34617927407407,129.39864602962965,35.203959,40.3735271037037,56.30755129629622,-81.816081,-2.151460725925913,1
620.5555555555545,-120.2742311185186,228.98715963703705,182.8556081185185,-158.68477204444437,-84.55936036296296,52.35665168148147,129.3979139925926,35.203959,40.37822747407407,56.51303092592585,-81.816081,-2.1840133185185064,1
623.3333333333322,-120.0753187111112,228.93931482222223,182.85307071111112,-158.8988142666666,-84.55588017777778,52.36712408888888,129.39718195555557,35.203959,40.382927844444445,56.71851055555548,-81.816081,-2.2165659111110982,1
626.11111111111,-119.8764063037038,228.89147000740743,182.8505333037037,-159.1128564888888,-84.5523999925926,52.37759649629629,129.39644991851853,35.203959,40.38762821481481,56.9239901851851,-81.816081,-2.24911850370369,1
628.8888888888878,-119.67749389629638,228.8436251925926,182.8479958962963,-159.32689871111103,-84.54891980740742,52.3880689037037,129.3957178814815,35.203959,40.39232858518518,57.12946981481473,-81.816081,-2.281671096296283,1
631.6666666666656,-119.47858148888896,228.79578037777785,182.8454584888889,-159.54094093333327,-84.54543962222223,52.3985413111111,129.39498584444445,35.203959,40.39702895555556,57.33494944444436,-81.816081,-2.3142236888888763,1
634.4444444444433,-119.27650191666676,228.7445433055556,182.842344875,-159.7547654166666,-84.54110920833334,52.40617051388888,129.39372497222223,35.203959,40.40168958333333,57.54256434722213,-81.816081,-2.346657736111098,1
637.222222222221,-119.07399045833344,228.6928436527778,182.8391526875,-159.96856020833326,-84.53666285416668,52.41341200694444,129.39239198611114,35.203959,40.40634479166667,57.75047042361102,-81.816081,-2.3790756180555417,1
639.9999999999989,-118.87147900000008,228.64114400000005,182.8359605,-160.18235499999992,-84.5322165,52.4206535,129.391059,35.203959,40.411,57.95837649999992,-81.816081,-2.411493499999987,1
642.7777777777767,-118.66896754166676,228.58944434722224,182.8327683125,-160.39614979166657,-84.52777014583334,52.42789499305555,129.3897260138889,35.203959,40.41565520833333,58.16628257638881,-81.816081,-2.443911381944432,1
645.5555555555544,-118.4664560833334,228.53774469444448,182.829576125,-160.60994458333323,-84.52332379166667,52.43513648611111,129.3883930277778,35.203959,40.420310416666666,58.3741886527777,-81.816081,-2.4763292638888754,1
648.3333333333321,-118.2677776111112,228.4877606481481,182.82710325925925,-160.83547268518504,-84.51975264814816,52.4583157592592,129.3868390925926,35.20395688888889,40.42503407407408,58.57769396296289,-81.81633564814814,-2.509943592592574,1
651.11111111111,-118.09720770370376,228.45035771604935,182.82990541975303,-161.14704506172825,-84.52259971604938,52.5983720864197,129.38366486419756,35.2039392962963,40.430259691358025,58.74892698765425,-81.81845771604938,-2.552331864197513,1
653.8888888888878,-117.92663779629636,228.41295478395065,182.8327075802469,-161.45861743827146,-84.52544678395061,52.7384284135802,129.3804906358025,35.2039217037037,40.43548530864197,58.92016001234561,-81.8205797839506,-2.594720135802452,1
656.6666666666655,-117.75606788888896,228.37555185185187,182.83550974074072,-161.77018981481467,-84.52829385185186,52.87848474074068,129.37731640740742,35.20390411111111,40.44071092592593,59.091393037036966,-81.82270185185185,-2.637108407407389,1
659.4444444444432,-117.58549798148157,228.3381489197531,182.83831190123456,-162.08176219135788,-84.53114091975308,53.018541067901175,129.37414217901235,35.20388651851852,40.44593654320988,59.26262606172832,-81.82482391975309,-2.6794966790123267,1
662.222222222221,-117.41492807407414,228.30074598765432,182.8411140617284,-162.3933345679011,-84.53398798765431,53.15859739506167,129.37096795061728,35.203868925925924,40.45116216049383,59.43385908641968,-81.82694598765431,-2.721884950617265,1
664.9999999999989,-117.24435816666671,228.2633430555556,182.84391622222225,-162.7049069444443,-84.53683505555556,53.29865372222217,129.36779372222222,35.20385133333333,40.45638777777778,59.60509211111104,-81.82906805555555,-2.764273222222205,1
667.7777777777766,-117.03936307407416,228.21657725925928,182.84626319259257,-163.04386577037022,-84.5384168,53.43399062222217,129.3632149111111,35.203831370370374,40.46208529629629,59.80736272592584,-81.83200503703704,-2.8107833703703493,1
670.5555555555543,-116.81500381481492,228.16454485185187,182.8483541185185,-163.3982294740739,-84.5392868,53.56667284444438,129.35784602222222,35.20381007407408,40.468048259259255,60.02709198518509,-81.8354004074074,-2.859612074074052,1
673.3333333333321,-116.59064455555566,228.1125124444445,182.85044504444443,-163.7525931777776,-84.54015679999999,53.69935506666661,129.35247713333334,35.20378877777778,40.47401122222222,60.24682124444435,-81.83879577777778,-2.908440777777757,1
676.11111111111,-116.36628529629638,228.06048003703705,182.85253597037035,-164.10695688148132,-84.5410268,53.832037288888834,129.34710824444446,35.203767481481485,40.47997418518519,60.46655050370361,-81.84219114814815,-2.957269481481461,1
678.8888888888877,-116.14192603703714,228.00844762962967,182.85462689629628,-164.46132058518504,-84.5418968,53.964719511111056,129.34173935555555,35.20374618518519,40.48593714814815,60.68627976296287,-81.84558651851852,-3.006098185185164,1
681.6666666666654,-115.91839073333344,227.9598582444445,182.85800368888889,-164.81810091111095,-84.54309275555555,54.10227315555549,129.33538753333335,35.20373,40.49228971111111,60.90258915555546,-81.84918304444444,-3.0554158222221983,1
684.4444444444432,-115.69746462222233,227.922171762963,182.86545239259257,-165.18253387407393,-84.5453209037037,54.25525297037031,129.32592308888889,35.20373,40.4998760074074,61.10806897037028,-81.85341656296296,-3.1062817481481253,1
687.222222222221,-115.4765385111112,227.88448528148152,182.8729010962963,-165.54696683703688,-84.54754905185185,54.40823278518512,129.31645864444445,35.20373,40.5074623037037,61.3135487851851,-81.85765008148148,-3.1571476740740523,1
689.9999999999987,-115.2556124000001,227.8467988,182.8803498,-165.91139979999983,-84.54977720000001,54.561212599999934,129.30699420000002,35.20373,40.5150486,61.51902859999991,-81.8618836,-3.208013599999977,1
692.7777777777765,-115.034686288889,227.80911231851852,182.8877985037037,-166.2758327629628,-84.55200534814816,54.71419241481475,129.29752975555556,35.20373,40.522634896296296,61.72450841481472,-81.86611711851852,-3.258879525925902,1
695.5555555555543,-114.81376017777788,227.77142583703707,182.89524720740735,-166.64026572592576,-84.5542334962963,54.86717222962956,129.28806531111113,35.20373,40.53022119259259,61.92998822962954,-81.87035063703703,-3.3097454518518283,1
698.3333333333321,-114.5884499375001,227.7394140416667,182.89962327083333,-166.94027012499987,-84.551348125,54.9598308958333,129.27528770833334,35.203696604166666,40.53766835416666,62.12788868749991,-81.8716965,-3.3531281249999814,1
701.1111111111098,-114.3623046250001,227.7084831388889,182.90341406944444,-167.22800241666653,-84.54748875,55.04099981944441,129.26187902777778,35.20365684722222,40.54508901388889,62.32434545833324,-81.87249233333333,-3.3950854166666478,1
703.8888888888875,-114.13615931250013,227.67755223611115,182.90720486805557,-167.51573470833318,-84.54362937500001,55.12216874305552,129.24847034722222,35.20361709027778,40.55250967361111,62.52080222916657,-81.87328816666667,-3.437042708333313,1
706.6666666666654,-113.9100140000001,227.64662133333331,182.91099566666665,-167.80346699999987,-84.53977,55.20333766666663,129.23506166666667,35.203577333333335,40.55993033333333,62.71725899999991,-81.874084,-3.478999999999981,1
709.4444444444432,-113.6838686875001,227.6156904305556,182.91478646527776,-168.09119929166653,-84.535910625,55.284506590277736,129.2216529861111,35.20353757638889,40.56735099305556,62.91371577083325,-81.87487983333334,-3.520957291666648,1
712.2222222222209,-113.45705132592605,227.58813845925928,182.91941354074072,-168.38203648148132,-84.5322521925926,55.36995785185179,129.20733753333334,35.2034992962963,40.57510068148148,63.10812804444436,-81.875612,-3.563464296296273,1
714.9999999999986,-113.22250540000012,227.5994442,182.9336578,-168.70857999999984,-84.5309046,55.50465599999993,129.1825942,35.203478000000004,40.5866342,63.27902859999992,-81.875612,-3.612292999999976,1
717.7777777777765,-112.9879594740742,227.61074994074076,182.9479020592593,-169.03512351851836,-84.5295570074074,55.63935414814808,129.15785086666668,35.20345670370371,40.59816771851852,63.44992915555547,-81.875612,-3.6611217037036807,1
720.5555555555543,-112.75341354814825,227.62205568148147,182.9621463185185,-169.36166703703688,-84.52820941481481,55.77405229629623,129.13310753333334,35.20343540740741,40.60970123703704,63.62082971111104,-81.875612,-3.709950407407385,1
723.333333333332,-112.51886762222232,227.6333614222222,182.97639057777775,-169.6882105555554,-84.52686182222222,55.90875044444438,129.1083642,35.203414111111115,40.62123475555556,63.79173026666658,-81.875612,-3.758779111111088,1
726.1111111111097,-112.28432169629642,227.64466716296292,182.99063483703705,-170.01475407407392,-84.52551422962962,56.043448592592526,129.08362086666668,35.20339281481482,40.63276827407407,63.96263082222214,-81.875612,-3.807607814814791,1
728.8888888888875,-112.08523084444452,227.66019809629628,183.00627234074076,-170.29513591851838,-84.52450575555555,56.16034723703698,129.05644602962963,35.203386,40.64700013333333,64.1335313777777,-81.875612,-3.863355770370342,1
731.6666666666654,-111.90282473333342,227.67771735555556,183.0225654888889,-170.5537946222221,-84.52365686666667,56.26886964444439,129.02812695555556,35.203386,40.6625018,64.30443193333325,-81.875612,-3.922359844444417,1
734.4444444444431,-111.72041862222233,227.6952366148148,183.03885863703704,-170.81245332592582,-84.52280797777777,56.3773920518518,128.9998078814815,35.203386,40.67800346666666,64.4753324888888,-81.875612,-3.9813639185184897,1
737.2222222222208,-111.5380125111112,227.71275587407405,183.0551517851852,-171.0711120296295,-84.52195908888889,56.485914459259206,128.9714888074074,35.203386,40.693505133333325,64.64623304444436,-81.875612,-4.040367992592563,1
739.9999999999986,-111.35560640000008,227.7302751333333,183.0714449333333,-171.32977073333322,-84.5211102,56.59443686666661,128.94316973333335,35.203386,40.70900679999999,64.8171335999999,-81.875612,-4.099372066666637,1
742.7777777777765,-111.1666928235295,227.7570139477124,183.0911114379085,-171.63301796078412,-84.52112291503268,56.74556259477112,128.9136524117647,35.203386,40.72494675816993,64.97586941830059,-81.875612,-4.160453633986896,1
745.5555555555542,-110.961045764706,227.80746018954247,183.11945228758168,-172.05092139215665,-84.52335118300654,57.00623971895412,128.88105388235294,35.203386,40.742013751633976,65.10332448366006,-81.875612,-4.226877326797353,1
748.3333333333319,-110.75539870588246,227.85790643137253,183.1477931372549,-172.4688248235292,-84.52557945098039,57.26691684313712,128.8484553529412,35.203386,40.75908074509803,65.23077954901954,-81.875612,-4.293301019607808,1
751.1111111111097,-110.54975164705893,227.9083526732026,183.17613398692808,-172.88672825490175,-84.52780771895425,57.52759396732013,128.81585682352943,35.203386,40.77614773856208,65.35823461437901,-81.875612,-4.359724712418267,1
753.8888888888875,-110.3441045882354,227.95879891503267,183.2044748366013,-173.30463168627432,-84.53003598692811,57.78827109150314,128.78325829411764,35.203386,40.79321473202614,65.4856896797385,-81.875612,-4.426148405228726,1
756.6666666666653,-110.13845752941188,228.00924515686276,183.23281568627448,-173.72253511764686,-84.53226425490196,58.04894821568614,128.7506597647059,35.203386,40.810281725490185,65.61314474509797,-81.875612,-4.492572098039182,1
759.444444444443,-109.92434473015888,228.0634385396825,183.26289555555556,-174.15533961904737,-84.53429968253968,58.31883931746015,128.71825131746033,35.203382380952384,40.82735365079364,65.7393892539682,-81.875612,-4.556389428571402,1
762.2222222222208,-109.66578679365092,228.1373044126984,183.3021052777777,-174.666374738095,-84.5353226984127,58.63710380158714,128.68684080158732,35.203359761904764,40.84445146825396,65.85927834126979,-81.875612,-4.606523357142832,1
764.9999999999986,-109.40722885714298,228.21117028571425,183.341315,-175.1774098571426,-84.53634571428572,58.95536828571413,128.6554302857143,35.203337142857144,40.86154928571428,65.97916742857137,-81.875612,-4.656657285714261,1
767.7777777777764,-109.14867092063506,228.2850361587301,183.3805247222222,-175.68844497619023,-84.53736873015873,59.2736327698411,128.62401976984128,35.203314523809524,40.87864710317459,66.09905651587296,-81.875612,-4.706791214285689,1
770.5555555555541,-108.89011298412711,228.358902031746,183.41973444444443,-176.19948009523782,-84.53839174603175,59.59189725396808,128.59260925396828,35.203291904761905,40.89574492063491,66.21894560317455,-81.875612,-4.756925142857116,1
773.3333333333319,-108.63559843750012,228.43613137499997,183.46028560416664,-176.66578052083327,-84.53963935416667,59.86937258333335,128.55973618750002,35.203269604166664,40.913812145833326,66.33886743749994,-81.87580297916666,-4.806077854166645,1
776.1111111111097,-108.41073541666678,228.5380261666666,183.5106739722222,-176.80402652777772,-84.54253397222223,59.84772744444445,128.51613775,35.203249638888884,40.9389883611111,66.45902941666661,-81.87739447222222,-4.848034972222202,1
778.8888888888874,-108.18587239583346,228.63992095833328,183.56106234027772,-176.94227253472215,-84.54542859027778,59.826082305555566,128.4725393125,35.20322967361111,40.96416457638888,66.57919139583328,-81.87898596527778,-4.889992090277756,1
781.6666666666652,-107.96100937500012,228.74181574999997,183.6114507083333,-177.0805185416666,-84.54832320833333,59.80443716666667,128.42894087500002,35.20320970833333,40.989340791666656,66.69935337499994,-81.88057745833333,-4.931949208333311,1
784.444444444443,-107.7361463541668,228.8437105416666,183.66183907638884,-177.21876454861103,-84.55121782638889,59.78279202777779,128.3853424375,35.20318974305555,41.01451700694443,66.81951535416661,-81.88216895138889,-4.973906326388867,1
787.2222222222208,-107.51128333333344,228.94560533333328,183.7122274444444,-177.3570105555555,-84.55411244444444,59.761146888888895,128.341744,35.203169777777774,41.039693222222205,66.93967733333328,-81.88376044444443,-5.015863444444424,1
789.9999999999985,-107.2765882666668,229.04858353333327,183.76131766666663,-177.5063704666666,-84.55594973333334,59.746679,128.29624740000003,35.203157,41.06471746666665,67.0619936666666,-81.884779,-5.058831399999977,1
792.7777777777762,-107.02441400740756,229.15348779259253,183.80810007407405,-177.67548842962955,-84.55590732592593,59.74497066666667,128.24737628888892,35.203157,41.089471540740725,67.1881399629629,-81.884779,-5.103596399999976,1
795.5555555555541,-106.77223974814828,229.25839205185176,183.85488248148144,-177.8446063925925,-84.55586491851852,59.74326233333333,128.1985051777778,35.203157,41.1142256148148,67.31428625925919,-81.884779,-5.148361399999977,1
798.3333333333319,-106.52006548888902,229.36329631111107,183.9016648888889,-178.01372435555547,-84.5558225111111,59.741554,128.1496340666667,35.203157,41.13897968888888,67.44043255555549,-81.884779,-5.1931263999999775,1
801.1111111111096,-106.26789122962975,229.46820057037036,183.94844729629625,-178.18284231851842,-84.5557801037037,59.73984566666667,128.10076295555558,35.203157,41.16373376296295,67.56657885185179,-81.884779,-5.237891399999976,1
803.8888888888873,-106.0157169703705,229.5731048296296,183.99522970370367,-178.35196028148138,-84.55573769629629,59.73813733333333,128.05189184444447,35.203157,41.18848783703702,67.69272514814809,-81.884779,-5.282656399999975,1
806.6666666666652,-105.8144562857144,229.69765642857135,184.0471381428571,-178.4362979523809,-84.55899923809524,59.69857319047622,127.99129871428576,35.203157,41.22126885714284,67.79821861904756,-81.884779,-5.330480142857117,1
809.444444444443,-105.6153170000001,229.8230266666666,184.09926016666665,-178.51710311111106,-84.56239844444444,59.65743172222224,127.9302171666667,35.203157,41.25438433333332,67.9028515555555,-81.884779,-5.3784313333333085,1
812.2222222222207,-105.41617771428582,229.94839690476184,184.1513821904761,-178.5979082698412,-84.56579765079364,59.61629025396827,127.86913561904764,35.203157,41.287499809523794,68.00748449206344,-81.884779,-5.426382523809497,1
814.9999999999984,-105.21703842857154,230.07376714285704,184.2035042142857,-178.6787134285714,-84.56919685714286,59.57514878571431,127.8080540714286,35.203157,41.32061528571427,68.11211742857137,-81.884779,-5.474333714285686,1
817.7777777777762,-105.01789914285726,230.19913738095232,184.2556262380952,-178.75951858730156,-84.57259606349206,59.534007317460336,127.74697252380956,35.203157,41.35373076190474,68.2167503650793,-81.884779,-5.522284904761878,1
820.5555555555541,-104.7762122666668,230.3480454296296,184.31769790370367,-117.68478265188747,-84.5761575111111,59.64648743703697,127.68696283703709,35.203157,41.3856353185185,68.31495610370365,-81.884779,-5.582269111111079,1
823.3333333333318,-104.53082560000014,230.4990002444444,184.38063475555552,-51.292173577814935,-84.57973306666666,59.77232595555549,127.6270463555556,35.203157,41.41743457777776,68.4126029555555,-81.884779,-5.643299666666633,1
826.1111111111095,-104.28543893333348,230.6499550592592,184.44357160740736,15.100435496257631,-84.58330862222222,59.898164474074,127.56712987407413,35.203157,41.44923383703702,68.51024980740735,-81.884779,-5.704330222222187,1
828.8888888888873,-104.0400522666668,230.800909874074,184.50650845925924,81.49304457033287,-84.58688417777778,60.02400299259252,127.50721339259265,35.203157,41.48103309629628,68.60789665925921,-81.884779,-5.765360777777744,1
831.6666666666652,-103.79466560000012,230.9518646888888,184.56944531111108,147.8856536444082,-84.59045973333333,60.14984151111104,127.44729691111114,35.203157,41.51283235555554,68.70554351111106,-81.884779,-5.826391333333301,1
834.4444444444429,-103.5390631481483,231.12734453333323,184.641004437037,179.65230502222235,-84.59549196296295,60.23637428888886,127.3906190666667,35.203157,41.543097711111095,68.78098299259257,-81.884779,-5.877904444444421,1
837.2222222222206,-103.2740307407409,231.32546286666656,184.72052258518517,179.45653391111122,-84.60186881481481,60.28662484444442,127.33693073333336,35.203157,41.571947155555534,68.83592336296293,-81.884779,-5.920632222222197,1
839.9999999999984,-103.00899833333348,231.5235811999999,184.8000407333333,179.26076280000012,-84.60824566666666,60.336875399999975,127.28324240000003,35.203157,41.60079659999998,68.8908637333333,-81.884779,-5.963359999999976,1
842.7777777777762,-102.74396592592608,231.72169953333324,184.87955888148144,179.064991688889,-84.61462251851852,60.38712595555553,127.2295540666667,35.203157,41.62964604444443,68.94580410370368,-81.884779,-6.006087777777754,1
845.555555555554,-102.47893351851867,231.91981786666656,184.9590770296296,178.8692205777779,-84.62099937037037,60.43737651111108,127.17586573333335,35.203157,41.65849548888888,69.00074447407404,-81.884779,-6.048815555555531,1
848.3333333333317,-102.2188062916668,232.11694654166652,185.03819141666665,178.68324710416675,-84.62747760416666,60.48141316666667,127.1210939791667,35.203157,41.68805841666665,69.05595793749997,-81.884779,-6.091909229166639,1
851.1111111111095,-101.994650388889,232.3068177222221,185.11434488888884,178.5691229722223,-84.63469930555556,60.47988122222223,127.05837713888891,35.203157,41.72285355555554,69.1131740833333,-81.884779,-6.137686138888862,1
853.8888888888873,-101.77049448611125,232.4966889027777,185.19049836111105,178.45499884027785,-84.64192100694444,60.47834927777778,126.99566029861114,35.203157,41.75764869444443,69.17039022916664,-81.884779,-6.1834630486110855,1
856.666666666665,-101.54633858333348,232.68656008333323,185.26665183333327,178.34087470833342,-84.64914270833333,60.47681733333333,126.93294345833336,35.203157,41.79244383333332,69.22760637499997,-81.884779,-6.229239958333307,1
859.4444444444428,-101.32218268055568,232.8764312638888,185.3428053055555,178.22675057638898,-84.65636440972222,60.475285388888885,126.8702266180556,35.203157,41.82723897222221,69.2848225208333,-81.884779,-6.275016868055528,1
862.2222222222206,-101.0980267777779,233.06630244444432,185.41895877777773,178.11262644444452,-84.66358611111112,60.47375344444444,126.8075097777778,35.203157,41.86203411111109,69.34203866666664,-81.884779,-6.320793777777751,1
864.9999999999984,-100.86050688235308,233.2637307058822,185.49727305882348,178.08908723529404,-84.67112335294118,60.37661047058838,126.74143282352944,35.203157,41.89778776470586,69.40063164705879,-81.884779,-6.359140352941162,1
867.7777777777761,-100.59922877777794,233.47459377777764,185.5794287777777,178.22658788888882,-84.67922155555556,60.10949233333349,126.66938233333336,35.203157,41.935245444444426,69.4616723333333,-81.884779,-6.38427744444443,1
870.5555555555538,-100.33795067320278,233.68545684967307,185.661584496732,178.3640885424836,-84.68731975816993,59.8423741960786,126.5973318431373,35.203157,41.972703124182985,69.5227130196078,-81.884779,-6.409414535947697,1
873.3333333333317,-100.0766725686276,233.8963199215685,185.74374021568624,178.50158919607836,-84.69541796078431,59.57525605882368,126.52528135294122,35.203157,42.01016080392154,69.58375370588232,-81.884779,-6.434551627450966,1
876.1111111111095,-99.81539446405245,234.10718299346397,185.82589593464047,178.63908984967313,-84.70351616339869,59.30813792156878,126.45323086274512,35.203157,42.04761848366011,69.64479439215683,-81.884779,-6.459688718954234,1
878.8888888888872,-99.55411635947728,234.31804606535937,185.90805165359475,178.7765905032679,-84.71161436601307,59.04101978431388,126.38118037254904,35.203157,42.08507616339867,69.70583507843133,-81.884779,-6.484825810457502,1
881.6666666666649,-99.2838212222224,234.53679199999985,185.99366639999997,162.95457548893054,-84.71995388888888,58.72934666666695,126.30652893333338,35.20315193333333,42.12404822222219,69.7683375555555,-81.884779,-6.5078363111111015,1
884.4444444444428,-98.98497214814832,234.7805003333332,186.0902347333333,96.59409419263304,-84.7290575925926,58.27658277777805,126.2236411555556,35.20313082222222,42.16781581481479,69.83546903703699,-81.884779,-6.524112607407398,1
887.2222222222206,-98.68612307407426,235.0242086666665,186.1868030666666,30.23361289633553,-84.7381612962963,57.82381888888916,126.14075337777784,35.20310971111111,42.21158340740738,69.90260051851847,-81.884779,-6.540388903703694,1
889.9999999999983,-98.3872740000002,235.26791699999987,186.2833714,-36.12686839995925,-84.747265,57.37105500000028,126.05786560000004,35.2030886,42.25535099999997,69.96973199999995,-81.884779,-6.55666519999999,1
892.777777777776,-98.08842492592612,235.5116253333332,186.3799397333333,-102.48734969625404,-84.7563687037037,56.9182911111114,125.97497782222229,35.20306748888889,42.29911859259256,70.03686348148143,-81.884779,-6.572941496296286,1
895.5555555555538,-97.78957585185204,235.75533366666653,186.4765080666666,-168.84783099255154,-84.7654724074074,56.4655272222225,125.8920900444445,35.20304637777778,42.34288618518516,70.10399496296291,-81.884779,-6.589217792592582,1
898.3333333333317,-97.46774514583352,236.01516649999985,186.57461777083327,-179.19691610416686,-84.77452414583334,56.00407997916695,125.8020814583334,35.203043,42.38673729166664,70.1612017083333,-81.884779,-6.604639583333324,1
901.1111111111094,-97.14153698611132,236.2780706666665,186.6730210694444,-178.87716384722242,-84.78356598611111,55.54097876388918,125.71071652777783,35.203043,42.430604305555526,70.21651802777774,-81.884779,-6.619898611111101,1
903.8888888888872,-96.8153288263891,236.5409748333332,186.7714243680555,-178.55741159027798,-84.79260782638889,55.07787754861141,125.61935159722228,35.203043,42.47447131944442,70.27183434722218,-81.884779,-6.635157638888879,1
906.6666666666648,-96.48912066666688,236.80387899999985,186.8698276666666,-178.23765933333354,-84.80164966666666,54.61477633333362,125.52798666666672,35.203043,42.5183383333333,70.32715066666663,-81.884779,-6.650416666666657,1
909.4444444444428,-96.16291250694464,237.0667831666665,186.9682309652777,-177.9179070763891,-84.81069150694445,54.15167511805584,125.43662173611116,35.203043,42.5622053472222,70.38246698611107,-81.884779,-6.665675694444435,1
912.2222222222204,-95.83952116296317,237.33018231851835,187.0668724296296,-177.5960878740743,-84.81985543703703,53.688927244444734,125.34556232592598,35.203043,42.60605591851849,70.43563625185183,-81.884779,-6.68069014814814,1
914.9999999999982,-95.5485232000002,237.59927379999985,187.16825279999992,-177.25049880000023,-84.8304234,53.2302428000003,125.25801640000006,35.203043,42.64971739999997,70.46411439999999,-81.884779,-6.692891999999992,1
917.777777777776,-95.25752523703724,237.8683652814813,187.2696331703703,-176.90490972592616,-84.84099136296295,52.77155835555585,125.17047047407412,35.203043,42.69337888148146,70.49259254814812,-81.884779,-6.705093851851844,1
920.5555555555538,-94.96652727407424,238.1374567629628,187.37101354074068,-176.55932065185206,-84.85155932592592,52.3128739111114,125.0829245481482,35.203043,42.73704036296294,70.52107069629628,-81.884779,-6.717295703703696,1
923.3333333333316,-94.67552931111128,238.40654824444428,187.47239391111103,-176.213731577778,-84.86212728888889,51.85418946666696,124.99537862222228,35.203043,42.780701844444415,70.54954884444443,-81.884779,-6.729497555555548,1
926.1111111111092,-94.38453134814831,238.67563972592572,187.5737742814814,-175.86814250370392,-84.87269525185184,51.39550502222252,124.90783269629635,35.203043,42.8243633259259,70.57802699259258,-81.884779,-6.741699407407399,1
928.8888888888872,-94.0689752638891,238.95864583333315,187.68245249999995,-175.48716640277803,-84.8824352361111,50.88949215277812,124.81465959722227,35.203043,42.87124912499997,70.61308022916664,-81.884779,-6.754681409722214,1
931.6666666666648,-93.74186241666686,239.24819999999983,187.79456499999992,-175.08953758333357,-84.89178558333333,50.36120708333366,124.71883841666671,35.203043,42.91965224999997,70.65122762499998,-81.884779,-6.768030541666659,1
934.4444444444426,-93.41474956944464,239.5377541666665,187.90667749999992,-174.69190876388913,-84.90113593055554,49.83292201388923,124.62301723611118,35.203043,42.96805537499997,70.68937502083331,-81.884779,-6.781379673611102,1
937.2222222222204,-93.08763672222244,239.82730833333315,188.0187899999999,-174.2942799444447,-84.91048627777776,49.3046369444448,124.52719605555562,35.203043,43.01645849999997,70.72752241666664,-81.884779,-6.794728805555547,1
939.9999999999982,-92.76052387500022,240.11686249999985,188.1309024999999,-173.89665112500026,-84.91983662499999,48.77635187500034,124.43137487500006,35.203043,43.06486162499997,70.76566981249998,-81.884779,-6.808077937499991,1
942.777777777776,-92.43341102777798,240.4064166666665,188.24301499999996,-173.4990223055558,-84.92918697222221,48.24806680555589,124.33555369444451,35.203043,43.11326474999997,70.80381720833331,-81.884779,-6.821427069444436,1
945.5555555555536,-92.17047361111128,240.61266579166656,188.32107759722217,-173.2566380555557,-84.934382625,47.900567965278,124.24034568750008,35.203043,43.15718351388886,70.84547881249998,-81.884779,-6.8382902499999885,1
948.3333333333314,-91.91311666666684,240.81167099999988,188.3961793333333,-173.02775333333346,-84.939217,47.568789666666895,124.14519100000008,35.203043,43.2007123333333,70.88744599999997,-81.884779,-6.855458999999988,1
951.1111111111092,-91.65575972222238,241.0106762083332,188.4712810694444,-172.79886861111126,-84.944051375,47.237011368055775,124.05003631250008,35.203043,43.24424115277775,70.92941318749997,-81.884779,-6.872627749999989,1
953.8888888888872,-91.39840277777796,241.2096814166665,188.5463828055555,-172.56998388888903,-84.94888574999999,46.90523306944466,123.95488162500008,35.203043,43.28776997222219,70.97138037499997,-81.884779,-6.889796499999989,1
956.6666666666648,-91.1410458333335,241.40868662499983,188.62148454166663,-172.34109916666682,-84.95372012499999,46.57345477083356,123.85972693750008,35.203043,43.33129879166664,71.01334756249997,-81.884779,-6.906965249999988,1
959.4444444444424,-90.86655126984152,241.6298225555553,188.7053955873015,-172.0728890793654,-84.95939255555554,46.19867687301629,123.7666553492064,35.203043,43.37459480952378,71.05034250793649,-81.884779,-6.922782111111105,1
962.2222222222204,-90.50208420634944,241.96714477777755,188.8355555079364,-171.59822082539714,-84.96946477777777,45.598151079365486,123.68452003174608,35.203043,43.41666861904759,71.06123318253967,-81.884779,-6.93150155555555,1
964.9999999999982,-90.13761714285738,242.3044669999998,188.96571542857131,-171.1235525714289,-84.979537,44.99762528571468,123.60238471428578,35.203043,43.4587424285714,71.07212385714284,-81.884779,-6.940220999999995,1
967.777777777776,-89.77315007936532,242.641789222222,189.09587534920627,-170.64888431746064,-84.98960922222221,44.3970994920639,123.52024939682546,35.203043,43.50081623809521,71.08301453174602,-81.884779,-6.948940444444439,1
970.5555555555536,-89.40868301587327,242.9791114444442,189.2260352698412,-170.1742160634924,-84.99968144444443,43.79657369841312,123.43811407936514,35.203043,43.54289004761902,71.09390520634919,-81.884779,-6.957659888888883,1
973.3333333333314,-89.04825768750023,243.3122238749998,189.35395352083324,-169.6940377083337,-85.00935072916666,43.19392133333376,123.35385062500008,35.20304060416667,43.58534854166663,71.103489,-81.884779,-6.965333,1
976.1111111111092,-88.93798394768301,243.41298149576002,189.39111726442434,-169.1734519444448,-85.01606513888888,42.57567411111152,123.2539808333334,35.20302063888889,43.630628055555526,71.103489,-81.884779,-6.965333,1
978.888888888887,-88.80012358320182,243.5389451417313,189.43757807409168,-168.65286618055592,-85.0227795486111,41.95742688888931,123.15411104166674,35.203000673611115,43.67590756944441,71.103489,-81.884779,-6.965333,1
981.6666666666648,-88.65120978880202,243.67500835720736,189.4877640393217,-168.13228041666704,-85.02949395833332,41.3391796666671,123.05424125000008,35.202980708333335,43.7211870833333,71.103489,-81.884779,-6.965333,1
984.4444444444424,-88.49674937442646,243.81613954474048,189.53981929059313,-167.61169465277814,-85.03620836805555,40.72093244444487,122.9543714583334,35.20296074305556,43.76646659722219,71.103489,-81.884779,-6.965333,1
987.2222222222204,-88.33909866841783,243.9601857163397,189.59294971334626,-167.09110888888924,-85.04292277777778,40.10268522222263,122.85450166666674,35.202940777777776,43.81174611111108,71.103489,-81.884779,-6.965333,1
989.999999999998,-88.1776701625228,244.10536297681858,189.6461147196684,-166.6013123750003,-85.046740125,39.50923987500038,122.75317443750006,35.202928,43.85583674999997,71.10829831249998,-81.883060125,-6.966704562499998,1
992.7777777777758,-88.01091400782455,244.25019095514799,189.69829074801262,-166.16625230555587,-85.04540713888889,38.95988675000039,122.6492562083334,35.202928,43.8978138333333,71.12165751388888,-81.87828547222222,-6.970514458333331,1
995.5555555555536,-87.84040340318866,244.39479385848088,189.74978107733364,-165.7311922361114,-85.04407415277778,38.41053362500038,122.54533797916672,35.202928,43.93979091666664,71.13501671527776,-81.87351081944445,-6.974324354166664,1
998.3333333333314,-87.66713681501224,244.53925279120895,189.80077940390237,-165.29613216666698,-85.04274116666666,37.86118050000037,122.44141975000008,35.202928,43.98176799999997,71.14837591666665,-81.86873616666666,-6.978134249999997,1
1001.1111111111092,-87.49177745307365,244.6836237100024,189.8514154989865,-164.86107209722255,-85.04140818055555,37.311827375000384,122.3375015208334,35.202928,44.0237450833333,71.16173511805555,-81.86396151388888,-6.981944145833331,1
1003.8888888888868,-87.31478222028112,244.82794709154575,189.9017797937447,-164.4260120277781,-85.04007519444444,36.7624742500004,122.23358329166672,35.202928,44.06572216666663,71.17509431944443,-81.85918686111111,-6.985754041666664,1
1006.6666666666648,-87.1336414154808,244.97440693497222,189.9529546519336,-164.08619311111133,-85.0453861111111,36.30200155555584,122.11862644444452,35.20289622222222,44.111663888888856,71.18409855555555,-81.857277,-7.00314888888887,1
1009.4444444444424,-86.94739022353208,245.12393949531926,190.0054193233886,-163.8098682962965,-85.0551262962963,35.900782481481755,121.9963105185186,35.20284325925926,44.16024870370367,71.19019948148147,-81.857277,-7.0296003703703525,1
1012.2222222222202,-86.75695549496321,245.27599284259125,190.05894065829216,-163.5335434814817,-85.06486648148147,35.49956340740769,121.87399459259268,35.20279029629629,44.20883351851848,71.19630040740739,-81.857277,-7.056051851851833,1
1014.999999999998,-86.56304400224717,245.43014645377994,190.11334091886417,-163.2572186666669,-85.07460666666665,35.09834433333363,121.75167866666676,35.20273733333333,44.2574183333333,71.20240133333333,-81.857277,-7.082503333333314,1
1017.7777777777758,-86.36620357940099,245.5860747056205,190.1684823852356,-162.98089385185207,-85.08434685185185,34.69712525925955,121.62936274074085,35.20268437037037,44.30600314814811,71.20850225925925,-81.857277,-7.108954814814796,1
1020.5555555555536,-86.16785942669011,245.7432468452599,190.22430033118602,-162.72818762962976,-85.0947534074074,34.325044296296475,121.51123577777784,35.20263774074074,44.35488925925922,71.213383,-81.85710722222223,-7.137846703703676,1
1023.3333333333312,-85.97198937901553,245.90045425926405,190.28086766370825,-162.5699557777779,-85.10782544444444,34.069515777777966,121.40986466666672,35.202616444444445,44.40498055555552,71.213383,-81.85625833333333,-7.176500222222194,1
1026.111111111109,-85.77821499149118,246.05771463148903,190.3380864723464,-162.41172392592603,-85.12089748148148,33.81398725925945,121.30849355555564,35.20259514814815,44.45507185185181,71.213383,-81.85540944444445,-7.215153740740712,1
1028.8888888888869,-85.58622544326403,246.21504350649167,190.39587708146578,-162.2534920740742,-85.13396951851851,33.55845874074093,121.20712244444452,35.20257385185185,44.505163148148114,71.213383,-81.85456055555555,-7.253807259259231,1
1031.6666666666647,-85.39576284235281,246.37245474944476,190.4541740841033,-162.09526022222235,-85.14704155555555,33.30293022222241,121.1057513333334,35.20255255555556,44.55525444444441,71.213383,-81.85371166666667,-7.292460777777751,1
1034.4444444444423,-85.20661120451174,246.52996089084954,190.51292336726164,-161.93702837037048,-85.16011359259258,33.04740170370388,121.0043802222223,35.20253125925926,44.6053457407407,71.213383,-81.85286277777779,-7.33111429629627,1
1037.22222222222,-85.01771738332195,246.68677055925585,190.57105720406588,-161.8312977142858,-85.16246419047619,32.84355266666681,120.90135457142864,35.202527,44.64914130158727,71.213383,-81.8425253809524,-7.365009920634896,1
1039.999999999998,-84.82881531474548,246.8427922680865,190.6284077882251,-161.73869235714292,-85.16213442857143,32.65262350000014,120.79791528571435,35.202527,44.6913629285714,71.213383,-81.82981585714286,-7.3977160714285475,1
1042.7777777777758,-84.63987876454075,246.99813459439522,190.68506900781043,-161.64608700000005,-85.16180466666667,32.46169433333347,120.69447600000008,35.202527,44.73358455555552,71.213383,-81.81710633333334,-7.430422222222199,1
1045.5555555555534,-84.45088427583232,247.15289135575946,190.74112158353944,-161.5534816428572,-85.1614749047619,32.27076516666682,120.5910367142858,35.202527,44.77580618253965,71.213383,-81.80439680952382,-7.463128373015847,1
1048.3333333333312,-84.26181069639136,247.3071441502594,190.79663533745338,-161.46087628571436,-85.16114514285715,32.07983600000015,120.4875974285715,35.202527,44.81802780952378,71.213383,-81.79168728571429,-7.495834523809498,1
1051.111111111109,-84.07163634373347,247.461147582298,190.85203123035566,-161.42477862500002,-85.17044777777777,31.936400104166765,120.3787442361112,35.20251182638889,44.8610539583333,71.21627838888888,-81.78682263194445,-7.537023062499967,1
1053.8888888888869,-83.88013160686742,247.6150032563546,190.90743856299167,-161.4065255,-85.18279222222222,31.80796208333343,120.26818138888898,35.20249186111111,44.90433416666664,71.2200881111111,-81.78443530555555,-7.580890249999967,1
1056.6666666666647,-83.68739122603664,247.768746536407,190.96286414672903,-161.388272375,-85.19513666666666,31.679524062500093,120.15761854166676,35.202471895833334,44.94761437499997,71.22389783333333,-81.78204797916666,-7.624757437499968,1
1059.4444444444423,-83.49349757859324,247.9224091307389,191.0183141985132,-161.37001925,-85.20748111111111,31.551086041666768,120.04705569444452,35.20245193055556,44.9908945833333,71.22770755555555,-81.77966065277778,-7.668624624999966,1
1062.22222222222,-83.2985225038002,248.0760196247098,191.0737944265116,-161.351766125,-85.21982555555554,31.42264802083343,119.93649284722233,35.20243196527778,45.03417479166664,71.23151727777777,-81.77727332638888,-7.712491812499967,1
1064.999999999998,-83.1025288149861,248.2296039220672,191.12931010103014,-161.333513,-85.23216999999998,31.294210000000096,119.82593000000008,35.202412,45.07745499999997,71.235327,-81.774886,-7.756358999999968,1
1067.7777777777756,-82.90580371711097,248.3845399265844,191.1859080944199,-161.39310059259256,-85.25288148148147,31.24530703703708,119.7119961111112,35.202412,45.13426259259255,71.235327,-81.77318822222222,-7.821463999999948,1
1070.5555555555534,-82.70837732860518,248.540742935381,191.24351119412304,-161.45268818518514,-85.27359296296295,31.196404074074117,119.59806222222232,35.202412,45.19107018518514,71.235327,-81.77149044444444,-7.886568999999949,1
1073.3333333333312,-82.51027588052673,248.69813777326132,191.30205057421253,-161.51227577777777,-85.29430444444444,31.147501111111147,119.48412833333342,35.202412,45.24787777777774,71.235327,-81.76979266666667,-7.951673999999951,1
1076.111111111109,-82.31152222143648,248.85665756567812,191.36146471783803,-161.57186337037032,-85.31501592592592,31.098598148148184,119.37019444444452,35.202412,45.30468537037033,71.235327,-81.7680948888889,-8.016778999999952,1
1078.8888888888869,-82.11213624667917,249.01624269563425,191.42169850125566,-161.6314509629629,-85.3357274074074,31.04969518518522,119.25626055555564,35.202412,45.36149296296292,71.235327,-81.76639711111112,-8.081883999999953,1
1081.6666666666645,-81.91143611593968,249.17660321976004,191.48236537215152,-161.8721759999997,-85.35529288888888,31.17874644444425,119.13837344444454,35.202412,45.4144873333333,71.235327,-81.76063777777779,-8.156754666666602,1
1084.4444444444423,-81.7090288274935,249.33755335233732,191.54322405523905,-162.23365933333304,-85.37409437037036,31.426433851851662,119.01785085185196,35.202412,45.46493955555552,71.235327,-81.75217074074075,-8.238135777777716,1
1087.22222222222,-81.50500126001816,249.49907539290385,191.6042699407677,-162.5951426666664,-85.39289585185183,31.674121259259078,118.89732825925935,35.202412,45.515391777777744,71.235327,-81.74370370370372,-8.319516888888828,1
1089.9999999999975,-81.29943174249246,249.66115372403644,191.66549901545466,-162.9566259999997,-85.41169733333332,31.921808666666465,118.77680566666676,35.202412,45.56584399999996,71.235327,-81.73523666666667,-8.400897999999934,1
1092.7777777777756,-81.09239101123141,249.82377457476179,191.72690779428655,-163.31810933333304,-85.4304988148148,32.16949607407388,118.65628307407415,35.202412,45.61629622222218,71.235327,-81.72676962962963,-8.482279111111046,1
1095.5555555555534,-80.88405491574302,249.98690261073438,191.78853142057304,-163.66455809150304,-85.4509250326797,32.406281326797234,118.53672199346414,35.20240079084967,45.66636270588232,71.2317375882353,-81.719996,-8.562103052287524,1
1098.3333333333312,-80.67491358195235,250.15043752209604,191.8505147107758,-163.9508685490194,-85.4778501960784,32.599457960784164,118.4210069607844,35.20234474509804,45.71488623529408,71.21379052941178,-81.719996,-8.635698313725433,1
1101.111111111109,-80.46498735262612,250.3143766220651,191.91284445439967,-164.23717900653574,-85.5047753594771,32.792634594771094,118.30529192810468,35.202288699346404,45.76340976470585,71.19584347058824,-81.719996,-8.709293575163343,1
1103.8888888888866,-80.25429438955342,250.47871783787022,191.97550868019562,-164.52348946405206,-85.5317005228758,32.98581122875801,118.18957689542492,35.20223265359477,45.81193329411761,71.17789641176472,-81.719996,-8.782888836601247,1
1106.6666666666645,-80.04285089812508,250.64345964443334,192.03849653023258,-164.8097999215684,-85.55862568627448,33.17898786274495,118.0738618627452,35.20217660784314,45.860456823529375,71.15994935294118,-81.719996,-8.856484098039157,1
1109.4444444444423,-79.83067132557854,250.80860100578894,192.10179814875744,-165.09611037908476,-85.58555084967318,33.37216449673188,117.95814683006544,35.20212056209151,45.90898035294114,71.14200229411766,-81.719996,-8.930079359477068,1
1112.22222222222,-79.61783765465326,250.97421635982633,192.1654663093247,-165.4042985555551,-85.61307766666664,33.58831065079325,117.8427090158731,35.20206717460318,45.9586758412698,71.12339833333336,-81.71977773015873,-9.006332253968166,1
1114.9999999999975,-79.40513947429378,251.141150281622,192.2301877986881,-165.96408049999954,-85.64752349999996,34.06860628571389,117.7304592142858,35.20204435714286,46.02184885714281,71.09724000000001,-81.71704935714286,-9.113147928571342,1
1117.7777777777756,-79.19254293892183,251.30935515211112,192.295915931633,-166.523862444444,-85.6819693333333,34.548901920634535,117.6182094126985,35.20202153968254,46.08502187301583,71.07108166666669,-81.71432098412699,-9.219963603174518,1
1120.5555555555534,-78.98001628203819,251.4787871878423,192.36260759011498,-167.08364438888844,-85.71641516666664,35.02919755555518,117.5059596111112,35.20199872222222,46.14819488888884,71.04492333333334,-81.71159261111112,-9.326779277777694,1
1123.3333333333312,-78.76752963616218,251.64940609308272,192.43022290225542,-167.6434263333329,-85.75086099999997,35.50949319047582,117.3937098095239,35.20197590476191,46.21136790476186,71.01876500000002,-81.70886423809523,-9.43359495238087,1
1126.1111111111088,-78.55507500173157,251.82110308311997,192.49868574516353,-168.18656170138877,-85.78434438888888,35.97273752777773,117.2809529375001,35.201954,46.27445981249995,70.993653,-81.70583159722223,-9.539266187499935,1
1128.8888888888866,-78.34310094915759,251.9921524926043,192.56703647584075,-168.33017923611098,-85.79472911111111,36.026750722222175,117.1560263750001,35.201954,46.33560512499995,70.993653,-81.69549652777778,-9.617470874999936,1
1131.6666666666645,-78.13155914579852,252.1626055573573,192.63528866101444,-168.47379677083322,-85.80511383333332,36.08076391666662,117.0310998125001,35.201954,46.39675043749995,70.993653,-81.68516145833334,-9.695675562499938,1
1134.444444444442,-77.92040418122926,252.33251032731079,192.70345506169997,-168.61741430555543,-85.81549855555555,36.13477711111106,116.90617325000012,35.201954,46.45789574999995,70.993653,-81.6748263888889,-9.773880249999932,1
1137.22222222222,-77.70959333267427,252.50191192384693,192.7715476976103,-168.76103184027764,-85.82588327777776,36.18879030555551,116.7812466875001,35.201954,46.51904106249995,70.993653,-81.66449131944445,-9.852084937499937,1
1139.9999999999975,-77.4990863531793,252.67085277220465,192.83957790531952,-168.90464937499988,-85.83626799999999,36.24280349999995,116.65632012500012,35.201954,46.580186374999954,70.993653,-81.65415625000001,-9.930289624999936,1
1142.7777777777756,-77.28849708886176,252.83961647185097,192.90771200763092,-169.20764504861052,-85.85121774305553,36.45291387499951,116.53603922916676,35.201954,46.64020089583329,70.98884575000001,-81.64649216666666,-10.02024235416657,1
1145.5555555555534,-77.07692065403003,253.00884880634493,192.97634852412168,-169.92047022222164,-85.87790611111109,37.06441699999952,116.42770433333342,35.201954,46.697307666666624,70.97167700000001,-81.64569633333333,-10.14040433333324,1
1148.333333333331,-76.86437424090983,253.1785495439943,193.04547420415994,-170.63329539583273,-85.90459447916665,37.67592012499948,116.31936943750009,35.201954,46.75441443749995,70.95450825000002,-81.6449005,-10.2605663124999,1
1151.1111111111088,-76.65087370174365,253.34871869196462,193.11507670456572,-171.34612056944383,-85.9312828472222,38.28742324999949,116.21103454166676,35.201954,46.81152120833328,70.93733950000001,-81.64410466666668,-10.380728291666568,1
1153.8888888888866,-76.43643365452631,253.51935647412785,193.1851445198804,-172.05894574305498,-85.95797121527777,38.89892637499951,116.10269964583344,35.201954,46.86862797916662,70.92017075000001,-81.64330883333334,-10.500890270833237,1
1156.6666666666642,-76.22106757944147,253.69046331084266,193.25566691877833,-172.77177091666604,-85.98465958333331,39.51042949999946,115.99436475000007,35.201954,46.92573474999995,70.90300200000001,-81.64251300000001,-10.621052249999895,1
1159.444444444442,-76.00515988719037,253.86272002166413,193.32710816337112,-139.11625978524108,-86.01630083703701,40.437731429628585,115.8967409333334,35.201954,46.98335915555551,70.88101171851855,-81.64081241481482,-10.741148007407304,1
1162.22222222222,-75.78904722856521,254.03672202342312,193.39987352022928,-73.73613052598063,-86.05251398518516,41.65653994814713,115.80900426666672,35.201954,47.04146137777773,70.85457079259261,-81.63827667407408,-10.861182637036936,1
1164.9999999999975,-75.57271381095133,254.21242202074316,193.47392064415,-8.35600126672017,-86.08872713333331,42.87534846666567,115.72126760000008,35.201954,47.09956359999995,70.82812986666669,-81.63574093333334,-10.981217266666569,1
1167.7777777777756,-75.35614450533461,254.38977557677524,193.54920966119226,57.02412799254026,-86.12494028148146,44.094156985184206,115.6335309333334,35.201954,47.15766582222217,70.80168894074076,-81.6332051925926,-11.1012518962962,1
1170.5555555555532,-75.13932480564611,254.56874091221306,193.62570299673848,122.40425725179534,-86.1611534296296,45.31296550370265,115.54579426666676,35.201954,47.21576804444439,70.77524801481484,-81.63066945185186,-11.221286525925825,1
1173.333333333331,-74.92213240809524,254.74915580324733,193.70328875984256,179.7453929583347,-86.1938959375,46.566532270832056,115.45469535416676,35.201954,47.27436912499994,70.75152162500001,-81.62757975000001,-11.34660049999986,1
1176.1111111111088,-74.70377101845821,254.93009533238617,193.7813812085864,178.1339092777791,-86.20118708333332,48.07499286110986,115.33893997222232,35.201954,47.33662849999995,70.74770183333334,-81.62042766666667,-11.510629666666532,1
1178.8888888888864,-74.48425889303878,255.11155991953592,193.85997071090674,176.52242559722364,-86.20847822916666,49.58345345138754,115.22318459027788,35.201954,47.39888787499994,70.74388204166668,-81.61327558333335,-11.674658833333186,1
1181.6666666666642,-74.26361313257884,255.29355011982514,193.93904821212396,174.9109419166681,-86.215769375,51.09191404166535,115.10742920833344,35.201954,47.46114724999995,70.74006225000001,-81.60612350000001,-11.838687999999856,1
1184.444444444442,-74.0418497616599,255.47606661090248,194.01860519594928,173.29945823611249,-86.22306052083333,52.600374631943154,114.991673826389,35.201954,47.52340662499994,70.73624245833334,-81.59897141666667,-12.002717166666526,1
1187.22222222222,-73.81898380208162,255.65911018119365,194.09863364845071,171.6879745555569,-86.23035166666666,54.10883522222096,114.87591844444454,35.201954,47.58566599999995,70.73242266666668,-81.59181933333335,-12.166746333333196,1
1189.9999999999975,-73.59492688248969,255.84306511340782,194.17939247998532,170.0026051333348,-86.23612953333333,55.69765099999858,114.7560098000001,35.201889066666666,47.652716066666606,70.71752573333336,-81.58663086666667,-12.337641866666516,1
1192.777777777775,-73.3695150145497,256.028595472431,194.26133542244838,168.1858832814831,-86.23921712592592,57.42932044444292,114.62871757777788,35.2017086962963,47.72828291851845,70.68293610370374,-81.58493327407407,-12.520744274073913,1
1195.5555555555532,-73.14276949509707,256.2156690293791,194.34443264410012,166.3691614296312,-86.24230471851851,59.16098988888739,114.50142535555568,35.20152832592593,47.80384977037031,70.6483464740741,-81.58323568148148,-12.703846681481323,1
1198.333333333331,-72.914710424534,256.4042552613226,194.4286558318888,164.55243957777932,-86.2453923111111,60.89265933333186,114.37413313333344,35.201347955555555,47.87941662222216,70.61375684444448,-81.58153808888889,-12.886949088888734,1
1201.1111111111086,-72.68535678325694,256.5943252450561,194.51397809856286,162.73571772592757,-86.2484799037037,62.6243287777762,114.24684091111122,35.20116758518519,47.954983474074005,70.57916721481485,-81.5798404962963,-13.07005149629613,1
1203.8888888888864,-72.45472650268627,256.7858515583696,194.60037389634144,160.9189958740757,-86.25156749629629,64.35599822222068,114.119548688889,35.200987214814816,48.03055032592586,70.54457758518521,-81.57814290370371,-13.253153903703542,1
1206.6666666666642,-72.22435729256155,256.9782725406502,194.68774245417964,159.07272666666827,-86.22701566666669,66.13635566666511,114.01844833333342,35.20098,48.10540283333327,70.51756366666669,-81.57349133333334,-13.4435856666665,1
1209.444444444442,-71.99428299758165,257.17155722673795,194.77605977178,157.22522631944602,-86.20131219444447,67.91874177777625,113.91843930555564,35.20098,48.18022557638882,70.4908654027778,-81.56871668055555,-13.634322819444282,1
1212.22222222222,-71.76447398590778,257.36569794903414,194.86530611250328,155.37772597222377,-86.17560872222224,69.7011278888874,113.81843027777786,35.20098,48.25504831944438,70.46416713888891,-81.56394202777778,-13.825059972222062,1
1214.9999999999975,-71.53490186423554,257.56068748788135,194.95546268643054,153.53022562500166,-86.14990525000002,71.4835139999984,113.71842125000008,35.20098,48.32987106249993,70.43746887500002,-81.559167375,-14.015797124999828,1
1217.777777777775,-71.30553941244659,257.756519042821,195.04651159553137,151.6827252777794,-86.1242017777778,73.26590011110954,113.6184122222223,35.20098,48.40469380555549,70.41077061111113,-81.55439272222223,-14.206534277777608,1
1220.5555555555532,-71.07595746083102,257.95324314720875,195.1384317243588,150.03775156250072,-86.09939750694447,74.83511809722161,113.51275520833345,35.20098,48.48054307638882,70.389412,-81.54723671527779,-14.386208201388772,1
1223.3333333333308,-70.8445415112776,258.15107830479207,195.231190805568,149.20288437500076,-86.07819004166669,75.55166358333267,113.38450625000011,35.20098,48.56049845833326,70.389412,-81.53055529166669,-14.521629208333207,1
1226.1111111111086,-70.6113218230916,258.350011146013,195.32477386946655,148.36801718750075,-86.0569825763889,76.2682090694438,113.25625729166678,35.20098,48.6404538402777,70.389412,-81.51387386805557,-14.657050215277652,1
1228.8888888888864,-70.37632725917388,258.55002895492413,195.4191666288564,147.53315000000077,-86.03577511111112,76.98475455555493,113.12800833333344,35.20098,48.72040922222215,70.389412,-81.49719244444445,-14.7924712222221,1
1231.6666666666642,-70.13958536446027,258.75111963094656,195.51435544104348,146.69828281250074,-86.01456764583335,77.70130004166604,112.99975937500012,35.20098,48.8003646041666,70.389412,-81.48051102083335,-14.927892229166549,1
1234.444444444442,-69.90112243943949,258.9532716530325,195.6103272722299,145.86341562500073,-85.99336018055557,78.41784552777717,112.87151041666677,35.20098,48.88031998611104,70.389412,-81.46382959722223,-15.063313236110996,1
1237.2222222222197,-69.66131263215034,259.1566819717427,195.70730959699839,144.81327561111237,-85.96617784920637,79.3658059365068,112.74682473809534,35.20094996825397,48.964070706349126,70.37598161111113,-81.45089152380953,-15.216840253968092,1
1239.9999999999975,-69.42061238386044,259.3615977388312,195.80558776946037,143.4891520000012,-85.93139114285717,80.60829442857032,112.62667414285724,35.200881714285714,49.05265185714278,70.34545800000002,-81.44271771428572,-15.393411285714128,1
1242.777777777775,-69.17902496935794,259.5679972486846,195.90513685489609,142.16502838889005,-85.89660443650796,81.85078292063383,112.50652354761915,35.20081346031746,49.14123300793643,70.31493438888891,-81.43454390476191,-15.569982317460164,1
1245.555555555553,-68.93655346852205,259.7758597280868,196.00593295424366,140.84090477777903,-85.86181773015876,83.09327141269725,112.38637295238108,35.20074520634921,49.22981415873007,70.28441077777781,-81.4263700952381,-15.746553349206184,1
1248.3333333333308,-68.69320077983808,259.985165286155,196.10795315048443,139.5167811666679,-85.82703102380955,84.33575990476075,112.26622235714296,35.20067695238095,49.31839530952373,70.2538871666667,-81.41819628571429,-15.92312438095222,1
1251.1111111111086,-68.44985203480603,260.19539151557274,196.21095591997323,138.51075026388938,-85.80472268055556,85.27295911111068,112.14856991666676,35.200636,49.40927170833325,70.22718154166668,-81.40883963888889,-16.080183597222106,1
1253.8888888888864,-68.2078044500714,260.40578164325524,196.31459805893147,137.98185842361158,-85.80113188194444,85.75222438888846,112.03466470833344,35.200636,49.50359097916658,70.20620289583336,-81.39770873611111,-16.207975090277664,1
1256.6666666666642,-67.96700887119971,260.61634757768866,196.41887213878354,137.4529665833338,-85.79754108333333,86.23148966666625,111.9207595000001,35.200636,49.59791024999992,70.18522425000002,-81.38657783333333,-16.335766583333225,1
1259.4444444444418,-67.72741799364422,260.82710080494195,196.52377103431527,136.92407474305605,-85.79395028472223,86.71075494444399,111.80685429166677,35.200636,49.69222952083325,70.16424560416668,-81.37544693055557,-16.46355807638877,1
1262.2222222222197,-67.48898627728548,261.038052405996,196.62928790764002,136.39518290277826,-85.79035948611111,87.19002022222178,111.69294908333345,35.200636,49.786548791666576,70.14326695833334,-81.36431602777779,-16.59134956944433,1
1264.9999999999975,-67.25166986575063,261.24921307311945,196.73541619307588,135.8662910625005,-85.7867686875,87.66928549999956,111.5790438750001,35.200636,49.88086806249992,70.12228831250002,-81.35318512500001,-16.719141062499887,1
1267.777777777775,-67.01307786687404,261.46134184797,196.84246670690882,135.36835008888937,-85.77740192592594,88.06582965185152,111.47421980740752,35.200636,49.95898904444438,70.114736,-81.33995631111112,-16.82113462222214,1
1270.555555555553,-66.77190792741425,261.6748508884522,196.9506037379598,134.88781897777824,-85.7647861851852,88.41584317037004,111.37450388148156,35.200636,50.02799848888883,70.114736,-81.32554742222223,-16.908616844444364,1
1273.3333333333308,-66.52820048054406,261.8897244094679,197.05981069606173,134.4072878666671,-85.75217044444446,88.76585668888856,111.27478795555564,35.200636,50.09700793333327,70.114736,-81.31113853333335,-16.996099066666584,1
1276.1111111111086,-66.28199447581632,262.10594721456147,197.170071600519,133.926756755556,-85.73955470370372,89.11587020740708,111.17507202962972,35.200636,50.16601737777771,70.114736,-81.29672964444445,-17.08358128888881,1
1278.8888888888864,-66.03332744983547,262.3235046663997,197.2813710509615,133.4462256444449,-85.72693896296298,89.46588372592561,111.0753561037038,35.200636,50.23502682222216,70.114736,-81.28232075555557,-17.171063511111033,1
1281.666666666664,-65.78272804611089,262.5423952185706,197.3937883948644,132.99978375000032,-85.72275591666664,89.79552337499975,110.97382470833344,35.200636,50.31076712499991,70.10787004166669,-81.26908058333335,-17.258606208333248,1
1284.4444444444418,-65.53177273042735,262.7626445862407,197.50760417636621,132.66129104166697,-85.74527640277775,90.06064577083308,110.866544326389,35.200636,50.40782181249991,70.07926188194446,-81.25954134722224,-17.34634040972214,1
1287.2222222222197,-65.28045266786756,262.98423856335086,197.62279644326983,132.32279833333365,-85.76779688888887,90.32576816666642,110.75926394444454,35.200636,50.50487649999991,70.05065372222224,-81.25000211111113,-17.43407461111103,1
1289.9999999999973,-65.02875932439979,263.2071634373091,197.7393440024099,131.98430562500033,-85.79031737499997,90.59089056249974,110.6519835625001,35.200636,50.60193118749991,70.02204556250003,-81.24046287500002,-17.521808812499913,1
1292.777777777775,-64.77668445656828,263.4314059649026,197.85722638515836,131.64581291666698,-85.81283786111109,90.85601295833308,110.54470318055566,35.200636,50.69898587499991,69.9934374027778,-81.2309236388889,-17.609543013888803,1
1295.555555555553,-64.52422010168226,263.6569533494654,197.97642381470473,131.30732020833366,-85.83535834722221,91.1211353541664,110.4374227986112,35.200636,50.796040562499904,69.96482924305558,-81.22138440277779,-17.697277215277698,1
1298.3333333333308,-64.27105152846038,263.88366412814327,198.096864850294,131.02868241666687,-85.85976474999998,91.31515841666656,110.32704366666675,35.200636,50.891615166666575,69.94445741666667,-81.21184508333334,-17.77952049999993,1
1301.1111111111086,-64.01684619869442,264.1113896453699,198.21847560313074,130.8148874513891,-85.88621422916665,91.4321572013888,110.21330755555566,35.200636,50.98558634722213,69.93300828472223,-81.20230567361112,-17.855815291666598,1
1303.8888888888862,-63.761609333531254,264.34012353028646,198.3412403042276,130.60109248611133,-85.91266370833331,91.549155986111,110.09957144444456,35.200636,51.07955752777769,69.92155915277779,-81.1927662638889,-17.93211008333326,1
1306.666666666664,-63.50534599625163,264.5698596086317,198.46514369248902,130.38729752083353,-85.93911318749998,91.66615477083324,109.98583533333344,35.200636,51.17352870833325,69.91011002083334,-81.18322685416668,-18.00840487499993,1
1309.4444444444418,-63.248061101397326,264.80059189226415,198.59017099230843,130.17350255555576,-85.96556266666664,91.78315355555544,109.87209922222232,35.200636,51.2674998888888,69.8986608888889,-81.17368744444445,-18.084699666666594,1
1312.2222222222194,-62.98975942342452,265.0323145692203,198.7163078922701,129.959707590278,-85.99201214583331,91.90015234027766,109.75836311111122,35.200636,51.36147106944435,69.88721175694445,-81.16414803472223,-18.160994458333256,1
1314.9999999999973,-62.72962099005684,265.2650058126866,198.8435198728051,129.8109220666668,-86.01810413333331,91.93220906666669,109.63201713333346,35.200590133333336,51.45544539999991,69.884006,-81.15232500000002,-18.2350920666666,1
1317.777777777775,-62.467346272319304,265.498654168842,198.97178587637595,129.6874179925927,-86.04405709629627,91.93123277037036,109.50076731851864,35.20052642962963,51.54942095555546,69.884006,-81.1396138888889,-18.308335214814743,1
1320.555555555553,-62.20296050814128,265.7332547084108,199.101093388331,129.56391391851864,-86.07001005925923,91.93025647407408,109.36951750370385,35.200462725925924,51.64339651111102,69.884006,-81.1269027777778,-18.38157836296289,1
1323.3333333333308,-61.93648818399604,265.9688026307342,199.23143026681868,129.44040984444456,-86.0959630222222,91.92928017777778,109.238267688889,35.20039902222222,51.73737206666658,69.884006,-81.11419166666668,-18.45482151111104,1
1326.1111111111084,-61.66795306714953,266.2052932566039,199.36278472680468,129.31690577037048,-86.12191598518515,91.92830388148148,109.1070178740742,35.20033531851852,51.83134762222213,69.884006,-81.10148055555557,-18.528064659259183,1
1328.8888888888862,-61.39767829701094,266.44292066381144,199.4954110049993,129.02587043703767,-86.14627991111108,92.10429096296242,108.97986625185196,35.20026148148148,51.93122765185174,69.87749720000002,-81.09256535555556,-18.613676874073967,1
1331.666666666664,-61.126316341611954,266.68209749271904,199.62985584354962,128.3788311777784,-86.16726713333331,92.6563252222217,108.861423288889,35.20016611111111,52.04365468888879,69.85715720000002,-81.09171646666667,-18.72557335555545,1
1334.4444444444416,-60.853872587241966,266.9228085307777,199.76609391673554,127.73179191851918,-86.18825435555553,93.20835948148093,108.74298032592604,35.20007074074074,52.156081725925816,69.83681720000001,-81.09086757777777,-18.837469837036924,1
1337.2222222222194,-60.58035229803634,267.1650389811148,199.90410062620515,127.0847526592599,-86.20924157777775,93.76039374074018,108.62453736296308,35.19997537037037,52.26850876296285,69.81647720000002,-81.09001868888889,-18.949366318518408,1
1339.9999999999973,-60.30576062277227,267.40877444470175,200.04385207196813,126.43771340000065,-86.23022879999998,94.31242799999946,108.50609440000012,35.19988,52.38093579999989,69.79613720000002,-81.0891698,-19.061262799999888,1
1342.777777777775,-60.03010260132851,267.6540009033493,200.1853250247071,125.79067414074136,-86.2512160222222,94.86446225925872,108.38765143703716,35.199784629629626,52.49336283703693,69.77579720000001,-81.08832091111111,-19.17315928148137,1
1345.555555555553,-59.75304470636207,267.9002377520764,200.32801845770948,125.42098864444478,-86.25974746666665,95.12781959999975,108.26797822962972,35.199777,52.59653603703694,69.7704313925926,-81.07187325185187,-19.27570430370361,1
1348.3333333333303,-59.47456815198828,268.14743909150667,200.47187700785884,125.07542086666702,-86.26719579999998,95.36607459999976,108.14819804444456,35.199777,52.69890455555545,69.76636768888889,-81.05406917777779,-19.37743615555545,1
1351.1111111111084,-59.194683730395205,268.39560028912086,200.6168878465905,124.72985308888924,-86.27464413333333,95.60432959999976,108.02841785925938,35.199777,52.801273074073976,69.76230398518518,-81.03626510370371,-19.479168007407303,1
1353.8888888888862,-58.91340197926865,268.64471680034944,200.76303847908284,124.38428531111144,-86.28209246666665,95.84258459999975,107.9086376740742,35.199777,52.90364159259249,69.75824028148148,-81.01846102962965,-19.58089985925916,1
1356.6666666666638,-58.63073319302179,268.8947841636904,200.910316731,124.0387175333337,-86.28954079999998,96.08083959999976,107.788857488889,35.199777,53.006010111111,69.75417657777777,-81.00065695555557,-19.682631711111007,1
1359.4444444444416,-58.346267499927585,269.1457823729492,201.05867608217554,123.83513723611118,-86.30297487499998,96.1694686805556,107.66238211111124,35.19976661805556,53.10818104166656,69.752226,-80.97889000000002,-19.77411058333325,1
1362.2222222222194,-58.059635015551606,269.39769299188595,201.20807362631476,123.76262230555562,-86.32193424999998,96.11998152777782,107.5297265555557,35.199746652777776,53.21016958333323,69.752226,-80.95346500000002,-19.856125166666587,1
1364.9999999999973,-57.77085818023727,269.65051225793434,201.35849913410786,123.69010737500008,-86.34089362499998,96.07049437500004,107.39707100000014,35.1997266875,53.3121581249999,69.752226,-80.92804000000002,-19.93813974999992,1
1367.777777777775,-57.47995888945999,269.9042364616222,201.50994262110302,123.61759244444453,-86.35985299999997,96.02100722222228,107.26441544444458,35.19970672222222,53.41414666666657,69.752226,-80.90261500000003,-20.020154333333256,1
1370.5555555555527,-57.18695851489983,270.15886194322144,201.66239433811748,123.54507751388896,-86.37881237499998,95.9715200694445,107.13175988888904,35.19968675694444,53.516135208333225,69.752226,-80.87719000000003,-20.10216891666658,1
1373.3333333333303,-56.89187792460412,270.4143850895645,201.81584476206447,123.4725625833334,-86.39777174999998,95.92203291666672,106.99910433333348,35.199666791666665,53.618123749999896,69.752226,-80.85176500000003,-20.18418349999992,1
1376.1111111111084,-56.596729420126145,270.6700635338011,201.96998393238815,123.32883067407424,-86.423320237037,95.98537559259248,106.88753160000012,35.199629770370365,53.72708583703693,69.74758113333333,-80.83277691851853,-20.261080081481406,1
1378.888888888886,-56.302129607443746,270.92567243686443,202.12471268971953,123.16260919259275,-86.45094949629626,96.08434874074064,106.78261660000013,35.19958736296296,53.83825009629618,69.74146946666667,-80.81582154814816,-20.33636045185177,1
1381.6666666666638,-56.00805842122253,271.18122297114854,202.28002810540016,122.99638771111128,-86.47857875555552,96.18332188888878,106.67770160000012,35.19954495555555,53.94941435555544,69.7353578,-80.7988661777778,-20.411640822222143,1
1384.4444444444416,-55.71449636486067,271.43672597349934,202.43592729302176,122.8301662296298,-86.50620801481479,96.28229503703692,106.57278660000011,35.199502548148146,54.0605786148147,69.72924613333333,-80.78191080740743,-20.486921192592515,1
1387.2222222222194,-55.4214244924494,271.69219195546015,202.59240740622795,122.66394474814832,-86.53383727407405,96.38126818518508,106.46787160000012,35.19946014074074,54.17174287407396,69.72313446666668,-80.76495543703706,-20.562201562962887,1
1389.9999999999973,-55.12804235568948,271.94797949505397,202.74967401775234,122.60423756249988,-86.56338737499996,96.35822681250023,106.3655643125001,35.199433,54.27220912499992,69.719223,-80.74523387500003,-20.629603687499948,1
1392.7777777777749,-54.83295666151388,272.20471119549165,202.9080908432954,122.73388912499986,-86.59635230555551,96.11827073611136,106.26789295833343,35.199433,54.35365669444436,69.719223,-80.72059463888891,-20.68300004166661,1
1395.5555555555527,-54.536181797058006,272.46238249165856,203.06764667574743,122.86354068749986,-86.62931723611108,95.87831465972246,106.17022160416676,35.199433,54.4351042638888,69.719223,-80.6959554027778,-20.73639639583328,1
1398.3333333333303,-54.237731864484196,272.7209888735204,203.2283305454653,122.99319224999986,-86.66228216666663,95.63835858333356,106.0725502500001,35.199433,54.51655183333325,69.719223,-80.6713161666667,-20.789792749999947,1
1401.111111111108,-53.93762069165105,272.9805258832317,203.3901317117453,123.12284381249988,-86.6952470972222,95.3984025069447,105.97487889583344,35.199433,54.59799940277769,69.719223,-80.64667693055559,-20.84318910416661,1
1403.888888888886,-53.635861842337974,273.24098911238167,203.5530396546437,123.25249537499988,-86.72821202777774,95.1584464305558,105.87720754166676,35.199433,54.67944697222214,69.719223,-80.62203769444447,-20.89658545833328,1
1406.6666666666638,-53.33209830374047,273.5020916898222,203.7167429938129,123.4494544444442,-86.73810666666668,94.83961533333373,105.76048411111124,35.19938211111111,54.77096433333323,69.73143344444442,-80.58319033333339,-20.972877999999906,1
