BAEK26/lfd/data/processed_c.csv
timestamp,x,y,z,roll,pitch,yaw,joint1,joint2,joint3,joint4,joint5,joint6,gripper
163.0,-133.182373,231.165634,183.533936,-150.322525,-85.035588,56.490315,129.400341,35.19949,40.299961,43.901,-81.899905,-0.900575,0
165.77777777777777,-133.182373,231.165634,183.533936,-150.322525,-85.035588,56.490315,129.400341,35.19949,40.299961,43.901,-81.899905,-0.900575,0
168.55555555555554,-133.182373,231.165634,183.533936,-150.322525,-85.035588,56.490315,129.400341,35.19949,40.299961,43.901,-81.899905,-0.900575,0
171.33333333333331,-133.182373,231.165634,183.533936,-150.322525,-85.035588,56.490315,129.400341,35.19949,40.299961,43.901,-81.899905,-0.900575,0
174.1111111111111,-133.182373,231.165634,183.533936,-150.322525,-85.035588,56.490315,129.400341,35.19949,40.299961,43.901,-81.899905,-0.900575,0
176.88888888888886,-133.182373,231.165634,183.533936,-150.322525,-85.035588,56.490315,129.400341,35.19949,40.299961,43.901,-81.899905,-0.900575,0
179.66666666666663,-133.182373,231.165634,183.533936,-150.322525,-85.035588,56.490315,129.400341,35.19949,40.299961,43.901,-81.899905,-0.900575,0
182.4444444444444,-133.182373,231.165634,183.533936,-150.322525,-85.035588,56.490315,129.400341,35.19949,40.299961,43.901,-81.899905,-0.900575,0
185.22222222222217,-133.182373,231.165634,183.533936,-150.322525,-85.035588,56.490315,129.400341,35.19949,40.299961,43.901,-81.899905,-0.900575,0
187.99999999999997,-133.182373,231.165634,183.533936,-150.322525,-85.035588,56.490315,129.400341,35.19949,40.299961,43.901,-81.899905,-0.900575,0
190.7777777777777,-133.182373,231.165634,183.533936,-150.322525,-85.035588,56.490315,129.400341,35.19949,40.299961,43.901,-81.899905,-0.900575,0
193.5555555555555,-133.182373,231.165634,183.533936,-150.322525,-85.035588,56.490315,129.400341,35.19949,40.299961,43.901,-81.899905,-0.900575,0
196.3333333333333,-133.182373,231.165634,183.533936,-150.322525,-85.035588,56.490315,129.400341,35.19949,40.299961,43.901,-81.899905,-0.900575,0
199.11111111111103,-133.182373,231.165634,183.533936,-150.322525,-85.035588,56.490315,129.400341,35.19949,40.299961,43.901,-81.899905,-0.900575,0
201.8888888888888,-133.182373,231.165634,183.533936,-150.322525,-85.035588,56.490315,129.400341,35.19949,40.299961,43.901,-81.899905,-0.900575,0
204.66666666666657,-133.182373,231.165634,183.533936,-150.322525,-85.035588,56.490315,129.400341,35.19949,40.299961,43.901,-81.899905,-0.900575,0
207.44444444444437,-133.182373,231.165634,183.533936,-150.322525,-85.035588,56.490315,129.400341,35.19949,40.299961,43.901,-81.899905,-0.900575,0
210.2222222222221,-133.182373,231.165634,183.533936,-150.322525,-85.035588,56.490315,129.400341,35.19949,40.299961,43.901,-81.899905,-0.900575,0
212.9999999999999,-133.182373,231.165634,183.533936,-150.322525,-85.035588,56.490315,129.400341,35.19949,40.299961,43.901,-81.899905,-0.900575,0
215.7777777777777,-133.182373,231.165634,183.533936,-150.322525,-85.035588,56.490315,129.400341,35.19949,40.299961,43.901,-81.899905,-0.900575,0
218.55555555555543,-133.182373,231.165634,183.533936,-150.322525,-85.035588,56.490315,129.400341,35.19949,40.299961,43.901,-81.899905,-0.900575,0
221.3333333333332,-133.182373,231.165634,183.533936,-150.322525,-85.035588,56.490315,129.400341,35.19949,40.299961,43.901,-81.899905,-0.900575,0
224.11111111111097,-133.182373,231.165634,183.533936,-150.322525,-85.035588,56.490315,129.400341,35.19949,40.299961,43.901,-81.899905,-0.900575,0
226.88888888888877,-133.182373,231.165634,183.533936,-150.322525,-85.035588,56.490315,129.400341,35.19949,40.299961,43.901,-81.899905,-0.900575,0
229.6666666666665,-133.182373,231.165634,183.533936,-150.322525,-85.035588,56.490315,129.400341,35.19949,40.299961,43.901,-81.899905,-0.900575,0
232.4444444444443,-133.182373,231.165634,183.533936,-150.322525,-85.035588,56.490315,129.400341,35.19949,40.299961,43.901,-81.899905,-0.900575,0
235.2222222222221,-133.182373,231.165634,183.533936,-150.322525,-85.035588,56.490315,129.400341,35.19949,40.299961,43.901,-81.899905,-0.900575,0
237.99999999999983,-133.182373,231.165634,183.533936,-150.322525,-85.035588,56.490315,129.400341,35.19949,40.299961,43.901,-81.899905,-0.900575,0
240.7777777777776,-133.182373,231.165634,183.533936,-150.322525,-85.035588,56.490315,129.400341,35.19949,40.299961,43.901,-81.899905,-0.900575,0
243.55555555555537,-133.182373,231.165634,183.533936,-150.322525,-85.035588,56.490315,129.400341,35.19949,40.299961,43.901,-81.899905,-0.900575,0
246.33333333333317,-133.182373,231.165634,183.533936,-150.322525,-85.035588,56.490315,129.400341,35.19949,40.299961,43.901,-81.899905,-0.900575,0
249.1111111111109,-133.182373,231.165634,183.533936,-150.322525,-85.035588,56.490315,129.400341,35.19949,40.299961,43.901,-81.899905,-0.900575,0
251.8888888888887,-133.182373,231.165634,183.533936,-150.322525,-85.035588,56.490315,129.400341,35.19949,40.299961,43.901,-81.899905,-0.900575,0
254.6666666666665,-133.182373,231.165634,183.533936,-150.322525,-85.035588,56.490315,129.400341,35.19949,40.299961,43.901,-81.899905,-0.900575,0
257.44444444444423,-133.182373,231.165634,183.533936,-150.322525,-85.035588,56.490315,129.400341,35.19949,40.299961,43.901,-81.899905,-0.900575,0
260.222222222222,-133.182373,231.165634,183.533936,-150.322525,-85.035588,56.490315,129.400341,35.19949,40.299961,43.901,-81.899905,-0.900575,0
262.9999999999998,-133.182373,231.165634,183.533936,-150.322525,-85.035588,56.490315,129.400341,35.19949,40.299961,43.901,-81.899905,-0.900575,0
265.77777777777754,-133.182373,231.165634,183.533936,-150.322525,-85.035588,56.490315,129.400341,35.19949,40.299961,43.901,-81.899905,-0.900575,0
268.5555555555553,-133.182373,231.165634,183.533936,-150.322525,-85.035588,56.490315,129.400341,35.19949,40.299961,43.901,-81.899905,-0.900575,0
271.3333333333331,-133.182373,231.165634,183.533936,-150.322525,-85.035588,56.490315,129.400341,35.19949,40.299961,43.901,-81.899905,-0.900575,0
274.11111111111086,-133.182373,231.165634,183.533936,-150.322525,-85.035588,56.490315,129.400341,35.19949,40.299961,43.901,-81.899905,-0.900575,0
276.88888888888863,-133.182373,231.165634,183.533936,-150.322525,-85.035588,56.490315,129.400341,35.19949,40.299961,43.901,-81.899905,-0.900575,0
279.6666666666664,-133.182373,231.165634,183.533936,-150.322525,-85.035588,56.490315,129.400341,35.19949,40.299961,43.901,-81.899905,-0.900575,0
282.4444444444442,-133.182373,231.165634,183.533936,-150.322525,-85.035588,56.490315,129.400341,35.19949,40.299961,43.901,-81.899905,-0.900575,0
285.22222222222194,-133.182373,231.165634,183.533936,-150.322525,-85.035588,56.490315,129.400341,35.19949,40.299961,43.901,-81.899905,-0.900575,0
287.9999999999997,-133.182373,231.165634,183.533936,-150.322525,-85.035588,56.490315,129.400341,35.19949,40.299961,43.901,-81.899905,-0.900575,0
290.7777777777775,-133.182373,231.165634,183.533936,-150.322525,-85.035588,56.490315,129.400341,35.19949,40.299961,43.901,-81.899905,-0.900575,0
293.55555555555526,-133.182373,231.165634,183.533936,-150.322525,-85.035588,56.490315,129.400341,35.19949,40.299961,43.901,-81.899905,-0.900575,0
296.33333333333303,-133.182373,231.165634,183.533936,-150.322525,-85.035588,56.490315,129.400341,35.19949,40.299961,43.901,-81.899905,-0.900575,0
299.1111111111108,-133.182373,231.165634,183.533936,-150.322525,-85.035588,56.490315,129.400341,35.19949,40.299961,43.901,-81.899905,-0.900575,0
301.8888888888886,-133.182373,231.165634,183.533936,-150.322525,-85.035588,56.490315,129.400341,35.19949,40.299961,43.901,-81.899905,-0.900575,0
304.66666666666634,-133.182373,231.165634,183.533936,-150.322525,-85.035588,56.490315,129.400341,35.19949,40.299961,43.901,-81.899905,-0.900575,0
307.4444444444441,-133.182373,231.165634,183.533936,-150.322525,-85.035588,56.490315,129.400341,35.19949,40.299961,43.901,-81.899905,-0.900575,0
310.2222222222219,-133.182373,231.165634,183.533936,-150.322525,-85.035588,56.490315,129.400341,35.19949,40.299961,43.901,-81.899905,-0.900575,0
312.99999999999966,-133.182373,231.165634,183.533936,-150.322525,-85.035588,56.490315,129.400341,35.19949,40.299961,43.901,-81.899905,-0.900575,0
315.77777777777743,-133.182373,231.165634,183.533936,-150.322525,-85.035588,56.490315,129.400341,35.19949,40.299961,43.901,-81.899905,-0.900575,0
318.5555555555552,-133.182373,231.165634,183.533936,-150.322525,-85.035588,56.490315,129.400341,35.19949,40.299961,43.901,-81.899905,-0.900575,0
321.333333333333,-133.182373,231.165634,183.533936,-150.322525,-85.035588,56.490315,129.400341,35.19949,40.299961,43.901,-81.899905,-0.900575,0
324.11111111111074,-133.182373,231.165634,183.533936,-150.322525,-85.035588,56.490315,129.400341,35.19949,40.299961,43.901,-81.899905,-0.900575,0
326.8888888888885,-133.182373,231.165634,183.533936,-150.322525,-85.035588,56.490315,129.400341,35.19949,40.299961,43.901,-81.899905,-0.900575,0
329.6666666666663,-133.182373,231.165634,183.533936,-150.322525,-85.035588,56.490315,129.400341,35.19949,40.299961,43.901,-81.899905,-0.900575,0
332.44444444444406,-133.182373,231.165634,183.533936,-150.322525,-85.035588,56.490315,129.400341,35.19949,40.299961,43.901,-81.899905,-0.900575,0
335.22222222222183,-133.182373,231.165634,183.533936,-150.322525,-85.035588,56.490315,129.400341,35.19949,40.299961,43.901,-81.899905,-0.900575,0
337.9999999999996,-133.182373,231.165634,183.533936,-150.322525,-85.035588,56.490315,129.400341,35.19949,40.299961,43.901,-81.899905,-0.900575,0
340.7777777777774,-133.182373,231.165634,183.533936,-150.322525,-85.035588,56.490315,129.400341,35.19949,40.299961,43.901,-81.899905,-0.900575,0
343.55555555555515,-133.182373,231.165634,183.533936,-150.322525,-85.035588,56.490315,129.400341,35.19949,40.299961,43.901,-81.899905,-0.900575,0
346.3333333333329,-133.182373,231.165634,183.533936,-150.322525,-85.035588,56.490315,129.400341,35.19949,40.299961,43.901,-81.899905,-0.900575,0
349.1111111111107,-133.182373,231.165634,183.533936,-150.322525,-85.035588,56.490315,129.400341,35.19949,40.299961,43.901,-81.899905,-0.900575,0
351.88888888888846,-133.182373,231.165634,183.533936,-150.322525,-85.035588,56.490315,129.400341,35.19949,40.299961,43.901,-81.899905,-0.900575,0
354.66666666666623,-133.182373,231.165634,183.533936,-150.322525,-85.035588,56.490315,129.400341,35.19949,40.299961,43.901,-81.899905,-0.900575,0
357.444444444444,-133.182373,231.165634,183.533936,-150.322525,-85.035588,56.490315,129.400341,35.19949,40.299961,43.901,-81.899905,-0.900575,0
360.2222222222218,-133.182373,231.165634,183.533936,-150.322525,-85.035588,56.490315,129.400341,35.19949,40.299961,43.901,-81.899905,-0.900575,0
362.9999999999996,-133.182373,231.165634,183.533936,-150.322525,-85.035588,56.490315,129.400341,35.19949,40.299961,43.901,-81.899905,-0.900575,0
365.7777777777773,-133.182373,231.165634,183.533936,-150.322525,-85.035588,56.490315,129.400341,35.19949,40.299961,43.901,-81.899905,-0.900575,0
368.5555555555551,-133.182373,231.165634,183.533936,-150.322525,-85.035588,56.490315,129.400341,35.19949,40.299961,43.901,-81.899905,-0.900575,0
371.33333333333286,-133.182373,231.165634,183.533936,-150.322525,-85.035588,56.490315,129.400341,35.19949,40.299961,43.901,-81.899905,-0.900575,0
374.1111111111106,-133.182373,231.165634,183.533936,-150.322525,-85.035588,56.490315,129.400341,35.19949,40.299961,43.901,-81.899905,-0.900575,0
376.8888888888884,-133.182373,231.165634,183.533936,-150.322525,-85.035588,56.490315,129.400341,35.19949,40.299961,43.901,-81.899905,-0.900575,0
379.6666666666662,-133.182373,231.165634,183.533936,-150.322525,-85.035588,56.490315,129.400341,35.19949,40.299961,43.901,-81.899905,-0.900575,0
382.444444444444,-133.182373,231.165634,183.533936,-150.322525,-85.035588,56.490315,129.400341,35.19949,40.299961,43.901,-81.899905,-0.900575,0
385.2222222222217,-133.182373,231.165634,183.533936,-150.322525,-85.035588,56.490315,129.400341,35.19949,40.299961,43.901,-81.899905,-0.900575,0
387.9999999999995,-133.182373,231.165634,183.533936,-150.322525,-85.035588,56.490315,129.400341,35.19949,40.299961,43.901,-81.899905,-0.900575,0
390.77777777777726,-133.182373,231.165634,183.533936,-150.322525,-85.035588,56.490315,129.400341,35.19949,40.299961,43.901,-81.899905,-0.900575,0
393.55555555555503,-133.182373,231.165634,183.533936,-150.322525,-85.035588,56.490315,129.400341,35.19949,40.299961,43.901,-81.899905,-0.900575,0
396.3333333333328,-133.182373,231.165634,183.533936,-150.322525,-85.035588,56.490315,129.400341,35.19949,40.299961,43.901,-81.899905,-0.900575,0
399.1111111111106,-133.182373,231.165634,183.533936,-150.322525,-85.035588,56.490315,129.400341,35.19949,40.299961,43.901,-81.899905,-0.900575,0
401.8888888888884,-133.182373,231.165634,183.533936,-150.322525,-85.035588,56.490315,129.400341,35.19949,40.299961,43.901,-81.899905,-0.900575,0
404.6666666666661,-133.182373,231.165634,183.533936,-150.322525,-85.035588,56.490315,129.400341,35.19949,40.299961,43.901,-81.899905,-0.900575,0
407.4444444444439,-133.182373,231.165634,183.533936,-150.322525,-85.035588,56.490315,129.400341,35.19949,40.299961,43.901,-81.899905,-0.900575,0
410.22222222222166,-133.182373,231.165634,183.533936,-150.322525,-85.035588,56.490315,129.400341,35.19949,40.299961,43.901,-81.899905,-0.900575,0
412.9999999999994,-133.182373,231.165634,183.533936,-150.322525,-85.035588,56.490315,129.400341,35.19949,40.299961,43.901,-81.899905,-0.900575,0
415.7777777777772,-133.182373,231.165634,183.533936,-150.322525,-85.035588,56.490315,129.400341,35.19949,40.299961,43.901,-81.899905,-0.900575,0
418.555555555555,-133.182373,231.165634,183.533936,-150.322525,-85.035588,56.490315,129.400341,35.19949,40.299961,43.901,-81.899905,-0.900575,0
421.3333333333328,-133.182373,231.165634,183.533936,-150.322525,-85.035588,56.490315,129.400341,35.19949,40.299961,43.901,-81.899905,-0.900575,0
424.1111111111105,-133.182373,231.165634,183.533936,-150.322525,-85.035588,56.490315,129.400341,35.19949,40.299961,43.901,-81.899905,-0.900575,0
426.8888888888883,-133.182373,231.165634,183.533936,-150.322525,-85.035588,56.490315,129.400341,35.19949,40.299961,43.901,-81.899905,-0.900575,0
429.66666666666606,-133.182373,231.165634,183.533936,-150.322525,-85.035588,56.490315,129.400341,35.19949,40.299961,43.901,-81.899905,-0.900575,0
432.44444444444383,-133.182373,231.165634,183.533936,-150.322525,-85.035588,56.490315,129.400341,35.19949,40.299961,43.901,-81.899905,-0.900575,0
435.2222222222216,-133.182373,231.165634,183.533936,-150.322525,-85.035588,56.490315,129.400341,35.19949,40.299961,43.901,-81.899905,-0.900575,0
437.9999999999994,-133.182373,231.165634,183.533936,-150.322525,-85.035588,56.490315,129.400341,35.19949,40.299961,43.901,-81.899905,-0.900575,0
440.7777777777772,-133.182373,231.165634,183.533936,-150.322525,-85.035588,56.490315,129.400341,35.19949,40.299961,43.901,-81.899905,-0.900575,0
443.5555555555549,-133.182373,231.165634,183.533936,-150.322525,-85.035588,56.490315,129.400341,35.19949,40.299961,43.901,-81.899905,-0.900575,0
446.3333333333327,-133.182373,231.165634,183.533936,-150.322525,-85.035588,56.490315,129.400341,35.19949,40.299961,43.901,-81.899905,-0.900575,0
449.11111111111046,-133.182373,231.165634,183.533936,-150.322525,-85.035588,56.490315,129.400341,35.19949,40.299961,43.901,-81.899905,-0.900575,0
451.8888888888882,-133.182373,231.165634,183.533936,-150.322525,-85.035588,56.490315,129.400341,35.19949,40.299961,43.901,-81.899905,-0.900575,0
454.666666666666,-133.182373,231.165634,183.533936,-150.322525,-85.035588,56.490315,129.400341,35.19949,40.299961,43.901,-81.899905,-0.900575,0
457.4444444444438,-133.182373,231.165634,183.533936,-150.322525,-85.035588,56.490315,129.400341,35.19949,40.299961,43.901,-81.899905,-0.900575,0
460.2222222222216,-133.182373,231.165634,183.533936,-150.322525,-85.035588,56.490315,129.400341,35.19949,40.299961,43.901,-81.899905,-0.900575,0
462.9999999999993,-133.182373,231.165634,183.533936,-150.322525,-85.035588,56.490315,129.400341,35.19949,40.299961,43.901,-81.899905,-0.900575,0
465.7777777777771,-133.182373,231.165634,183.533936,-150.322525,-85.035588,56.490315,129.400341,35.19949,40.299961,43.901,-81.899905,-0.900575,0
468.55555555555486,-133.182373,231.165634,183.533936,-150.322525,-85.035588,56.490315,129.400341,35.19949,40.299961,43.901,-81.899905,-0.900575,0
471.33333333333263,-133.182373,231.165634,183.533936,-150.322525,-85.035588,56.490315,129.400341,35.19949,40.299961,43.901,-81.899905,-0.900575,0
474.1111111111104,-133.182373,231.165634,183.533936,-150.322525,-85.035588,56.490315,129.400341,35.19949,40.299961,43.901,-81.899905,-0.900575,0
476.8888888888882,-133.182373,231.165634,183.533936,-150.322525,-85.035588,56.490315,129.400341,35.19949,40.299961,43.901,-81.899905,-0.900575,0
479.666666666666,-133.182373,231.165634,183.533936,-150.322525,-85.035588,56.490315,129.400341,35.19949,40.299961,43.901,-81.899905,-0.900575,0
482.4444444444437,-133.182373,231.165634,183.533936,-150.322525,-85.035588,56.490315,129.400341,35.19949,40.299961,43.901,-81.899905,-0.900575,0
485.2222222222215,-133.182373,231.165634,183.533936,-150.322525,-85.035588,56.490315,129.400341,35.19949,40.299961,43.901,-81.899905,-0.900575,0
487.99999999999926,-133.182373,231.165634,183.533936,-150.322525,-85.035588,56.490315,129.400341,35.19949,40.299961,43.901,-81.899905,-0.900575,0
490.777777777777,-133.182373,231.165634,183.533936,-150.322525,-85.035588,56.490315,129.400341,35.19949,40.299961,43.901,-81.899905,-0.900575,0
493.5555555555548,-133.182373,231.165634,183.533936,-150.322525,-85.035588,56.490315,129.400341,35.19949,40.299961,43.901,-81.899905,-0.900575,0
496.3333333333326,-133.182373,231.165634,183.533936,-150.322525,-85.035588,56.490315,129.400341,35.19949,40.299961,43.901,-81.899905,-0.900575,0
499.1111111111104,-133.182373,231.165634,183.533936,-150.322525,-85.035588,56.490315,129.400341,35.19949,40.299961,43.901,-81.899905,-0.900575,0
501.8888888888881,-133.182373,231.165634,183.533936,-150.322525,-85.035588,56.490315,129.400341,35.19949,40.299961,43.901,-81.899905,-0.900575,0
504.6666666666659,-133.182373,231.165634,183.533936,-150.322525,-85.035588,56.490315,129.400341,35.19949,40.299961,43.901,-81.899905,-0.900575,0
507.44444444444366,-133.182373,231.165634,183.533936,-150.322525,-85.035588,56.490315,129.400341,35.19949,40.299961,43.901,-81.899905,-0.900575,0
510.22222222222143,-133.182373,231.165634,183.533936,-150.322525,-85.035588,56.490315,129.400341,35.19949,40.299961,43.901,-81.899905,-0.900575,0
512.9999999999992,-133.182373,231.165634,183.533936,-150.322525,-85.035588,56.490315,129.400341,35.19949,40.299961,43.901,-81.899905,-0.900575,0
515.7777777777769,-133.182373,231.165634,183.533936,-150.322525,-85.035588,56.490315,129.400341,35.19949,40.299961,43.901,-81.899905,-0.900575,0
518.5555555555547,-133.182373,231.165634,183.533936,-150.322525,-85.035588,56.490315,129.400341,35.19949,40.299961,43.901,-81.899905,-0.900575,0
521.3333333333326,-133.182373,231.165634,183.533936,-150.322525,-85.035588,56.490315,129.400341,35.19949,40.299961,43.901,-81.899905,-0.900575,0
524.1111111111103,-133.182373,231.165634,183.533936,-150.322525,-85.035588,56.490315,129.400341,35.19949,40.299961,43.901,-81.899905,-0.900575,0
526.888888888888,-133.182373,231.165634,183.533936,-150.322525,-85.035588,56.490315,129.400341,35.19949,40.299961,43.901,-81.899905,-0.900575,0
529.6666666666658,-133.182373,231.165634,183.533936,-150.322525,-85.035588,56.490315,129.400341,35.19949,40.299961,43.901,-81.899905,-0.900575,0
532.4444444444437,-133.182373,231.165634,183.533936,-150.322525,-85.035588,56.490315,129.400341,35.19949,40.299961,43.901,-81.899905,-0.900575,0
535.2222222222214,-133.182373,231.165634,183.533936,-150.322525,-85.035588,56.490315,129.400341,35.19949,40.299961,43.901,-81.899905,-0.900575,0
537.9999999999991,-133.182373,231.165634,183.533936,-150.322525,-85.035588,56.490315,129.400341,35.19949,40.299961,43.901,-81.899905,-0.900575,0
540.7777777777769,-133.182373,231.165634,183.533936,-150.322525,-85.035588,56.490315,129.400341,35.19949,40.299961,43.901,-81.899905,-0.900575,0
543.5555555555547,-133.182373,231.165634,183.533936,-150.322525,-85.035588,56.490315,129.400341,35.19949,40.299961,43.901,-81.899905,-0.900575,0
546.3333333333325,-133.182373,231.165634,183.533936,-150.322525,-85.035588,56.490315,129.400341,35.19949,40.299961,43.901,-81.899905,-0.900575,0
549.1111111111102,-133.182373,231.165634,183.533936,-150.322525,-85.035588,56.490315,129.400341,35.19949,40.299961,43.901,-81.899905,-0.900575,0
551.888888888888,-133.182373,231.165634,183.533936,-150.322525,-85.035588,56.490315,129.400341,35.19949,40.299961,43.901,-81.899905,-0.900575,0
554.6666666666658,-133.182373,231.165634,183.533936,-150.322525,-85.035588,56.490315,129.400341,35.19949,40.299961,43.901,-81.899905,-0.900575,0
557.4444444444435,-133.182373,231.165634,183.533936,-150.322525,-85.035588,56.490315,129.400341,35.19949,40.299961,43.901,-81.899905,-0.900575,0
560.2222222222213,-133.182373,231.165634,183.533936,-150.322525,-85.035588,56.490315,129.400341,35.19949,40.299961,43.901,-81.899905,-0.900575,0
562.9999999999991,-133.182373,231.165634,183.533936,-150.322525,-85.035588,56.490315,129.400341,35.19949,40.299961,43.901,-81.899905,-0.900575,0
565.7777777777769,-133.182373,231.165634,183.533936,-150.322525,-85.035588,56.490315,129.400341,35.19949,40.299961,43.901,-81.899905,-0.900575,0
568.5555555555546,-133.182373,231.165634,183.533936,-150.322525,-85.035588,56.490315,129.400341,35.19949,40.299961,43.901,-81.899905,-0.900575,0
571.3333333333323,-133.182373,231.165634,183.533936,-150.322525,-85.035588,56.490315,129.400341,35.19949,40.299961,43.901,-81.899905,-0.900575,0
574.1111111111102,-133.182373,231.165634,183.533936,-150.322525,-85.035588,56.490315,129.400341,35.19949,40.299961,43.901,-81.899905,-0.900575,0
576.888888888888,-133.182373,231.165634,183.533936,-150.322525,-85.035588,56.490315,129.400341,35.19949,40.299961,43.901,-81.899905,-0.900575,0
579.6666666666657,-133.182373,231.165634,183.533936,-150.322525,-85.035588,56.490315,129.400341,35.19949,40.299961,43.901,-81.899905,-0.900575,0
582.4444444444434,-133.182373,231.165634,183.533936,-150.322525,-85.035588,56.490315,129.400341,35.19949,40.299961,43.901,-81.899905,-0.900575,0
585.2222222222213,-133.182373,231.165634,183.533936,-150.322525,-85.035588,56.490315,129.400341,35.19949,40.299961,43.901,-81.899905,-0.900575,0
587.9999999999991,-133.182373,231.165634,183.533936,-150.322525,-85.035588,56.490315,129.400341,35.19949,40.299961,43.901,-81.899905,-0.900575,0
590.7777777777768,-133.182373,231.165634,183.533936,-150.322525,-85.035588,56.490315,129.400341,35.19949,40.299961,43.901,-81.899905,-0.900575,0
593.5555555555545,-133.182373,231.165634,183.533936,-150.322525,-85.035588,56.490315,129.400341,35.19949,40.299961,43.901,-81.899905,-0.900575,0
596.3333333333323,-133.182373,231.165634,183.533936,-150.322525,-85.035588,56.490315,129.400341,35.19949,40.299961,43.901,-81.899905,-0.900575,0
599.1111111111102,-133.182373,231.165634,183.533936,-150.322525,-85.035588,56.490315,129.400341,35.19949,40.299961,43.901,-81.899905,-0.900575,0
601.8888888888879,-133.182373,231.165634,183.533936,-150.322525,-85.035588,56.490315,129.400341,35.19949,40.299961,43.901,-81.899905,-0.900575,0
604.6666666666656,-133.182373,231.165634,183.533936,-150.322525,-85.035588,56.490315,129.400341,35.19949,40.299961,43.901,-81.899905,-0.900575,0
607.4444444444434,-133.182373,231.165634,183.533936,-150.322525,-85.035588,56.490315,129.400341,35.19949,40.299961,43.901,-81.899905,-0.900575,0
610.2222222222213,-133.182373,231.165634,183.533936,-150.322525,-85.035588,56.490315,129.400341,35.19949,40.299961,43.901,-81.899905,-0.900575,0
612.999999999999,-133.182373,231.165634,183.533936,-150.322525,-85.035588,56.490315,129.400341,35.19949,40.299961,43.901,-81.899905,-0.900575,0
615.7777777777767,-133.182373,231.165634,183.533936,-150.322525,-85.035588,56.490315,129.400341,35.19949,40.299961,43.901,-81.899905,-0.900575,0
618.5555555555545,-133.182373,231.165634,183.533936,-150.322525,-85.035588,56.490315,129.400341,35.19949,40.299961,43.901,-81.899905,-0.900575,0
621.3333333333323,-133.182373,231.165634,183.533936,-150.322525,-85.035588,56.490315,129.400341,35.19949,40.299961,43.901,-81.899905,-0.900575,0
624.1111111111101,-133.182373,231.165634,183.533936,-150.322525,-85.035588,56.490315,129.400341,35.19949,40.299961,43.901,-81.899905,-0.900575,0
626.8888888888878,-133.182373,231.165634,183.533936,-150.322525,-85.035588,56.490315,129.400341,35.19949,40.299961,43.901,-81.899905,-0.900575,0
629.6666666666656,-133.182373,231.165634,183.533936,-150.322525,-85.035588,56.490315,129.400341,35.19949,40.299961,43.901,-81.899905,-0.900575,0
632.4444444444434,-133.182373,231.165634,183.533936,-150.322525,-85.035588,56.490315,129.400341,35.19949,40.299961,43.901,-81.899905,-0.900575,0
635.2222222222211,-133.182373,231.165634,183.533936,-150.322525,-85.035588,56.490315,129.400341,35.19949,40.299961,43.901,-81.899905,-0.900575,0
637.9999999999989,-133.182373,231.165634,183.533936,-150.322525,-85.035588,56.490315,129.400341,35.19949,40.299961,43.901,-81.899905,-0.900575,0
640.7777777777767,-133.182373,231.165634,183.533936,-150.322525,-85.035588,56.490315,129.400341,35.19949,40.299961,43.901,-81.899905,-0.900575,0
643.5555555555545,-133.182373,231.165634,183.533936,-150.322525,-85.035588,56.490315,129.400341,35.19949,40.299961,43.901,-81.899905,-0.900575,0
646.3333333333322,-133.182373,231.165634,183.533936,-150.322525,-85.035588,56.490315,129.400341,35.19949,40.299961,43.901,-81.899905,-0.900575,0
649.11111111111,-133.182373,231.165634,183.533936,-150.322525,-85.035588,56.490315,129.400341,35.19949,40.299961,43.901,-81.899905,-0.900575,0
651.8888888888878,-133.182373,231.165634,183.533936,-150.322525,-85.035588,56.490315,129.400341,35.19949,40.299961,43.901,-81.899905,-0.900575,0
654.6666666666656,-133.182373,231.165634,183.533936,-150.322525,-85.035588,56.490315,129.400341,35.19949,40.299961,43.901,-81.899905,-0.900575,0
657.4444444444433,-133.182373,231.165634,183.533936,-150.322525,-85.035588,56.490315,129.400341,35.19949,40.299961,43.901,-81.899905,-0.900575,0
660.222222222221,-133.182373,231.165634,183.533936,-150.322525,-85.035588,56.490315,129.400341,35.19949,40.299961,43.901,-81.899905,-0.900575,0
662.9999999999989,-133.182373,231.165634,183.533936,-150.322525,-85.035588,56.490315,129.400341,35.19949,40.299961,43.901,-81.899905,-0.900575,0
665.7777777777767,-133.182373,231.165634,183.533936,-150.322525,-85.035588,56.490315,129.400341,35.19949,40.299961,43.901,-81.899905,-0.900575,0
668.5555555555544,-133.182373,231.165634,183.533936,-150.322525,-85.035588,56.490315,129.400341,35.19949,40.299961,43.901,-81.899905,-0.900575,0
671.3333333333321,-133.182373,231.165634,183.533936,-150.322525,-85.035588,56.490315,129.400341,35.19949,40.299961,43.901,-81.899905,-0.900575,0
674.11111111111,-133.182373,231.165634,183.533936,-150.322525,-85.035588,56.490315,129.400341,35.19949,40.299961,43.901,-81.899905,-0.900575,0
676.8888888888878,-133.182373,231.165634,183.533936,-150.322525,-85.035588,56.490315,129.400341,35.19949,40.299961,43.901,-81.899905,-0.900575,0
679.6666666666655,-133.182373,231.165634,183.533936,-150.322525,-85.035588,56.490315,129.400341,35.19949,40.299961,43.901,-81.899905,-0.900575,0
682.4444444444432,-133.182373,231.165634,183.533936,-150.322525,-85.035588,56.490315,129.400341,35.19949,40.299961,43.901,-81.899905,-0.900575,0
685.222222222221,-133.182373,231.165634,183.533936,-150.322525,-85.035588,56.490315,129.400341,35.19949,40.299961,43.901,-81.899905,-0.900575,0
687.9999999999989,-133.182373,231.165634,183.533936,-150.322525,-85.035588,56.490315,129.400341,35.19949,40.299961,43.901,-81.899905,-0.900575,0
690.7777777777766,-133.182373,231.165634,183.533936,-150.322525,-85.035588,56.490315,129.400341,35.19949,40.299961,43.901,-81.899905,-0.900575,0
693.5555555555543,-133.182373,231.165634,183.533936,-150.322525,-85.035588,56.490315,129.400341,35.19949,40.299961,43.901,-81.899905,-0.900575,0
696.3333333333321,-133.182373,231.165634,183.533936,-150.322525,-85.035588,56.490315,129.400341,35.19949,40.299961,43.901,-81.899905,-0.900575,0
699.11111111111,-133.182373,231.165634,183.533936,-150.322525,-85.035588,56.490315,129.400341,35.19949,40.299961,43.901,-81.899905,-0.900575,0
701.8888888888877,-133.182373,231.165634,183.533936,-150.322525,-85.035588,56.490315,129.400341,35.19949,40.299961,43.901,-81.899905,-0.900575,0
704.6666666666654,-133.182373,231.165634,183.533936,-150.322525,-85.035588,56.490315,129.400341,35.19949,40.299961,43.901,-81.899905,-0.900575,0
707.4444444444432,-133.182373,231.165634,183.533936,-150.322525,-85.035588,56.490315,129.400341,35.19949,40.299961,43.901,-81.899905,-0.900575,0
710.222222222221,-133.182373,231.165634,183.533936,-150.322525,-85.035588,56.490315,129.400341,35.19949,40.299961,43.901,-81.899905,-0.900575,0
712.9999999999987,-133.182373,231.165634,183.533936,-150.322525,-85.035588,56.490315,129.400341,35.19949,40.299961,43.901,-81.899905,-0.900575,0
715.7777777777765,-133.182373,231.165634,183.533936,-150.322525,-85.035588,56.490315,129.400341,35.19949,40.299961,43.901,-81.899905,-0.900575,0
718.5555555555543,-133.182373,231.165634,183.533936,-150.322525,-85.035588,56.490315,129.400341,35.19949,40.299961,43.901,-81.899905,-0.900575,0
721.3333333333321,-133.182373,231.165634,183.533936,-150.322525,-85.035588,56.490315,129.400341,35.19949,40.299961,43.901,-81.899905,-0.900575,0
724.1111111111098,-133.182373,231.165634,183.533936,-150.322525,-85.035588,56.490315,129.400341,35.19949,40.299961,43.901,-81.899905,-0.900575,0
726.8888888888875,-133.182373,231.165634,183.533936,-150.322525,-85.035588,56.490315,129.400341,35.19949,40.299961,43.901,-81.899905,-0.900575,0
729.6666666666654,-133.182373,231.165634,183.533936,-150.322525,-85.035588,56.490315,129.400341,35.19949,40.299961,43.901,-81.899905,-0.900575,0
732.4444444444432,-133.182373,231.165634,183.533936,-150.322525,-85.035588,56.490315,129.400341,35.19949,40.299961,43.901,-81.899905,-0.900575,0
735.2222222222209,-133.182373,231.165634,183.533936,-150.322525,-85.035588,56.490315,129.400341,35.19949,40.299961,43.901,-81.899905,-0.900575,0
737.9999999999986,-133.182373,231.165634,183.533936,-150.322525,-85.035588,56.490315,129.400341,35.19949,40.299961,43.901,-81.899905,-0.900575,0
740.7777777777765,-133.182373,231.165634,183.533936,-150.322525,-85.035588,56.490315,129.400341,35.19949,40.299961,43.901,-81.899905,-0.900575,0
743.5555555555543,-133.182373,231.165634,183.533936,-150.322525,-85.035588,56.490315,129.400341,35.19949,40.299961,43.901,-81.899905,-0.900575,0
746.333333333332,-133.182373,231.165634,183.533936,-150.322525,-85.035588,56.490315,129.400341,35.19949,40.299961,43.901,-81.899905,-0.900575,0
749.1111111111097,-133.182373,231.165634,183.533936,-150.322525,-85.035588,56.490315,129.400341,35.19949,40.299961,43.901,-81.899905,-0.900575,0
751.8888888888875,-133.182373,231.165634,183.533936,-150.322525,-85.035588,56.490315,129.400341,35.19949,40.299961,43.901,-81.899905,-0.900575,0
754.6666666666654,-133.182373,231.165634,183.533936,-150.322525,-85.035588,56.490315,129.400341,35.19949,40.299961,43.901,-81.899905,-0.900575,0
757.4444444444431,-133.182373,231.165634,183.533936,-150.322525,-85.035588,56.490315,129.400341,35.19949,40.299961,43.901,-81.899905,-0.900575,0
760.2222222222208,-133.182373,231.165634,183.533936,-150.322525,-85.035588,56.490315,129.400341,35.19949,40.299961,43.901,-81.899905,-0.900575,0
762.9999999999986,-133.182373,231.165634,183.533936,-150.322525,-85.035588,56.490315,129.400341,35.19949,40.299961,43.901,-81.899905,-0.900575,0
765.7777777777765,-133.182373,231.165634,183.533936,-150.322525,-85.035588,56.490315,129.400341,35.19949,40.299961,43.901,-81.899905,-0.900575,0
768.5555555555542,-133.182373,231.165634,183.533936,-150.322525,-85.035588,56.490315,129.400341,35.19949,40.299961,43.901,-81.899905,-0.900575,0
771.3333333333319,-133.182373,231.165634,183.533936,-150.322525,-85.035588,56.490315,129.400341,35.19949,40.299961,43.901,-81.899905,-0.900575,0
774.1111111111097,-133.182373,231.165634,183.533936,-150.322525,-85.035588,56.490315,129.400341,35.19949,40.299961,43.901,-81.899905,-0.900575,0
776.8888888888875,-133.182373,231.165634,183.533936,-150.322525,-85.035588,56.490315,129.400341,35.19949,40.299961,43.901,-81.899905,-0.900575,0
779.6666666666653,-133.182373,231.165634,183.533936,-150.322525,-85.035588,56.490315,129.400341,35.19949,40.299961,43.901,-81.899905,-0.900575,0
782.444444444443,-133.182373,231.165634,183.533936,-150.322525,-85.035588,56.490315,129.400341,35.19949,40.299961,43.901,-81.899905,-0.900575,0
785.2222222222208,-133.182373,231.165634,183.533936,-150.322525,-85.035588,56.490315,129.400341,35.19949,40.299961,43.901,-81.899905,-0.900575,0
787.9999999999986,-133.182373,231.165634,183.533936,-150.322525,-85.035588,56.490315,129.400341,35.19949,40.299961,43.901,-81.899905,-0.900575,0
790.7777777777764,-133.182373,231.165634,183.533936,-150.322525,-85.035588,56.490315,129.400341,35.19949,40.299961,43.901,-81.899905,-0.900575,0
793.5555555555541,-133.182373,231.165634,183.533936,-150.322525,-85.035588,56.490315,129.400341,35.19949,40.299961,43.901,-81.899905,-0.900575,0
796.3333333333319,-133.182373,231.165634,183.533936,-150.322525,-85.035588,56.490315,129.400341,35.19949,40.299961,43.901,-81.899905,-0.900575,0
799.1111111111097,-133.182373,231.165634,183.533936,-150.322525,-85.035588,56.490315,129.400341,35.19949,40.299961,43.901,-81.899905,-0.900575,0
801.8888888888874,-133.182373,231.165634,183.533936,-150.322525,-85.035588,56.490315,129.400341,35.19949,40.299961,43.901,-81.899905,-0.900575,0
804.6666666666652,-133.182373,231.165634,183.533936,-150.322525,-85.035588,56.490315,129.400341,35.19949,40.299961,43.901,-81.899905,-0.900575,0
807.444444444443,-133.182373,231.165634,183.533936,-150.322525,-85.035588,56.490315,129.400341,35.19949,40.299961,43.901,-81.899905,-0.900575,0
810.2222222222208,-133.182373,231.165634,183.533936,-150.322525,-85.035588,56.490315,129.400341,35.19949,40.299961,43.901,-81.899905,-0.900575,0
812.9999999999985,-133.182373,231.165634,183.533936,-150.322525,-85.035588,56.490315,129.400341,35.19949,40.299961,43.901,-81.899905,-0.900575,0
815.7777777777762,-133.182373,231.165634,183.533936,-150.322525,-85.035588,56.490315,129.400341,35.19949,40.299961,43.901,-81.899905,-0.900575,0
818.5555555555541,-133.182373,231.165634,183.533936,-150.322525,-85.035588,56.490315,129.400341,35.19949,40.299961,43.901,-81.899905,-0.900575,0
821.3333333333319,-133.182373,231.165634,183.533936,-150.322525,-85.035588,56.490315,129.400341,35.19949,40.299961,43.901,-81.899905,-0.900575,0
824.1111111111096,-133.182373,231.165634,183.533936,-150.322525,-85.035588,56.490315,129.400341,35.19949,40.299961,43.901,-81.899905,-0.900575,0
826.8888888888873,-133.182373,231.165634,183.533936,-150.322525,-85.035588,56.490315,129.400341,35.19949,40.299961,43.901,-81.899905,-0.900575,0
829.6666666666652,-133.182373,231.165634,183.533936,-150.322525,-85.035588,56.490315,129.400341,35.19949,40.299961,43.901,-81.899905,-0.900575,0
832.444444444443,-133.182373,231.165634,183.533936,-150.322525,-85.035588,56.490315,129.400341,35.19949,40.299961,43.901,-81.899905,-0.900575,0
835.2222222222207,-133.182373,231.165634,183.533936,-150.322525,-85.035588,56.490315,129.400341,35.19949,40.299961,43.901,-81.899905,-0.900575,0
837.9999999999984,-133.182373,231.165634,183.533936,-150.322525,-85.035588,56.490315,129.400341,35.19949,40.299961,43.901,-81.899905,-0.900575,0
840.7777777777762,-133.182373,231.165634,183.533936,-150.322525,-85.035588,56.490315,129.400341,35.19949,40.299961,43.901,-81.899905,-0.900575,0
843.5555555555541,-133.182373,231.165634,183.533936,-150.322525,-85.035588,56.490315,129.400341,35.19949,40.299961,43.901,-81.899905,-0.900575,0
846.3333333333318,-133.182373,231.165634,183.533936,-150.322525,-85.035588,56.490315,129.400341,35.19949,40.299961,43.901,-81.899905,-0.900575,0
849.1111111111095,-133.182373,231.165634,183.533936,-150.322525,-85.035588,56.490315,129.400341,35.19949,40.299961,43.901,-81.899905,-0.900575,0
851.8888888888873,-133.182373,231.165634,183.533936,-150.322525,-85.035588,56.490315,129.400341,35.19949,40.299961,43.901,-81.899905,-0.900575,0
854.6666666666652,-133.182373,231.165634,183.533936,-150.322525,-85.035588,56.490315,129.400341,35.19949,40.299961,43.901,-81.899905,-0.900575,0
857.4444444444429,-133.182373,231.165634,183.533936,-150.322525,-85.035588,56.490315,129.400341,35.19949,40.299961,43.901,-81.899905,-0.900575,0
860.2222222222206,-133.182373,231.165634,183.533936,-150.322525,-85.035588,56.490315,129.400341,35.19949,40.299961,43.901,-81.899905,-0.900575,0
862.9999999999984,-133.182373,231.165634,183.533936,-150.322525,-85.035588,56.490315,129.400341,35.19949,40.299961,43.901,-81.899905,-0.900575,0
865.7777777777762,-133.182373,231.165634,183.533936,-150.322525,-85.035588,56.490315,129.400341,35.19949,40.299961,43.901,-81.899905,-0.900575,0
868.555555555554,-133.182373,231.165634,183.533936,-150.322525,-85.035588,56.490315,129.400341,35.19949,40.299961,43.901,-81.899905,-0.900575,0
871.3333333333317,-133.182373,231.165634,183.533936,-150.322525,-85.035588,56.490315,129.400341,35.19949,40.299961,43.901,-81.899905,-0.900575,0
874.1111111111095,-133.182373,231.165634,183.533936,-150.322525,-85.035588,56.490315,129.400341,35.19949,40.299961,43.901,-81.899905,-0.900575,0
876.8888888888873,-133.182373,231.165634,183.533936,-150.322525,-85.035588,56.490315,129.400341,35.19949,40.299961,43.901,-81.899905,-0.900575,0
879.666666666665,-133.182373,231.165634,183.533936,-150.322525,-85.035588,56.490315,129.400341,35.19949,40.299961,43.901,-81.899905,-0.900575,0
882.4444444444428,-133.182373,231.165634,183.533936,-150.322525,-85.035588,56.490315,129.400341,35.19949,40.299961,43.901,-81.899905,-0.900575,0
885.2222222222206,-133.182373,231.165634,183.533936,-150.322525,-85.035588,56.490315,129.400341,35.19949,40.299961,43.901,-81.899905,-0.900575,0
887.9999999999984,-133.182373,231.165634,183.533936,-150.322525,-85.035588,56.490315,129.400341,35.19949,40.299961,43.901,-81.899905,-0.900575,0
890.7777777777761,-133.182373,231.165634,183.533936,-150.322525,-85.035588,56.490315,129.400341,35.19949,40.299961,43.901,-81.899905,-0.900575,0
893.5555555555538,-133.182373,231.165634,183.533936,-150.322525,-85.035588,56.490315,129.400341,35.19949,40.299961,43.901,-81.899905,-0.900575,0
896.3333333333317,-133.182373,231.165634,183.533936,-150.322525,-85.035588,56.490315,129.400341,35.19949,40.299961,43.901,-81.899905,-0.900575,0
899.1111111111095,-133.182373,231.165634,183.533936,-150.322525,-85.035588,56.490315,129.400341,35.19949,40.299961,43.901,-81.899905,-0.900575,0
901.8888888888872,-133.182373,231.165634,183.533936,-150.322525,-85.035588,56.490315,129.400341,35.19949,40.299961,43.901,-81.899905,-0.900575,0
904.6666666666648,-133.182373,231.165634,183.533936,-150.322525,-85.035588,56.490315,129.400341,35.19949,40.299961,43.901,-81.899905,-0.900575,0
907.4444444444428,-133.182373,231.165634,183.533936,-150.322525,-85.035588,56.490315,129.400341,35.19949,40.299961,43.901,-81.899905,-0.900575,0
910.2222222222206,-133.182373,231.165634,183.533936,-150.322525,-85.035588,56.490315,129.400341,35.19949,40.299961,43.901,-81.899905,-0.900575,0
912.9999999999984,-133.182373,231.165634,183.533936,-150.322525,-85.035588,56.490315,129.400341,35.19949,40.299961,43.901,-81.899905,-0.900575,0
915.777777777776,-133.182373,231.165634,183.533936,-150.322525,-85.035588,56.490315,129.400341,35.19949,40.299961,43.901,-81.899905,-0.900575,0
918.5555555555538,-133.182373,231.165634,183.533936,-150.322525,-85.035588,56.490315,129.400341,35.19949,40.299961,43.901,-81.899905,-0.900575,0
921.3333333333316,-133.182373,231.165634,183.533936,-150.322525,-85.035588,56.490315,129.400341,35.19949,40.299961,43.901,-81.899905,-0.900575,0
924.1111111111094,-133.182373,231.165634,183.533936,-150.322525,-85.035588,56.490315,129.400341,35.19949,40.299961,43.901,-81.899905,-0.900575,0
926.8888888888872,-133.182373,231.165634,183.533936,-150.322525,-85.035588,56.490315,129.400341,35.19949,40.299961,43.901,-81.899905,-0.900575,0
929.6666666666648,-133.182373,231.165634,183.533936,-150.322525,-85.035588,56.490315,129.400341,35.19949,40.299961,43.901,-81.899905,-0.900575,0
932.4444444444428,-133.182373,231.165634,183.533936,-150.322525,-85.035588,56.490315,129.400341,35.19949,40.299961,43.901,-81.899905,-0.900575,0
935.2222222222204,-133.182373,231.165634,183.533936,-150.322525,-85.035588,56.490315,129.400341,35.19949,40.299961,43.901,-81.899905,-0.900575,0
937.9999999999982,-133.182373,231.165634,183.533936,-150.322525,-85.035588,56.490315,129.400341,35.19949,40.299961,43.901,-81.899905,-0.900575,0
940.777777777776,-133.182373,231.165634,183.533936,-150.322525,-85.035588,56.490315,129.400341,35.19949,40.299961,43.901,-81.899905,-0.900575,0
943.5555555555538,-133.182373,231.165634,183.533936,-150.322525,-85.035588,56.490315,129.400341,35.19949,40.299961,43.901,-81.899905,-0.900575,0
946.3333333333316,-133.182373,231.165634,183.533936,-150.322525,-85.035588,56.490315,129.400341,35.19949,40.299961,43.901,-81.899905,-0.900575,0
949.1111111111092,-133.182373,231.165634,183.533936,-150.322525,-85.035588,56.490315,129.400341,35.19949,40.299961,43.901,-81.899905,-0.900575,0
951.8888888888872,-133.182373,231.165634,183.533936,-150.322525,-85.035588,56.490315,129.400341,35.19949,40.299961,43.901,-81.899905,-0.900575,0
954.6666666666648,-133.182373,231.165634,183.533936,-150.322525,-85.035588,56.490315,129.400341,35.19949,40.299961,43.901,-81.899905,-0.900575,0
957.4444444444426,-133.182373,231.165634,183.533936,-150.322525,-85.035588,56.490315,129.400341,35.19949,40.299961,43.901,-81.899905,-0.900575,0
960.2222222222204,-133.182373,231.165634,183.533936,-150.322525,-85.035588,56.490315,129.400341,35.19949,40.299961,43.901,-81.899905,-0.900575,0
962.9999999999982,-133.182373,231.165634,183.533936,-150.322525,-85.035588,56.490315,129.400341,35.19949,40.299961,43.901,-81.899905,-0.900575,0
965.777777777776,-133.182373,231.165634,183.533936,-150.322525,-85.035588,56.490315,129.400341,35.19949,40.299961,43.901,-81.899905,-0.900575,0
968.5555555555536,-133.182373,231.165634,183.533936,-150.322525,-85.035588,56.490315,129.400341,35.19949,40.299961,43.901,-81.899905,-0.900575,0
971.3333333333314,-133.182373,231.165634,183.533936,-150.322525,-85.035588,56.490315,129.400341,35.19949,40.299961,43.901,-81.899905,-0.900575,0
974.1111111111092,-133.182373,231.165634,183.533936,-150.322525,-85.035588,56.490315,129.400341,35.19949,40.299961,43.901,-81.899905,-0.900575,0
976.8888888888872,-133.182373,231.165634,183.533936,-150.322525,-85.035588,56.490315,129.400341,35.19949,40.299961,43.901,-81.899905,-0.900575,0
979.6666666666648,-133.182373,231.165634,183.533936,-150.322525,-85.035588,56.490315,129.400341,35.19949,40.299961,43.901,-81.899905,-0.900575,0
982.4444444444424,-133.182373,231.165634,183.533936,-150.322525,-85.035588,56.490315,129.400341,35.19949,40.299961,43.901,-81.899905,-0.900575,0
985.2222222222204,-133.182373,231.165634,183.533936,-150.322525,-85.035588,56.490315,129.400341,35.19949,40.299961,43.901,-81.899905,-0.900575,0
987.9999999999982,-133.182373,231.165634,183.533936,-150.322525,-85.035588,56.490315,129.400341,35.19949,40.299961,43.901,-81.899905,-0.900575,0
990.777777777776,-133.182373,231.165634,183.533936,-150.322525,-85.035588,56.490315,129.400341,35.19949,40.299961,43.901,-81.899905,-0.900575,0
993.5555555555536,-133.182373,231.165634,183.533936,-150.322525,-85.035588,56.490315,129.400341,35.19949,40.299961,43.901,-81.899905,-0.900575,0
996.3333333333314,-133.182373,231.165634,183.533936,-150.322525,-85.035588,56.490315,129.400341,35.19949,40.299961,43.901,-81.899905,-0.900575,0
999.1111111111092,-133.182373,231.165634,183.533936,-150.322525,-85.035588,56.490315,129.400341,35.19949,40.299961,43.901,-81.899905,-0.900575,0
1001.888888888887,-133.182373,231.165634,183.533936,-150.322525,-85.035588,56.490315,129.400341,35.19949,40.299961,43.901,-81.899905,-0.900575,0
1004.6666666666648,-133.182373,231.165634,183.533936,-150.322525,-85.035588,56.490315,129.400341,35.19949,40.299961,43.901,-81.899905,-0.900575,0
1007.4444444444424,-133.182373,231.165634,183.533936,-150.322525,-85.035588,56.490315,129.400341,35.19949,40.299961,43.901,-81.899905,-0.900575,0
1010.2222222222204,-133.182373,231.165634,183.533936,-150.322525,-85.035588,56.490315,129.400341,35.19949,40.299961,43.901,-81.899905,-0.900575,0
1012.999999999998,-133.182373,231.165634,183.533936,-150.322525,-85.035588,56.490315,129.400341,35.19949,40.299961,43.901,-81.899905,-0.900575,0
1015.7777777777758,-133.182373,231.165634,183.533936,-150.322525,-85.035588,56.490315,129.400341,35.19949,40.299961,43.901,-81.899905,-0.900575,0
1018.5555555555536,-133.182373,231.165634,183.533936,-150.322525,-85.035588,56.490315,129.400341,35.19949,40.299961,43.901,-81.899905,-0.900575,0
1021.3333333333314,-133.182373,231.165634,183.533936,-150.322525,-85.035588,56.490315,129.400341,35.19949,40.299961,43.901,-81.899905,-0.900575,0
1024.111111111109,-133.182373,231.165634,183.533936,-150.322525,-85.035588,56.490315,129.400341,35.19949,40.299961,43.901,-81.899905,-0.900575,0
1026.8888888888869,-133.182373,231.165634,183.533936,-150.322525,-85.035588,56.490315,129.400341,35.19949,40.299961,43.901,-81.899905,-0.900575,0
1029.6666666666647,-133.182373,231.165634,183.533936,-150.322525,-85.035588,56.490315,129.400341,35.19949,40.299961,43.901,-81.899905,-0.900575,0
1032.4444444444423,-133.182373,231.165634,183.533936,-150.322525,-85.035588,56.490315,129.400341,35.19949,40.299961,43.901,-81.899905,-0.900575,0
1035.2222222222204,-133.182373,231.165634,183.533936,-150.322525,-85.035588,56.490315,129.400341,35.19949,40.299961,43.901,-81.899905,-0.900575,0
1037.999999999998,-133.182373,231.165634,183.533936,-150.322525,-85.035588,56.490315,129.400341,35.19949,40.299961,43.901,-81.899905,-0.900575,0
1040.7777777777758,-133.182373,231.165634,183.533936,-150.322525,-85.035588,56.490315,129.400341,35.19949,40.299961,43.901,-81.899905,-0.900575,0
1043.5555555555536,-133.182373,231.165634,183.533936,-150.322525,-85.035588,56.490315,129.400341,35.19949,40.299961,43.901,-81.899905,-0.900575,0
1046.3333333333312,-133.182373,231.165634,183.533936,-150.322525,-85.035588,56.490315,129.400341,35.19949,40.299961,43.901,-81.899905,-0.900575,0
1049.111111111109,-133.182373,231.165634,183.533936,-150.322525,-85.035588,56.490315,129.400341,35.19949,40.299961,43.901,-81.899905,-0.900575,0
1051.8888888888869,-133.182373,231.165634,183.533936,-150.322525,-85.035588,56.490315,129.400341,35.19949,40.299961,43.901,-81.899905,-0.900575,0
1054.6666666666647,-133.182373,231.165634,183.533936,-150.322525,-85.035588,56.490315,129.400341,35.19949,40.299961,43.901,-81.899905,-0.900575,0
1057.4444444444423,-133.182373,231.165634,183.533936,-150.322525,-85.035588,56.490315,129.400341,35.19949,40.299961,43.901,-81.899905,-0.900575,0
1060.22222222222,-133.182373,231.165634,183.533936,-150.322525,-85.035588,56.490315,129.400341,35.19949,40.299961,43.901,-81.899905,-0.900575,0
1062.999999999998,-133.182373,231.165634,183.533936,-150.322525,-85.035588,56.490315,129.400341,35.19949,40.299961,43.901,-81.899905,-0.900575,0
1065.7777777777758,-133.182373,231.165634,183.533936,-150.322525,-85.035588,56.490315,129.400341,35.19949,40.299961,43.901,-81.899905,-0.900575,0
1068.5555555555534,-133.182373,231.165634,183.533936,-150.322525,-85.035588,56.490315,129.400341,35.19949,40.299961,43.901,-81.899905,-0.900575,0
1071.3333333333312,-133.182373,231.165634,183.533936,-150.322525,-85.035588,56.490315,129.400341,35.19949,40.299961,43.901,-81.899905,-0.900575,0
1074.111111111109,-133.182373,231.165634,183.533936,-150.322525,-85.035588,56.490315,129.400341,35.19949,40.299961,43.901,-81.899905,-0.900575,0
1076.8888888888869,-133.182373,231.165634,183.533936,-150.322525,-85.035588,56.490315,129.400341,35.19949,40.299961,43.901,-81.899905,-0.900575,0
1079.6666666666647,-133.182373,231.165634,183.533936,-150.322525,-85.035588,56.490315,129.400341,35.19949,40.299961,43.901,-81.899905,-0.900575,0
1082.4444444444423,-133.182373,231.165634,183.533936,-150.322525,-85.035588,56.490315,129.400341,35.19949,40.299961,43.901,-81.899905,-0.900575,0
1085.22222222222,-133.182373,231.165634,183.533936,-150.322525,-85.035588,56.490315,129.400341,35.19949,40.299961,43.901,-81.899905,-0.900575,0
1087.999999999998,-133.182373,231.165634,183.533936,-150.322525,-85.035588,56.490315,129.400341,35.19949,40.299961,43.901,-81.899905,-0.900575,0
1090.7777777777756,-133.182373,231.165634,183.533936,-150.322525,-85.035588,56.490315,129.400341,35.19949,40.299961,43.901,-81.899905,-0.900575,0
1093.5555555555534,-133.182373,231.165634,183.533936,-150.322525,-85.035588,56.490315,129.400341,35.19949,40.299961,43.901,-81.899905,-0.900575,0
1096.3333333333312,-133.182373,231.165634,183.533936,-150.322525,-85.035588,56.490315,129.400341,35.19949,40.299961,43.901,-81.899905,-0.900575,0
1099.111111111109,-133.182373,231.165634,183.533936,-150.322525,-85.035588,56.490315,129.400341,35.19949,40.299961,43.901,-81.899905,-0.900575,0
1101.8888888888869,-133.182373,231.165634,183.533936,-150.322525,-85.035588,56.490315,129.400341,35.19949,40.299961,43.901,-81.899905,-0.900575,0
1104.6666666666645,-133.182373,231.165634,183.533936,-150.322525,-85.035588,56.490315,129.400341,35.19949,40.299961,43.901,-81.899905,-0.900575,0
1107.4444444444423,-133.182373,231.165634,183.533936,-150.322525,-85.035588,56.490315,129.400341,35.19949,40.299961,43.901,-81.899905,-0.900575,0
1110.22222222222,-133.182373,231.165634,183.533936,-150.322525,-85.035588,56.490315,129.400341,35.19949,40.299961,43.901,-81.899905,-0.900575,0
1112.9999999999975,-133.182373,231.165634,183.533936,-150.322525,-85.035588,56.490315,129.400341,35.19949,40.299961,43.901,-81.899905,-0.900575,0
1115.7777777777756,-133.182373,231.165634,183.533936,-150.322525,-85.035588,56.490315,129.400341,35.19949,40.299961,43.901,-81.899905,-0.900575,0
1118.5555555555534,-133.182373,231.165634,183.533936,-150.322525,-85.035588,56.490315,129.400341,35.19949,40.299961,43.901,-81.899905,-0.900575,0
1121.3333333333312,-133.182373,231.165634,183.533936,-150.322525,-85.035588,56.490315,129.400341,35.19949,40.299961,43.901,-81.899905,-0.900575,0
1124.111111111109,-133.182373,231.165634,183.533936,-150.322525,-85.035588,56.490315,129.400341,35.19949,40.299961,43.901,-81.899905,-0.900575,0
1126.8888888888866,-133.182373,231.165634,183.533936,-150.322525,-85.035588,56.490315,129.400341,35.19949,40.299961,43.901,-81.899905,-0.900575,0
1129.6666666666645,-133.182373,231.165634,183.533936,-150.322525,-85.035588,56.490315,129.400341,35.19949,40.299961,43.901,-81.899905,-0.900575,0
1132.4444444444423,-133.182373,231.165634,183.533936,-150.322525,-85.035588,56.490315,129.400341,35.19949,40.299961,43.901,-81.899905,-0.900575,0
1135.22222222222,-133.182373,231.165634,183.533936,-150.322525,-85.035588,56.490315,129.400341,35.19949,40.299961,43.901,-81.899905,-0.900575,0
1137.9999999999975,-133.182373,231.165634,183.533936,-150.322525,-85.035588,56.490315,129.400341,35.19949,40.299961,43.901,-81.899905,-0.900575,0
1140.7777777777756,-133.182373,231.165634,183.533936,-150.322525,-85.035588,56.490315,129.400341,35.19949,40.299961,43.901,-81.899905,-0.900575,0
1143.5555555555534,-133.182373,231.165634,183.533936,-150.322525,-85.035588,56.490315,129.400341,35.19949,40.299961,43.901,-81.899905,-0.900575,0
1146.3333333333312,-133.182373,231.165634,183.533936,-150.322525,-85.035588,56.490315,129.400341,35.19949,40.299961,43.901,-81.899905,-0.900575,0
1149.1111111111088,-133.182373,231.165634,183.533936,-150.322525,-85.035588,56.490315,129.400341,35.19949,40.299961,43.901,-81.899905,-0.900575,0
1151.8888888888866,-133.182373,231.165634,183.533936,-150.322525,-85.035588,56.490315,129.400341,35.19949,40.299961,43.901,-81.899905,-0.900575,0
1154.6666666666645,-133.182373,231.165634,183.533936,-150.322525,-85.035588,56.490315,129.400341,35.19949,40.299961,43.901,-81.899905,-0.900575,0
1157.444444444442,-133.182373,231.165634,183.533936,-150.322525,-85.035588,56.490315,129.400341,35.19949,40.299961,43.901,-81.899905,-0.900575,0
1160.22222222222,-133.182373,231.165634,183.533936,-150.322525,-85.035588,56.490315,129.400341,35.19949,40.299961,43.901,-81.899905,-0.900575,0
1162.9999999999975,-133.182373,231.165634,183.533936,-150.322525,-85.035588,56.490315,129.400341,35.19949,40.299961,43.901,-81.899905,-0.900575,0
1165.7777777777756,-133.182373,231.165634,183.533936,-150.322525,-85.035588,56.490315,129.400341,35.19949,40.299961,43.901,-81.899905,-0.900575,0
1168.5555555555534,-133.182373,231.165634,183.533936,-150.322525,-85.035588,56.490315,129.400341,35.19949,40.299961,43.901,-81.899905,-0.900575,0
1171.333333333331,-133.182373,231.165634,183.533936,-150.322525,-85.035588,56.490315,129.400341,35.19949,40.299961,43.901,-81.899905,-0.900575,0
1174.1111111111088,-133.182373,231.165634,183.533936,-150.322525,-85.035588,56.490315,129.400341,35.19949,40.299961,43.901,-81.899905,-0.900575,0
1176.8888888888866,-133.182373,231.165634,183.533936,-150.322525,-85.035588,56.490315,129.400341,35.19949,40.299961,43.901,-81.899905,-0.900575,0
1179.6666666666642,-133.182373,231.165634,183.533936,-150.322525,-85.035588,56.490315,129.400341,35.19949,40.299961,43.901,-81.899905,-0.900575,0
1182.444444444442,-133.182373,231.165634,183.533936,-150.322525,-85.035588,56.490315,129.400341,35.19949,40.299961,43.901,-81.899905,-0.900575,0
1185.22222222222,-133.182373,231.165634,183.533936,-150.322525,-85.035588,56.490315,129.400341,35.19949,40.299961,43.901,-81.899905,-0.900575,0
1187.9999999999975,-133.182373,231.165634,183.533936,-150.322525,-85.035588,56.490315,129.400341,35.19949,40.299961,43.901,-81.899905,-0.900575,0
1190.7777777777756,-133.182373,231.165634,183.533936,-150.322525,-85.035588,56.490315,129.400341,35.19949,40.299961,43.901,-81.899905,-0.900575,0
1193.5555555555532,-133.182373,231.165634,183.533936,-150.322525,-85.035588,56.490315,129.400341,35.19949,40.299961,43.901,-81.899905,-0.900575,0
1196.333333333331,-133.182373,231.165634,183.533936,-150.322525,-85.035588,56.490315,129.400341,35.19949,40.299961,43.901,-81.899905,-0.900575,0
1199.1111111111088,-133.182373,231.165634,183.533936,-150.322525,-85.035588,56.490315,129.400341,35.19949,40.299961,43.901,-81.899905,-0.900575,0
1201.8888888888864,-133.182373,231.165634,183.533936,-150.322525,-85.035588,56.490315,129.400341,35.19949,40.299961,43.901,-81.899905,-0.900575,0
1204.6666666666642,-133.182373,231.165634,183.533936,-150.322525,-85.035588,56.490315,129.400341,35.19949,40.299961,43.901,-81.899905,-0.900575,0
1207.444444444442,-133.182373,231.165634,183.533936,-150.322525,-85.035588,56.490315,129.400341,35.19949,40.299961,43.901,-81.899905,-0.900575,0
1210.22222222222,-133.182373,231.165634,183.533936,-150.322525,-85.035588,56.490315,129.400341,35.19949,40.299961,43.901,-81.899905,-0.900575,0
1212.9999999999975,-133.182373,231.165634,183.533936,-150.322525,-85.035588,56.490315,129.400341,35.19949,40.299961,43.901,-81.899905,-0.900575,0
1215.777777777775,-133.182373,231.165634,183.533936,-150.322525,-85.035588,56.490315,129.400341,35.19949,40.299961,43.901,-81.899905,-0.900575,0
1218.5555555555532,-133.182373,231.165634,183.533936,-150.322525,-85.035588,56.490315,129.400341,35.19949,40.299961,43.901,-81.899905,-0.900575,0
1221.333333333331,-133.182373,231.165634,183.533936,-150.322525,-85.035588,56.490315,129.400341,35.19949,40.299961,43.901,-81.899905,-0.900575,0
1224.1111111111086,-133.182373,231.165634,183.533936,-150.322525,-85.035588,56.490315,129.400341,35.19949,40.299961,43.901,-81.899905,-0.900575,0
1226.8888888888864,-133.182373,231.165634,183.533936,-150.322525,-85.035588,56.490315,129.400341,35.19949,40.299961,43.901,-81.899905,-0.900575,0
1229.6666666666642,-133.182373,231.165634,183.533936,-150.322525,-85.035588,56.490315,129.400341,35.19949,40.299961,43.901,-81.899905,-0.900575,0
1232.444444444442,-133.182373,231.165634,183.533936,-150.322525,-85.035588,56.490315,129.400341,35.19949,40.299961,43.901,-81.899905,-0.900575,0
1235.22222222222,-133.182373,231.165634,183.533936,-150.322525,-85.035588,56.490315,129.400341,35.19949,40.299961,43.901,-81.899905,-0.900575,0
1237.9999999999975,-133.182373,231.165634,183.533936,-150.322525,-85.035588,56.490315,129.400341,35.19949,40.299961,43.901,-81.899905,-0.900575,0
1240.777777777775,-133.182373,231.165634,183.533936,-150.322525,-85.035588,56.490315,129.400341,35.19949,40.299961,43.901,-81.899905,-0.900575,0
1243.5555555555532,-133.182373,231.165634,183.533936,-150.322525,-85.035588,56.490315,129.400341,35.19949,40.299961,43.901,-81.899905,-0.900575,0
1246.3333333333308,-133.182373,231.165634,183.533936,-150.322525,-85.035588,56.490315,129.400341,35.19949,40.299961,43.901,-81.899905,-0.900575,0
1249.1111111111086,-133.182373,231.165634,183.533936,-150.322525,-85.035588,56.490315,129.400341,35.19949,40.299961,43.901,-81.899905,-0.900575,0
1251.8888888888864,-133.182373,231.165634,183.533936,-150.322525,-85.035588,56.490315,129.400341,35.19949,40.299961,43.901,-81.899905,-0.900575,0
1254.6666666666642,-133.182373,231.165634,183.533936,-150.322525,-85.035588,56.490315,129.400341,35.19949,40.299961,43.901,-81.899905,-0.900575,0
1257.444444444442,-133.182373,231.165634,183.533936,-150.322525,-85.035588,56.490315,129.400341,35.19949,40.299961,43.901,-81.899905,-0.900575,0
1260.2222222222197,-133.182373,231.165634,183.533936,-150.322525,-85.035588,56.490315,129.400341,35.19949,40.299961,43.901,-81.899905,-0.900575,0
1262.9999999999975,-133.182373,231.165634,183.533936,-150.322525,-85.035588,56.490315,129.400341,35.19949,40.299961,43.901,-81.899905,-0.900575,0
1265.777777777775,-133.182373,231.165634,183.533936,-150.322525,-85.035588,56.490315,129.400341,35.19949,40.299961,43.901,-81.899905,-0.900575,0
1268.555555555553,-133.182373,231.165634,183.533936,-150.322525,-85.035588,56.490315,129.400341,35.19949,40.299961,43.901,-81.899905,-0.900575,0
1271.3333333333308,-133.182373,231.165634,183.533936,-150.322525,-85.035588,56.490315,129.400341,35.19949,40.299961,43.901,-81.899905,-0.900575,0
1274.1111111111086,-133.182373,231.165634,183.533936,-150.322525,-85.035588,56.490315,129.400341,35.19949,40.299961,43.901,-81.899905,-0.900575,0
1276.8888888888864,-133.182373,231.165634,183.533936,-150.322525,-85.035588,56.490315,129.400341,35.19949,40.299961,43.901,-81.899905,-0.900575,0
1279.6666666666642,-133.182373,231.165634,183.533936,-150.322525,-85.035588,56.490315,129.400341,35.19949,40.299961,43.901,-81.899905,-0.900575,0
1282.4444444444418,-133.182373,231.165634,183.533936,-150.322525,-85.035588,56.490315,129.400341,35.19949,40.299961,43.901,-81.899905,-0.900575,0
1285.2222222222197,-133.182373,231.165634,183.533936,-150.322525,-85.035588,56.490315,129.400341,35.19949,40.299961,43.901,-81.899905,-0.900575,0
1287.9999999999975,-133.182373,231.165634,183.533936,-150.322525,-85.035588,56.490315,129.400341,35.19949,40.299961,43.901,-81.899905,-0.900575,0
1290.777777777775,-133.182373,231.165634,183.533936,-150.322525,-85.035588,56.490315,129.400341,35.19949,40.299961,43.901,-81.899905,-0.900575,0
1293.555555555553,-133.182373,231.165634,183.533936,-150.322525,-85.035588,56.490315,129.400341,35.19949,40.299961,43.901,-81.899905,-0.900575,0
1296.3333333333308,-133.182373,231.165634,183.533936,-150.322525,-85.035588,56.490315,129.400341,35.19949,40.299961,43.901,-81.899905,-0.900575,0
1299.1111111111086,-133.182373,231.165634,183.533936,-150.322525,-85.035588,56.490315,129.400341,35.19949,40.299961,43.901,-81.899905,-0.900575,0
1301.8888888888864,-133.182373,231.165634,183.533936,-150.322525,-85.035588,56.490315,129.400341,35.19949,40.299961,43.901,-81.899905,-0.900575,0
1304.666666666664,-133.182373,231.165634,183.533936,-150.322525,-85.035588,56.490315,129.400341,35.19949,40.299961,43.901,-81.899905,-0.900575,0
1307.4444444444418,-133.182373,231.165634,183.533936,-150.322525,-85.035588,56.490315,129.400341,35.19949,40.299961,43.901,-81.899905,-0.900575,0
1310.2222222222197,-133.182373,231.165634,183.533936,-150.322525,-85.035588,56.490315,129.400341,35.19949,40.299961,43.901,-81.899905,-0.900575,0
1312.9999999999973,-133.182373,231.165634,183.533936,-150.322525,-85.035588,56.490315,129.400341,35.19949,40.299961,43.901,-81.899905,-0.900575,0
1315.777777777775,-133.182373,231.165634,183.533936,-150.322525,-85.035588,56.490315,129.400341,35.19949,40.299961,43.901,-81.899905,-0.900575,0
1318.555555555553,-133.182373,231.165634,183.533936,-150.322525,-85.035588,56.490315,129.400341,35.19949,40.299961,43.901,-81.899905,-0.900575,0
1321.3333333333308,-133.182373,231.165634,183.533936,-150.322525,-85.035588,56.490315,129.400341,35.19949,40.299961,43.901,-81.899905,-0.900575,0
1324.1111111111086,-133.182373,231.165634,183.533936,-150.322525,-85.035588,56.490315,129.400341,35.19949,40.299961,43.901,-81.899905,-0.900575,0
1326.8888888888862,-133.182373,231.165634,183.533936,-150.322525,-85.035588,56.490315,129.400341,35.19949,40.299961,43.901,-81.899905,-0.900575,0
1329.666666666664,-133.182373,231.165634,183.533936,-150.322525,-85.035588,56.490315,129.400341,35.19949,40.299961,43.901,-81.899905,-0.900575,0
1332.4444444444418,-133.182373,231.165634,183.533936,-150.322525,-85.035588,56.490315,129.400341,35.19949,40.299961,43.901,-81.899905,-0.900575,0
1335.2222222222194,-133.182373,231.165634,183.533936,-150.322525,-85.035588,56.490315,129.400341,35.19949,40.299961,43.901,-81.899905,-0.900575,0
1337.9999999999973,-133.182373,231.165634,183.533936,-150.322525,-85.035588,56.490315,129.400341,35.19949,40.299961,43.901,-81.899905,-0.900575,0
1340.777777777775,-133.182373,231.165634,183.533936,-150.322525,-85.035588,56.490315,129.400341,35.19949,40.299961,43.901,-81.899905,-0.900575,0
1343.555555555553,-133.182373,231.165634,183.533936,-150.322525,-85.035588,56.490315,129.400341,35.19949,40.299961,43.901,-81.899905,-0.900575,0
1346.3333333333308,-133.182373,231.165634,183.533936,-150.322525,-85.035588,56.490315,129.400341,35.19949,40.299961,43.901,-81.899905,-0.900575,0
1349.1111111111084,-133.182373,231.165634,183.533936,-150.322525,-85.035588,56.490315,129.400341,35.19949,40.299961,43.901,-81.899905,-0.900575,0
1351.8888888888862,-133.182373,231.165634,183.533936,-150.322525,-85.035588,56.490315,129.400341,35.19949,40.299961,43.901,-81.899905,-0.900575,0
1354.666666666664,-133.182373,231.165634,183.533936,-150.322525,-85.035588,56.490315,129.400341,35.19949,40.299961,43.901,-81.899905,-0.900575,0
1357.4444444444416,-133.182373,231.165634,183.533936,-150.322525,-85.035588,56.490315,129.400341,35.19949,40.299961,43.901,-81.899905,-0.900575,0
1360.2222222222194,-133.182373,231.165634,183.533936,-150.322525,-85.035588,56.490315,129.400341,35.19949,40.299961,43.901,-81.899905,-0.900575,0
1362.9999999999973,-133.182373,231.165634,183.533936,-150.322525,-85.035588,56.490315,129.400341,35.19949,40.299961,43.901,-81.899905,-0.900575,0
1365.777777777775,-133.182373,231.165634,183.533936,-150.322525,-85.035588,56.490315,129.400341,35.19949,40.299961,43.901,-81.899905,-0.900575,0
1368.555555555553,-133.182373,231.165634,183.533936,-150.322525,-85.035588,56.490315,129.400341,35.19949,40.299961,43.901,-81.899905,-0.900575,0
1371.3333333333303,-133.182373,231.165634,183.533936,-150.322525,-85.035588,56.490315,129.400341,35.19949,40.299961,43.901,-81.899905,-0.900575,0
1374.1111111111084,-133.182373,231.165634,183.533936,-150.322525,-85.035588,56.490315,129.400341,35.19949,40.299961,43.901,-81.899905,-0.900575,0
1376.8888888888862,-133.182373,231.165634,183.533936,-150.322525,-85.035588,56.490315,129.400341,35.19949,40.299961,43.901,-81.899905,-0.900575,0
1379.6666666666638,-133.182373,231.165634,183.533936,-150.322525,-85.035588,56.490315,129.400341,35.19949,40.299961,43.901,-81.899905,-0.900575,0
1382.4444444444416,-133.182373,231.165634,183.533936,-150.322525,-85.035588,56.490315,129.400341,35.19949,40.299961,43.901,-81.899905,-0.900575,0
1385.2222222222194,-133.182373,231.165634,183.533936,-150.322525,-85.035588,56.490315,129.400341,35.19949,40.299961,43.901,-81.899905,-0.900575,0
1387.9999999999973,-133.182373,231.165634,183.533936,-150.322525,-85.035588,56.490315,129.400341,35.19949,40.299961,43.901,-81.899905,-0.900575,0
1390.777777777775,-133.182373,231.165634,183.533936,-150.322525,-85.035588,56.490315,129.400341,35.19949,40.299961,43.901,-81.899905,-0.900575,0
1393.5555555555527,-133.182373,231.165634,183.533936,-150.322525,-85.035588,56.490315,129.400341,35.19949,40.299961,43.901,-81.899905,-0.900575,0
1396.3333333333303,-133.182373,231.165634,183.533936,-150.322525,-85.035588,56.490315,129.400341,35.19949,40.299961,43.901,-81.899905,-0.900575,0
1399.1111111111084,-133.182373,231.165634,183.533936,-150.322525,-85.035588,56.490315,129.400341,35.19949,40.299961,43.901,-81.899905,-0.900575,0
1401.888888888886,-133.182373,231.165634,183.533936,-150.322525,-85.035588,56.490315,129.400341,35.19949,40.299961,43.901,-81.899905,-0.900575,0
1404.6666666666638,-133.182373,231.165634,183.533936,-150.322525,-85.035588,56.490315,129.400341,35.19949,40.299961,43.901,-81.899905,-0.900575,0
1407.4444444444416,-133.182373,231.165634,183.533936,-150.322525,-85.035588,56.490315,129.400341,35.19949,40.299961,43.901,-81.899905,-0.900575,0
1410.2222222222194,-133.182373,231.165634,183.533936,-150.322525,-85.035588,56.490315,129.400341,35.19949,40.299961,43.901,-81.899905,-0.900575,0
1412.9999999999973,-133.182373,231.165634,183.533936,-150.322525,-85.035588,56.490315,129.400341,35.19949,40.299961,43.901,-81.899905,-0.900575,0
1415.7777777777749,-133.182373,231.165634,183.533936,-150.322525,-85.035588,56.490315,129.400341,35.19949,40.299961,43.901,-81.899905,-0.900575,0
1418.5555555555527,-133.182373,231.165634,183.533936,-150.322525,-85.035588,56.490315,129.400341,35.19949,40.299961,43.901,-81.899905,-0.900575,0
1421.3333333333303,-133.182373,231.165634,183.533936,-150.322525,-85.035588,56.490315,129.400341,35.19949,40.299961,43.901,-81.899905,-0.900575,0
1424.111111111108,-133.182373,231.165634,183.533936,-150.322525,-85.035588,56.490315,129.400341,35.19949,40.299961,43.901,-81.899905,-0.900575,0
1426.888888888886,-133.182373,231.165634,183.533936,-150.322525,-85.035588,56.490315,129.400341,35.19949,40.299961,43.901,-81.899905,-0.900575,0
1429.6666666666638,-133.182373,231.165634,183.533936,-150.322525,-85.035588,56.490315,129.400341,35.19949,40.299961,43.901,-81.899905,-0.900575,0
1432.4444444444416,-133.182373,231.165634,183.533936,-150.322525,-85.035588,56.490315,129.400341,35.19949,40.299961,43.901,-81.899905,-0.900575,0
1435.2222222222194,-133.182373,231.165634,183.533936,-150.322525,-85.035588,56.490315,129.400341,35.19949,40.299961,43.901,-81.899905,-0.900575,0
1437.999999999997,-133.182373,231.165634,183.533936,-150.322525,-85.035588,56.490315,129.400341,35.19949,40.299961,43.901,-81.899905,-0.900575,0
1440.7777777777749,-133.182373,231.165634,183.533936,-150.322525,-85.035588,56.490315,129.400341,35.19949,40.299961,43.901,-81.899905,-0.900575,0
1443.5555555555527,-133.182373,231.165634,183.533936,-150.322525,-85.035588,56.490315,129.400341,35.19949,40.299961,43.901,-81.899905,-0.900575,0
1446.3333333333303,-133.182373,231.165634,183.533936,-150.322525,-85.035588,56.490315,129.400341,35.19949,40.299961,43.901,-81.899905,-0.900575,0
1449.111111111108,-133.182373,231.165634,183.533936,-150.322525,-85.035588,56.490315,129.400341,35.19949,40.299961,43.901,-81.899905,-0.900575,0
1451.888888888886,-133.182373,231.165634,183.533936,-150.322525,-85.035588,56.490315,129.400341,35.19949,40.299961,43.901,-81.899905,-0.900575,0
1454.6666666666638,-133.182373,231.165634,183.533936,-150.322525,-85.035588,56.490315,129.400341,35.19949,40.299961,43.901,-81.899905,-0.900575,0
1457.4444444444416,-133.182373,231.165634,183.533936,-150.322525,-85.035588,56.490315,129.400341,35.19949,40.299961,43.901,-81.899905,-0.900575,0
1460.2222222222192,-133.182373,231.165634,183.533936,-150.322525,-85.035588,56.490315,129.400341,35.19949,40.299961,43.901,-81.899905,-0.900575,0
1462.999999999997,-133.182373,231.165634,183.533936,-150.322525,-85.035588,56.490315,129.400341,35.19949,40.299961,43.901,-81.899905,-0.900575,0
1465.7777777777749,-133.182373,231.165634,183.533936,-150.322525,-85.035588,56.490315,129.400341,35.19949,40.299961,43.901,-81.899905,-0.900575,0
1468.5555555555525,-133.182373,231.165634,183.533936,-150.322525,-85.035588,56.490315,129.400341,35.19949,40.299961,43.901,-81.899905,-0.900575,0
1471.3333333333303,-133.182373,231.165634,183.533936,-150.322525,-85.035588,56.490315,129.400341,35.19949,40.299961,43.901,-81.899905,-0.900575,0
1474.111111111108,-133.182373,231.165634,183.533936,-150.322525,-85.035588,56.490315,129.400341,35.19949,40.299961,43.901,-81.899905,-0.900575,0
1476.888888888886,-133.182373,231.165634,183.533936,-150.322525,-85.035588,56.490315,129.400341,35.19949,40.299961,43.901,-81.899905,-0.900575,0
1479.6666666666638,-133.182373,231.165634,183.533936,-150.322525,-85.035588,56.490315,129.400341,35.19949,40.299961,43.901,-81.899905,-0.900575,0
1482.4444444444414,-133.182373,231.165634,183.533936,-150.322525,-85.035588,56.490315,129.400341,35.19949,40.299961,43.901,-81.899905,-0.900575,0
1485.2222222222192,-133.182373,231.165634,183.533936,-150.322525,-85.035588,56.490315,129.400341,35.19949,40.299961,43.901,-81.899905,-0.900575,0
1487.999999999997,-133.182373,231.165634,183.533936,-150.322525,-85.035588,56.490315,129.400341,35.19949,40.299961,43.901,-81.899905,-0.900575,0
1490.7777777777746,-133.182373,231.165634,183.533936,-150.322525,-85.035588,56.490315,129.400341,35.19949,40.299961,43.901,-81.899905,-0.900575,0
1493.5555555555525,-133.182373,231.165634,183.533936,-150.322525,-85.035588,56.490315,129.400341,35.19949,40.299961,43.901,-81.899905,-0.900575,0
1496.3333333333303,-133.182373,231.165634,183.533936,-150.322525,-85.035588,56.490315,129.400341,35.19949,40.299961,43.901,-81.899905,-0.900575,0
1499.111111111108,-133.182373,231.165634,183.533936,-150.322525,-85.035588,56.490315,129.400341,35.19949,40.299961,43.901,-81.899905,-0.900575,0
1501.888888888886,-133.182373,231.165634,183.533936,-150.322525,-85.035588,56.490315,129.400341,35.19949,40.299961,43.901,-81.899905,-0.900575,0
1504.6666666666636,-133.182373,231.165634,183.533936,-150.322525,-85.035588,56.490315,129.400341,35.19949,40.299961,43.901,-81.899905,-0.900575,0
1507.4444444444414,-133.182373,231.165634,183.533936,-150.322525,-85.035588,56.490315,129.400341,35.19949,40.299961,43.901,-81.899905,-0.900575,0
1510.2222222222192,-133.182373,231.165634,183.533936,-150.322525,-85.035588,56.490315,129.400341,35.19949,40.299961,43.901,-81.899905,-0.900575,0
1512.9999999999968,-133.182373,231.165634,183.533936,-150.322525,-85.035588,56.490315,129.400341,35.19949,40.299961,43.901,-81.899905,-0.900575,0
1515.7777777777746,-133.182373,231.165634,183.533936,-150.322525,-85.035588,56.490315,129.400341,35.19949,40.299961,43.901,-81.899905,-0.900575,0
1518.5555555555525,-133.182373,231.165634,183.533936,-150.322525,-85.035588,56.490315,129.400341,35.19949,40.299961,43.901,-81.899905,-0.900575,0
1521.3333333333303,-133.182373,231.165634,183.533936,-150.322525,-85.035588,56.490315,129.400341,35.19949,40.299961,43.901,-81.899905,-0.900575,0
1524.111111111108,-133.182373,231.165634,183.533936,-150.322525,-85.035588,56.490315,129.400341,35.19949,40.299961,43.901,-81.899905,-0.900575,0
1526.8888888888855,-133.182373,231.165634,183.533936,-150.322525,-85.035588,56.490315,129.400341,35.19949,40.299961,43.901,-81.899905,-0.900575,0
1529.6666666666636,-133.182373,231.165634,183.533936,-150.322525,-85.035588,56.490315,129.400341,35.19949,40.299961,43.901,-81.899905,-0.900575,0
1532.4444444444414,-133.182373,231.165634,183.533936,-150.322525,-85.035588,56.490315,129.400341,35.19949,40.299961,43.901,-81.899905,-0.900575,0
1535.222222222219,-133.182373,231.165634,183.533936,-150.322525,-85.035588,56.490315,129.400341,35.19949,40.299961,43.901,-81.899905,-0.900575,0
1537.9999999999968,-133.182373,231.165634,183.533936,-150.322525,-85.035588,56.490315,129.400341,35.19949,40.299961,43.901,-81.899905,-0.900575,0
1540.7777777777746,-133.182373,231.165634,183.533936,-150.322525,-85.035588,56.490315,129.400341,35.19949,40.299961,43.901,-81.899905,-0.900575,0
1543.5555555555525,-133.182373,231.165634,183.533936,-150.322525,-85.035588,56.490315,129.400341,35.19949,40.299961,43.901,-81.899905,-0.900575,0
1546.3333333333303,-133.182373,231.165634,183.533936,-150.322525,-85.035588,56.490315,129.400341,35.19949,40.299961,43.901,-81.899905,-0.900575,0
1549.111111111108,-133.182373,231.165634,183.533936,-150.322525,-85.035588,56.490315,129.400341,35.19949,40.299961,43.901,-81.899905,-0.900575,0
1551.8888888888855,-133.182373,231.165634,183.533936,-150.322525,-85.035588,56.490315,129.400341,35.19949,40.299961,43.901,-81.899905,-0.900575,0
1554.6666666666636,-133.182373,231.165634,183.533936,-150.322525,-85.035588,56.490315,129.400341,35.19949,40.299961,43.901,-81.899905,-0.900575,0
1557.4444444444412,-133.182373,231.165634,183.533936,-150.322525,-85.035588,56.490315,129.400341,35.19949,40.299961,43.901,-81.899905,-0.900575,0
1560.222222222219,-133.182373,231.165634,183.533936,-150.322525,-85.035588,56.490315,129.400341,35.19949,40.299961,43.901,-81.899905,-0.900575,0
1562.9999999999968,-133.182373,231.165634,183.533936,-150.322525,-85.035588,56.490315,129.400341,35.19949,40.299961,43.901,-81.899905,-0.900575,0
1565.7777777777746,-133.182373,231.165634,183.533936,-150.322525,-85.035588,56.490315,129.400341,35.19949,40.299961,43.901,-81.899905,-0.900575,0
1568.5555555555525,-133.182373,231.165634,183.533936,-150.322525,-85.035588,56.490315,129.400341,35.19949,40.299961,43.901,-81.899905,-0.900575,0
1571.33333333333,-133.182373,231.165634,183.533936,-150.322525,-85.035588,56.490315,129.400341,35.19949,40.299961,43.901,-81.899905,-0.900575,0
1574.111111111108,-133.182373,231.165634,183.533936,-150.322525,-85.035588,56.490315,129.400341,35.19949,40.299961,43.901,-81.899905,-0.900575,0
1576.8888888888855,-133.182373,231.165634,183.533936,-150.322525,-85.035588,56.490315,129.400341,35.19949,40.299961,43.901,-81.899905,-0.900575,0
1579.666666666663,-133.182373,231.165634,183.533936,-150.322525,-85.035588,56.490315,129.400341,35.19949,40.299961,43.901,-81.899905,-0.900575,0
1582.4444444444412,-133.182373,231.165634,183.533936,-150.322525,-85.035588,56.490315,129.400341,35.19949,40.299961,43.901,-81.899905,-0.900575,0
1585.222222222219,-133.182373,231.165634,183.533936,-150.322525,-85.035588,56.490315,129.400341,35.19949,40.299961,43.901,-81.899905,-0.900575,0
1587.9999999999968,-133.182373,231.165634,183.533936,-150.322525,-85.035588,56.490315,129.400341,35.19949,40.299961,43.901,-81.899905,-0.900575,0
1590.7777777777746,-133.182373,231.165634,183.533936,-150.322525,-85.035588,56.490315,129.400341,35.19949,40.299961,43.901,-81.899905,-0.900575,0
1593.5555555555522,-133.182373,231.165634,183.533936,-150.322525,-85.035588,56.490315,129.400341,35.19949,40.299961,43.901,-81.899905,-0.900575,0
1596.33333333333,-133.182373,231.165634,183.533936,-150.322525,-85.035588,56.490315,129.400341,35.19949,40.299961,43.901,-81.899905,-0.900575,0
1599.111111111108,-133.182373,231.165634,183.533936,-150.322525,-85.035588,56.490315,129.400341,35.19949,40.299961,43.901,-81.899905,-0.900575,0
1601.8888888888855,-133.182373,231.165634,183.533936,-150.322525,-85.035588,56.490315,129.400341,35.19949,40.299961,43.901,-81.899905,-0.900575,0
1604.666666666663,-133.182373,231.165634,183.533936,-150.322525,-85.035588,56.490315,129.400341,35.19949,40.299961,43.901,-81.899905,-0.900575,0
1607.4444444444412,-133.182373,231.165634,183.533936,-150.322525,-85.035588,56.490315,129.400341,35.19949,40.299961,43.901,-81.899905,-0.900575,0
1610.222222222219,-133.182373,231.165634,183.533936,-150.322525,-85.035588,56.490315,129.400341,35.19949,40.299961,43.901,-81.899905,-0.900575,0
1612.9999999999968,-133.182373,231.165634,183.533936,-150.322525,-85.035588,56.490315,129.400341,35.19949,40.299961,43.901,-81.899905,-0.900575,0
1615.7777777777744,-133.182373,231.165634,183.533936,-150.322525,-85.035588,56.490315,129.400341,35.19949,40.299961,43.901,-81.899905,-0.900575,0
1618.5555555555522,-133.182373,231.165634,183.533936,-150.322525,-85.035588,56.490315,129.400341,35.19949,40.299961,43.901,-81.899905,-0.900575,0
1621.33333333333,-133.182373,231.165634,183.533936,-150.322525,-85.035588,56.490315,129.400341,35.19949,40.299961,43.901,-81.899905,-0.900575,0
1624.1111111111077,-133.182373,231.165634,183.533936,-150.322525,-85.035588,56.490315,129.400341,35.19949,40.299961,43.901,-81.899905,-0.900575,0
1626.8888888888855,-133.182373,231.165634,183.533936,-150.322525,-85.035588,56.490315,129.400341,35.19949,40.299961,43.901,-81.899905,-0.900575,0
1629.666666666663,-133.182373,231.165634,183.533936,-150.322525,-85.035588,56.490315,129.400341,35.19949,40.299961,43.901,-81.899905,-0.900575,0
1632.4444444444412,-133.182373,231.165634,183.533936,-150.322525,-85.035588,56.490315,129.400341,35.19949,40.299961,43.901,-81.899905,-0.900575,0
1635.222222222219,-133.182373,231.165634,183.533936,-150.322525,-85.035588,56.490315,129.400341,35.19949,40.299961,43.901,-81.899905,-0.900575,0
1637.9999999999966,-133.182373,231.165634,183.533936,-150.322525,-85.035588,56.490315,129.400341,35.19949,40.299961,43.901,-81.899905,-0.900575,0
1640.7777777777744,-133.182373,231.165634,183.533936,-150.322525,-85.035588,56.490315,129.400341,35.19949,40.299961,43.901,-81.899905,-0.900575,0
1643.5555555555522,-133.182373,231.165634,183.533936,-150.322525,-85.035588,56.490315,129.400341,35.19949,40.299961,43.901,-81.899905,-0.900575,0
1646.3333333333298,-133.182373,231.165634,183.533936,-150.322525,-85.035588,56.490315,129.400341,35.19949,40.299961,43.901,-81.899905,-0.900575,0
1649.1111111111077,-133.182373,231.165634,183.533936,-150.322525,-85.035588,56.490315,129.400341,35.19949,40.299961,43.901,-81.899905,-0.900575,0
1651.8888888888855,-133.182373,231.165634,183.533936,-150.322525,-85.035588,56.490315,129.400341,35.19949,40.299961,43.901,-81.899905,-0.900575,0
1654.666666666663,-133.182373,231.165634,183.533936,-150.322525,-85.035588,56.490315,129.400341,35.19949,40.299961,43.901,-81.899905,-0.900575,0
1657.4444444444412,-133.182373,231.165634,183.533936,-150.322525,-85.035588,56.490315,129.400341,35.19949,40.299961,43.901,-81.899905,-0.900575,0
1660.2222222222188,-133.182373,231.165634,183.533936,-150.322525,-85.035588,56.490315,129.400341,35.19949,40.299961,43.901,-81.899905,-0.900575,0
1662.9999999999966,-133.182373,231.165634,183.533936,-150.322525,-85.035588,56.490315,129.400341,35.19949,40.299961,43.901,-81.899905,-0.900575,0
1665.7777777777744,-133.182373,231.165634,183.533936,-150.322525,-85.035588,56.490315,129.400341,35.19949,40.299961,43.901,-81.899905,-0.900575,0
1668.555555555552,-133.182373,231.165634,183.533936,-150.322525,-85.035588,56.490315,129.400341,35.19949,40.299961,43.901,-81.899905,-0.900575,0
1671.3333333333298,-133.182373,231.165634,183.533936,-150.322525,-85.035588,56.490315,129.400341,35.19949,40.299961,43.901,-81.899905,-0.900575,0
1674.1111111111077,-133.182373,231.165634,183.533936,-150.322525,-85.035588,56.490315,129.400341,35.19949,40.299961,43.901,-81.899905,-0.900575,0
1676.8888888888855,-133.182373,231.165634,183.533936,-150.322525,-85.035588,56.490315,129.400341,35.19949,40.299961,43.901,-81.899905,-0.900575,0
1679.666666666663,-133.182373,231.165634,183.533936,-150.322525,-85.035588,56.490315,129.400341,35.19949,40.299961,43.901,-81.899905,-0.900575,0
1682.444444444441,-133.182373,231.165634,183.533936,-150.322525,-85.035588,56.490315,129.400341,35.19949,40.299961,43.901,-81.899905,-0.900575,0
1685.2222222222188,-133.182373,231.165634,183.533936,-150.322525,-85.035588,56.490315,129.400341,35.19949,40.299961,43.901,-81.899905,-0.900575,0
1687.9999999999966,-133.182373,231.165634,183.533936,-150.322525,-85.035588,56.490315,129.400341,35.19949,40.299961,43.901,-81.899905,-0.900575,0
1690.7777777777742,-133.182373,231.165634,183.533936,-150.322525,-85.035588,56.490315,129.400341,35.19949,40.299961,43.901,-81.899905,-0.900575,0
1693.555555555552,-133.182373,231.165634,183.533936,-150.322525,-85.035588,56.490315,129.400341,35.19949,40.299961,43.901,-81.899905,-0.900575,0
1696.3333333333298,-133.182373,231.165634,183.533936,-150.322525,-85.035588,56.490315,129.400341,35.19949,40.299961,43.901,-81.899905,-0.900575,0
1699.1111111111077,-133.182373,231.165634,183.533936,-150.322525,-85.035588,56.490315,129.400341,35.19949,40.299961,43.901,-81.899905,-0.900575,0
1701.8888888888855,-133.182373,231.165634,183.533936,-150.322525,-85.035588,56.490315,129.400341,35.19949,40.299961,43.901,-81.899905,-0.900575,0
1704.666666666663,-133.182373,231.165634,183.533936,-150.322525,-85.035588,56.490315,129.400341,35.19949,40.299961,43.901,-81.899905,-0.900575,0
1707.444444444441,-133.182373,231.165634,183.533936,-150.322525,-85.035588,56.490315,129.400341,35.19949,40.299961,43.901,-81.899905,-0.900575,0
1710.2222222222188,-133.182373,231.165634,183.533936,-150.322525,-85.035588,56.490315,129.400341,35.19949,40.299961,43.901,-81.899905,-0.900575,0
1712.9999999999964,-133.182373,231.165634,183.533936,-150.322525,-85.035588,56.490315,129.400341,35.19949,40.299961,43.901,-81.899905,-0.900575,0
1715.7777777777742,-133.182373,231.165634,183.533936,-150.322525,-85.035588,56.490315,129.400341,35.19949,40.299961,43.901,-81.899905,-0.900575,0
1718.555555555552,-133.182373,231.165634,183.533936,-150.322525,-85.035588,56.490315,129.400341,35.19949,40.299961,43.901,-81.899905,-0.900575,0
1721.3333333333298,-133.182373,231.165634,183.533936,-150.322525,-85.035588,56.490315,129.400341,35.19949,40.299961,43.901,-81.899905,-0.900575,0
1724.1111111111077,-133.182373,231.165634,183.533936,-150.322525,-85.035588,56.490315,129.400341,35.19949,40.299961,43.901,-81.899905,-0.900575,0
1726.8888888888853,-133.182373,231.165634,183.533936,-150.322525,-85.035588,56.490315,129.400341,35.19949,40.299961,43.901,-81.899905,-0.900575,0
1729.666666666663,-133.182373,231.165634,183.533936,-150.322525,-85.035588,56.490315,129.400341,35.19949,40.299961,43.901,-81.899905,-0.900575,0
1732.444444444441,-133.182373,231.165634,183.533936,-150.322525,-85.035588,56.490315,129.400341,35.19949,40.299961,43.901,-81.899905,-0.900575,0
1735.2222222222183,-133.182373,231.165634,183.533936,-150.322525,-85.035588,56.490315,129.400341,35.19949,40.299961,43.901,-81.899905,-0.900575,0
1737.9999999999964,-133.182373,231.165634,183.533936,-150.322525,-85.035588,56.490315,129.400341,35.19949,40.299961,43.901,-81.899905,-0.900575,0
1740.7777777777742,-133.182373,231.165634,183.533936,-150.322525,-85.035588,56.490315,129.400341,35.19949,40.299961,43.901,-81.899905,-0.900575,0
1743.555555555552,-133.182373,231.165634,183.533936,-150.322525,-85.035588,56.490315,129.400341,35.19949,40.299961,43.901,-81.899905,-0.900575,0
1746.3333333333298,-133.182373,231.165634,183.533936,-150.322525,-85.035588,56.490315,129.400341,35.19949,40.299961,43.901,-81.899905,-0.900575,0
1749.1111111111074,-133.182373,231.165634,183.533936,-150.322525,-85.035588,56.490315,129.400341,35.19949,40.299961,43.901,-81.899905,-0.900575,0
1751.8888888888853,-133.182373,231.165634,183.533936,-150.322525,-85.035588,56.490315,129.400341,35.19949,40.299961,43.901,-81.899905,-0.900575,0
1754.666666666663,-133.182373,231.165634,183.533936,-150.322525,-85.035588,56.490315,129.400341,35.19949,40.299961,43.901,-81.899905,-0.900575,0
1757.4444444444407,-133.182373,231.165634,183.533936,-150.322525,-85.035588,56.490315,129.400341,35.19949,40.299961,43.901,-81.899905,-0.900575,0
1760.2222222222183,-133.182373,231.165634,183.533936,-150.322525,-85.035588,56.490315,129.400341,35.19949,40.299961,43.901,-81.899905,-0.900575,0
1762.9999999999964,-133.182373,231.165634,183.533936,-150.322525,-85.035588,56.490315,129.400341,35.19949,40.299961,43.901,-81.899905,-0.900575,0
1765.7777777777742,-133.182373,231.165634,183.533936,-150.322525,-85.035588,56.490315,129.400341,35.19949,40.299961,43.901,-81.899905,-0.900575,0
1768.555555555552,-133.182373,231.165634,183.533936,-150.322525,-85.035588,56.490315,129.400341,35.19949,40.299961,43.901,-81.899905,-0.900575,0
1771.3333333333296,-133.182373,231.165634,183.533936,-150.322525,-85.035588,56.490315,129.400341,35.19949,40.299961,43.901,-81.899905,-0.900575,0
1774.1111111111074,-133.182373,231.165634,183.533936,-150.322525,-85.035588,56.490315,129.400341,35.19949,40.299961,43.901,-81.899905,-0.900575,0
1776.8888888888853,-133.182373,231.165634,183.533936,-150.322525,-85.035588,56.490315,129.400341,35.19949,40.299961,43.901,-81.899905,-0.900575,0
1779.6666666666629,-133.182373,231.165634,183.533936,-150.322525,-85.035588,56.490315,129.400341,35.19949,40.299961,43.901,-81.899905,-0.900575,0
1782.4444444444407,-133.182373,231.165634,183.533936,-150.322525,-85.035588,56.490315,129.400341,35.19949,40.299961,43.901,-81.899905,-0.900575,0
1785.2222222222183,-133.182373,231.165634,183.533936,-150.322525,-85.035588,56.490315,129.400341,35.19949,40.299961,43.901,-81.899905,-0.900575,0
1787.9999999999964,-133.182373,231.165634,183.533936,-150.322525,-85.035588,56.490315,129.400341,35.19949,40.299961,43.901,-81.899905,-0.900575,0
1790.7777777777742,-133.182373,231.165634,183.533936,-150.322525,-85.035588,56.490315,129.400341,35.19949,40.299961,43.901,-81.899905,-0.900575,0
1793.5555555555518,-133.182373,231.165634,183.533936,-150.322525,-85.035588,56.490315,129.400341,35.19949,40.299961,43.901,-81.899905,-0.900575,0
1796.3333333333296,-133.182373,231.165634,183.533936,-150.322525,-85.035588,56.490315,129.400341,35.19949,40.299961,43.901,-81.899905,-0.900575,0
1799.1111111111074,-133.182373,231.165634,183.533936,-150.322525,-85.035588,56.490315,129.400341,35.19949,40.299961,43.901,-81.899905,-0.900575,0
1801.888888888885,-133.182373,231.165634,183.533936,-150.322525,-85.035588,56.490315,129.400341,35.19949,40.299961,43.901,-81.899905,-0.900575,0
1804.6666666666629,-133.182373,231.165634,183.533936,-150.322525,-85.035588,56.490315,129.400341,35.19949,40.299961,43.901,-81.899905,-0.900575,0
1807.4444444444407,-133.182373,231.165634,183.533936,-150.322525,-85.035588,56.490315,129.400341,35.19949,40.299961,43.901,-81.899905,-0.900575,0
1810.2222222222183,-133.182373,231.165634,183.533936,-150.322525,-85.035588,56.490315,129.400341,35.19949,40.299961,43.901,-81.899905,-0.900575,0
1812.9999999999964,-133.182373,231.165634,183.533936,-150.322525,-85.035588,56.490315,129.400341,35.19949,40.299961,43.901,-81.899905,-0.900575,0
1815.777777777774,-133.182373,231.165634,183.533936,-150.322525,-85.035588,56.490315,129.400341,35.19949,40.299961,43.901,-81.899905,-0.900575,0
1818.555555555552,-133.182373,231.165634,183.533936,-150.322525,-85.035588,56.490315,129.400341,35.19949,40.299961,43.901,-81.899905,-0.900575,0
1821.3333333333296,-133.182373,231.165634,183.533936,-150.322525,-85.035588,56.490315,129.400341,35.19949,40.299961,43.901,-81.899905,-0.900575,0
1824.1111111111072,-133.182373,231.165634,183.533936,-150.322525,-85.035588,56.490315,129.400341,35.19949,40.299961,43.901,-81.899905,-0.900575,0
1826.888888888885,-133.182373,231.165634,183.533936,-150.322525,-85.035588,56.490315,129.400341,35.19949,40.299961,43.901,-81.899905,-0.900575,0
1829.6666666666629,-133.182373,231.165634,183.533936,-150.322525,-85.035588,56.490315,129.400341,35.19949,40.299961,43.901,-81.899905,-0.900575,0
1832.4444444444407,-133.182373,231.165634,183.533936,-150.322525,-85.035588,56.490315,129.400341,35.19949,40.299961,43.901,-81.899905,-0.900575,0
1835.2222222222183,-133.182373,231.165634,183.533936,-150.322525,-85.035588,56.490315,129.400341,35.19949,40.299961,43.901,-81.899905,-0.900575,0
1837.999999999996,-133.182373,231.165634,183.533936,-150.322525,-85.035588,56.490315,129.400341,35.19949,40.299961,43.901,-81.899905,-0.900575,0
1840.777777777774,-133.182373,231.165634,183.533936,-150.322525,-85.035588,56.490315,129.400341,35.19949,40.299961,43.901,-81.899905,-0.900575,0
1843.555555555552,-133.182373,231.165634,183.533936,-150.322525,-85.035588,56.490315,129.400341,35.19949,40.299961,43.901,-81.899905,-0.900575,0
1846.3333333333292,-133.182373,231.165634,183.533936,-150.322525,-85.035588,56.490315,129.400341,35.19949,40.299961,43.901,-81.899905,-0.900575,0
1849.1111111111072,-133.182373,231.165634,183.533936,-150.322525,-85.035588,56.490315,129.400341,35.19949,40.299961,43.901,-81.899905,-0.900575,0
1851.888888888885,-133.182373,231.165634,183.533936,-150.322525,-85.035588,56.490315,129.400341,35.19949,40.299961,43.901,-81.899905,-0.900575,0
1854.6666666666629,-133.182373,231.165634,183.533936,-150.322525,-85.035588,56.490315,129.400341,35.19949,40.299961,43.901,-81.899905,-0.900575,0
1857.4444444444407,-133.182373,231.165634,183.533936,-150.322525,-85.035588,56.490315,129.400341,35.19949,40.299961,43.901,-81.899905,-0.900575,0
1860.2222222222183,-133.182373,231.165634,183.533936,-150.322525,-85.035588,56.490315,129.400341,35.19949,40.299961,43.901,-81.899905,-0.900575,0
1862.999999999996,-133.182373,231.165634,183.533936,-150.322525,-85.035588,56.490315,129.400341,35.19949,40.299961,43.901,-81.899905,-0.900575,0
1865.777777777774,-133.182373,231.165634,183.533936,-150.322525,-85.035588,56.490315,129.400341,35.19949,40.299961,43.901,-81.899905,-0.900575,0
1868.555555555552,-133.182373,231.165634,183.533936,-150.322525,-85.035588,56.490315,129.400341,35.19949,40.299961,43.901,-81.899905,-0.900575,0
1871.3333333333292,-133.182373,231.165634,183.533936,-150.322525,-85.035588,56.490315,129.400341,35.19949,40.299961,43.901,-81.899905,-0.900575,0
1874.1111111111072,-133.182373,231.165634,183.533936,-150.322525,-85.035588,56.490315,129.400341,35.19949,40.299961,43.901,-81.899905,-0.900575,0
1876.888888888885,-133.182373,231.165634,183.533936,-150.322525,-85.035588,56.490315,129.400341,35.19949,40.299961,43.901,-81.899905,-0.900575,0
1879.6666666666629,-133.182373,231.165634,183.533936,-150.322525,-85.035588,56.490315,129.400341,35.19949,40.299961,43.901,-81.899905,-0.900575,0
1882.4444444444405,-133.182373,231.165634,183.533936,-150.322525,-85.035588,56.490315,129.400341,35.19949,40.299961,43.901,-81.899905,-0.900575,0
1885.2222222222183,-133.182373,231.165634,183.533936,-150.322525,-85.035588,56.490315,129.400341,35.19949,40.299961,43.901,-81.899905,-0.900575,0
1887.999999999996,-133.182373,231.165634,183.533936,-150.322525,-85.035588,56.490315,129.400341,35.19949,40.299961,43.901,-81.899905,-0.900575,0
1890.7777777777735,-133.182373,231.165634,183.533936,-150.322525,-85.035588,56.490315,129.400341,35.19949,40.299961,43.901,-81.899905,-0.900575,0
1893.555555555552,-133.182373,231.165634,183.533936,-150.322525,-85.035588,56.490315,129.400341,35.19949,40.299961,43.901,-81.899905,-0.900575,0
1896.3333333333292,-133.182373,231.165634,183.533936,-150.322525,-85.035588,56.490315,129.400341,35.19949,40.299961,43.901,-81.899905,-0.900575,0
1899.1111111111072,-133.182373,231.165634,183.533936,-150.322525,-85.035588,56.490315,129.400341,35.19949,40.299961,43.901,-81.899905,-0.900575,0
1901.888888888885,-133.182373,231.165634,183.533936,-150.322525,-85.035588,56.490315,129.400341,35.19949,40.299961,43.901,-81.899905,-0.900575,0
1904.6666666666624,-133.182373,231.165634,183.533936,-150.322525,-85.035588,56.490315,129.400341,35.19949,40.299961,43.901,-81.899905,-0.900575,0
1907.4444444444405,-133.182373,231.165634,183.533936,-150.322525,-85.035588,56.490315,129.400341,35.19949,40.299961,43.901,-81.899905,-0.900575,0
1910.2222222222183,-133.182373,231.165634,183.533936,-150.322525,-85.035588,56.490315,129.400341,35.19949,40.299961,43.901,-81.899905,-0.900575,0
1912.999999999996,-133.182373,231.165634,183.533936,-150.322525,-85.035588,56.490315,129.400341,35.19949,40.299961,43.901,-81.899905,-0.900575,0
1915.7777777777735,-133.182373,231.165634,183.533936,-150.322525,-85.035588,56.490315,129.400341,35.19949,40.299961,43.901,-81.899905,-0.900575,0
1918.555555555552,-133.182373,231.165634,183.533936,-150.322525,-85.035588,56.490315,129.400341,35.19949,40.299961,43.901,-81.899905,-0.900575,0
1921.3333333333292,-133.182373,231.165634,183.533936,-150.322525,-85.035588,56.490315,129.400341,35.19949,40.299961,43.901,-81.899905,-0.900575,0
1924.1111111111072,-133.182373,231.165634,183.533936,-150.322525,-85.035588,56.490315,129.400341,35.19949,40.299961,43.901,-81.899905,-0.900575,0
1926.8888888888848,-133.182373,231.165634,183.533936,-150.322525,-85.035588,56.490315,129.400341,35.19949,40.299961,43.901,-81.899905,-0.900575,0
1929.6666666666624,-133.182373,231.165634,183.533936,-150.322525,-85.035588,56.490315,129.400341,35.19949,40.299961,43.901,-81.899905,-0.900575,0
1932.4444444444405,-133.182373,231.165634,183.533936,-150.322525,-85.035588,56.490315,129.400341,35.19949,40.299961,43.901,-81.899905,-0.900575,0
1935.222222222218,-133.182373,231.165634,183.533936,-150.322525,-85.035588,56.490315,129.400341,35.19949,40.299961,43.901,-81.899905,-0.900575,0
1937.999999999996,-133.182373,231.165634,183.533936,-150.322525,-85.035588,56.490315,129.400341,35.19949,40.299961,43.901,-81.899905,-0.900575,0
1940.7777777777735,-133.182373,231.165634,183.533936,-150.322525,-85.035588,56.490315,129.400341,35.19949,40.299961,43.901,-81.899905,-0.900575,0
1943.555555555552,-133.182373,231.165634,183.533936,-150.322525,-85.035588,56.490315,129.400341,35.19949,40.299961,43.901,-81.899905,-0.900575,0
1946.3333333333292,-133.182373,231.165634,183.533936,-150.322525,-85.035588,56.490315,129.400341,35.19949,40.299961,43.901,-81.899905,-0.900575,0
1949.111111111107,-133.182373,231.165634,183.533936,-150.322525,-85.035588,56.490315,129.400341,35.19949,40.299961,43.901,-81.899905,-0.900575,0
1951.8888888888848,-133.182373,231.165634,183.533936,-150.322525,-85.035588,56.490315,129.400341,35.19949,40.299961,43.901,-81.899905,-0.900575,0
1954.6666666666624,-133.182373,231.165634,183.533936,-150.322525,-85.035588,56.490315,129.400341,35.19949,40.299961,43.901,-81.899905,-0.900575,0
1957.4444444444405,-133.182373,231.165634,183.533936,-150.322525,-85.035588,56.490315,129.400341,35.19949,40.299961,43.901,-81.899905,-0.900575,0
1960.222222222218,-133.182373,231.165634,183.533936,-150.322525,-85.035588,56.490315,129.400341,35.19949,40.299961,43.901,-81.899905,-0.900575,0
1962.999999999996,-133.182373,231.165634,183.533936,-150.322525,-85.035588,56.490315,129.400341,35.19949,40.299961,43.901,-81.899905,-0.900575,0
1965.7777777777735,-133.182373,231.165634,183.533936,-150.322525,-85.035588,56.490315,129.400341,35.19949,40.299961,43.901,-81.899905,-0.900575,0
1968.555555555552,-133.182373,231.165634,183.533936,-150.322525,-85.035588,56.490315,129.400341,35.19949,40.299961,43.901,-81.899905,-0.900575,0
1971.3333333333287,-133.182373,231.165634,183.533936,-150.322525,-85.035588,56.490315,129.400341,35.19949,40.299961,43.901,-81.899905,-0.900575,0
1974.111111111107,-133.182373,231.165634,183.533936,-150.322525,-85.035588,56.490315,129.400341,35.19949,40.299961,43.901,-81.899905,-0.900575,0
1976.8888888888848,-133.182373,231.165634,183.533936,-150.322525,-85.035588,56.490315,129.400341,35.19949,40.299961,43.901,-81.899905,-0.900575,0
1979.6666666666624,-133.182373,231.165634,183.533936,-150.322525,-85.035588,56.490315,129.400341,35.19949,40.299961,43.901,-81.899905,-0.900575,0
1982.4444444444405,-133.182373,231.165634,183.533936,-150.322525,-85.035588,56.490315,129.400341,35.19949,40.299961,43.901,-81.899905,-0.900575,0
1985.222222222218,-133.182373,231.165634,183.533936,-150.322525,-85.035588,56.490315,129.400341,35.19949,40.299961,43.901,-81.899905,-0.900575,0
1987.999999999996,-133.182373,231.165634,183.533936,-150.322525,-85.035588,56.490315,129.400341,35.19949,40.299961,43.901,-81.899905,-0.900575,0
1990.7777777777735,-133.182373,231.165634,183.533936,-150.322525,-85.035588,56.490315,129.400341,35.19949,40.299961,43.901,-81.899905,-0.900575,0
1993.5555555555516,-133.182373,231.165634,183.533936,-150.322525,-85.035588,56.490315,129.400341,35.19949,40.299961,43.901,-81.899905,-0.900575,0
1996.3333333333287,-133.182373,231.165634,183.533936,-150.322525,-85.035588,56.490315,129.400341,35.19949,40.299961,43.901,-81.899905,-0.900575,0
1999.111111111107,-133.182373,231.165634,183.533936,-150.322525,-85.035588,56.490315,129.400341,35.19949,40.299961,43.901,-81.899905,-0.900575,0
2001.8888888888848,-133.182373,231.165634,183.533936,-150.322525,-85.035588,56.490315,129.400341,35.19949,40.299961,43.901,-81.899905,-0.900575,0
2004.6666666666624,-133.182373,231.165634,183.533936,-150.322525,-85.035588,56.490315,129.400341,35.19949,40.299961,43.901,-81.899905,-0.900575,0
2007.4444444444405,-133.182373,231.165634,183.533936,-150.322525,-85.035588,56.490315,129.400341,35.19949,40.299961,43.901,-81.899905,-0.900575,0
2010.222222222218,-133.182373,231.165634,183.533936,-150.322525,-85.035588,56.490315,129.400341,35.19949,40.299961,43.901,-81.899905,-0.900575,0
2012.999999999996,-133.182373,231.165634,183.533936,-150.322525,-85.035588,56.490315,129.400341,35.19949,40.299961,43.901,-81.899905,-0.900575,0
2015.7777777777733,-133.182373,231.165634,183.533936,-150.322525,-85.035588,56.490315,129.400341,35.19949,40.299961,43.901,-81.899905,-0.900575,0
2018.5555555555516,-133.182373,231.165634,183.533936,-150.322525,-85.035588,56.490315,129.400341,35.19949,40.299961,43.901,-81.899905,-0.900575,0
2021.3333333333287,-133.182373,231.165634,183.533936,-150.322525,-85.035588,56.490315,129.400341,35.19949,40.299961,43.901,-81.899905,-0.900575,0
2024.1111111111068,-133.182373,231.165634,183.533936,-150.322525,-85.035588,56.490315,129.400341,35.19949,40.299961,43.901,-81.899905,-0.900575,0
2026.8888888888848,-133.182373,231.165634,183.533936,-150.322525,-85.035588,56.490315,129.400341,35.19949,40.299961,43.901,-81.899905,-0.900575,0
2029.6666666666624,-133.182373,231.165634,183.533936,-150.322525,-85.035588,56.490315,129.400341,35.19949,40.299961,43.901,-81.899905,-0.900575,0
2032.4444444444405,-133.182373,231.165634,183.533936,-150.322525,-85.035588,56.490315,129.400341,35.19949,40.299961,43.901,-81.899905,-0.900575,0
2035.222222222218,-133.182373,231.165634,183.533936,-150.322525,-85.035588,56.490315,129.400341,35.19949,40.299961,43.901,-81.899905,-0.900575,0
2037.999999999996,-133.182373,231.165634,183.533936,-150.322525,-85.035588,56.490315,129.400341,35.19949,40.299961,43.901,-81.899905,-0.900575,0
2040.7777777777733,-133.182373,231.165634,183.533936,-150.322525,-85.035588,56.490315,129.400341,35.19949,40.299961,43.901,-81.899905,-0.900575,0
2043.5555555555516,-133.182373,231.165634,183.533936,-150.322525,-85.035588,56.490315,129.400341,35.19949,40.299961,43.901,-81.899905,-0.900575,0
2046.333333333329,-133.182373,231.165634,183.533936,-150.322525,-85.035588,56.490315,129.400341,35.19949,40.299961,43.901,-81.899905,-0.900575,0
2049.1111111111068,-133.182373,231.165634,183.533936,-150.322525,-85.035588,56.490315,129.400341,35.19949,40.299961,43.901,-81.899905,-0.900575,0
2051.8888888888846,-133.182373,231.165634,183.533936,-150.322525,-85.035588,56.490315,129.400341,35.19949,40.299961,43.901,-81.899905,-0.900575,0
2054.6666666666624,-133.182373,231.165634,183.533936,-150.322525,-85.035588,56.490315,129.400341,35.19949,40.299961,43.901,-81.899905,-0.900575,0
