BAEK26/lfd/data/processed_b.csv
timestamp,x,y,z,roll,pitch,yaw,joint1,joint2,joint3,joint4,joint5,joint6,gripper
168.0,231.620651,276.080902,259.922028,-156.196259,-86.734236,-7.500934,56.615965,35.197313,67.880774,46.988498,-62.727362,-21.917698,0
170.77777777777777,231.6201332463768,276.081886057971,259.9222601256039,-156.20570453140095,-86.73209095169082,-7.490416004830918,56.615965,35.19683558454106,67.880774,46.988498,-62.724594125603865,-21.917698,0
173.55555555555554,231.61961549275364,276.082870115942,259.92249225120776,-156.21515006280194,-86.72994590338163,-7.479898009661836,56.615965,35.196358169082124,67.880774,46.988498,-62.72182625120773,-21.917698,0
176.33333333333331,231.61909773913044,276.08385417391304,259.9227243768116,-156.2245955942029,-86.72780085507246,-7.469380014492754,56.615965,35.195880753623186,67.880774,46.988498,-62.7190583768116,-21.917698,0
179.1111111111111,231.61857998550727,276.084838231884,259.92295650241545,-156.23404112560388,-86.72565580676329,-7.458862019323671,56.615965,35.195403338164255,67.880774,46.988498,-62.71629050241546,-21.917698,0
181.88888888888889,231.61806223188407,276.08582228985506,259.9231886280193,-156.24348665700484,-86.72351075845411,-7.44834402415459,56.615965,35.19492592270532,67.880774,46.988498,-62.71352262801933,-21.917698,0
184.66666666666663,231.61754447826087,276.0868063478261,259.9234207536232,-156.2529321884058,-86.72136571014492,-7.437826028985508,56.615965,35.19444850724638,67.880774,46.988498,-62.71075475362319,-21.917698,0
187.4444444444444,231.6170267246377,276.0877904057971,259.92365287922706,-156.26237771980678,-86.71922066183575,-7.427308033816425,56.615965,35.19397109178744,67.880774,46.988498,-62.70798687922706,-21.917698,0
190.22222222222217,231.6165089710145,276.0887744637681,259.92388500483094,-156.2718232512077,-86.71707561352657,-7.416790038647344,56.615965,35.1934936763285,67.880774,46.988498,-62.70521900483092,-21.917698,0
192.99999999999997,231.61632775,276.0890005,259.9253195,-156.271023125,-86.716568125,-7.417289875,56.615965,35.193145125,67.880774,46.988498,-62.704444,-21.917698,0
195.7777777777777,231.61627740277777,276.08893175,259.92722158333333,-156.2662385763889,-86.71669746527778,-7.422074423611111,56.615965,35.1928466875,67.880774,46.988498,-62.704444,-21.917698,0
198.5555555555555,231.6162270555556,276.088863,259.92912366666667,-156.26145402777777,-86.71682680555556,-7.426858972222222,56.615965,35.192548249999994,67.880774,46.988498,-62.704444,-21.917698,0
201.3333333333333,231.6161767083333,276.08879425000003,259.93102575,-156.25666947916667,-86.71695614583334,-7.431643520833333,56.615965,35.192249812499995,67.880774,46.988498,-62.704444,-21.917698,0
204.11111111111103,231.6161263611111,276.0887255,259.93292783333334,-156.25188493055555,-86.7170854861111,-7.436428069444444,56.615965,35.191951374999995,67.880774,46.988498,-62.704444,-21.917698,0
206.8888888888888,231.6160760138889,276.08865675000004,259.9348299166667,-156.24710038194442,-86.71721482638888,-7.441212618055555,56.615965,35.191652937499995,67.880774,46.988498,-62.704444,-21.917698,0
209.66666666666657,231.61604529411764,276.08861556862746,259.9359783137255,-156.24420374509802,-86.71730078431372,-7.444109254901961,56.615965,35.19147017647059,67.880774,46.988498,-62.704444,-21.917698,0
212.44444444444437,231.61601539215687,276.0885755359477,259.9370953071896,-156.24138577124182,-86.71738493464052,-7.44692722875817,56.615965,35.191292235294114,67.880774,46.988498,-62.704444,-21.917698,0
215.2222222222221,231.61598549019607,276.088535503268,259.9382123006536,-156.2385677973856,-86.71746908496732,-7.449745202614379,56.615965,35.19111429411765,67.880774,46.988498,-62.704444,-21.917698,0
217.9999999999999,231.6159555882353,276.08849547058827,259.9393292941176,-156.2357498235294,-86.71755323529412,-7.452563176470588,56.615965,35.19093635294117,67.880774,46.988498,-62.704444,-21.917698,0
220.7777777777777,231.6159256862745,276.0884554379085,259.94044628758166,-156.23293184967318,-86.71763738562092,-7.455381150326797,56.615965,35.190758411764705,67.880774,46.988498,-62.704444,-21.917698,0
223.55555555555543,231.6158957843137,276.0884154052288,259.9415632810457,-156.23011387581698,-86.71772153594772,-7.458199124183006,56.615965,35.19058047058823,67.880774,46.988498,-62.704444,-21.917698,0
226.3333333333332,231.61587186666668,276.08838535555554,259.94238288888886,-156.22804973333334,-86.71777964444445,-7.460254244444444,56.615965,35.19039162222222,67.880774,46.988498,-62.704444,-21.917698,0
229.11111111111097,231.6158490888889,276.0883572074074,259.94314585185185,-156.22612917777778,-86.7178327925926,-7.462164059259258,56.615965,35.190200696296294,67.880774,46.988498,-62.704444,-21.917698,0
231.88888888888877,231.6158263111111,276.08832905925925,259.9439088148148,-156.22420862222222,-86.71788594074074,-7.4640738740740735,56.615965,35.19000977037037,67.880774,46.988498,-62.704444,-21.917698,0
234.6666666666665,231.61580353333332,276.0883009111111,259.9446717777777,-156.22228806666666,-86.7179390888889,-7.465983688888889,56.615965,35.189818844444446,67.880774,46.988498,-62.704444,-21.917698,0
237.4444444444443,231.6157807555556,276.08827276296296,259.9454347407407,-156.2203675111111,-86.71799223703704,-7.467893503703703,56.615965,35.18962791851852,67.880774,46.988498,-62.704444,-21.917698,0
240.2222222222221,231.615752875,276.0882383611111,259.94643781944444,-156.21783893055556,-86.71806134027779,-7.470411715277777,56.615965,35.18942910416666,67.880774,46.988498,-62.704444,-21.917698,0
242.99999999999983,231.6157185,276.088196,259.9477465,-156.2145365,-86.71815075,-7.47370425,56.615965,35.18922025,67.880774,46.988498,-62.704444,-21.917698,0
245.7777777777776,231.615684125,276.0881536388889,259.94905518055555,-156.21123406944443,-86.71824015972223,-7.476996784722222,56.615965,35.18901139583333,67.880774,46.988498,-62.704444,-21.917698,0
248.55555555555537,231.61564975,276.0881112777778,259.9503638611111,-156.20793163888888,-86.71832956944445,-7.480289319444444,56.615965,35.18880254166667,67.880774,46.988498,-62.704444,-21.917698,0
251.33333333333317,231.615615375,276.08806891666666,259.95167254166665,-156.20462920833333,-86.71841897916667,-7.483581854166666,56.615965,35.1885936875,67.880774,46.988498,-62.704444,-21.917698,0
254.1111111111109,231.615581,276.0880265555556,259.9529812222222,-156.20132677777778,-86.71850838888889,-7.486874388888888,56.615965,35.18838483333334,67.880774,46.988498,-62.704444,-21.917698,0
256.8888888888887,231.6155200074074,276.08794764444445,259.9552061555555,-156.19570291851852,-86.71866695555555,-7.492487903703703,56.615965,35.187942740740745,67.880774,46.988498,-62.704444,-21.917698,0
259.66666666666646,231.6154464888889,276.0878515333333,259.95786226666667,-156.18898662222222,-86.71885806666667,-7.499193644444444,56.615965,35.18739088888889,67.880774,46.988498,-62.704444,-21.917698,0
262.44444444444423,231.6153729703704,276.0877554222222,259.96051837777776,-156.1822703259259,-86.71904917777778,-7.505899385185184,56.615965,35.18683903703704,67.880774,46.988498,-62.704444,-21.917698,0
265.222222222222,231.61529945185185,276.0876593111111,259.96317448888885,-156.17555402962964,-86.7192402888889,-7.512605125925925,56.615965,35.186287185185186,67.880774,46.988498,-62.704444,-21.917698,0
267.9999999999998,231.6152259333333,276.0875632,259.9658306,-156.16883773333333,-86.7194314,-7.519310866666666,56.615965,35.185735333333334,67.880774,46.988498,-62.704444,-21.917698,0
270.77777777777754,231.6151036581197,276.0874027008547,259.97028274358973,-156.15758826495727,-86.71974382051283,-7.530542444444443,56.615965,35.18499176923077,67.880774,46.988498,-62.704444,-21.917698,0
273.5555555555553,231.614856008547,276.0870766324786,259.97935325641026,-156.1346820683761,-86.72036817948718,-7.553411888888887,56.615965,35.18375523076923,67.880774,46.988498,-62.704444,-21.917698,0
276.3333333333331,231.61460835897435,276.08675056410254,259.9884237692308,-156.1117758717949,-86.72099253846154,-7.576281333333331,56.615965,35.18251869230769,67.880774,46.988498,-62.704444,-21.917698,0
279.11111111111086,231.6143607094017,276.0864244957265,259.99749428205126,-156.0888696752137,-86.72161689743591,-7.599150777777775,56.615965,35.181282153846155,67.880774,46.988498,-62.704444,-21.917698,0
281.88888888888863,231.61411305982907,276.0860984273504,260.0065647948718,-156.06596347863248,-86.72224125641026,-7.62202022222222,56.615965,35.180045615384614,67.880774,46.988498,-62.704444,-21.917698,0
284.6666666666664,231.61247222916663,276.09052341666666,260.0210712291667,-156.0585438125,-86.72586308333334,-7.6245968541666675,56.615965,35.1781425625,67.880774,46.98278039583333,-62.704444,-21.917698,0
287.4444444444442,231.6099026111111,276.09811577777776,260.03920161111114,-156.0614485,-86.73148322222222,-7.613644944444445,56.615965,35.17579516666667,67.880774,46.97325105555556,-62.704444,-21.917698,0
290.22222222222194,231.6073329930556,276.1057081388889,260.0573319930556,-156.06435318750002,-86.73710336111111,-7.602693034722223,56.615965,35.173447770833334,67.880774,46.96372171527778,-62.704444,-21.917698,0
292.9999999999997,231.604763375,276.1133005,260.075462375,-156.067257875,-86.7427235,-7.591741125000001,56.615965,35.171100375,67.880774,46.954192375,-62.704444,-21.917698,0
295.7777777777775,231.60219375694444,276.12089286111114,260.0935927569444,-156.0701625625,-86.74834363888888,-7.580789215277779,56.615965,35.16875297916667,67.880774,46.94466303472222,-62.704444,-21.917698,0
298.55555555555526,231.59962413888888,276.12848522222225,260.11172313888886,-156.07306725,-86.75396377777778,-7.569837305555557,56.615965,35.16640558333333,67.880774,46.935133694444445,-62.704444,-21.917698,0
301.33333333333303,231.59683,276.13573733333334,260.144867,-156.03449433333333,-86.76293216666667,-7.600227999999996,56.615965,35.162095666666666,67.880793,46.92445116666666,-62.70673583333333,-21.917698,0
304.1111111111108,231.5939930952381,276.14292463492063,260.18087057142856,-155.9880209206349,-86.77253831746032,-7.638493476190472,56.615965,35.157411936507934,67.88081561904762,46.91354898412698,-62.70946420634921,-21.917698,0
306.8888888888886,231.5911561904762,276.1501119365079,260.21687414285714,-155.94154750793652,-86.78214446825397,-7.676758952380948,56.615965,35.1527282063492,67.88083823809524,46.9026468015873,-62.71219257936508,-21.917698,0
309.66666666666634,231.58831928571428,276.1572992380953,260.2528777142857,-155.8950740952381,-86.79175061904762,-7.715024428571424,56.615965,35.14804447619048,67.88086085714286,46.89174461904762,-62.71492095238095,-21.917698,0
312.4444444444441,231.5854823809524,276.16448653968257,260.2888812857143,-155.84860068253968,-86.80135676984128,-7.753289904761901,56.615965,35.143360746031746,67.88088347619048,46.88084243650793,-62.71764932539683,-21.917698,0
315.2222222222219,231.5813058333333,276.17412136111113,260.34430394444445,-155.76878447222222,-86.81368675,-7.821787861111102,56.615965,35.13573941666667,67.88093577777778,46.866454777777776,-62.72010486111111,-21.917698,0
317.99999999999966,231.576794375,276.1843680625,260.404581375,-155.6806325625,-86.8266976875,-7.8978439374999905,56.615965,35.1273836875,67.8809955,46.85119575,-62.7224921875,-21.917698,0
320.77777777777743,231.5722829166667,276.19461476388886,260.46485880555554,-155.5924806527778,-86.839708625,-7.97390001388888,56.615965,35.119027958333334,67.88105522222222,46.83593672222222,-62.72487951388889,-21.917698,0
323.5555555555552,231.5677714583333,276.20486146527776,260.5251362361111,-155.50432874305557,-86.8527195625,-8.049956090277767,56.615965,35.11067222916667,67.88111494444445,46.82067769444445,-62.72726684027778,-21.917698,0
326.333333333333,231.56326,276.21510816666665,260.5854136666667,-155.41617683333334,-86.8657305,-8.126012166666657,56.615965,35.1023165,67.88117466666667,46.80541866666667,-62.72965416666667,-21.917698,0
329.11111111111074,231.55875765185183,276.2250541851852,260.647183762963,-155.32240405185186,-86.8786853037037,-8.207910666666637,56.615965,35.09369827407408,67.881232,46.79044447407408,-62.7320139037037,-21.917698,0
331.8888888888885,231.55447394814811,276.2277838148148,260.744777837037,-155.09373034814817,-86.89029289629629,-8.430027333333303,56.615965,35.07878012592593,67.881232,46.78230632592593,-62.73371149629629,-21.917698,0
334.6666666666663,231.55019024444445,276.23051344444445,260.8423719111111,-154.86505664444448,-86.90190048888888,-8.65214399999997,56.615965,35.06386197777778,67.881232,46.77416817777778,-62.735409088888886,-21.917698,0
337.44444444444406,231.5459065407408,276.2332430740741,260.9399659851852,-154.63638294074076,-86.91350808148148,-8.874260666666636,56.615965,35.04894382962964,67.881232,46.76603002962963,-62.73710668148148,-21.917698,0
340.22222222222183,231.54162283703704,276.2359727037037,261.03756005925925,-154.40770923703707,-86.92511567407406,-9.0963773333333,56.615965,35.03402568148148,67.881232,46.75789188148149,-62.73880427407407,-21.917698,0
342.9999999999996,231.53733913333332,276.2387023333333,261.13515413333334,-154.17903553333335,-86.93672326666666,-9.318493999999967,56.615965,35.01910753333333,67.881232,46.74975373333333,-62.74050186666666,-21.917698,0
345.7777777777774,231.5342897777778,276.23493777777776,261.24945733333334,-154.04153077777778,-86.95437922222222,-9.454803222222209,56.615965,35.001762222222226,67.881232,46.746824,-62.74569033333333,-21.92868611111111,0
348.55555555555515,231.5319347430556,276.22752024305555,261.3731594166667,-153.95530855555558,-86.97543738194443,-9.54284575694443,56.615965,34.98305163194445,67.881232,46.746824,-62.75284241666667,-21.94585503472222,0
351.3333333333329,231.52957970833333,276.22010270833334,261.4968615,-153.86908633333334,-86.99649554166666,-9.630888291666652,56.615965,34.96434104166667,67.881232,46.746824,-62.7599945,-21.96302395833333,0
354.1111111111107,231.5272246736111,276.21268517361113,261.6205635833333,-153.78286411111114,-87.01755370138888,-9.718930826388876,56.615965,34.94563045138889,67.881232,46.746824,-62.76714658333333,-21.98019288194444,0
356.88888888888846,231.5248696388889,276.20526763888887,261.74426566666665,-153.6966418888889,-87.03861186111111,-9.806973361111098,56.615965,34.92691986111111,67.881232,46.746824,-62.77429866666667,-21.997361805555556,0
359.66666666666623,231.52251460416667,276.19785010416666,261.86796775,-153.6104196666667,-87.05967002083332,-9.89501589583332,56.615965,34.90820927083333,67.881232,46.746824,-62.78145075,-22.014530729166665,0
362.444444444444,231.51988712592592,276.1884657185185,262.0128174962963,-153.58944732592593,-87.08773394814814,-9.918615592592593,56.615965,34.88654288888889,67.88125074074074,46.746824,-62.79125387407407,-22.0398683037037,0
365.2222222222218,231.5172224962963,276.1788131259259,262.1605510148148,-153.57737269629632,-87.1167532074074,-9.933427629629628,56.615965,34.86447344444444,67.88127203703704,46.746824,-62.8014185037037,-22.06631978518518,0
367.9999999999996,231.51455786666668,276.1691605333333,262.3082845333333,-153.56529806666668,-87.14577246666666,-9.948239666666664,56.615965,34.842404,67.88129333333333,46.746824,-62.81158313333333,-22.092771266666663,0
370.7777777777773,231.51189323703704,276.15950794074075,262.4560180518518,-153.55322343703705,-87.17479172592593,-9.963051703703702,56.615965,34.820334555555554,67.88131462962963,46.746824,-62.82174776296296,-22.119222748148143,0
373.5555555555551,231.5092286074074,276.1498553481481,262.6037515703703,-153.5411488074074,-87.20381098518519,-9.97786374074074,56.615965,34.798265111111114,67.88133592592592,46.746824,-62.83191239259259,-22.145674229629623,0
376.33333333333286,231.5061213333333,276.1384044166667,262.7729216666666,-153.4857054166667,-87.23656725,-10.036735916666649,56.615965,34.77306666666667,67.88135650000001,46.746824,-62.84406391666666,-22.174077666666665,0
379.1111111111106,231.50253452777775,276.12500528472225,262.96531472222216,-153.38327920138892,-87.2733719375,-10.143339909722204,56.615965,34.74447847222223,67.88137629166667,46.746824,-62.85836790972222,-22.204595722222216,0
381.8888888888884,231.49894772222223,276.11160615277777,263.1577077777777,-153.28085298611114,-87.310176625,-10.24994390277776,56.615965,34.71589027777778,67.88139608333334,46.746824,-62.872671902777775,-22.235113777777773,0
384.6666666666662,231.49536091666667,276.09820702083334,263.3501008333333,-153.17842677083337,-87.34698131249999,-10.356547895833314,56.615965,34.687302083333336,67.881415875,46.746824,-62.88697589583333,-22.265631833333327,0
387.444444444444,231.4917741111111,276.08480788888886,263.5424938888888,-153.07600055555557,-87.383786,-10.46315188888887,56.615965,34.6587138888889,67.88143566666668,46.746824,-62.90127988888889,-22.296149888888884,0
390.2222222222217,231.4881873055556,276.07140875694444,263.7348869444444,-152.9735743402778,-87.4205906875,-10.569755881944426,56.615965,34.63012569444445,67.88145545833333,46.746824,-62.91558388194444,-22.32666794444444,0
392.9999999999995,231.482279125,276.060348125,263.938747125,-152.99168425,-87.453578,-10.552178375000013,56.615965,34.59822150000001,67.881461,46.746824,-62.920735,-22.362679124999996,0
395.77777777777726,231.4754681875,276.0501969097222,264.1470667430555,-153.05666931944444,-87.48508077777778,-10.486308062500012,56.615965,34.565027750000006,67.881461,46.746824,-62.92232666666667,-22.400826520833327,0
398.55555555555503,231.46865725,276.0400456944445,264.3553863611111,-153.12165438888889,-87.51658355555556,-10.420437750000014,56.615965,34.53183400000001,67.881461,46.746824,-62.92391833333333,-22.438973916666654,0
401.3333333333328,231.4618463125,276.02989447916667,264.5637059791666,-153.18663945833333,-87.54808633333333,-10.354567437500013,56.615965,34.49864025000001,67.881461,46.746824,-62.92551,-22.477121312499992,0
404.1111111111106,231.455035375,276.01974326388887,264.7720255972222,-153.25162452777778,-87.5795891111111,-10.288697125000011,56.615965,34.465446500000006,67.881461,46.746824,-62.927101666666665,-22.515268708333327,0
406.8888888888884,231.4482244375,276.0095920486111,264.98034521527774,-153.3166095972222,-87.61109188888888,-10.222826812500012,56.615965,34.43225275000001,67.881461,46.746824,-62.92869333333333,-22.55341610416666,0
409.6666666666661,231.4424398222222,276.00022866666666,265.1553391555555,-153.52333468888884,-87.6413207111111,-10.01578097777782,56.615965,34.39424553333334,67.88148144444445,46.746824,-62.93283131111111,-22.60377328888888,0
412.4444444444439,231.4366979703704,275.9908981111111,265.3289445259259,-153.73596561481477,-87.67149645185185,-9.802852829629671,56.615965,34.35603775555556,67.88150274074074,46.746824,-62.93707538518518,-22.654639214814804,0
415.22222222222166,231.4309561185185,275.9815675555556,265.5025498962963,-153.94859654074068,-87.70167219259258,-9.589924681481524,56.615965,34.31782997777779,67.88152403703704,46.746824,-62.941319459259255,-22.70550514074073,0
417.9999999999994,231.42521426666667,275.972237,265.6761552666666,-154.16122746666662,-87.73184793333333,-9.376996533333378,56.615965,34.27962220000001,67.88154533333334,46.746824,-62.945563533333335,-22.756371066666656,0
420.7777777777772,231.4194724148148,275.96290644444446,265.84976063703704,-154.37385839259252,-87.76202367407407,-9.16406838518523,56.615965,34.241414422222235,67.88156662962963,46.746824,-62.94980760740741,-22.807236992592586,0
423.555555555555,231.4121624592593,275.9499016666667,266.07426855555553,-154.3836308740741,-87.79695288148147,-9.154682088888858,56.615929325925926,34.207365888888894,67.881576,46.746824,-62.95404577037037,-22.844424918518516,0
426.3333333333328,231.40362042222225,275.93401,266.3387713333333,-154.2340145777778,-87.83561695555555,-9.305221533333302,56.61586562222222,34.17658533333334,67.881576,46.746824,-62.95827928888889,-22.87086584444444,0
429.1111111111105,231.3950783851852,275.9181183333333,266.6032741111111,-154.0843982814815,-87.87428102962963,-9.455760977777746,56.61580191851852,34.145804777777784,67.881576,46.746824,-62.96251280740741,-22.897306770370363,0
431.8888888888883,231.38653634814816,275.9022266666667,266.86777688888884,-153.93478198518525,-87.91294510370369,-9.60630042222219,56.61573821481481,34.11502422222223,67.881576,46.746824,-62.966746325925925,-22.92374769629629,0
434.66666666666606,231.3779943111111,275.88633500000003,267.13227966666665,-153.78516568888892,-87.95160917777777,-9.756839866666636,56.61567451111111,34.08424366666667,67.881576,46.746824,-62.97097984444444,-22.950188622222218,0
437.44444444444383,231.36928761111116,275.87081500000005,267.3936999722222,-153.55845486111127,-87.98771572222222,-9.98417174999986,56.615614638888886,34.052082277777785,67.881576,46.746824,-62.974536,-22.97514602777777,0
440.2222222222216,231.3597164305556,275.85724625,267.63893729861104,-152.9269977430557,-88.01039523611111,-10.61466393749986,56.61557488194444,34.0126715138889,67.881576,46.746824,-62.974536,-22.992314951388884,0
442.9999999999994,231.35014525,275.8436775,267.884174625,-152.29554062500014,-88.03307475,-11.245156124999856,56.615535125,33.97326075000001,67.881576,46.746824,-62.974536,-23.009483875,0
445.7777777777772,231.34057406944444,275.83010875,268.1294119513888,-151.6640835069446,-88.05575426388889,-11.875648312499855,56.61549536805556,33.93384998611112,67.881576,46.746824,-62.974536,-23.026652798611103,0
448.5555555555549,231.3310028888889,275.81654,268.37464927777773,-151.03262638888904,-88.07843377777778,-12.506140499999857,56.61545561111111,33.89443922222223,67.881576,46.746824,-62.974536,-23.04382172222222,0
451.3333333333327,231.3214317083333,275.80297125,268.6198866041666,-150.4011692708335,-88.10111329166666,-13.136632687499851,56.61541585416666,33.855028458333344,67.881576,46.746824,-62.974536,-23.06099064583333,0
454.11111111111046,231.31228969444444,275.787520625,268.85740337499993,-149.59216284722248,-88.11618120833333,-13.946671611110858,56.615392,33.81641345833334,67.881576,46.749875805555554,-62.972948430555554,-23.071292,0
456.8888888888882,231.30379143055555,275.7692471875,269.0833393125,-148.51683246527804,-88.11983172916666,-15.026030638888631,56.615392,33.77899210416668,67.881576,46.75750531944444,-62.96897950694444,-23.071292,0
459.666666666666,231.29529316666665,275.75097375,269.3092752499999,-147.4415020833336,-88.12348225000001,-16.105389666666408,56.615392,33.74157075000001,67.881576,46.76513483333333,-62.96501058333334,-23.071292,0
462.4444444444438,231.29245739204273,275.7448761104078,269.38466751912307,-146.36617170138916,-88.12713277083334,-17.184748694444185,56.615392,33.70414939583334,67.881576,46.77276434722222,-62.96104165972223,-23.071292,0
465.2222222222216,231.2889080087421,275.7372440299316,269.4790318803693,-145.29084131944472,-88.13078329166667,-18.26410772222196,56.615392,33.66672804166667,67.881576,46.78039386111111,-62.95707273611112,-23.071292,0
467.9999999999993,231.28506837696722,275.7289878411172,269.5811128249078,-144.21551093750028,-88.1344338125,-19.34346674999973,56.615392,33.629306687500005,67.881576,46.788023375,-62.9531038125,-23.071292,0
470.7777777777771,231.28076689449045,275.7203693993984,269.6838492918333,-143.45034177777794,-88.10552766666669,-20.11193888888874,56.615392,33.58958077777778,67.88158866666666,46.809079222222216,-62.91962755555557,-23.06763133333333,0
473.55555555555486,231.2760443223501,275.7115134467384,269.78547412172884,-142.8596383055557,-88.05830839583335,-20.70553715277763,56.615392,33.548558555555566,67.88160845833333,46.83768738194444,-62.86955342361112,-23.061911541666667,0
476.33333333333263,231.2710512597651,275.70249712612923,269.88652861247266,-142.26893483333347,-88.01108912500001,-21.29913541666652,56.615392,33.50753633333334,67.88162825,46.86629554166666,-62.81947929166668,-23.05619175,0
479.1111111111104,231.26587042327876,275.69336173671195,269.9873298160089,-141.67823136111127,-87.96386985416669,-21.89273368055541,56.615392,33.466514111111124,67.88164804166666,46.89490370138888,-62.76940515972224,-23.050471958333336,0
481.8888888888882,231.260550601118,275.6841306799772,270.08808238374877,-141.08752788888904,-87.91665058333335,-22.48633194444429,56.615392,33.4254918888889,67.88166783333334,46.92351186111111,-62.71933102777779,-23.04475216666667,0
484.666666666666,231.255122090054,275.67481762063903,270.18892938060617,-140.4968244166668,-87.86943131250001,-23.079930208333177,56.615392,33.38446966666668,67.88168762500001,46.95212002083333,-62.66925689583335,-23.039032375,0
487.4444444444437,231.24994963165364,275.6638922808124,270.28941652668135,-140.07426771851863,-87.81173874814816,-23.52206847407396,56.615392,33.34291765185186,67.88169945185186,47.00210777037036,-62.617748414814834,-23.038346,0
490.2222222222215,231.24501293803942,275.65150716482253,270.38968209395574,-139.67464012592603,-87.75261800740742,-23.943553103703596,56.615392,33.301293392592605,67.88171019259259,47.055010918518505,-62.56604434074075,-23.038346,0
492.99999999999926,231.24025695283964,275.63794864350234,270.48989920712825,-139.27501253333344,-87.69349726666668,-24.36503773333322,56.615392,33.25966913333335,67.88172093333334,47.10791406666665,-62.51434026666668,-23.038346,0
495.777777777777,231.23564100863115,275.62342502680696,270.5902029094141,-138.87538494074084,-87.63437652592594,-24.78652236296285,56.615392,33.21804487407408,67.88173167407408,47.160817214814806,-62.462636192592605,-23.038346,0
498.5555555555548,231.2311343401466,275.60809101216216,270.69070179844306,-138.47575734814828,-87.57525578518519,-25.20800699259248,56.615392,33.17642061481482,67.88174241481482,47.21372036296295,-62.41093211851853,-23.038346,0
501.3333333333326,231.22673136691378,275.59191401171756,270.79127929949243,-138.12655458333342,-87.51380725000001,-25.581218749999916,56.615392,33.13505191666668,67.881748,47.26961049999999,-62.35886925000001,-23.038346,0
504.1111111111104,231.22242931235604,275.5748527818552,270.89183054611027,-137.83197871527787,-87.44983693750001,-25.90213489583325,56.615392,33.093960076388896,67.881748,47.32873654166665,-62.306417687500016,-23.038346,0
506.8888888888881,231.2182082422718,275.5570178596934,270.9924771670444,-137.5374028472223,-87.38586662500002,-26.22305104166658,56.615392,33.052868236111124,67.881748,47.38786258333332,-62.25396612500001,-23.038346,0
509.6666666666659,231.21405204839948,275.53849650845126,271.093321185485,-137.24282697916675,-87.32189631250002,-26.54396718749991,56.615392,33.011776395833344,67.881748,47.44698862499998,-62.201514562500016,-23.038346,0
512.4444444444437,231.20994754549653,275.5193583167643,271.19444945224524,-136.94825111111118,-87.25792600000003,-26.864883333333243,56.615392,32.970684555555565,67.881748,47.50611466666665,-62.14906300000001,-23.038346,0
515.2222222222215,231.20588381484262,275.49965927229334,271.2959368645912,-136.65367524305563,-87.19395568750002,-27.185799479166583,56.615392,32.929592715277785,67.881748,47.56524070833331,-62.09661143750001,-23.038346,0
517.9999999999992,231.20189079983544,275.4791166292454,271.39814762021274,-136.4341834285715,-87.13218814285716,-27.43718099999994,56.615392,32.8874992857143,67.881748,47.630448285714266,-62.0466062857143,-23.044624,0
520.7777777777769,231.19797114064866,275.4576804706389,271.5012184656401,-136.24389096825402,-87.07127723015876,-27.66152127777771,56.615392,32.84501634920636,67.881748,47.69802090476188,-61.99755251587303,-23.05334344444444,0
523.5555555555547,231.1941130559082,275.4354249439567,271.60516067412544,-136.05359850793656,-87.01036631746034,-27.885861555555493,56.615392,32.80253341269842,67.881748,47.7655935238095,-61.94849874603176,-23.062062888888885,0
526.3333333333326,231.1903065098237,275.41241205002376,271.7099863488492,-135.8633060476191,-86.94945540476192,-28.110201833333274,56.615392,32.760050476190486,67.881748,47.83316614285712,-61.89944497619049,-23.07078233333333,0
529.1111111111103,231.18654289435057,275.3886939526217,271.81570806082897,-135.67301358730165,-86.8885444920635,-28.334542111111045,56.615392,32.71756753968255,67.881748,47.90073876190474,-61.85039120634922,-23.07950177777777,0
531.888888888888,231.18268116119452,275.365392923499,271.921197580847,-135.56255956944446,-86.85529492361111,-28.45733218055553,56.615392,32.67787705555556,67.881748,47.93662747916666,-61.80767828472224,-23.09266813888888,0
534.6666666666658,231.17866526606056,275.34294668369483,272.02604412929077,-135.48967658333336,-86.83506245833334,-28.532333916666644,56.615392,32.63950066666668,67.881748,47.95760612499999,-61.76794929166668,-23.107927166666663,0
537.4444444444437,231.1745049922262,275.3212630053764,272.13039180009184,-135.41679359722224,-86.81482999305555,-28.60733565277776,56.615392,32.601124277777785,67.881748,47.97858477083333,-61.72822029861112,-23.12318619444444,0
540.2222222222214,231.17020879390012,275.30026147722083,272.23436705012926,-135.34391061111114,-86.79459752777778,-28.682337388888868,56.615392,32.5627478888889,67.881748,47.99956341666666,-61.688491305555566,-23.138445222222217,0
542.9999999999991,231.16578401313927,275.27987166898356,272.3380813244846,-135.27102762500004,-86.77436506250001,-28.757339124999977,56.615392,32.524371500000015,67.881748,48.02054206249999,-61.64876231250001,-23.153704249999997,0
545.7777777777769,231.16123705720148,275.2600316296299,272.44163320615127,-135.19814463888892,-86.75413259722224,-28.83234086111109,56.615392,32.48599511111112,67.881748,48.04152070833333,-61.60903331944446,-23.16896327777777,0
548.5555555555547,231.1563197793472,275.2412196667892,272.5460238995508,-135.3317766296296,-86.74270373333334,-28.684138437037085,56.615392,32.45848230370371,67.881748,48.04507307407408,-61.5754380962963,-23.188896799999995,0
551.3333333333325,231.1510331483439,275.2233956514683,272.65134561478453,-135.4833664444444,-86.7320404,-28.51652695555561,56.615392,32.43191415555557,67.881748,48.04711011111111,-61.542376244444455,-23.209236799999992,0
554.1111111111102,231.1453987496793,275.2064803207858,272.75760589419474,-135.6349562592592,-86.72137706666668,-28.34891547407413,56.615392,32.40534600740742,67.881748,48.049147148148144,-61.5093143925926,-23.229576799999997,0
556.888888888888,231.1394358178078,275.1904029804048,272.8648116444237,-135.78654607407404,-86.71071373333334,-28.18130399259265,56.615392,32.37877785925927,67.881748,48.05118418518519,-61.47625254074075,-23.249916799999998,0
559.6666666666658,231.13316155836438,275.1751003725473,272.97296910165375,-135.93813588888884,-86.7000504,-28.013692511111163,56.615392,32.35220971111112,67.881748,48.05322122222222,-61.4431906888889,-23.270256799999995,0
562.4444444444435,231.1266410444397,275.1604362520878,273.08172195074,-136.23894057638876,-86.69853200694443,-27.699549013889037,56.615392,32.323142812500016,67.881748,48.05816634722222,-61.40831193055557,-23.304817138888875,0
565.2222222222213,231.11993050953689,275.14629175132694,273.1907664953871,-136.6774820694443,-86.70545509722221,-27.2501451944446,56.615392,32.291769375000015,67.881748,48.06579586111111,-61.37175602777779,-23.35250394444443,0
567.9999999999991,231.11303730554667,275.1326291224369,273.300145065063,-137.11602356249986,-86.7123781875,-26.800741375000147,56.615392,32.260395937500014,67.881748,48.073425375,-61.335200125000014,-23.400190749999982,0
570.7777777777769,231.1059681155366,275.1194142053584,273.4098956712291,-137.55456505555543,-86.71930127777777,-26.35133755555569,56.615392,32.22902250000001,67.881748,48.081054888888886,-61.29864422222224,-23.44787755555554,0
573.5555555555546,231.09872903919936,275.10661601012094,273.52005243535655,-137.99310654861097,-86.72622436805555,-25.90193373611126,56.615392,32.19764906250001,67.881748,48.08868440277778,-61.26208831944446,-23.495564361111096,0
576.3333333333323,231.0913256663073,275.09420635614805,273.6306459618542,-138.4316480416665,-86.73314745833333,-25.452529916666823,56.615392,32.16627562500001,67.881748,48.096313916666666,-61.22553241666668,-23.54325116666665,0
579.1111111111102,231.0837409480092,275.08214763177233,273.74228169644266,-138.63622845185182,-86.7391797037037,-25.23644013333338,56.615392,32.13333680740742,67.881748,48.09969328888889,-61.19549462222224,-23.579435829629617,0
581.888888888888,231.07597379640976,275.07041323979627,273.85513624185865,-138.76692641481478,-86.74493062962962,-25.09402846666671,56.615392,32.09990365925927,67.881748,48.10173051111112,-61.16751517777779,-23.611988237037025,0
584.6666666666657,231.06802997354853,275.05898243791165,273.9691961594444,-138.89762437777773,-86.75068155555554,-24.95161680000005,56.615392,32.06647051111112,67.881748,48.103767733333335,-61.13953573333335,-23.644540644444437,0
587.4444444444434,231.05991483058844,275.04783620660237,274.08444838715644,-139.02832234074071,-86.75643248148147,-24.809205133333386,56.615392,32.03303736296298,67.881748,48.10580495555556,-61.1115562888889,-23.67709305185184,0
590.2222222222213,231.0516333549633,275.03695707328035,274.2008801442631,-139.15902030370367,-86.7621834074074,-24.666793466666714,56.615392,31.999604214814827,67.881748,48.107842177777776,-61.08357684444445,-23.70964545925925,0
592.9999999999991,231.04322131316147,275.0264656154254,274.31739683713135,-139.3226114705882,-86.761068,-24.48987482352949,56.615392,31.97128094117648,67.881748,48.109146,-61.05247511764707,-23.735649117647053,0
595.7777777777768,231.03473663013233,275.0165822878592,274.4321231507308,-139.54467944444437,-86.74774577777778,-24.251610444444527,56.615392,31.952041888888896,67.881748,48.109146,-61.01582266666668,-23.750010555555548,0
598.5555555555545,231.02617975819248,275.00727727148285,274.5451744238805,-139.76674741830058,-86.73442355555555,-24.013346065359567,56.615392,31.932802836601315,67.881748,48.109146,-60.97917021568629,-23.76437199346405,0
601.3333333333323,231.01755117745282,274.9985228967323,274.6566571459927,-139.9888153921568,-86.72110133333334,-23.775081686274596,56.615392,31.91356378431373,67.881748,48.109146,-60.9425177647059,-23.778733431372544,0
604.1111111111102,231.0088513956352,274.99029344107737,274.7666697691729,-140.210883366013,-86.70777911111111,-23.536817307189622,56.615392,31.89432473202615,67.881748,48.109146,-60.90586531372551,-23.79309486928104,0
606.8888888888879,231.0000809476904,274.98256494894963,274.8753034323136,-140.4329513398692,-86.6944568888889,-23.29855292810466,56.615392,31.875085679738568,67.881748,48.109146,-60.86921286274512,-23.807456307189536,0
609.6666666666656,230.99122133668044,274.9752742179148,274.9830396467355,-140.58112652380956,-86.68045771428572,-23.13445880952378,56.615392,31.85385042857144,67.881748,48.109146,-60.83329195238097,-23.81941595238095,0
612.4444444444434,230.98221383590732,274.96827321778505,275.0911924669567,-140.4953078730159,-86.66431485714286,-23.20523718253966,56.615392,31.82629388095239,67.881748,48.109146,-60.7996875873016,-23.82376992063492,0
615.2222222222213,230.97306210689314,274.96154893306675,275.1997711994341,-140.40948922222225,-86.648172,-23.27601555555553,56.615392,31.798737333333342,67.881748,48.109146,-60.76608322222224,-23.82812388888889,0
617.999999999999,230.96376965304094,274.95508917763766,275.3087838509749,-140.3236705714286,-86.63202914285715,-23.346793928571405,56.615392,31.771180785714296,67.881748,48.109146,-60.73247885714287,-23.83247785714285,0
620.7777777777767,230.95433983417172,274.94888252497935,275.41823722645137,-140.23785192063494,-86.61588628571428,-23.417572301587278,56.615392,31.743624238095247,67.881748,48.109146,-60.6988744920635,-23.836831825396825,0
623.5555555555545,230.9447837849109,274.94300303764953,275.5275594480495,-140.26367335416649,-86.59850172222222,-23.37519864583352,56.615392,31.71863861805556,67.881748,48.109146,-60.661659854166686,-23.84413076388888,0
626.3333333333323,230.93513583521582,274.93777548449236,275.63447425968246,-140.73605512499984,-86.57615033333333,-22.880216875000176,56.615392,31.703936708333337,67.881748,48.109146,-60.61000412500002,-23.86320958333333,0
629.1111111111101,230.9253975702523,274.9331751826657,275.739088789013,-141.20843689583316,-86.55379894444445,-22.385235104166856,56.615392,31.689234798611118,67.881748,48.109146,-60.55834839583335,-23.88228840277777,0
631.8888888888878,230.91557055034554,274.92917880011373,275.8415037787776,-141.68081866666648,-86.53144755555556,-21.890253333333533,56.615392,31.67453288888889,67.881748,48.109146,-60.50669266666669,-23.901367222222216,0
634.6666666666656,230.9056563131414,274.9257642512994,275.9418140775839,-142.15320043749983,-86.50909616666667,-21.39527156250019,56.615392,31.65983097916667,67.881748,48.109146,-60.45503693750002,-23.92044604166666,0
637.4444444444434,230.8956563754289,274.9229106027746,276.0401090855391,-142.62558220833316,-86.48674477777779,-20.900289791666847,56.615392,31.64512906944445,67.881748,48.109146,-60.40338120833335,-23.939524861111103,0
640.2222222222211,230.88556807941168,274.9206339138111,276.1362685922729,-143.16367410370347,-86.4645220888889,-20.338678214815065,56.615392,31.63126571111112,67.881748,48.109146,-60.34983673333336,-23.962739385185174,0
642.9999999999989,230.87538777122097,274.9189596882133,276.23011956477353,-143.7853970666664,-86.4424632,-19.69226506666693,56.615392,31.618469600000005,67.881748,48.109146,-60.29388840000002,-23.991217533333323,0
645.7777777777767,230.86511722672904,274.9178672551184,276.3217527815443,-144.4071200296294,-86.42040431111111,-19.04585191851877,56.615392,31.605673488888893,67.881748,48.109146,-60.23794006666669,-24.019695681481476,0
648.5555555555545,230.8547581909642,274.9173369240589,276.4112542683063,-145.02884299259236,-86.39834542222222,-18.39943877037061,56.615392,31.592877377777786,67.881748,48.109146,-60.18199173333336,-24.04817382962962,0
651.3333333333322,230.8443123797933,274.9173499175581,276.4987056284335,-145.65056595555532,-86.37628653333334,-17.753025622222477,56.615392,31.58008126666667,67.881748,48.109146,-60.12604340000002,-24.076651977777768,0
654.11111111111,230.83378437215023,274.91788467490807,276.58417603176173,-146.25891395555544,-86.3539988888889,-17.120179696296425,56.615392,31.56739508148149,67.881748,48.109146,-60.0705020814815,-24.104316525925924,0
656.8888888888878,230.8232449825377,274.9188371166277,276.66754024353514,-146.54626284444433,-86.32622111111112,-16.812947103703827,56.615392,31.55734711851852,67.881748,48.109146,-60.024729118518536,-24.112454674074076,0
659.6666666666656,230.81269351707112,274.9201937855471,276.74887501639154,-146.8336117333332,-86.29844333333334,-16.50571451111123,56.615392,31.54729915555556,67.881748,48.109146,-59.97895615555557,-24.120592822222218,0
662.4444444444433,230.80212935673683,274.9219417962129,276.8282534615382,-147.1209606222221,-86.27066555555557,-16.19848191851864,56.615392,31.5372511925926,67.881748,48.109146,-59.93318319259261,-24.128730970370366,0
665.222222222221,230.79155195198658,274.9240687994215,276.90574528102735,-147.408309511111,-86.2428877777778,-15.891249325926058,56.615392,31.527203229629635,67.881748,48.109146,-59.88741022962965,-24.136869118518515,0
667.9999999999989,230.7809608177172,274.9265629496509,276.9814169815281,-147.69565839999987,-86.21511000000001,-15.58401673333346,56.615392,31.51715526666667,67.881748,48.109146,-59.84163726666669,-24.145007266666664,0
670.7777777777767,230.7703035383693,274.92971334130846,277.0539765708441,-148.15391133333313,-86.17112088888891,-15.098163777778009,56.615392,31.511863666666667,67.881748,48.109146,-59.77734244444447,-24.154042111111107,0
673.5555555555544,230.75955216361783,274.93366844388925,277.1227656574978,-148.70829779166644,-86.1180129027778,-14.5118368680558,56.615392,31.50924752083333,67.881748,48.109146,-59.70262907638892,-24.163581347222216,0
676.3333333333321,230.7487088428062,274.93840349023594,277.18790662606216,-149.26268424999975,-86.06490491666669,-13.92550995833359,56.615392,31.506631375,67.881748,48.109146,-59.62791570833337,-24.17312058333333,0
679.11111111111,230.73777567750764,274.94389466186993,277.24951688001204,-149.8170707083331,-86.01179693055558,-13.339183048611355,56.615392,31.50401522916667,67.881748,48.109146,-59.55320234027781,-24.18265981944444,0
681.8888888888878,230.72675472326696,274.9501190369919,277.30770912219197,-150.37145716666643,-85.95868894444446,-12.752856138889124,56.615392,31.501399083333336,67.881748,48.109146,-59.47848897222225,-24.19219905555555,0
684.6666666666655,230.71564799118588,274.95705454237776,277.3625916144922,-150.92584362499977,-85.90558095833336,-12.166529229166915,56.615392,31.4987829375,67.881748,48.109146,-59.4037756041667,-24.20173829166666,0
687.4444444444432,230.7045025322332,274.96459274956595,277.41425983966013,-151.41435037037016,-85.85805936296299,-11.649483629629856,56.615392,31.497516644444445,67.881748,48.109146,-59.33737761481484,-24.213620629629624,0
690.222222222221,230.69332504952814,274.9727039172313,277.46281297345996,-151.89387351851832,-85.81129954814817,-11.1418854814817,56.615392,31.496434422222222,67.881748,48.109146,-59.27211354074077,-24.22582248148148,0
692.9999999999989,230.68211592826793,274.9813711646928,277.5083476167913,-152.37339666666648,-85.76453973333335,-10.634287333333544,56.615392,31.4953522,67.881748,48.109146,-59.20684946666669,-24.23802433333333,0
695.7777777777766,230.67087556789616,274.9905781963572,277.5509567839176,-152.8529198148146,-85.71777991851853,-10.126689185185406,56.615392,31.49426997777778,67.881748,48.109146,-59.14158539259262,-24.25022618518518,0
698.5555555555543,230.65960438050718,275.0003092736121,277.5907300826362,-153.33244296296274,-85.67102010370373,-9.619091037037268,56.615392,31.49318775555556,67.881748,48.109146,-59.07632131851855,-24.26242803703703,0
701.3333333333321,230.64834651807627,275.01045655214654,277.6278836557161,-153.777917352941,-85.63070711764708,-9.148848235294306,56.615392,31.49261605882353,67.881748,48.109146,-59.01904329411767,-24.276529313725483,0
704.11111111111,230.63714845374446,275.02090779744447,277.6626374236466,-154.18650558823512,-85.59737819607844,-8.719073725490377,56.615392,31.49259743137255,67.881748,48.109146,-58.97041682352943,-24.292688300653587,0
706.8888888888877,230.62600797444895,275.0316544150293,277.69506386059817,-154.59509382352925,-85.56404927450981,-8.289299215686464,56.615392,31.492578803921567,67.881748,48.109146,-58.9217903529412,-24.30884728758169,0
709.6666666666654,230.61492296432482,275.04268808203244,277.72523290919145,-155.00368205882333,-85.53072035294119,-7.859524705882553,56.615392,31.49256017647059,67.881748,48.109146,-58.87316388235296,-24.3250062745098,0
712.4444444444432,230.60389139953395,275.0540007357449,277.7532120967036,-155.41227029411746,-85.49739143137256,-7.429750196078623,56.615392,31.49254154901961,67.881748,48.109146,-58.82453741176473,-24.3411652614379,0
715.222222222221,230.59291134342266,275.06558456288246,277.7790666439816,-155.8208585294116,-85.46406250980394,-6.999975686274693,56.615392,31.49252292156863,67.881748,48.109146,-58.77591094117649,-24.357324248366005,0
717.9999999999987,230.5819925811204,275.0774042158279,277.8029595986347,-156.2416193749998,-85.43470700000002,-6.558812375000207,56.6153991875,31.492511,67.88173725,48.108458437500005,-58.73077400000002,-24.376593374999988,0
720.7777777777765,230.57115367859407,275.0894038107764,277.8251266920296,-156.68402041666647,-85.41241533333334,-6.097402305555774,56.615419152777775,31.492511,67.88170738888888,48.10654854166667,-58.691840666666685,-24.40139163888888,0
723.5555555555543,230.56039200432406,275.10157844450794,277.84561881917887,-157.12642145833314,-85.39012366666668,-5.635992236111321,56.61543911805556,31.492511,67.88167752777778,48.10463864583334,-58.65290733333335,-24.426189902777768,0
726.3333333333321,230.5565748404284,275.10598778741905,277.85235749439204,-157.5688224999998,-85.367832,-5.174582166666868,56.61545908333333,31.492511,67.88164766666667,48.10272875,-58.61397400000001,-24.450988166666654,0
729.1111111111098,230.55197247517367,275.111369720026,277.8601005093753,-158.01122354166645,-85.34554033333335,-4.713172097222435,56.61547904861112,31.492511,67.88161780555555,48.10081885416667,-58.57504066666668,-24.475786430555544,0
731.8888888888875,230.54708958876517,275.1171507225537,277.8679018708918,-158.45362458333312,-85.32324866666667,-4.251762027778001,56.615499013888886,31.492511,67.88158794444443,48.09890895833334,-58.53610733333335,-24.500584694444434,0
734.6666666666654,230.5420736813407,275.1231717629852,277.8754475979695,-158.9479301282049,-85.29640879487181,-3.7341553076925655,56.615507,31.492511,67.88151715384615,48.095324358974366,-58.49060066666669,-24.52881669230768,0
737.4444444444432,230.53698036445576,275.1293775385181,277.88259944136354,-159.47683867521343,-85.26653678632479,-3.1790841538464014,56.615507,31.492511,67.88141907692308,48.090623290598295,-58.4407117777778,-24.559337846153834,0
740.2222222222209,230.53183664353512,275.1357400783687,277.88929635612556,-160.00574722222197,-85.23666477777779,-2.62401300000026,56.615507,31.492511,67.881321,48.08592222222222,-58.39082288888891,-24.589858999999983,0
742.9999999999986,230.52665717143253,275.14224325320225,277.89551042242573,-160.5346557692305,-85.20679276923079,-2.068941846154119,56.615507,31.492511,67.88122292307692,48.08122115384616,-58.340934000000026,-24.62038015384614,0
745.7777777777765,230.52145055086,275.1488767671247,277.9012297613663,-161.06356431623905,-85.17692076068377,-1.5138706923079548,56.615507,31.492511,67.88112484615385,48.07652008547009,-58.29104511111113,-24.65090130769229,0
748.5555555555543,230.51623471016254,275.1556061856817,277.9065094458716,-161.30249505555545,-85.15997104166668,-1.2599434652778814,56.61552520833333,31.492511,67.881117,48.072638895833336,-58.26438590277779,-24.663867097222216,0
751.333333333332,230.5110221322289,275.16240667986403,277.9113926583365,-161.51621033333322,-85.14414500000001,-1.0322026666667754,56.615545,31.492511,67.881117,48.068829,-58.23974666666668,-24.675306333333328,0
754.1111111111097,230.50582104490036,275.16926133050606,277.9159108532602,-161.729925611111,-85.12831895833334,-0.8044618680556694,56.61556479166666,31.492511,67.881117,48.065019104166666,-58.21510743055556,-24.68674556944444,0
756.8888888888875,230.50063697333863,275.1761582595373,277.9200879453318,-161.94364088888878,-85.11249291666667,-0.5767210694445543,56.61558458333333,31.492511,67.881117,48.06120920833333,-58.190468194444456,-24.69818480555555,0
759.6666666666654,230.4954736626603,275.183088924346,277.9239428019095,-162.15735616666657,-85.096666875,-0.3489802708334388,56.615604375,31.492511,67.881117,48.0573993125,-58.16582895833334,-24.70962404166666,0
762.4444444444431,230.49033492200084,275.1900441622442,277.92749628230473,-162.35074342962957,-85.08324058518518,-0.1432174074074514,56.61562778518518,31.492504185185187,67.881117,48.05387307407407,-58.14445463703704,-24.720209148148143,0
765.2222222222208,230.4852296710243,275.1970028523131,277.93079243256955,-162.43740861481476,-85.0824129925926,-0.0528387037037497,56.61567019259259,31.492461592592598,67.881117,48.05183603703704,-58.14022111851852,-24.72631007407407,0
767.9999999999986,230.4801644256037,275.20394913487877,277.9338656621845,-162.52407379999994,-85.0815854,0.0375399999999556,56.6157126,31.492419,67.881117,48.049799,-58.1359876,-24.732410999999995,0
770.7777777777765,230.4751439500144,275.21087099580336,277.93674329809846,-162.61073898518515,-85.08075780740741,0.127918703703661,56.61575500740741,31.49237640740741,67.881117,48.047761962962966,-58.13175408148148,-24.738511925925923,0
773.5555555555542,230.47017171102615,275.21775928037374,277.9394473651425,-162.69740417037033,-85.07993021481481,0.2182974074073626,56.615797414814814,31.492333814814813,67.881117,48.04572492592592,-58.12752056296296,-24.744612851851848,0
776.3333333333319,230.46525020058252,275.22460699218595,277.9419958531583,-162.78406935555552,-85.07910262222222,0.3086761111110643,56.61583982222222,31.49229122222222,67.881117,48.04368788888889,-58.123287044444446,-24.750713777777776,0
779.1111111111097,230.4603822824911,275.23140555466114,277.94440678857904,-162.9080620814814,-85.08158933333333,0.4340036962962281,56.6159146,31.492272977777777,67.881117,48.043199,-58.122271,-24.761459429629625,0
781.8888888888875,230.45557036522263,275.2381473364683,277.94669608243566,-163.0438424518518,-85.08512266666666,0.5703677703703046,56.6159996,31.492262422222225,67.881117,48.043199,-58.122271,-24.773671837037032,0
784.6666666666653,230.45081617648054,275.24482639849134,277.94887703577683,-163.17962282222214,-85.088656,0.7067318444443755,56.6160846,31.492251866666667,67.881117,48.043199,-58.122271,-24.78588424444444,0
787.444444444443,230.4461209093708,275.2514381393993,277.9509608638049,-163.31540319259253,-85.09218933333332,0.8430959185184466,56.6161696,31.492241311111112,67.881117,48.043199,-58.122271,-24.798096651851843,0
790.2222222222208,230.4414853342629,275.25797902411097,277.9529570981928,-163.45118356296288,-85.09572266666666,0.9794599925925228,56.6162546,31.49223075555556,67.881117,48.043199,-58.122271,-24.81030905925925,0
792.9999999999986,230.4369098259393,275.26444634159185,277.95487373526186,-163.64677668749985,-85.10055156249999,1.1758563749998512,56.61634125,31.492224,67.881088375,48.043199,-58.122271,-24.827736374999983,0
795.7777777777764,230.4323943985961,275.27083802283397,277.95671739088544,-163.94870359722208,-85.10768368055555,1.4789768611109553,56.61643083333333,31.492224,67.88100886111111,48.043199,-58.122271,-24.854434638888875,0
798.5555555555541,230.4279388757733,275.2771525736501,277.9584938170113,-164.25063050694428,-85.1148157986111,1.7820973472220596,56.61652041666667,31.492224,67.88092934722222,48.043199,-58.122271,-24.881132902777765,0
801.3333333333319,230.4235429283804,275.28338896899544,277.9602080448305,-164.5525574166665,-85.12194791666666,2.085217833333176,56.61661,31.492224,67.88084983333333,48.043199,-58.122271,-24.907831166666654,0
804.1111111111097,230.41920610510473,275.28954656819724,277.96186450011913,-164.85448432638876,-85.12908003472222,2.388338319444293,56.616699583333336,31.492224,67.88077031944444,48.043199,-58.122271,-24.934529430555543,0
806.8888888888874,230.41492785688732,275.295625046477,277.9634670968752,-165.15641123611096,-85.13621215277777,2.6914588055553974,56.61678916666666,31.492224,67.88069080555555,48.043199,-58.122271,-24.961227694444432,0
809.6666666666652,230.41070737562714,275.30162451765074,277.96501934740013,-165.40839522916656,-85.14182833333334,2.94449324999988,56.61692645833333,31.492224,67.88062920833333,48.043199,-58.122271,-24.98335418749999,0
812.444444444443,230.40654369963926,275.3075454006209,277.9665244087884,-165.62708394444434,-85.1464338888889,3.164136999999884,56.61709555555555,31.492224,67.88057955555556,48.043199,-58.122271,-25.002432833333327,0
815.2222222222208,230.402435856572,275.31338825417424,277.9679851111216,-165.84577265972212,-85.15103944444445,3.383780749999888,56.61726465277778,31.492224,67.88052990277778,48.043199,-58.122271,-25.02151147916666,0
817.9999999999985,230.39838286871645,275.31915375148316,277.96940400198855,-166.0644613749999,-85.15564499999999,3.603424499999883,56.61743375,31.492224,67.88048025,48.043199,-58.122271,-25.04059012499999,0
820.7777777777762,230.39438375732033,275.32484265896824,277.9707833837862,-166.28315009027767,-85.16025055555555,3.823068249999878,56.61760284722222,31.492224,67.88043059722223,48.043199,-58.122271,-25.059668770833323,0
823.5555555555541,230.3904375460953,275.3304558187063,277.97212534513716,-166.50183880555545,-85.1648561111111,4.042711999999882,56.61777194444444,31.492224,67.88038094444445,48.043199,-58.122271,-25.07874741666666,0
826.3333333333319,230.3865431799682,275.3359942325004,277.97343182159676,-166.65543902222217,-85.16789242222222,4.197053177777704,56.61797711111111,31.492224,67.88033722222222,48.043199,-58.122271,-25.092049711111105,0
829.1111111111096,230.3826996061732,275.34145895705666,277.9747045863156,-166.79664142962957,-85.17062982962963,4.338955770370293,56.61818914814815,31.492224,67.88029462962963,48.043199,-58.122271,-25.10425174814814,0
831.8888888888873,230.37890579232686,275.34685107461496,277.97594526278965,-166.93784383703695,-85.17336723703704,4.480858362962882,56.61840118518519,31.492224,67.88025203703704,48.043199,-58.122271,-25.11645378518518,0
834.6666666666652,230.3751607265663,275.35217168585046,277.97715534199375,-167.07904624444436,-85.17610464444444,4.622760955555478,56.61861322222222,31.492224,67.88020944444445,48.043199,-58.122271,-25.12865582222221,0
837.444444444443,230.37146341758154,275.3574219039057,277.9783361971397,-167.22024865185176,-85.17884205185184,4.764663548148073,56.61882525925926,31.492224,67.88016685185185,48.043199,-58.122271,-25.140857859259253,0
840.2222222222207,230.36781275859474,275.36260291609443,277.9794892950837,-167.37183383703697,-85.18171952592593,4.917018992592501,56.619065407407405,31.492168022222224,67.88011505185186,48.043199,-58.122271,-25.153956192592585,0
842.9999999999984,230.3642075087267,275.3677159887572,277.9806162344454,-167.53663346666656,-85.18477526666666,5.082678066666571,56.61934133333333,31.4920408,67.88005153333334,48.043199,-58.122271,-25.168195266666658,0
845.7777777777762,230.36064647913605,275.3727623722647,277.98171848304776,-167.7014330962962,-85.18783100740741,5.248337140740649,56.61961725925926,31.49191357777778,67.87998801481481,48.043199,-58.122271,-25.18243434074073,0
848.5555555555541,230.35712852918115,275.3777432997941,277.98279739162786,-167.86623272592584,-85.19088674814815,5.413996214814726,56.619893185185184,31.49178635555556,67.8799244962963,48.043199,-58.122271,-25.196673414814807,0
851.3333333333318,230.35365256300736,275.3826599863563,277.9838542058351,-168.03103235555548,-85.1939424888889,5.579655288888796,56.62016911111111,31.491659133333336,67.87986097777778,48.043199,-58.122271,-25.210912488888884,0
854.1111111111095,230.35021761095615,275.38751335055895,277.9848899568176,-168.19744681944434,-85.19684098611111,5.746504097222108,56.62044474305556,31.491533020833334,67.87979522222223,48.04403813888888,-58.12233426388889,-25.22587911111109,0
856.8888888888873,230.34682472509652,275.39229777735403,277.98590277456054,-168.40261730555545,-85.1959656388889,5.941906527777667,56.62071331944445,31.49143354166667,67.87967577777778,48.0650166111111,-58.12391586111111,-25.25830688888887,0
859.6666666666652,230.34347478740315,275.3970083106927,277.9868910054309,-168.60778779166657,-85.19509029166667,6.137308958333227,56.62098189583333,31.4913340625,67.87955633333334,48.08599508333332,-58.12549745833333,-25.29073466666665,0
862.4444444444429,230.34016852890645,275.4016405830243,277.9878531890744,-168.81295827777768,-85.19421494444444,6.332711388888778,56.62125047222222,31.49123458333333,67.87943688888889,48.10697355555554,-58.12707905555556,-25.323162444444428,0
865.2222222222206,230.33690654657434,275.4061907530435,277.98878803801466,-169.01812876388877,-85.19333959722222,6.528113819444329,56.62151904861111,31.49113510416667,67.87931744444445,48.127952027777766,-58.128660652777775,-25.355590222222204,0
867.9999999999984,230.3336893182241,275.41065545060417,277.9896944196005,-169.22329924999988,-85.19246425,6.723516249999888,56.621787625,31.491035625,67.879198,48.14893049999999,-58.13024225,-25.38801799999998,0
870.7777777777762,230.33051802655828,275.4150285431127,277.9905697896608,-169.44679762222208,-85.18928496296297,6.9317314222220885,56.62202258518519,31.490964,67.87905558518518,48.17258225925925,-58.131618688888885,-25.41934283703702,0
873.555555555554,230.3273957385,275.4192965059742,277.9914079457471,-169.7174248444443,-85.18018125925927,7.172893644444305,56.6221711037037,31.490964,67.8788541037037,48.203108185185165,-58.132467577777774,-25.44783154074073,0
876.3333333333317,230.3243251823159,275.42344715565184,277.99220328451327,-169.9880520666665,-85.17107755555556,7.414055866666522,56.62231962222222,31.490964,67.87865262222222,48.23363411111109,-58.13331646666666,-25.476320244444427,0
879.1111111111095,230.32130878074025,275.42746952143096,277.99295074476555,-170.25867928888874,-85.16197385185185,7.655218088888748,56.622468140740736,31.490964,67.87845114074074,48.264160037037016,-58.13416535555555,-25.50480894814813,0
881.8888888888873,230.31834868058795,275.4313537306913,277.9936457565015,-170.52930651111097,-85.15287014814815,7.896380311110976,56.62261665925926,31.490964,67.87824965925925,48.294685962962944,-58.13501424444444,-25.53329765185184,0
884.666666666665,230.31544677927212,275.4350909060922,277.9942841952315,-170.79993373333318,-85.14376644444445,8.137542533333193,56.62276517777778,31.490964,67.87804817777777,48.32521188888887,-58.13586313333333,-25.561786355555537,0
887.4444444444428,230.31260365001435,275.43867609813145,277.9948625395818,-170.98179648611102,-85.13426190277778,8.295832833333243,56.62298436111111,31.490964,67.87763869444444,48.355730888888864,-58.135965,-25.588699472222206,0
890.2222222222206,230.30981960727584,275.4421053274044,277.99537764565906,-171.15155499305547,-85.1247027013889,8.44282241666658,56.62321318055555,31.490964,67.87720084722221,48.386248944444425,-58.135965,-25.615397736111092,0
892.9999999999984,230.30709487808036,275.44537509108903,277.99582668634247,-171.32131349999992,-85.1151435,8.589811999999917,56.623442,31.490964,67.876763,48.41676699999998,-58.135965,-25.642095999999984,0
895.7777777777761,230.30442961092749,275.4484823187123,277.9962071228539,-171.49107200694434,-85.10558429861112,8.736801583333246,56.62367081944445,31.490964,67.87632515277778,48.44728505555553,-58.135965,-25.66879426388887,0
898.5555555555538,230.30182388381004,275.45142433225254,277.99651667908677,-171.66083051388878,-85.09602509722224,8.883791166666576,56.62389963888889,31.490964,67.87588730555555,48.477803111111086,-58.135965,-25.69549252777776,0
901.3333333333316,230.29927743891622,275.4541995269463,277.99675359226865,-171.80765283333335,-85.08682877083334,9.009202916666686,56.62415829166667,31.490964,67.87541725,48.50649008333332,-58.135965,-25.719445354166663,0
904.1111111111096,230.29678800847498,275.4568117595777,277.9969182809716,-171.78627644444444,-85.08029352777778,8.976377222222242,56.62463572222222,31.490964,67.87471099999999,48.5217491111111,-58.135965,-25.723264972222218,0
906.8888888888872,230.29435344935698,275.4592647195091,277.99701118675057,-171.76490005555556,-85.07375828472223,8.943551527777798,56.62511315277778,31.490964,67.87400475,48.53700813888888,-58.135965,-25.727084590277776,0
909.6666666666648,230.29197173428815,275.4615619390169,277.99703277102174,-171.74352366666668,-85.06722304166668,8.910725833333354,56.62559058333333,31.490964,67.87329849999999,48.55226716666665,-58.135965,-25.73090420833333,0
912.4444444444428,230.28964094380953,275.4637068028051,277.9969835122618,-171.7221472777778,-85.06068779861111,8.87790013888891,56.62606801388889,31.490964,67.87259225,48.56752619444443,-58.135965,-25.734723826388887,0
915.2222222222206,230.28735925890985,275.4657025567758,277.99686390349416,-171.7007708888889,-85.05415255555556,8.845074444444464,56.626545444444446,31.490964,67.87188599999999,48.58278522222221,-58.135965,-25.73854344444444,0
917.9999999999984,230.28512372512702,275.4675545829961,277.9966753340933,-171.68223056250002,-85.04926093750001,8.81870525000001,56.627441875,31.490964,67.871262125,48.5939225,-58.135965,-25.740988,0
920.777777777776,230.28292940441045,275.4692719599308,277.99642069331765,-171.66873212500002,-85.04729131944444,8.803814277777787,56.62908319444445,31.490964,67.87078469444444,48.59773222222222,-58.135965,-25.740988,0
923.5555555555538,230.28077168417974,275.4708632002994,277.99610270358676,-171.65523368750002,-85.04532170138889,8.788923305555565,56.630724513888886,31.490964,67.87030726388889,48.60154194444444,-58.135965,-25.740988,0
926.3333333333316,230.2786462538794,275.4723362910403,277.99572393192864,-171.64173525,-85.04335208333333,8.774032333333341,56.63236583333333,31.490964,67.86982983333333,48.60535166666666,-58.135965,-25.740988,0
929.1111111111094,230.27654908344738,275.4736987300412,277.9952868005135,-171.6282368125,-85.04138246527778,8.759141361111121,56.63400715277778,31.490964,67.86935240277778,48.609161388888886,-58.135965,-25.740988,0
931.8888888888872,230.2744764035207,275.4749575599335,277.9947935963573,-171.614738375,-85.03941284722222,8.744250388888899,56.63564847222222,31.490964,67.86887497222223,48.61297111111111,-58.135965,-25.740988,0
934.6666666666648,230.27242043355693,275.4761232307061,277.9942475230878,-171.60282507142858,-85.03897976190476,8.733416976190481,56.639442619047614,31.49090257142857,67.86855447619048,48.61580464285714,-58.13705630952381,-25.740988,0
937.4444444444428,230.27037110605153,275.4772080601969,277.9936522823868,-171.59196852380953,-85.03957103174604,8.725288603174608,56.64467198412698,31.490800190476197,67.8683386031746,48.61798738095238,-58.13887515873016,-25.740988,0
940.2222222222204,230.268319034436,275.47822357330307,277.99301135022773,-171.58111197619047,-85.0401623015873,8.717160230158735,56.649901349206345,31.49069780952381,67.86812273015873,48.620170119047614,-58.1406940079365,-25.740988,0
942.9999999999982,230.26625546595184,275.47918055602935,277.9923279919895,-171.57025542857144,-85.04075357142857,8.709031857142863,56.65513071428571,31.490595428571428,67.86790685714286,48.62235285714286,-58.14251285714285,-25.740988,0
945.777777777776,230.26417223815076,275.4800891054062,277.991605276425,-171.5593988809524,-85.04134484126985,8.70090348412699,56.66036007936508,31.490493047619047,67.867690984127,48.62453559523809,-58.1443317063492,-25.740988,0
948.5555555555538,230.2620599261764,275.48095958635264,277.9908465519567,-171.53685230555558,-85.04225113888889,8.68006986111113,56.66667725,31.490297597222224,67.86753465277778,48.628698986111104,-58.147360138888885,-25.740988,0
951.3333333333316,230.25990832645863,275.481802412659,277.9900553254842,-171.50512070833335,-85.04340495833334,8.649253541666686,56.673849125,31.490029020833333,67.86742510416667,48.63441860416666,-58.151338958333326,-25.740988,0
954.1111111111092,230.25770791988396,275.48262733405465,277.9892348906201,-171.47338911111112,-85.04455877777778,8.618437222222243,56.681021,31.489760444444443,67.86731555555555,48.64013822222222,-58.155317777777775,-25.740988,0
956.8888888888872,230.25544982632505,275.4834434796806,277.9883883414544,-171.4416575138889,-85.04571259722222,8.587620902777799,56.688192875,31.48949186805556,67.86720600694444,48.64585784027778,-58.159296597222216,-25.740988,0
959.6666666666648,230.25312576250246,275.4842593983983,277.98751858532535,-171.40992591666668,-85.04686641666666,8.556804583333353,56.69536475,31.489223291666665,67.86709645833334,48.651577458333335,-58.16327541666666,-25.740988,0
962.4444444444426,230.2507280029062,275.4850830961917,277.9866283546751,-171.37819431944448,-85.0480202361111,8.52598826388891,56.702536625,31.488954715277774,67.86698690972221,48.657297076388886,-58.16725423611111,-25.740988,0
965.2222222222204,230.2482482270718,275.4859240903451,277.9857194479516,-171.2992584575164,-85.0472698235294,8.451714150326856,56.71009008496732,31.488841130718956,67.86692016339869,48.65987903921569,-58.16864176470588,-25.735243555555563,0
967.9999999999982,230.24567839580885,275.4867917958755,277.98479336748983,-171.20852152941185,-85.04604335294117,8.366575588235351,56.71773894117647,31.48876629411765,67.86686411764705,48.661676588235295,-58.16938147058824,-25.72806300000001,0
970.777777777776,230.24301100989712,275.4876950310009,277.9838515290735,-171.11778460130725,-85.04481688235293,8.281437026143845,56.725387797385615,31.48869145751634,67.86680807189542,48.6634741372549,-58.17012117647059,-25.72088244444445,0
973.5555555555536,230.24023907576907,275.48864205449473,277.9828952672094,-171.02704767320267,-85.04359041176471,8.196298464052344,56.733036653594766,31.48861662091503,67.86675202614379,48.66527168627451,-58.17086088235294,-25.71370188888889,0
976.3333333333314,230.23735607357642,275.4896406004646,277.98192584004295,-170.9363107450981,-85.04236394117648,8.111159901960843,56.74068550980392,31.488541784313725,67.86669598039217,48.66706923529412,-58.17160058823529,-25.706521333333335,0
979.1111111111092,230.23435592745702,275.49069791075283,277.9809444339426,-170.84557381699352,-85.04113747058824,8.026021339869338,56.74833436601307,31.488466947712418,67.86663993464053,48.66886678431372,-58.172340294117646,-25.699340777777785,0
981.8888888888872,230.23122771602993,275.491825372942,277.97995219076944,-170.70674696296308,-85.03914322222222,7.896655607407504,56.75887009629629,31.488363540740743,67.8665642,48.669442,-58.172577,-25.68735312592593,0
984.6666666666648,230.2279587649751,275.4930358177185,277.9789501982462,-170.54528955555568,-85.03678766666667,7.746477088888989,56.77076435555555,31.48824668888889,67.8664792,48.669442,-58.172577,-25.67310331111112,0
987.4444444444424,230.2245372111134,275.4943412786887,277.97793948238166,-170.38383214814826,-85.03443211111112,7.596298570370474,56.78265861481481,31.48812983703704,67.8663942,48.669442,-58.172577,-25.658853496296302,0
990.2222222222204,230.22095195360623,275.4957530399826,277.97692101107515,-170.22237474074086,-85.03207655555556,7.446120051851953,56.794552874074064,31.488012985185183,67.8663092,48.669442,-58.172577,-25.64460368148149,0
992.9999999999982,230.2171926083611,275.4972816807427,277.9758956974886,-170.06091733333344,-85.029721,7.295941533333432,56.80644713333332,31.487896133333336,67.8662242,48.669442,-58.172577,-25.63035386666668,0
995.777777777776,230.21324961627656,275.49893809877096,277.97486515321435,-169.94821819259258,-85.0300244074074,7.198356711111086,56.81915837037036,31.48774371111111,67.86611845925925,48.66260595555557,-58.172577,-25.617815318518527,0
998.5555555555536,230.209114429428,275.5007350208831,277.9738328149981,-169.96089745185185,-85.03716514814815,7.236012822222196,56.83397040740739,31.487499822222222,67.86595938518518,48.63819151111112,-58.172577,-25.60967717037038,0
1001.3333333333314,230.20477906638797,275.5026843875886,277.9728019223088,-169.97357671111112,-85.04430588888889,7.273668933333307,56.84878244444443,31.487255933333334,67.86580031111112,48.613777066666685,-58.172577,-25.60153902222223,0
1004.1111111111092,230.20023607902814,275.50479739844326,277.9717755285163,-169.98625597037037,-85.05144662962962,7.311325044444419,56.86359448148147,31.487012044444445,67.86564123703704,48.58936262222224,-58.172577,-25.59340087407408,0
1006.888888888887,230.19547852142554,275.50708455454964,277.97075651137254,-169.99893522962964,-85.05858737037036,7.3489811555555296,56.87840651851851,31.48676815555556,67.86548216296296,48.564948177777794,-58.172577,-25.585262725925933,0
1009.6666666666648,230.19049992072607,275.5095556984047,277.9697475828455,-170.01161448888888,-85.06572811111111,7.386637266666639,56.89321855555554,31.486524266666667,67.86532308888889,48.54053373333336,-58.172577,-25.577124577777784,0
1012.4444444444424,230.18528366142928,275.5122285585286,277.9687511106028,-169.92289314074085,-85.07120695555555,7.328849555555604,56.907246251851845,31.48638288148148,67.86514527407407,48.52685708148149,-58.172577,-25.563617614814824,0
1015.2222222222204,230.1798127012187,275.5151209577729,277.967769299408,-169.8203444370371,-85.07645917777778,7.2580467777778255,56.92116699259258,31.486255474074078,67.8649649037037,48.51464467407408,-58.172577,-25.54937854074075,0
1017.999999999998,230.1740710306134,275.51824965418234,277.9668042255717,-169.71779573333342,-85.0817114,7.1872440000000495,56.935087733333326,31.48612806666667,67.86478453333334,48.50243226666667,-58.172577,-25.53513946666668,0
1020.7777777777758,230.16804361596124,275.52163039959873,277.96585784399457,-169.6152470296297,-85.08696362222223,7.1164412222222735,56.94900847407406,31.48600065925926,67.86460416296296,48.49021985925927,-58.172577,-25.5209003925926,0
1023.5555555555536,230.1617163458512,275.5252779947569,277.96493199479045,-169.512698325926,-85.09221584444444,7.045638444444494,56.96292921481481,31.485873251851853,67.86442379259259,48.47800745185186,-58.172577,-25.50666131851853,0
1026.3333333333314,230.15507506631914,275.52920557928854,277.96402733708976,-169.33567006666684,-85.09348024444445,6.895629977777939,56.97963066666665,31.48576113333333,67.86417213333333,48.469706333333335,-58.172577,-25.487538155555573,0
1029.111111111109,230.14810551125288,275.5334246619995,277.9631433288874,-169.07795562222242,-85.09042450370372,6.659815348148324,56.99934455555554,31.48566557777778,67.86384324444444,48.46564244444445,-58.172577,-25.463123896296317,0
1031.8888888888869,230.14079429393618,275.53794603003195,277.96227944780514,-168.82024117777797,-85.08736876296297,6.42400071851869,57.01905844444443,31.485570022222223,67.86351435555555,48.46157855555556,-58.172577,-25.438709637037054,0
1034.6666666666647,230.1331288598471,275.5427797877645,277.96143519021115,-168.5625267333335,-85.08431302222223,6.188186088889056,57.03877233333332,31.485474466666663,67.86318546666666,48.45751466666667,-58.172577,-25.414295377777798,0
1037.4444444444423,230.12509744219156,275.5479353934542,277.96061007038605,-168.30481228888905,-85.08125728148148,5.952371459259422,57.05848622222221,31.485378911111116,67.86285657777778,48.45345077777778,-58.172577,-25.38988111851853,0
1040.2222222222204,230.11668899773113,275.55342163148583,277.9598035846745,-168.0623928666667,-85.07833309629629,5.731680370370402,57.07822473333332,31.48527657037037,67.86252343703704,48.449712,-58.172577,-25.36693192592593,0
1042.999999999998,230.1078929357449,275.55924599734794,277.9590148462029,-167.99586620000005,-85.0769218,5.684910000000034,57.09824639999999,31.4850962,67.8621414,48.449712,-58.172577,-25.360831000000005,0
1045.7777777777758,230.09869934895582,275.56541547841584,277.95824300641186,-167.92933953333338,-85.07551050370371,5.638139629629663,57.11826806666665,31.48491582962963,67.86175936296296,48.449712,-58.172577,-25.35473007407408,0
1048.5555555555536,230.08909897765628,275.5719365808843,277.9574872532447,-167.8628128666667,-85.07409920740741,5.591369259259292,57.13828973333332,31.48473545925926,67.86137732592593,48.449712,-58.172577,-25.348629148148152,0
1051.3333333333312,230.0790831758498,275.57881535518027,277.9567468094321,-167.79628620000005,-85.07268791111112,5.544598888888925,57.15831139999998,31.48455508888889,67.86099528888889,48.449712,-58.172577,-25.342528222222228,0
1054.111111111109,230.06864387928425,275.586057419949,277.9560209308679,-167.72975953333338,-85.07127661481482,5.497828518518554,57.17833306666665,31.48437471851852,67.86061325185185,48.449712,-58.172577,-25.336427296296304,0
1056.8888888888869,230.05777109941823,275.59366976568947,277.9553088437761,-167.71103233333332,-85.0706879925926,5.500553333333314,57.19988435555554,31.484122192592597,67.8600869037037,48.449712,-58.172577,-25.334475,0
1059.6666666666647,230.04645433567316,275.60165973972875,277.9546097789212,-167.714799,-85.07048651111111,5.526569999999982,57.22215546666665,31.483835711111112,67.85949264444444,48.449712,-58.172577,-25.334475,0
1062.4444444444423,230.03468376156619,275.6100341938004,277.953923000258,-167.71856566666668,-85.07028502962963,5.552586666666649,57.24442657777776,31.48354922962963,67.85889838518519,48.449712,-58.172577,-25.334475,0
1065.22222222222,230.02245019063332,275.6187995093262,277.95324780340667,-167.72233233333333,-85.07008354814815,5.578603333333313,57.26669768888887,31.483262748148142,67.85830412592593,48.449712,-58.172577,-25.334475,0
1067.999999999998,230.00974504418934,275.62796162132884,277.9525835142072,-167.726099,-85.06988206666666,5.60461999999998,57.28896879999998,31.482976266666665,67.85770986666667,48.449712,-58.172577,-25.334475,0
1070.7777777777758,229.9965623912099,275.63752397348253,277.95192922727637,-167.71452842361114,-85.06859225694446,5.612330888888917,57.311343131944426,31.482700388888887,67.85711210416666,48.45398452777776,-58.172577,-25.33340545833334,0
1073.5555555555534,229.98290205188977,275.6474844113484,277.95128341122637,-167.66351922222228,-85.0645038888889,5.572969777777808,57.33398288888887,31.482451777777776,67.85650533333333,48.46924355555554,-58.172577,-25.32958566666667,0
1076.3333333333312,229.96876400862706,275.65784075673844,277.9506446060506,-167.61251002083338,-85.06041552083335,5.533608666666697,57.35662264583331,31.482203166666665,67.8558985625,48.48450258333333,-58.172577,-25.325765875000005,0
1079.111111111109,229.95414839688323,275.6685908101673,277.95001141984204,-167.5615008194445,-85.05632715277778,5.494247555555585,57.37926240277776,31.48195455555556,67.85529179166666,48.4997616111111,-58.172577,-25.321946083333337,0
1081.8888888888869,229.9390554965493,275.67973235314366,277.94938252567727,-167.5104916180556,-85.05223878472222,5.454886444444473,57.401902159722205,31.48170594444445,67.85468502083333,48.51502063888888,-58.172577,-25.31812629166667,0
1084.6666666666647,229.9234857237885,275.691263150312,277.94875665865686,-167.4594824166667,-85.04815041666667,5.4155253333333615,57.42454191666665,31.48145733333333,67.85407825,48.53027966666666,-58.172577,-25.314306500000004,0
1087.4444444444423,229.88314255083603,275.72227347744695,277.94782555381846,-167.356287513889,-85.03796884027778,5.3141300277779004,57.44481269444443,31.481177666666667,67.85336802083333,48.55446644444442,-58.17299074305555,-25.312473,0
1090.22222222222,229.8424479666831,275.75333736893134,277.9467447207691,-167.20492119444455,-85.0221627638889,5.155472388889009,57.462896722222204,31.48086933333333,67.85256229166667,48.5868942222222,-58.17378640277777,-25.312473,0
1092.999999999998,229.80140599520314,275.7844554273677,277.945516669175,-167.05355487500012,-85.00635668750002,4.996814750000118,57.48098074999999,31.480561,67.8517565625,48.619321999999976,-58.1745820625,-25.312473,0
1095.7777777777756,229.76002055436552,275.8156282318645,277.9441438376581,-166.90218855555568,-84.99055061111113,4.838157111111238,57.49906477777776,31.48025266666667,67.85095083333333,48.65174977777775,-58.17537772222222,-25.312473,0
1098.5555555555534,229.71829546053158,275.8468563386957,277.9426285964861,-166.75082223611125,-84.97474453472223,4.679499472222346,57.517148805555536,31.479944333333336,67.85014510416667,48.68417755555553,-58.17617338194445,-25.312473,0
1101.3333333333312,229.6762344325553,275.8781402819353,277.9409732501434,-166.59945591666678,-84.95893845833335,4.520841833333455,57.53523283333332,31.479636000000003,67.849339375,48.716605333333305,-58.176969041666666,-25.312473,0
1104.111111111109,229.63370154360473,275.9095796858399,277.93920744932666,-166.45568525185195,-84.94389601481483,4.370773355555666,57.556998955555535,31.479070111111117,67.84882356296296,48.75221638518516,-58.17845031111111,-25.312473,0
1106.8888888888869,229.59065866530116,275.94120463207514,277.9373415574379,-166.31431321481492,-84.92909471851853,4.223417244444552,57.57992784444443,31.47842288888889,67.84839930370372,48.78883268148145,-58.18014808888889,-25.312473,0
1109.6666666666645,229.54711218039796,275.97301350819095,277.9353771197397,-166.1729411777779,-84.91429342222224,4.07606113333345,57.60285673333331,31.47777566666667,67.84797504444445,48.82544897777775,-58.18184586666667,-25.312473,0
1112.4444444444423,229.5030683100074,276.00500473779556,277.9333156403924,-166.03156914074086,-84.89949212592595,3.928705022222336,57.6257856222222,31.47712844444445,67.84755078518519,48.86206527407405,-58.18354364444445,-25.312473,0
1115.22222222222,229.45853311971518,276.03717677905684,277.9311585839531,-165.89019710370383,-84.88469082962965,3.7813489111112224,57.648714511111095,31.476481222222223,67.84712652592593,48.89868157037034,-58.18524142222223,-25.312473,0
1117.9999999999975,229.41355193535372,276.0694861448561,277.9289452798511,-165.74148629411778,-84.87179035294119,3.6246290000001418,57.67085429411763,31.47556141176471,67.84672352941178,48.935041235294094,-58.19063864705882,-25.312473,0
1120.7777777777756,229.36819979399922,276.10185757873035,277.9267437344934,-165.57972877777792,-84.86226911111112,3.451262333333472,57.69159122222221,31.474157,67.84635833333334,48.97094466666664,-58.20261266666666,-25.312473,0
1123.5555555555534,229.32248063581306,276.13429143747317,277.9245536737865,-165.41797126143803,-84.85274786928106,3.277895666666802,57.71232815032678,31.47275258823529,67.84599313725491,49.00684809803919,-58.2145866862745,-25.312473,0
1126.3333333333312,229.2763983108186,276.1667880607984,277.9223748312165,-165.25621374509817,-84.84322662745099,3.1045290000001327,57.73306507843136,31.47134817647059,67.84562794117647,49.04275152941174,-58.22656070588234,-25.312473,0
1129.111111111109,229.2299565822907,276.19934777176866,277.92020694759583,-165.0944562287583,-84.83370538562092,2.9311623333334627,57.75380200653593,31.469943764705885,67.84526274509804,49.07865496078429,-58.23853472549018,-25.312473,0
1131.8888888888866,229.18315913000052,276.23197087721013,277.9180497708196,-164.93269871241844,-84.82418414379086,2.7577956666668078,57.7745389346405,31.46853935294118,67.84489754901962,49.11455839215684,-58.25050874509803,-25.312473,0
1134.6666666666645,229.13594271048197,276.26466018014276,277.91593535084627,-164.74095812820536,-84.81526733333334,2.550189153846404,57.795188282051264,31.467040102564106,67.844526,49.15311320512817,-58.26383417948716,-25.312473,0
1137.4444444444423,229.08810065991153,276.2974238551286,277.91396500060443,-164.45427116239338,-84.80826455555555,2.234156461538706,57.81556029059827,31.46524052991453,67.84413433333334,49.20006405982903,-58.28143909401708,-25.312473,0
1140.22222222222,229.03964055483183,276.3302620074677,277.91213649285874,-164.16758419658143,-84.80126177777778,1.9181237692310336,57.83593229914528,31.46344095726496,67.84374266666667,49.24701491452988,-58.29904400854699,-25.312473,0
1142.9999999999975,228.99056979945757,276.3631747315348,277.9104476551237,-163.88089723076945,-84.79425900000001,1.6020910769233356,57.85630430769229,31.461641384615387,67.843351,49.29396576923073,-58.316648923076905,-25.312473,0
1145.7777777777756,228.94089563166762,276.39616211100764,277.90889636783254,-163.5942102649575,-84.78725622222223,1.2860583846156377,57.876676316239305,31.459841811965816,67.84295933333334,49.34091662393159,-58.33425383760682,-25.312473,0
1148.5555555555534,228.89080331118927,276.42914882958087,277.9074653167924,-163.35584623611126,-84.78071019444445,1.0234408750001724,57.89676970833332,31.457774347222227,67.842346875,49.38507098611108,-58.35090156944443,-25.312473,0
1151.3333333333312,228.84043688794614,276.4620769310707,277.90614075003873,-163.1554502291668,-84.77452304166667,0.8027924375001685,57.91664418749999,31.455496395833336,67.8415609375,49.42702810416664,-58.36679722916666,-25.312473,0
1154.1111111111088,228.78979859808538,276.4949483877033,277.9049210846218,-162.95505422222237,-84.7683358888889,0.5821440000001825,57.93651866666665,31.453218444444445,67.84077500000001,49.46898522222219,-58.38269288888888,-25.312473,0
1156.8888888888866,228.7388906386935,276.5277651171766,277.90380477484086,-162.75465821527794,-84.76214873611111,0.3614955625001785,57.95639314583332,31.45094049305556,67.83998906250001,49.510942340277744,-58.3985885486111,-25.312473,0
1159.6666666666645,228.68771516924193,276.5605289843179,277.9027903110384,-162.55426220833348,-84.75596158333335,0.1408471250001746,57.976267624999984,31.448662541666668,67.83920312500001,49.5528994583333,-58.41448420833332,-25.312473,0
1162.444444444442,228.6362743129714,276.59324180268,277.9018762184404,-162.35386620138905,-84.74977443055556,-0.0798013124998113,57.99614210416665,31.44638459027778,67.8384171875,49.59485657638886,-58.430379868055546,-25.312473,0
1165.22222222222,228.58435549514496,276.62606767971533,277.9010694689085,-162.15578588888906,-84.73395033333335,-0.2922214166664906,58.01983616666665,31.44222066666667,67.83769500000001,49.63986952777774,-58.43609747222222,-25.312473,0
1167.9999999999975,228.5319101969517,276.6590465783125,277.9003706361604,-161.95828450000016,-84.71571700000001,-0.5025844374998278,58.04448512499998,31.437585250000005,67.83698875,49.68564643749996,-58.4392705625,-25.312473,0
1170.7777777777756,228.4789441096759,276.6921773924546,277.8997781997571,-161.76078311111127,-84.69748366666668,-0.712947458333165,58.06913408333332,31.43294983333334,67.83628250000001,49.73142334722218,-58.442443652777776,-25.312473,0
1173.5555555555534,228.42546281223312,276.72545903203013,277.8992906731082,-161.56328172222237,-84.67925033333334,-0.9233104791665022,58.09378304166665,31.42831441666667,67.83557625,49.77720025694441,-58.44561674305555,-25.312473,0
1176.333333333331,228.37147177482308,276.75889042224657,277.89890660241645,-161.3657803333335,-84.66101700000002,-1.133673499999822,58.11843199999998,31.423679000000003,67.83487000000001,49.82297716666663,-58.44878983333333,-25.312473,0
1179.1111111111088,228.3169941757395,276.7924567735013,277.8986310641952,-161.1686053481483,-84.64281484444446,-1.3438721703701997,58.14288568888887,31.418815622222237,67.83412197037038,49.86903912592588,-58.451836,-25.312473,0
1181.8888888888866,228.26246183986558,276.8258282682986,277.8986182827458,-160.979264051852,-84.62536095555556,-1.5501264296294628,58.162652911111095,31.408481177777787,67.83237122962963,49.921942274074034,-58.451836,-25.312473,0
1184.6666666666642,228.20787395670322,276.85900847981543,277.89886471690994,-160.78992275555572,-84.60790706666668,-1.7563806888887088,58.18242013333332,31.398146733333345,67.8306204888889,49.974845422222174,-58.451836,-25.312473,0
1187.444444444442,228.15322974702158,276.8920008967685,277.8993669007083,-160.60058145925942,-84.59045317777779,-1.962634948147972,58.20218735555554,31.3878122888889,67.82886974814815,50.02774857037033,-58.451836,-25.312473,0
1190.22222222222,228.09852846202753,276.924808925897,277.90012144106754,-160.41124016296314,-84.57299928888891,-2.168889207407235,58.22195457777776,31.377477844444453,67.8271190074074,50.08065171851848,-58.451836,-25.312473,0
1192.9999999999975,228.04376938256152,276.9574358943585,277.90112501562965,-160.22189886666683,-84.55554540000001,-2.375143466666498,58.24172179999999,31.36714340000001,67.82536826666667,50.13355486666662,-58.451836,-25.312473,0
1195.7777777777756,227.98878235953853,276.98994935625825,277.90246832976675,-160.18742588888887,-84.54558233333334,-2.4261965555555847,58.2590111111111,31.358444666666674,67.82378944444444,50.17456977777775,-58.45488544444444,-25.33078855555553,0
1198.5555555555532,227.93347376844392,277.0223877626846,277.9041997407279,-160.24006634027774,-84.53983285416668,-2.3899489861111425,58.274906597222206,31.35066602083334,67.8223073263889,50.20889755555552,-58.45965020138888,-25.359406611111087,0
1201.333333333331,227.87784638250227,277.05475292234996,277.9063142362737,-160.29270679166663,-84.53408337500001,-2.353701416666697,58.29080208333332,31.342887375000007,67.82082520833333,50.2432253333333,-58.46441495833333,-25.38802466666664,0
1204.1111111111088,227.8219029328406,277.0870465992517,277.90880690499597,-160.3453472430555,-84.52833389583333,-2.3174538472222523,58.30669756944443,31.335108729166677,67.81934309027778,50.27755311111108,-58.469179715277775,-25.4166427222222,0
1206.8888888888864,227.76564610979608,277.1192705139237,277.91167293338333,-160.3979876944444,-84.52258441666666,-2.28120627777781,58.32259305555554,31.32733008333334,67.81786097222223,50.31188088888886,-58.47394447222222,-25.44526077777775,0
1209.6666666666642,227.70907856417338,277.15142634464553,277.91490760299024,-160.4506281458333,-84.5168349375,-2.244958708333365,58.33848854166665,31.319551437500007,67.81637885416667,50.34620866666664,-58.47870922916666,-25.473878833333305,0
1212.444444444442,227.65188149781952,277.1837817344419,277.91887938739893,-160.6506241999998,-84.54262501481479,-2.052410570370553,58.36510199999997,31.307712192592604,67.81444572592594,50.377181362962936,-58.50464993333331,-25.52028225925922,0
1215.22222222222,227.5940177885438,277.21637113500367,277.9236298318361,-160.8707141999998,-84.57271594074071,-1.8385487185186973,58.39317699999997,31.29531922962964,67.8124510962963,50.40769654814813,-58.53347826666664,-25.56911096296292,0
1217.9999999999975,227.5354945210798,277.24919234280406,277.92914921058787,-161.0908041999998,-84.60280686666664,-1.624686866666842,58.42125199999997,31.28292626666668,67.81045646666668,50.4382117333333,-58.56230659999998,-25.617939666666626,0
1220.777777777775,227.47631865784658,277.2822431888067,277.93542798403126,-161.3108941999998,-84.63289779259256,-1.4108250148150034,58.449326999999975,31.270533303703715,67.80846183703704,50.46872691851849,-58.59113493333331,-25.666768370370328,0
1223.5555555555532,227.41649704242533,277.31552153746924,277.9424567934266,-161.5309841999998,-84.66298871851849,-1.196963162963148,58.47740199999998,31.258140340740752,67.80646720740741,50.49924210370368,-58.619963266666645,-25.715597074074036,0
1226.333333333331,227.35625667623012,277.3487778916111,277.9502600093845,-161.69087037777769,-84.6975614222222,-1.051071977777839,58.5007609111111,31.24521271111112,67.8027052888889,50.528784666666645,-58.65651755555552,-25.758563822222197,0
1229.1111111111086,227.29583978928974,277.38174555597465,277.9588645103346,-161.78553574814805,-84.73698938518515,-0.9788156814815472,58.51901072592591,31.23170585925927,67.79702880740741,50.55727355555553,-58.70144162962959,-25.795180118518488,0
1231.8888888888864,227.2352472803948,277.4144287882796,277.9682605964532,-161.88020111851844,-84.77641734814812,-0.9065593851852496,58.537260540740725,31.218199007407417,67.79135232592593,50.58576244444442,-58.74636570370367,-25.831796414814782,0
1234.6666666666642,227.17448004588923,277.446831759674,277.97843874547686,-161.9748664888888,-84.81584531111108,-0.834303088888952,58.55551035555554,31.204692155555566,67.78567584444446,50.61425133333331,-58.79128977777774,-25.86841271111108,0
1237.444444444442,227.11353897977355,277.478958557056,277.9893896078925,-162.06953185925917,-84.85527327407404,-0.7620467925926544,58.57376017037036,31.191185303703715,67.77999936296297,50.6427402222222,-58.83621385185182,-25.90502900740737,0
1240.22222222222,227.0524087968599,277.5108299799301,278.00110161792605,-162.15635344444445,-84.89407279166664,-0.6961431527777718,58.59220202777776,31.17754465277779,67.77416981944445,50.670017930555545,-58.88021462499997,-25.94024229166665,0
1242.9999999999975,226.99090475400587,277.5426426739357,278.013538396863,-162.1529715,-84.92564518749997,-0.7032950624999936,58.61285237499998,31.16236531250001,67.76658006250001,50.68336706249999,-58.91359743749997,-25.95932093749998,0
1245.777777777775,226.92903016852057,277.5743979638496,278.0266914442979,-162.14958955555556,-84.9572175833333,-0.710446972222216,58.63350272222221,31.14718597222224,67.75899030555556,50.696716194444434,-58.94698024999997,-25.97839958333332,0
1248.5555555555532,226.86678831245874,277.6060971436673,278.0405524085125,-162.14620761111112,-84.98878997916664,-0.7175988819444383,58.654153069444426,31.132006631944456,67.75140054861112,50.71006532638888,-58.98036306249997,-25.99747822916665,0
1251.3333333333308,226.804182413823,277.63774147739946,278.0551130825794,-162.14282566666668,-85.02036237499996,-0.7247507916666601,58.67480341666665,31.11682729166668,67.74381079166668,50.72341445833332,-59.01374587499997,-26.01655687499998,0
1254.1111111111086,226.7412156577236,277.669332199845,278.07036540059346,-162.13944372222224,-85.0519347708333,-0.7319027013888824,58.69545376388887,31.1016479513889,67.73622103472223,50.73676359027777,-59.04712868749997,-26.035635520833317,0
1256.8888888888864,226.6778185923519,277.70085327072013,278.08630019982724,-162.11998749629635,-85.07626959999999,-0.7548698222221718,58.71698263703702,31.08415847407409,67.7270874962963,50.75430547407405,-59.07443978518517,-26.0538174148148,0
1259.6666666666642,226.61384106501444,277.7322694593515,278.10290708008864,-162.06637342222228,-85.08522459999999,-0.8114442666666173,58.74037837777776,31.061759955555573,67.71467342222223,50.78075695555553,-59.08884848888888,-26.07009371111109,0
1262.444444444442,226.54928879115022,277.7635825474596,278.12017842222696,-162.0127593481482,-85.09417959999999,-0.8680187111110628,58.7637741185185,31.03936143703705,67.70225934814816,50.80720843703701,-59.10325719259258,-26.086370007407396,0
1265.2222222222197,226.48416740239003,277.7947942796904,278.13810673345495,-161.9591452740741,-85.10313459999999,-0.9245931555555036,58.78716985925924,31.016962918518537,67.68984527407409,50.83365991851849,-59.11766589629628,-26.10264630370369,0
1267.9999999999975,226.41848244866227,277.82590636454995,278.15668464416996,-161.90553120000004,-85.11208959999999,-0.9811675999999492,58.81056559999998,30.99456440000002,67.67743120000002,50.86011139999998,-59.13207459999999,-26.118922599999983,0
1270.777777777775,226.35223940022902,277.8569204753105,278.17590490487663,-161.85191712592595,-85.1210446,-1.0377420444443946,58.83396134074072,30.9721658814815,67.66501712592593,50.88656288148146,-59.14648330370369,-26.13519889629628,0
1273.555555555553,226.28558126974187,277.88761162856343,278.19540972147314,-161.9425830208332,-85.11989416666667,-0.9545059097223124,58.85348597916665,30.951101118055576,67.64861304166668,50.91851255555553,-59.152751743055546,-26.159306298611085,0
1276.3333333333308,226.2185237434444,277.917964354064,278.2151656539851,-162.04579499999988,-85.11786500000001,-0.8591123333334219,58.87267399999998,30.930152333333357,67.63186200000001,50.95094033333331,-59.15831233333333,-26.18409466666664,0
1279.1111111111086,226.15107036598005,277.9479830209826,278.2351701227581,-162.14900697916656,-85.11583583333334,-0.7637187569445312,58.89186202083332,30.90920354861113,67.61511095833335,50.98336811111108,-59.1638729236111,-26.2088830347222,0
1281.8888888888864,226.08322463751034,277.977671921025,278.2554205863281,-162.25221895833323,-85.11380666666668,-0.6683251805556406,58.91105004166665,30.88825476388891,67.59835991666668,51.01579588888886,-59.16943351388888,-26.233671402777755,0
1284.6666666666642,226.0149900147692,278.00703527031493,278.2759145405039,-162.3554309374999,-85.1117775,-0.57293160416675,58.93023806249998,30.867305979166687,67.58160887500001,51.04822366666664,-59.17499410416666,-26.25845977083331,0
1287.4444444444418,225.94636727767386,278.03606347674673,278.2966706632511,-162.4371013055556,-85.11138125,-0.4984159999999671,58.94926216666665,30.84590680555558,67.56416391666669,51.078513999999984,-59.18220827777776,-26.280808305555546,0
1290.2222222222197,225.8773460095004,278.06468871856185,278.3177972083568,-162.40567821527782,-85.11955781249999,-0.5335097499999678,58.96742570833332,30.8221430902778,67.54307589583335,51.09758274999998,-59.19810376388888,-26.29034771527777,0
1292.9999999999975,225.80792972813603,278.09291596275057,278.33929028961757,-162.37425512500002,-85.12773437499999,-0.5686034999999684,58.98558924999998,30.79837937500002,67.52198787500002,51.11665149999998,-59.21399924999999,-26.29988712499999,0
1295.777777777775,225.738121908993,278.120750092456,278.3611460781905,-162.34283203472225,-85.13591093749999,-0.6036972499999662,59.00375279166665,30.774615659722247,67.50089985416669,51.135720249999984,-59.22989473611109,-26.309426534722213,0
1298.555555555553,225.66792598596754,278.1481959089483,278.3833608012625,-162.31140894444448,-85.14408749999998,-0.6387909999999668,59.02191633333332,30.750851944444467,67.47981183333336,51.15478899999998,-59.245790222222205,-26.31896594444444,0
1301.3333333333308,225.59734535236717,278.17525813354143,278.4059307407606,-162.2799858541667,-85.15226406249998,-0.6738847499999675,59.04007987499998,30.72708822916669,67.45872381250003,51.17385774999998,-59.26168570833332,-26.32850535416666,0
1304.1111111111086,225.52628014105392,278.2019394995028,278.42887791913347,-162.21189585185198,-85.15781088888887,-0.7447076666665535,59.05977185185184,30.70114585185188,67.43561344444447,51.19424988888887,-59.27631174074073,-26.335043888888887,0
1306.8888888888864,225.45458009482545,278.22824173213274,278.4522369412801,-162.0888054814816,-85.1594131111111,-0.8691243333332225,59.08175648148146,30.67193548148151,67.40946955555559,51.21662711111109,-59.28903359259258,-26.33708111111111,0
1309.666666666664,225.38225133509644,278.25416937645605,278.47600353809963,-161.96571511111122,-85.16101533333332,-0.9935409999998812,59.10374111111109,30.64272511111114,67.38332566666669,51.23900433333331,-59.30175544444443,-26.33911833333333,0
1312.4444444444418,225.30929990299143,278.2797269038646,278.50017350118225,-161.84262474074086,-85.16261755555556,-1.11795766666655,59.12572574074072,30.61351474074077,67.35718177777781,51.26138155555554,-59.31447729629628,-26.34115555555556,0
1315.2222222222197,225.2357317610998,278.30491871378865,278.524742681462,-161.71953437037047,-85.16421977777777,-1.2423743333332191,59.14771037037035,30.5843043703704,67.33103788888891,51.28375877777776,-59.32719914814813,-26.343192777777777,0
1317.9999999999973,225.16155279517713,278.3297491353197,278.5497069879094,-161.5964440000001,-85.165822,-1.366790999999878,59.169694999999976,30.55509400000003,67.30489400000003,51.30613599999998,-59.33992099999998,-26.34523,0
1320.777777777775,225.0872883332393,278.3539813047585,278.5742914958066,-161.59977629166664,-85.15443241666668,-1.3737142638888822,59.185680243055536,30.532275250000023,67.27252577083337,51.33856377777775,-59.34945034027776,-26.347129826388887,0
1323.555555555553,225.0129384371743,278.3776220491937,278.5985006474753,-161.60310858333332,-85.14304283333335,-1.3806375277777714,59.2016654861111,30.50945650000002,67.2401575416667,51.37099155555553,-59.35897968055554,-26.349029652777777,0
1326.3333333333308,224.93850318024815,278.40067809125935,278.6223388158108,-161.60644087499998,-85.13165325000001,-1.3875607916666604,59.21765072916665,30.48663775000002,67.20778931250004,51.4034193333333,-59.36850902083332,-26.350929479166663,0
1329.1111111111086,224.86398264679931,278.42315605142227,278.6458103058089,-161.60977316666666,-85.12026366666667,-1.394484055555549,59.2336359722222,30.463819000000026,67.17542108333336,51.43584711111108,-59.3780383611111,-26.352829305555552,0
1331.8888888888862,224.78937693194047,278.44506245020426,278.66891935604934,-161.6131054583333,-85.10887408333335,-1.4014073194444376,59.24962121527776,30.441000250000023,67.1430528541667,51.46827488888886,-59.38756770138888,-26.35472913194444,0
1334.666666666664,224.71457622145155,278.46636047181687,278.6918551140346,-161.57331551111128,-85.09951515555555,-1.4528442888887052,59.26663377777776,30.41476315555559,67.11008784444448,51.50122155555552,-59.398474399999984,-26.356173,0
1337.4444444444418,224.63923394099186,278.48692006780857,278.7152051025773,-161.39697180740757,-85.09658663703703,-1.6452413259257457,59.286899518518496,30.377701303703734,67.07523302962967,51.53581137037034,-59.41374273333332,-26.356173,0
1340.2222222222194,224.5633551245599,278.50674940233137,278.7389651097973,-161.2206281037039,-85.09365811851852,-1.8376383629627704,59.30716525925924,30.34063945185189,67.04037821481485,51.57040118518515,-59.42901106666665,-26.356173,0
1342.9999999999973,224.48694474621132,278.52585652050396,278.76313098003385,-161.04428440000018,-85.0907296,-2.030035399999811,59.32743099999998,30.30357760000004,67.00552340000004,51.60499099999996,-59.44427939999999,-26.356173,0
1345.777777777775,224.41000772124215,278.54424935091185,278.7876986126938,-160.86794069629647,-85.08780108148149,-2.222432437036852,59.34769674074072,30.266515748148183,66.97066858518522,51.63958081481478,-59.45954773333332,-26.356173,0
1348.555555555553,224.33254890733767,278.56193570803873,278.81266396113256,-160.69159699259276,-85.08487256296297,-2.414829474073892,59.36796248148146,30.22945389629633,66.9358137703704,51.67417062962959,-59.47481606666665,-26.356173,0
1351.3333333333308,224.25440896962397,278.579037846274,278.83740605941796,-160.68004316666665,-85.07056718750002,-2.43031377083335,59.38514214583332,30.206712479166686,66.9041255416667,51.69572274999998,-59.47791904166667,-26.356173,0
1354.1111111111084,224.17556314987488,278.59558394996685,278.861810062769,-160.69987788888886,-85.05409479166669,-2.412100402777796,59.4017339861111,30.18669876388891,66.87304047222226,51.71479149999998,-59.47870480555555,-26.356173,0
1356.8888888888862,224.09601819024698,278.61158007400456,278.8858797885106,-160.7197126111111,-85.03762239583335,-2.39388703472224,59.41832582638887,30.16668504861113,66.84195540277781,51.73386024999998,-59.47949056944445,-26.356173,0
1359.666666666664,224.01578075146878,278.62703218785754,278.90961899815045,-160.73954733333332,-85.02115000000002,-2.375673666666684,59.43491766666665,30.14667133333335,66.81087033333337,51.75292899999998,-59.480276333333336,-26.356173,0
1362.4444444444416,223.93485741439616,278.6419461773055,278.9330313985203,-160.75938205555553,-85.00467760416669,-2.3574602986111297,59.451509506944426,30.12665761805557,66.77978526388893,51.77199774999998,-59.48106209722222,-26.356173,0
1365.2222222222194,223.85322656171468,278.6563424095663,278.9561539076127,-160.77310151111115,-84.98836434814817,-2.3448717481480963,59.46905479999997,30.105369162963,66.74798692592597,51.79182009629627,-59.48198871851852,-26.356173,0
1367.9999999999973,223.77057169121866,278.67039385463346,278.97937213822064,-160.71649540000004,-84.97388120000002,-2.396968599999949,59.49756479999997,30.06942120000004,66.70798600000005,51.82030879999997,-59.4845352,-26.356173,0
1370.777777777775,223.68690283290547,278.68410425129696,279.0026852865638,-160.65988928888893,-84.95939805185188,-2.449065451851802,59.526074799999975,30.03347323703707,66.66798507407411,51.84879750370367,-59.48708168148148,-26.356173,0
1373.555555555553,223.6022298935864,278.6974772865521,279.02609255656034,-160.60328317777785,-84.94491490370372,-2.5011623037036546,59.55458479999997,29.997525274074107,66.62798414814819,51.87728620740738,-59.489628162962966,-26.356173,0
1376.3333333333303,223.51656265919073,278.71051659661623,279.04959315970046,-160.54667706666672,-84.93043175555557,-2.553259155555503,59.58309479999997,29.961577311111142,66.58798322222226,51.90577491111108,-59.49217464444445,-26.356173,0
1379.1111111111084,223.42991079700775,278.72322576791913,279.0731863149241,-160.4900709555556,-84.91594860740743,-2.605356007407356,59.61160479999997,29.925629348148185,66.54798229629634,51.93426361481478,-59.49472112592593,-26.356173,0
1381.8888888888862,223.34230791349998,278.7352472828504,279.0965654804421,-160.509164837037,-84.89614080740743,-2.596449681481518,59.63831091111109,29.888656977777813,66.49972025185191,51.97658351851847,-59.501300888888885,-26.36170694074073,0
1384.6666666666638,223.25377451097162,278.74641854251047,279.1195892337027,-160.5638822444444,-84.87382728888892,-2.5588359777778167,59.664168133333305,29.85120253333337,66.44757062222229,52.02541222222217,-59.50977866666666,-26.36984508888888,0
1387.4444444444416,223.1643195500429,278.7567484472222,279.142261437162,-160.61859965185178,-84.85151377037039,-2.5212222740741126,59.69002535555553,29.813748088888925,66.39542099259265,52.07424092592587,-59.51825644444444,-26.37798323703703,0
1390.2222222222194,223.07395188579125,278.76624578059227,279.1645859004458,-160.6733170592592,-84.82920025185187,-2.483608570370408,59.71588257777775,29.776293644444483,66.34327136296302,52.123069629629576,-59.52673422222222,-26.386121385185177,0
