BAEK26/lfd/data/pumping_interpolated_trajectory.csv
timestamp,x,y,z,roll,pitch,yaw,joint1,joint2,joint3,joint4,joint5,joint6
0.0,263.49458219779024,194.01192635412255,254.52335791321852,-174.854515,-84.828579,18.44884,39.620891,25.963869,52.701632,19.083276,-59.207167,-7.965087
2.7777777777777777,263.4946971165325,194.01139704404753,254.52296407753107,-174.83197632791328,-84.82789191327913,18.425620460704607,39.620891,25.963867441734415,52.70161880216802,19.084019753387537,-59.20679434417344,-7.963300590785908
5.555555555555555,263.49481203527483,194.0108677339725,254.5225702418436,-174.80943765582654,-84.82720482655827,18.402400921409214,39.620891,25.963865883468834,52.70160560433604,19.08476350677507,-59.20642168834688,-7.961514181571816
8.333333333333332,263.4949269540171,194.01033842389748,254.52217640615615,-174.78689898373983,-84.8265177398374,18.37918138211382,39.620891,25.96386432520325,52.70159240650406,19.085507260162604,-59.206049032520326,-7.9597277723577236
11.11111111111111,263.4950418727594,194.00980911382246,254.52178257046867,-174.76436031165312,-84.82583065311654,18.355961842818427,39.620891,25.96386276693767,52.70157920867209,19.086251013550136,-59.205676376693766,-7.957941363143631
13.88888888888889,263.4951567915017,194.00927980374743,254.52138873478123,-174.74182163956638,-84.82514356639567,18.332742303523034,39.620891,25.963861208672085,52.701566010840104,19.08699476693767,-59.20530372086721,-7.956154953929539
16.666666666666664,263.49527171024397,194.0087504936724,254.52099489909375,-174.71928296747967,-84.82445647967481,18.309522764227644,39.620891,25.963859650406505,52.70155281300813,19.087738520325203,-59.20493106504065,-7.954368544715447
19.444444444444443,263.49538662898624,194.00822118359739,254.5206010634063,-174.69674429539293,-84.82376939295393,18.28630322493225,39.620891,25.96385809214092,52.701539615176145,19.08848227371274,-59.20455840921409,-7.952582135501355
22.22222222222222,263.49550154772857,194.00769187352236,254.52020722771886,-174.67420562330622,-84.82308230623306,18.263083685636857,39.620891,25.963856533875337,52.70152641734417,19.089226027100274,-59.204185753387534,-7.950795726287263
25.0,263.49561646647084,194.00716256344734,254.51981339203138,-174.6516669512195,-84.8223952195122,18.239864146341464,39.620891,25.963854975609756,52.701513219512194,19.089969780487806,-59.203813097560975,-7.949009317073171
27.77777777777778,263.4957313852131,194.00663325337234,254.51941955634393,-174.62912827913277,-84.82170813279133,18.21664460704607,39.620891,25.963853417344172,52.70150002168021,19.09071353387534,-59.203440441734415,-7.947222907859079
30.555555555555554,263.49584630395543,194.00610394329732,254.51902572065646,-174.60658960704606,-84.82102104607047,18.193425067750677,39.620891,25.96385185907859,52.701486823848235,19.091457287262873,-59.203067785907855,-7.945436498644986
33.33333333333333,263.4959612226977,194.0055746332223,254.518631884969,-174.58405093495935,-84.8203339593496,18.170205528455284,39.620891,25.963850300813007,52.70147362601626,19.09220104065041,-59.2026951300813,-7.943650089430894
36.11111111111111,263.49607614143997,194.00504532314727,254.51823804928156,-174.5615122628726,-84.81964687262872,18.14698598915989,39.620891,25.963848742547423,52.70146042818428,19.09294479403794,-59.20232247425474,-7.941863680216802
38.888888888888886,263.4961910601823,194.00451601307225,254.5178442135941,-174.5389735907859,-84.81895978590786,18.123766449864497,39.620891,25.963847184281843,52.7014472303523,19.093688547425476,-59.20194981842818,-7.94007727100271
41.666666666666664,263.49630597892457,194.00398670299722,254.51745037790664,-174.5164349186992,-84.81827269918699,18.100546910569108,39.620891,25.96384562601626,52.701434032520325,19.094432300813008,-59.20157716260162,-7.938290861788618
44.44444444444444,263.49642089766684,194.0034573929222,254.51705654221917,-174.49389624661245,-84.81758561246613,18.077327371273714,39.620891,25.963844067750678,52.70142083468834,19.095176054200543,-59.20120450677506,-7.936504452574526
47.22222222222222,263.4965358164091,194.00292808284718,254.51666270653172,-174.47135757452574,-84.81689852574526,18.05410783197832,39.620891,25.963842509485094,52.701407636856366,19.09591980758808,-59.20083185094851,-7.934718043360434
50.0,263.49665073515143,194.00239877277215,254.51626887084424,-174.44881890243903,-84.8162114390244,18.030888292682928,39.620891,25.963840951219513,52.701394439024384,19.09666356097561,-59.20045919512195,-7.932931634146341
52.77777777777778,263.4967656538937,194.00186946269713,254.5158750351568,-174.4262802303523,-84.81552435230353,18.007668753387534,39.620891,25.96383939295393,52.70138124119241,19.097407314363146,-59.20008653929539,-7.931145224932249
55.55555555555556,263.496880572636,194.0013401526221,254.51548119946935,-174.40374155826558,-84.81483726558265,17.98444921409214,39.620891,25.963837834688345,52.70136804336043,19.098151067750678,-59.19971388346883,-7.929358815718157
58.33333333333333,263.4969954913783,194.00081084254708,254.51508736378187,-174.38120288617884,-84.8141501788618,17.961229674796748,39.620891,25.963836276422764,52.70135484552845,19.098894821138213,-59.19934122764227,-7.927572406504065
61.11111111111111,263.49711041012057,194.00028153247206,254.51469352809443,-174.35866421409213,-84.81346309214092,17.938010135501354,39.620891,25.96383471815718,52.701341647696474,19.099638574525745,-59.19896857181572,-7.925785997289973
63.888888888888886,263.49722532886284,193.99975222239703,254.51429969240695,-174.33612554200542,-84.81277600542006,17.91479059620596,39.620891,25.9638331598916,52.7013284498645,19.10038232791328,-59.19859591598916,-7.923999588075881
66.66666666666666,263.49734024760517,193.999222912322,254.5139058567195,-174.31358686991868,-84.81208891869919,17.891571056910568,39.620891,25.963831601626016,52.701315252032515,19.101126081300816,-59.1982232601626,-7.922213178861788
69.44444444444444,263.49745516634744,193.998693602247,254.51351202103206,-174.29104819783197,-84.81140183197833,17.868351517615174,39.620891,25.963830043360435,52.70130205420054,19.101869834688348,-59.19785060433604,-7.920426769647696
72.22222222222221,263.4975700850897,193.99816429217196,254.51311818534458,-174.26850952574526,-84.81071474525746,17.845131978319785,39.620891,25.96382848509485,52.70128885636856,19.102613588075883,-59.19747794850949,-7.918640360433604
75.0,263.49768500383203,193.99763498209694,254.51272434965713,-174.24597085365852,-84.81002765853658,17.82191243902439,39.620891,25.963826926829267,52.70127565853658,19.103357341463415,-59.19710529268293,-7.916853951219512
77.77777777777777,263.4977999225743,193.99710567202195,254.51233051396966,-174.2234321815718,-84.80934057181572,17.798692899728998,39.620891,25.963825368563686,52.701262460704605,19.10410109485095,-59.19673263685637,-7.91506754200542
80.55555555555556,263.4979148413166,193.99657636194692,254.5119366782822,-174.2008935094851,-84.80865348509485,17.775473360433605,39.620891,25.963823810298102,52.70124926287262,19.104844848238482,-59.19635998102981,-7.913281132791328
83.33333333333333,263.4980297600589,193.9960470518719,254.51154284259474,-174.17835483739836,-84.80796639837399,17.75225382113821,39.620891,25.96382225203252,52.701236065040646,19.105588601626017,-59.19598732520325,-7.911494723577236
86.11111111111111,263.49814467880117,193.99551774179687,254.5111490069073,-174.15581616531165,-84.80727931165312,17.729034281842818,39.620891,25.963820693766937,52.70122286720867,19.106332355013553,-59.195614669376695,-7.909708314363143
88.88888888888889,263.49825959754344,193.99498843172185,254.51075517121984,-174.13327749322494,-84.80659222493226,17.705814742547425,39.620891,25.963819135501357,52.70120966937669,19.107076108401085,-59.195242013550136,-7.907921905149051
91.66666666666666,263.49837451628576,193.99445912164683,254.51036133553237,-174.1107388211382,-84.80590513821139,17.68259520325203,39.620891,25.963817577235773,52.70119647154471,19.10781986178862,-59.194869357723576,-7.906135495934959
94.44444444444444,263.49848943502803,193.9939298115718,254.50996749984492,-174.0882001490515,-84.80521805149051,17.659375663956638,39.620891,25.96381601897019,52.701183273712736,19.108563615176152,-59.194496701897016,-7.904349086720867
97.22222222222221,263.4986043537703,193.99340050149678,254.50957366415744,-174.06566147696475,-84.80453096476965,17.636156124661248,39.620891,25.963814460704608,52.70117007588075,19.109307368563687,-59.194124046070456,-7.902562677506775
100.0,263.49871927251263,193.99287119142176,254.50917982847,-174.04312280487804,-84.80384387804878,17.612936585365855,39.620891,25.963812902439024,52.70115687804878,19.11005112195122,-59.193751390243904,-7.900776268292683
102.77777777777777,263.4988341912549,193.99234188134673,254.50878599278255,-174.02058413279133,-84.80315679132792,17.58971704607046,39.620891,25.963811344173443,52.7011436802168,19.110794875338755,-59.193378734417344,-7.898989859078591
105.55555555555556,263.49894910999717,193.9918125712717,254.50839215709507,-173.9980454607046,-84.80246970460705,17.566497506775068,39.620891,25.96380978590786,52.70113048238482,19.11153862872629,-59.193006078590784,-7.897203449864498
108.33333333333333,263.4990640287395,193.99128326119668,254.50799832140763,-173.97550678861788,-84.80178261788618,17.543277967479675,39.620891,25.963808227642275,52.70111728455284,19.112282382113822,-59.192633422764224,-7.895417040650406
111.11111111111111,263.49917894748177,193.99075395112166,254.50760448572015,-173.95296811653117,-84.80109553116532,17.52005842818428,39.620891,25.963806669376694,52.70110408672086,19.113026135501357,-59.19226076693767,-7.893630631436314
113.88888888888889,263.49929386622404,193.99022464104664,254.5072106500327,-173.93042944444443,-84.80040844444444,17.496838888888888,39.620891,25.96380511111111,52.701090888888885,19.11376988888889,-59.19188811111111,-7.891844222222222
116.66666666666666,263.49940878496636,193.9896953309716,254.50681681434523,-173.90789077235772,-84.79972135772358,17.473619349593495,39.620891,25.96380355284553,52.70107769105691,19.114513642276425,-59.19151545528455,-7.89005781300813
119.44444444444444,263.49952370370863,193.9891660208966,254.50642297865778,-173.885352100271,-84.79903427100271,17.4503998102981,39.620891,25.963801994579946,52.701064493224926,19.115257395663956,-59.19114279945799,-7.888271403794038
122.22222222222221,263.4996386224509,193.98863671082157,254.50602914297033,-173.86281342818427,-84.79834718428185,17.427180271002708,39.620891,25.963800436314365,52.70105129539295,19.116001149051492,-59.19077014363143,-7.886484994579946
125.0,263.49975354119323,193.98810740074654,254.50563530728286,-173.84027475609756,-84.79766009756098,17.403960731707315,39.620891,25.96379887804878,52.701038097560975,19.116744902439024,-59.19039748780488,-7.884698585365853
127.77777777777777,263.4998684599355,193.98757809067152,254.5052414715954,-173.81773608401085,-84.7969730108401,17.380741192411925,39.620891,25.963797319783197,52.70102489972899,19.11748865582656,-59.19002483197832,-7.882912176151761
130.55555555555554,263.49998337867777,193.98704878059652,254.50484763590794,-173.7951974119241,-84.79628592411925,17.35752165311653,39.620891,25.963795761517616,52.701011701897016,19.118232409214095,-59.18965217615176,-7.881125766937669
133.33333333333331,263.50009829742004,193.9865194705215,254.5044538002205,-173.7726587398374,-84.79559883739837,17.33430211382114,39.620891,25.963794203252032,52.70099850406504,19.118976162601626,-59.1892795203252,-7.879339357723577
136.11111111111111,263.50021321616236,193.98599016044648,254.50405996453304,-173.75012006775066,-84.79491175067751,17.311082574525745,39.620891,25.96379264498645,52.70098530623306,19.11971991598916,-59.18890686449864,-7.877552948509485
138.88888888888889,263.50032813490463,193.98546085037145,254.50366612884557,-173.72758139566395,-84.79422466395664,17.28786303523035,39.620891,25.963791086720867,52.70097210840108,19.120463669376694,-59.18853420867209,-7.875766539295393
141.66666666666666,263.5004430536469,193.98493154029643,254.50327229315812,-173.70504272357724,-84.79353757723578,17.26464349593496,39.620891,25.963789528455287,52.7009589105691,19.12120742276423,-59.18816155284553,-7.873980130081301
144.44444444444443,263.50055797238923,193.9844022302214,254.50287845747064,-173.6825040514905,-84.79285049051491,17.241423956639565,39.620891,25.963787970189703,52.70094571273712,19.12195117615176,-59.18778889701897,-7.872193720867208
147.22222222222223,263.5006728911315,193.98387292014638,254.5024846217832,-173.6599653794038,-84.79216340379404,17.21820441734417,39.620891,25.96378641192412,52.70093251490515,19.122694929539296,-59.18741624119241,-7.870407311653116
150.0,263.50078780987377,193.98334361007136,254.50209078609572,-173.63742670731708,-84.79147631707318,17.19498487804878,39.620891,25.963784853658538,52.700919317073165,19.12343868292683,-59.187043585365856,-7.868620902439024
152.77777777777777,263.5009027286161,193.98281429999633,254.50169695040827,-173.61488803523034,-84.7907892303523,17.17176533875339,39.620891,25.963783295392954,52.70090611924119,19.124182436314364,-59.1866709295393,-7.866834493224932
155.55555555555554,263.50101764735837,193.9822849899213,254.50130311472083,-173.59234936314363,-84.79010214363144,17.148545799457995,39.620891,25.963781737127373,52.70089292140921,19.1249261897019,-59.18629827371274,-7.86504808401084
158.33333333333331,263.50113256610064,193.9817556798463,254.50090927903335,-173.56981069105692,-84.78941505691057,17.125326260162602,39.620891,25.96378017886179,52.70087972357723,19.12566994308943,-59.18592561788618,-7.863261674796748
161.11111111111111,263.50124748484296,193.98122636977126,254.5005154433459,-173.54727201897018,-84.78872797018971,17.10210672086721,39.620891,25.96377862059621,52.700866525745255,19.126413696476966,-59.18555296205962,-7.861475265582656
163.88888888888889,263.50136240358523,193.98069705969624,254.50012160765843,-173.52473334688347,-84.78804088346884,17.078887181571815,39.620891,25.963777062330625,52.70085332791328,19.127157449864498,-59.185180306233065,-7.859688856368563
166.66666666666666,263.5014773223275,193.98016774962122,254.49972777197098,-173.50219467479675,-84.78735379674796,17.055667642276422,39.620891,25.96377550406504,52.700840130081296,19.127901203252033,-59.184807650406505,-7.857902447154471
169.44444444444443,263.50159224106983,193.9796384395462,254.49933393628353,-173.47965600271002,-84.7866667100271,17.03244810298103,39.620891,25.96377394579946,52.70082693224932,19.12864495663957,-59.184434994579945,-7.856116037940379
172.22222222222223,263.5017071598121,193.97910912947117,254.49894010059606,-173.4571173306233,-84.78597962330623,17.009228563685635,39.620891,25.963772387533876,52.70081373441734,19.1293887100271,-59.184062338753385,-7.854329628726287
175.0,263.50182207855437,193.97857981939615,254.4985462649086,-173.43457865853657,-84.78529253658537,16.986009024390242,39.620891,25.963770829268295,52.70080053658536,19.130132463414636,-59.183689682926826,-7.852543219512195
177.77777777777777,263.5019369972967,193.97805050932112,254.49815242922114,-173.41203998644986,-84.7846054498645,16.96278948509485,39.620891,25.96376927100271,52.700787338753386,19.130876216802168,-59.18331702710027,-7.850756810298103
180.55555555555554,263.50205191603897,193.97752119924613,254.4977585935337,-173.38950131436314,-84.78391836314363,16.93956994579946,39.620891,25.963767712737127,52.7007741409214,19.131619970189703,-59.18294437127371,-7.84897040108401
183.33333333333331,263.50216683478124,193.9769918891711,254.4973647578462,-173.3669626422764,-84.78323127642277,16.916350406504066,39.620891,25.963766154471546,52.70076094308943,19.132363723577235,-59.18257171544715,-7.847183991869918
186.11111111111111,263.50228175352356,193.97646257909608,254.49697092215877,-173.3444239701897,-84.7825441897019,16.893130867208672,39.620891,25.963764596205962,52.70074774525745,19.13310747696477,-59.182199059620594,-7.845397582655826
188.88888888888889,263.50239667226583,193.97593326902106,254.49657708647132,-173.32188529810298,-84.78185710298104,16.86991132791328,39.620891,25.96376303794038,52.70073454742547,19.133851230352306,-59.18182640379404,-7.843611173441734
191.66666666666666,263.5025115910081,193.97540395894603,254.49618325078384,-173.29934662601624,-84.78117001626016,16.846691788617886,39.620891,25.963761479674798,52.70072134959349,19.134594983739838,-59.18145374796748,-7.841824764227642
194.44444444444443,263.5026265097504,193.974874648871,254.4957894150964,-173.27680795392953,-84.7804829295393,16.823472249322492,39.620891,25.963759921409217,52.70070815176152,19.135338737127373,-59.18108109214092,-7.84003835501355
197.22222222222223,263.5027414284927,193.97434533879598,254.49539557940892,-173.25426928184282,-84.77979584281843,16.8002527100271,39.620891,25.963758363143633,52.700694953929535,19.136082490514905,-59.18070843631436,-7.838251945799458
200.0,263.50285634723497,193.97381602872096,254.49500174372147,-173.23173060975608,-84.77910875609756,16.777033170731706,39.620891,25.96375680487805,52.70068175609756,19.13682624390244,-59.1803357804878,-7.836465536585365
202.77777777777777,263.5029712659773,193.97328671864594,254.49460790803403,-173.20919193766937,-84.7784216693767,16.753813631436312,39.620891,25.963755246612468,52.700668558265576,19.137569997289972,-59.17996312466125,-7.834679127371273
205.55555555555554,263.5030629178311,193.97285589399996,254.4942720316071,-173.1911768582238,-84.7778617311828,16.735255112704102,39.620891,25.963754,52.70065663002787,19.138165,-59.17965598566308,-7.83325
208.33333333333331,263.5030615021308,193.97281901107013,254.49416799222243,-173.19125614934288,-84.77781038709678,16.73534067622461,39.620891,25.963754,52.70064978016726,19.138165,-59.17961091397849,-7.83325
211.11111111111111,263.50306008643054,193.97278212814032,254.49406395283773,-173.19133544046196,-84.77775904301076,16.73542623974512,39.620891,25.963754,52.70064293030665,19.138165,-59.179565842293904,-7.83325
213.88888888888889,263.50305867073024,193.9727452452105,254.49395991345304,-173.19141473158103,-84.77770769892473,16.73551180326563,39.620891,25.963754,52.70063608044603,19.138165,-59.17952077060932,-7.83325
216.66666666666666,263.50305725503,193.97270836228068,254.49385587406834,-173.1914940227001,-84.77765635483871,16.73559736678614,39.620891,25.963754,52.70062923058542,19.138165,-59.17947569892473,-7.83325
219.44444444444443,263.5030558393297,193.97267147935085,254.49375183468365,-173.1915733138192,-84.7776050107527,16.73568293030665,39.620891,25.963754,52.70062238072481,19.138165,-59.179430627240144,-7.83325
222.22222222222223,263.50305442362946,193.97263459642105,254.49364779529895,-173.19165260493827,-84.77755366666666,16.73576849382716,39.620891,25.963754,52.7006155308642,19.138165,-59.179385555555555,-7.83325
225.0,263.50305300792917,193.97259771349124,254.49354375591426,-173.19173189605735,-84.77750232258065,16.73585405734767,39.620891,25.963754,52.70060868100358,19.138165,-59.179340483870966,-7.83325
227.77777777777777,263.5030515922289,193.9725608305614,254.4934397165296,-173.19181118717643,-84.77745097849463,16.73593962086818,39.620891,25.963754,52.70060183114297,19.138165,-59.17929541218638,-7.83325
230.55555555555554,263.50305017652863,193.9725239476316,254.4933356771449,-173.1918904782955,-84.77739963440861,16.73602518438869,39.620891,25.963754,52.70059498128236,19.138165,-59.179250340501795,-7.83325
233.33333333333331,263.5030487608284,193.97248706470177,254.4932316377602,-173.19196976941458,-84.77734829032258,16.736110747909198,39.620891,25.963754,52.70058813142174,19.138165,-59.179205268817206,-7.83325
236.11111111111111,263.5030473451281,193.97245018177196,254.4931275983755,-173.19204906053363,-84.77729694623656,16.73619631142971,39.620891,25.963754,52.70058128156113,19.138165,-59.17916019713262,-7.83325
238.88888888888889,263.50304592942786,193.97241329884213,254.4930235589908,-173.1921283516527,-84.77724560215054,16.73628187495022,39.620891,25.963754,52.70057443170052,19.138165,-59.17911512544803,-7.83325
241.66666666666666,263.50304451372756,193.97237641591232,254.49291951960612,-173.1922076427718,-84.77719425806451,16.73636743847073,39.620891,25.963754,52.7005675818399,19.138165,-59.17907005376344,-7.83325
244.44444444444443,263.5030430980273,193.9723395329825,254.49281548022142,-173.19228693389087,-84.7771429139785,16.736453001991237,39.620891,25.963754,52.70056073197929,19.138165,-59.17902498207885,-7.83325
247.2222222222222,263.503041682327,193.97230265005268,254.49271144083676,-173.19236622500995,-84.77709156989248,16.736538565511747,39.620891,25.963754,52.700553882118676,19.138165,-59.17897991039426,-7.83325
250.0,263.5030402666268,193.97226576712285,254.49260740145206,-173.19244551612903,-84.77704022580646,16.736624129032258,39.620891,25.963754,52.700547032258065,19.138165,-59.17893483870968,-7.83325
252.77777777777777,263.5030388509265,193.97222888419304,254.49250336206737,-173.1925248072481,-84.77698888172043,16.73670969255277,39.620891,25.963754,52.70054018239745,19.138165,-59.17888976702509,-7.83325
255.55555555555554,263.50303743522625,193.97219200126324,254.49239932268267,-173.19260409836718,-84.77693753763441,16.736795256073275,39.620891,25.963754,52.700533332536835,19.138165,-59.1788446953405,-7.83325
258.3333333333333,263.50303601952595,193.9721551183334,254.49229528329798,-173.19268338948626,-84.77688619354839,16.736880819593786,39.620891,25.963754,52.700526482676224,19.138165,-59.17879962365591,-7.83325
261.1111111111111,263.5030346038257,193.9721182354036,254.49219124391328,-173.19276268060534,-84.77683484946238,16.736966383114297,39.620891,25.963754,52.700519632815606,19.138165,-59.17875455197132,-7.83325
263.88888888888886,263.5030331881254,193.97208135247377,254.4920872045286,-173.19284197172442,-84.77678350537634,16.737051946634807,39.620891,25.963754,52.700512782954995,19.138165,-59.178709480286734,-7.83325
266.66666666666663,263.5030317724252,193.97204446954396,254.49198316514392,-173.1929212628435,-84.77673216129033,16.737137510155318,39.620891,25.963754,52.700505933094384,19.138165,-59.17866440860215,-7.83325
269.44444444444446,263.5030303567249,193.97200758661413,254.49187912575923,-173.19300055396255,-84.77668081720431,16.737223073675825,39.620891,25.963754,52.70049908323377,19.138165,-59.17861933691756,-7.83325
272.22222222222223,263.50302894102464,193.97197070368432,254.49177508637453,-173.19307984508163,-84.77662947311828,16.737308637196335,39.620891,25.963754,52.700492233373154,19.138165,-59.178574265232974,-7.83325
275.0,263.50302752532434,193.9719338207545,254.49167104698984,-173.1931591362007,-84.77657812903226,16.737394200716846,39.620891,25.963754,52.70048538351254,19.138165,-59.178529193548385,-7.83325
277.77777777777777,263.5030261096241,193.97189693782468,254.49156700760514,-173.19323842731978,-84.77652678494624,16.737479764237357,39.620891,25.963754,52.70047853365193,19.138165,-59.1784841218638,-7.83325
280.55555555555554,263.5030246939238,193.97186005489485,254.49146296822045,-173.19331771843886,-84.77647544086022,16.737565327757864,39.620891,25.963754,52.700471683791314,19.138165,-59.17843905017921,-7.83325
283.3333333333333,263.50302327822357,193.97182317196504,254.49135892883575,-173.19339700955794,-84.77642409677419,16.737650891278374,39.620891,25.963754,52.7004648339307,19.138165,-59.178393978494626,-7.83325
286.1111111111111,263.50302186252327,193.97178628903524,254.49125488945108,-173.19347630067702,-84.77637275268818,16.737736454798885,39.620891,25.963754,52.70045798407009,19.138165,-59.17834890681004,-7.83325
288.88888888888886,263.50302044682303,193.9717494061054,254.4911508500664,-173.1935555917961,-84.77632140860216,16.737822018319395,39.620891,25.963754,52.70045113420947,19.138165,-59.17830383512545,-7.83325
291.66666666666663,263.50301903112273,193.9717125231756,254.4910468106817,-173.19363488291518,-84.77627006451613,16.737907581839902,39.620891,25.963754,52.70044428434886,19.138165,-59.17825876344086,-7.83325
294.44444444444446,263.5030176154225,193.97167564024576,254.490942771297,-173.19371417403426,-84.77621872043011,16.737993145360413,39.620891,25.963754,52.70043743448825,19.138165,-59.17821369175627,-7.83325
297.22222222222223,263.5030161997222,193.97163875731596,254.4908387319123,-173.19379346515333,-84.77616737634409,16.738078708880924,39.620891,25.963754,52.70043058462764,19.138165,-59.17816862007168,-7.83325
300.0,263.50301478402196,193.97160187438612,254.4907346925276,-173.1938727562724,-84.77611603225807,16.738164272401434,39.620891,25.963754,52.70042373476702,19.138165,-59.1781235483871,-7.83325
302.77777777777777,263.50301336832166,193.97156499145632,254.49063065314292,-173.19395204739146,-84.77606468817204,16.738249835921945,39.620891,25.963754,52.70041688490641,19.138165,-59.17807847670251,-7.83325
305.55555555555554,263.5030119526214,193.97152810852648,254.49052661375822,-173.19403133851054,-84.77601334408602,16.73833539944245,39.620891,25.963754,52.7004100350458,19.138165,-59.17803340501792,-7.83325
308.3333333333333,263.5030105369211,193.97149122559668,254.49042257437355,-173.19411062962962,-84.775962,16.738420962962962,39.620891,25.963754,52.70040318518518,19.138165,-59.17798833333333,-7.83325
311.1111111111111,263.5030091212209,193.97145434266685,254.49031853498886,-173.1941899207487,-84.77591065591398,16.738506526483473,39.620891,25.963754,52.70039633532457,19.138165,-59.17794326164874,-7.83325
313.88888888888886,263.5030077055206,193.97141745973704,254.49021449560416,-173.19426921186778,-84.77585931182796,16.738592090003984,39.620891,25.963754,52.70038948546396,19.138165,-59.177898189964154,-7.83325
316.66666666666663,263.50300628982035,193.97138057680723,254.49011045621947,-173.19434850298686,-84.77580796774194,16.73867765352449,39.620891,25.963754,52.70038263560335,19.138165,-59.17785311827957,-7.83325
319.44444444444446,263.50300487412005,193.9713436938774,254.49000641683477,-173.19442779410593,-84.77575662365592,16.738763217045,39.620891,25.963754,52.70037578574273,19.138165,-59.17780804659498,-7.83325
322.22222222222223,263.5030034584198,193.9713068109476,254.48990237745008,-173.194507085225,-84.77570527956989,16.73884878056551,39.620891,25.963754,52.70036893588212,19.138165,-59.177762974910394,-7.83325
325.0,263.5030020427195,193.97126992801776,254.48979833806538,-173.1945863763441,-84.77565393548387,16.738934344086022,39.620891,25.963754,52.70036208602151,19.138165,-59.177717903225805,-7.83325
327.77777777777777,263.5030006270193,193.97123304508796,254.48969429868072,-173.19466566746317,-84.77560259139786,16.739019907606533,39.620891,25.963754,52.70035523616089,19.138165,-59.177672831541216,-7.83325
330.55555555555554,263.502999211319,193.97119616215812,254.48959025929602,-173.19474495858225,-84.77555124731182,16.73910547112704,39.620891,25.963754,52.70034838630028,19.138165,-59.17762775985663,-7.83325
333.3333333333333,263.50299779561874,193.97115927922832,254.48948621991133,-173.19482424970133,-84.7754999032258,16.73919103464755,39.620891,25.963754,52.700341536439666,19.138165,-59.177582688172045,-7.83325
336.1111111111111,263.50299637991844,193.97112239629848,254.48938218052663,-173.1949035408204,-84.77544855913979,16.73927659816806,39.620891,25.963754,52.70033468657905,19.138165,-59.177537616487456,-7.83325
338.88888888888886,263.5029949642182,193.97108551336868,254.48927814114194,-173.19498283193946,-84.77539721505377,16.73936216168857,39.620891,25.963754,52.70032783671844,19.138165,-59.17749254480287,-7.83325
341.66666666666663,263.5029935485179,193.97104863043884,254.48917410175724,-173.19506212305853,-84.77534587096774,16.73944772520908,39.620891,25.963754,52.700320986857825,19.138165,-59.17744747311828,-7.83325
344.44444444444446,263.50299213281767,193.97101174750904,254.48907006237255,-173.1951414141776,-84.77529452688172,16.73953328872959,39.620891,25.963754,52.700314136997214,19.138165,-59.17740240143369,-7.83325
347.22222222222223,263.50299071711737,193.97097486457923,254.48896602298788,-173.1952207052967,-84.7752431827957,16.7396188522501,39.620891,25.963754,52.700307287136596,19.138165,-59.1773573297491,-7.83325
350.0,263.50298930141713,193.9709379816494,254.4888619836032,-173.19529999641577,-84.77519183870969,16.73970441577061,39.620891,25.963754,52.700300437275985,19.138165,-59.17731225806452,-7.83325
352.77777777777777,263.50298788571683,193.9709010987196,254.4887579442185,-173.19537928753485,-84.77514049462366,16.739789979291118,39.620891,25.963754,52.70029358741537,19.138165,-59.17726718637993,-7.83325
355.55555555555554,263.5029864700166,193.97086421578976,254.4886539048338,-173.19545857865393,-84.77508915053764,16.739875542811628,39.620891,25.963754,52.700286737554755,19.138165,-59.17722211469534,-7.83325
358.3333333333333,263.5029850543163,193.97082733285995,254.4885498654491,-173.195537869773,-84.77503780645162,16.73996110633214,39.620891,25.963754,52.700279887694144,19.138165,-59.17717704301075,-7.83325
361.1111111111111,263.50298363861606,193.97079044993012,254.4884458260644,-173.19561716089208,-84.77498646236559,16.74004666985265,39.620891,25.963754,52.70027303783353,19.138165,-59.17713197132616,-7.83325
363.88888888888886,263.50298222291576,193.97075356700032,254.4883417866797,-173.19569645201116,-84.77493511827957,16.74013223337316,39.620891,25.963754,52.700266187972915,19.138165,-59.17708689964157,-7.83325
366.66666666666663,263.5029808072155,193.97071668407048,254.48823774729505,-173.19577574313024,-84.77488377419355,16.740217796893667,39.620891,25.963754,52.7002593381123,19.138165,-59.17704182795699,-7.83325
369.44444444444446,263.5029793915152,193.97067980114068,254.48813370791035,-173.19585503424932,-84.77483243010754,16.740303360414178,39.620891,25.963754,52.70025248825169,19.138165,-59.1769967562724,-7.83325
372.22222222222223,263.502977975815,193.97064291821084,254.48802966852566,-173.19593432536837,-84.7747810860215,16.740388923934688,39.620891,25.963754,52.70024563839108,19.138165,-59.17695168458781,-7.83325
375.0,263.5029765601147,193.97060603528104,254.48792562914096,-173.19601361648745,-84.77472974193549,16.7404744874552,39.620891,25.963754,52.70023878853046,19.138165,-59.176906612903224,-7.83325
377.77777777777777,263.50297514441445,193.97056915235123,254.48782158975627,-173.19609290760653,-84.77467839784947,16.740560050975706,39.620891,25.963754,52.70023193866985,19.138165,-59.176861541218635,-7.83325
380.55555555555554,263.50297372871415,193.9705322694214,254.48771755037157,-173.1961721987256,-84.77462705376344,16.740645614496216,39.620891,25.963754,52.70022508880924,19.138165,-59.176816469534046,-7.83325
383.3333333333333,263.5029723130139,193.9704953864916,254.48761351098688,-173.19625148984468,-84.77457570967742,16.740731178016727,39.620891,25.963754,52.70021823894862,19.138165,-59.17677139784946,-7.83325
386.1111111111111,263.5029708973136,193.97045850356176,254.4875094716022,-173.19633078096376,-84.7745243655914,16.740816741537238,39.620891,25.963754,52.70021138908801,19.138165,-59.176726326164875,-7.83325
388.88888888888886,263.5029694816134,193.97042162063195,254.4874054322175,-173.19641007208284,-84.77447302150539,16.740902305057745,39.620891,25.963754,52.7002045392274,19.138165,-59.176681254480286,-7.83325
391.66666666666663,263.5029680659131,193.97038473770212,254.48730139283282,-173.19648936320192,-84.77442167741935,16.740987868578255,39.620891,25.963754,52.70019768936679,19.138165,-59.1766361827957,-7.83325
394.44444444444446,263.50296665021284,193.9703478547723,254.48719735344812,-173.196568654321,-84.77437033333334,16.741073432098766,39.620891,25.963754,52.70019083950617,19.138165,-59.17659111111111,-7.83325
397.22222222222223,263.50296523451254,193.97031097184248,254.48709331406343,-173.19664794544008,-84.77431898924732,16.741158995619276,39.620891,25.963754,52.70018398964556,19.138165,-59.17654603942652,-7.83325
400.0,263.5029638188123,193.97027408891267,254.48698927467873,-173.19672723655916,-84.77426764516129,16.741244559139787,39.620891,25.963754,52.70017713978495,19.138165,-59.17650096774193,-7.83325
402.77777777777777,263.502962403112,193.97023720598287,254.48688523529404,-173.19680652767823,-84.77421630107527,16.741330122660294,39.620891,25.963754,52.70017028992433,19.138165,-59.17645589605735,-7.83325
405.55555555555554,263.50296098741177,193.97020032305304,254.48678119590937,-173.19688581879728,-84.77416495698925,16.741415686180805,39.620891,25.963754,52.70016344006372,19.138165,-59.17641082437276,-7.83325
408.3333333333333,263.5029595717115,193.97016344012323,254.48667715652468,-173.19696510991636,-84.77411361290324,16.741501249701315,39.620891,25.963754,52.70015659020311,19.138165,-59.17636575268817,-7.83325
411.1111111111111,263.50295815601123,193.9701265571934,254.48657311713998,-173.19704440103544,-84.7740622688172,16.741586813221826,39.620891,25.963754,52.70014974034249,19.138165,-59.17632068100358,-7.83325
413.88888888888886,263.50295674031094,193.9700896742636,254.4864690777553,-173.19712369215452,-84.77401092473119,16.741672376742333,39.620891,25.963754,52.70014289048188,19.138165,-59.17627560931899,-7.83325
416.66666666666663,263.5029553246107,193.97005279133376,254.4863650383706,-173.1972029832736,-84.77395958064517,16.741757940262843,39.620891,25.963754,52.70013604062127,19.138165,-59.1762305376344,-7.83325
419.44444444444446,263.5029539089104,193.97001590840395,254.4862609989859,-173.19728227439268,-84.77390823655914,16.741843503783354,39.620891,25.963754,52.700129190760656,19.138165,-59.17618546594982,-7.83325
422.22222222222223,263.50295249321016,193.96997902547412,254.4861569596012,-173.19736156551176,-84.77385689247312,16.741929067303865,39.620891,25.963754,52.70012234090004,19.138165,-59.17614039426523,-7.83325
425.0,263.50295107750986,193.9699421425443,254.48605292021654,-173.19744085663083,-84.7738055483871,16.742014630824375,39.620891,25.963754,52.700115491039426,19.138165,-59.17609532258064,-7.83325
427.77777777777777,263.5029496618096,193.96990525961448,254.48594888083184,-173.1975201477499,-84.77375420430108,16.742100194344882,39.620891,25.963754,52.700108641178815,19.138165,-59.176050250896054,-7.83325
430.55555555555554,263.5029482461093,193.96986837668467,254.48584484144715,-173.197599438869,-84.77370286021505,16.742185757865393,39.620891,25.963754,52.7001017913182,19.138165,-59.176005179211465,-7.83325
433.3333333333333,263.5029468304091,193.96983149375487,254.48574080206245,-173.19767872998807,-84.77365151612904,16.742271321385903,39.620891,25.963754,52.700094941457586,19.138165,-59.175960107526876,-7.83325
436.1111111111111,263.5029454147088,193.96979461082503,254.48563676267776,-173.19775802110715,-84.77360017204302,16.742356884906414,39.620891,25.963754,52.700088091596974,19.138165,-59.175915035842294,-7.83325
438.88888888888886,263.50294399900855,193.96975772789523,254.48553272329306,-173.1978373122262,-84.773548827957,16.74244244842692,39.620891,25.963754,52.70008124173636,19.138165,-59.175869964157705,-7.83325
441.66666666666663,263.50294258330825,193.9697208449654,254.48542868390837,-173.19791660334528,-84.77349748387097,16.74252801194743,39.620891,25.963754,52.700074391875745,19.138165,-59.175824892473116,-7.83325
444.44444444444446,263.502941167608,193.9696839620356,254.4853246445237,-173.19799589446436,-84.77344613978495,16.742613575467942,39.620891,25.963754,52.700067542015134,19.138165,-59.17577982078853,-7.83325
447.22222222222223,263.5029397519077,193.96964707910575,254.485220605139,-173.19807518558343,-84.77339479569893,16.742699138988453,39.620891,25.963754,52.70006069215452,19.138165,-59.17573474910394,-7.83325
450.0,263.5029383362075,193.96961019617595,254.4851165657543,-173.1981544767025,-84.7733434516129,16.74278470250896,39.620891,25.963754,52.700053842293904,19.138165,-59.17568967741935,-7.83325
452.77777777777777,263.5029369205072,193.96957331324612,254.48501252636962,-173.1982337678216,-84.77329210752688,16.74287026602947,39.620891,25.963754,52.70004699243329,19.138165,-59.17564460573477,-7.83325
455.55555555555554,263.50293550480694,193.9695364303163,254.48490848698492,-173.19831305894067,-84.77324076344087,16.74295582954998,39.620891,25.963754,52.70004014257268,19.138165,-59.17559953405018,-7.83325
458.3333333333333,263.50293408910665,193.96949954738648,254.48480444760023,-173.19839235005975,-84.77318941935485,16.74304139307049,39.620891,25.963754,52.700033292712064,19.138165,-59.17555446236559,-7.83325
461.1111111111111,263.5029326734064,193.96946266445667,254.48470040821553,-173.19847164117883,-84.77313807526882,16.743126956591002,39.620891,25.963754,52.70002644285145,19.138165,-59.175509390681,-7.83325
463.88888888888886,263.5029312577061,193.96942578152687,254.48459636883086,-173.1985509322979,-84.7730867311828,16.74321252011151,39.620891,25.963754,52.70001959299084,19.138165,-59.17546431899641,-7.83325
466.66666666666663,263.50292984200587,193.96938889859703,254.48449232944617,-173.19863022341698,-84.77303538709678,16.74329808363202,39.620891,25.963754,52.70001274313023,19.138165,-59.17541924731182,-7.83325
469.4444444444444,263.5029284263056,193.96935201566723,254.48438829006147,-173.19870951453606,-84.77298404301075,16.74338364715253,39.620891,25.963754,52.70000589326961,19.138165,-59.17537417562724,-7.83325
472.22222222222223,263.50292701060533,193.9693151327374,254.48428425067678,-173.1987888056551,-84.77293269892473,16.74346921067304,39.620891,25.963754,52.699999043409,19.138165,-59.17532910394265,-7.83325
475.0,263.50292559490504,193.9692782498076,254.48418021129208,-173.1988680967742,-84.77288135483872,16.743554774193548,39.620891,25.963754,52.69999219354839,19.138165,-59.17528403225806,-7.83325
477.77777777777777,263.5029241792048,193.96924136687775,254.4840761719074,-173.19894738789327,-84.7728300107527,16.74364033771406,39.620891,25.963754,52.69998534368777,19.138165,-59.17523896057347,-7.83325
480.55555555555554,263.5029227635045,193.96920448394795,254.4839721325227,-173.19902667901235,-84.77277866666667,16.74372590123457,39.620891,25.963754,52.69997849382716,19.138165,-59.175193888888884,-7.83325
483.3333333333333,263.50292134780426,193.9691676010181,254.483868093138,-173.19910597013143,-84.77272732258065,16.74381146475508,39.620891,25.963754,52.69997164396655,19.138165,-59.175148817204295,-7.83325
486.1111111111111,263.5029128323082,193.9691480424402,254.48381008197794,-173.199144665572,-84.77271082977559,16.743851665571977,39.620891,25.963754,52.699965829775586,19.138165,-59.175138,-7.83325
488.88888888888886,263.5029020747714,193.96913395471023,254.4837666060467,-173.19917054132458,-84.7727053426382,16.743877541324576,39.620891,25.963754,52.69996034263821,19.138165,-59.175138,-7.83325
491.66666666666663,263.50289131723457,193.9691198669803,254.48372313011544,-173.1991964170772,-84.77269985550083,16.743903417077178,39.620891,25.963754,52.69995485550082,19.138165,-59.175138,-7.83325
494.4444444444444,263.50288055969776,193.96910577925033,254.48367965418421,-173.19922229282977,-84.77269436836345,16.743929292829776,39.620891,25.963754,52.699949368363434,19.138165,-59.175138,-7.83325
497.22222222222223,263.50286980216094,193.96909169152036,254.48363617825297,-173.1992481685824,-84.77268888122606,16.743955168582378,39.620891,25.963754,52.699943881226055,19.138165,-59.175138,-7.83325
500.0,263.50285904462413,193.96907760379042,254.48359270232172,-173.199274044335,-84.77268339408867,16.743981044334976,39.620891,25.963754,52.69993839408867,19.138165,-59.175138,-7.83325
502.77777777777777,263.5028482870873,193.96906351606046,254.48354922639047,-173.19929992008758,-84.77267790695129,16.744006920087575,39.620891,25.963754,52.69993290695129,19.138165,-59.175138,-7.83325
505.55555555555554,263.5028375295505,193.9690494283305,254.48350575045922,-173.1993257958402,-84.7726724198139,16.744032795840177,39.620891,25.963754,52.6999274198139,19.138165,-59.175138,-7.83325
508.3333333333333,263.5028267720137,193.96903534060056,254.48346227452797,-173.19935167159278,-84.77266693267653,16.744058671592775,39.620891,25.963754,52.69992193267652,19.138165,-59.175138,-7.83325
511.1111111111111,263.5028160144769,193.9690212528706,254.48341879859672,-173.1993775473454,-84.77266144553914,16.744084547345377,39.620891,25.963754,52.69991644553914,19.138165,-59.175138,-7.83325
513.8888888888889,263.50280525694006,193.96900716514062,254.4833753226655,-173.19940342309798,-84.77265595840176,16.744110423097975,39.620891,25.963754,52.69991095840175,19.138165,-59.175138,-7.83325
516.6666666666666,263.50279449940325,193.96899307741066,254.48333184673425,-173.1994292988506,-84.77265047126437,16.744136298850577,39.620891,25.963754,52.699905471264366,19.138165,-59.175138,-7.83325
519.4444444444445,263.50278374186644,193.96897898968072,254.483288370803,-173.19945517460317,-84.77264498412698,16.744162174603176,39.620891,25.963754,52.699899984126986,19.138165,-59.175138,-7.83325
522.2222222222222,263.5027729843296,193.96896490195076,254.48324489487175,-173.19948105035579,-84.7726394969896,16.744188050355774,39.620891,25.963754,52.6998944969896,19.138165,-59.175138,-7.83325
525.0,263.5027622267928,193.9689508142208,254.4832014189405,-173.19950692610837,-84.77263400985223,16.744213926108376,39.620891,25.963754,52.699889009852214,19.138165,-59.175138,-7.83325
527.7777777777777,263.502751469256,193.96893672649085,254.48315794300925,-173.19953280186098,-84.77262852271484,16.744239801860974,39.620891,25.963754,52.699883522714835,19.138165,-59.175138,-7.83325
530.5555555555555,263.5027407117192,193.9689226387609,254.483114467078,-173.1995586776136,-84.77262303557745,16.744265677613576,39.620891,25.963754,52.69987803557745,19.138165,-59.175138,-7.83325
533.3333333333333,263.50272995418237,193.96890855103092,254.48307099114677,-173.19958455336618,-84.77261754844007,16.744291553366175,39.620891,25.963754,52.69987254844006,19.138165,-59.175138,-7.83325
536.1111111111111,263.50271919664556,193.96889446330096,254.48302751521553,-173.1996104291188,-84.77261206130268,16.744317429118777,39.620891,25.963754,52.69986706130268,19.138165,-59.175138,-7.83325
538.8888888888889,263.50270843910874,193.96888037557102,254.48298403928428,-173.19963630487138,-84.7726065741653,16.744343304871375,39.620891,25.963754,52.6998615741653,19.138165,-59.175138,-7.83325
541.6666666666666,263.50269768157193,193.96886628784105,254.48294056335303,-173.199662180624,-84.77260108702792,16.744369180623973,39.620891,25.963754,52.69985608702791,19.138165,-59.175138,-7.83325
544.4444444444445,263.5026869240351,193.9688522001111,254.48289708742178,-173.19968805637657,-84.77259559989054,16.744395056376575,39.620891,25.963754,52.69985059989053,19.138165,-59.175138,-7.83325
547.2222222222222,263.5026761664983,193.96883811238115,254.48285361149053,-173.19971393212919,-84.77259011275315,16.744420932129174,39.620891,25.963754,52.699845112753145,19.138165,-59.175138,-7.83325
550.0,263.5026654089615,193.96882402465118,254.48281013555928,-173.19973980788177,-84.77258462561576,16.744446807881776,39.620891,25.963754,52.699839625615766,19.138165,-59.175138,-7.83325
552.7777777777777,263.5026546514247,193.96880993692122,254.48276665962806,-173.19976568363438,-84.77257913847838,16.744472683634374,39.620891,25.963754,52.69983413847838,19.138165,-59.175138,-7.83325
555.5555555555555,263.50264389388786,193.96879584919128,254.4827231836968,-173.199791559387,-84.77257365134099,16.744498559386976,39.620891,25.963754,52.699828651340994,19.138165,-59.175138,-7.83325
558.3333333333333,263.50263313635105,193.96878176146132,254.48267970776556,-173.19981743513958,-84.77256816420362,16.744524435139574,39.620891,25.963754,52.699823164203615,19.138165,-59.175138,-7.83325
561.1111111111111,263.50262237881424,193.96876767373135,254.4826362318343,-173.1998433108922,-84.77256267706623,16.744550310892173,39.620891,25.963754,52.69981767706623,19.138165,-59.175138,-7.83325
563.8888888888889,263.5026116212774,193.96875358600138,254.48259275590306,-173.19986918664478,-84.77255718992885,16.744576186644775,39.620891,25.963754,52.69981218992884,19.138165,-59.175138,-7.83325
566.6666666666666,263.5026008637406,193.96873949827145,254.4825492799718,-173.1998950623974,-84.77255170279146,16.744602062397373,39.620891,25.963754,52.69980670279146,19.138165,-59.175138,-7.83325
569.4444444444445,263.5025901062038,193.96872541054148,254.48250580404056,-173.19992093814997,-84.77254621565407,16.744627938149975,39.620891,25.963754,52.69980121565408,19.138165,-59.175138,-7.83325
572.2222222222222,263.502579348667,193.96871132281152,254.48246232810934,-173.19994681390259,-84.77254072851669,16.744653813902573,39.620891,25.963754,52.69979572851669,19.138165,-59.175138,-7.83325
575.0,263.50256859113017,193.96869723508158,254.48241885217809,-173.19997268965517,-84.77253524137932,16.744679689655175,39.620891,25.963754,52.69979024137931,19.138165,-59.175138,-7.83325
577.7777777777777,263.5025578335933,193.9686831473516,254.48237537624684,-173.19999856540778,-84.77252975424193,16.744705565407774,39.620891,25.963754,52.699784754241925,19.138165,-59.175138,-7.83325
580.5555555555555,263.5025470760565,193.96866905962165,254.4823319003156,-173.2000244411604,-84.77252426710454,16.744731441160372,39.620891,25.963754,52.69977926710454,19.138165,-59.175138,-7.83325
583.3333333333333,263.5025363185197,193.9686549718917,254.48228842438434,-173.20005031691298,-84.77251877996716,16.744757316912974,39.620891,25.963754,52.69977377996716,19.138165,-59.175138,-7.83325
586.1111111111111,263.50252556098286,193.96864088416174,254.4822449484531,-173.2000761926656,-84.77251329282977,16.744783192665572,39.620891,25.963754,52.69976829282977,19.138165,-59.175138,-7.83325
588.8888888888889,263.50251480344605,193.96862679643178,254.48220147252184,-173.20010206841818,-84.77250780569238,16.744809068418174,39.620891,25.963754,52.69976280569239,19.138165,-59.175138,-7.83325
591.6666666666666,263.50250404590923,193.9686127087018,254.48215799659062,-173.2001279441708,-84.77250231855501,16.744834944170773,39.620891,25.963754,52.69975731855501,19.138165,-59.175138,-7.83325
594.4444444444445,263.5024932883724,193.96859862097187,254.48211452065937,-173.20015381992337,-84.77249683141763,16.744860819923375,39.620891,25.963754,52.69975183141762,19.138165,-59.175138,-7.83325
597.2222222222222,263.5024825308356,193.9685845332419,254.48207104472812,-173.20017969567598,-84.77249134428024,16.744886695675973,39.620891,25.963754,52.69974634428024,19.138165,-59.175138,-7.83325
600.0,263.5024717732988,193.96857044551194,254.48202756879687,-173.20020557142857,-84.77248585714285,16.74491257142857,39.620891,25.963754,52.69974085714286,19.138165,-59.175138,-7.83325
602.7777777777777,263.502461015762,193.968556357782,254.48198409286562,-173.20023144718118,-84.77248037000547,16.744938447181173,39.620891,25.963754,52.69973537000547,19.138165,-59.175138,-7.83325
605.5555555555555,263.50245025822517,193.96854227005204,254.48194061693437,-173.2002573229338,-84.77247488286808,16.74496432293377,39.620891,25.963754,52.69972988286809,19.138165,-59.175138,-7.83325
608.3333333333333,263.50243950068835,193.96852818232207,254.48189714100312,-173.20028319868638,-84.77246939573071,16.744990198686374,39.620891,25.963754,52.699724395730705,19.138165,-59.175138,-7.83325
611.1111111111111,263.50242874315154,193.9685140945921,254.4818536650719,-173.200309074439,-84.77246390859332,16.745016074438972,39.620891,25.963754,52.69971890859332,19.138165,-59.175138,-7.83325
613.8888888888889,263.5024179856147,193.96850000686217,254.48181018914065,-173.20033495019157,-84.77245842145594,16.745041950191574,39.620891,25.963754,52.69971342145594,19.138165,-59.175138,-7.83325
616.6666666666666,263.5024072280779,193.9684859191322,254.4817667132094,-173.2003608259442,-84.77245293431855,16.745067825944172,39.620891,25.963754,52.69970793431855,19.138165,-59.175138,-7.83325
619.4444444444445,263.5023964705411,193.96847183140224,254.48172323727815,-173.20038670169677,-84.77244744718116,16.74509370169677,39.620891,25.963754,52.69970244718117,19.138165,-59.175138,-7.83325
622.2222222222222,263.5023857130043,193.9684577436723,254.4816797613469,-173.20041257744938,-84.77244196004378,16.745119577449373,39.620891,25.963754,52.69969696004379,19.138165,-59.175138,-7.83325
625.0,263.5023749554675,193.96844365594234,254.48163628541565,-173.20043845320197,-84.7724364729064,16.74514545320197,39.620891,25.963754,52.6996914729064,19.138165,-59.175138,-7.83325
627.7777777777777,263.50236419793066,193.96842956821237,254.4815928094844,-173.20046432895458,-84.77243098576902,16.745171328954573,39.620891,25.963754,52.699685985769015,19.138165,-59.175138,-7.83325
630.5555555555555,263.50235344039385,193.96841548048243,254.48154933355318,-173.2004902047072,-84.77242549863163,16.74519720470717,39.620891,25.963754,52.699680498631636,19.138165,-59.175138,-7.83325
633.3333333333333,263.50234268285703,193.96840139275247,254.48150585762193,-173.20051608045978,-84.77242001149425,16.745223080459773,39.620891,25.963754,52.69967501149425,19.138165,-59.175138,-7.83325
636.1111111111111,263.5023319253202,193.9683873050225,254.48146238169068,-173.2005419562124,-84.77241452435686,16.74524895621237,39.620891,25.963754,52.699669524356864,19.138165,-59.175138,-7.83325
638.8888888888889,263.5023211677834,193.96837321729254,254.48141890575943,-173.20056783196497,-84.77240903721949,16.74527483196497,39.620891,25.963754,52.699664037219485,19.138165,-59.175138,-7.83325
641.6666666666666,263.5023104102466,193.9683591295626,254.48137542982818,-173.2005937077176,-84.7724035500821,16.745300707717572,39.620891,25.963754,52.6996585500821,19.138165,-59.175138,-7.83325
644.4444444444445,263.5022996527098,193.96834504183263,254.48133195389693,-173.20061958347017,-84.77239806294472,16.74532658347017,39.620891,25.963754,52.69965306294471,19.138165,-59.175138,-7.83325
647.2222222222222,263.50228889517297,193.96833095410267,254.48128847796568,-173.20064545922278,-84.77239257580733,16.745352459222772,39.620891,25.963754,52.69964757580733,19.138165,-59.175138,-7.83325
650.0,263.50227813763615,193.96831686637273,254.48124500203446,-173.20067133497537,-84.77238708866994,16.74537833497537,39.620891,25.963754,52.69964208866995,19.138165,-59.175138,-7.83325
652.7777777777777,263.50226738009934,193.96830277864277,254.4812015261032,-173.20069721072798,-84.77238160153256,16.745404210727973,39.620891,25.963754,52.69963660153257,19.138165,-59.175138,-7.83325
655.5555555555555,263.5022566225625,193.9682886909128,254.48115805017196,-173.20072308648056,-84.77237611439519,16.74543008648057,39.620891,25.963754,52.69963111439518,19.138165,-59.175138,-7.83325
658.3333333333333,263.5022458650257,193.96827460318286,254.4811145742407,-173.20074896223318,-84.7723706272578,16.74545596223317,39.620891,25.963754,52.699625627257795,19.138165,-59.175138,-7.83325
661.1111111111111,263.5022351074889,193.9682605154529,254.48107109830946,-173.2007748379858,-84.77236514012041,16.74548183798577,39.620891,25.963754,52.699620140120416,19.138165,-59.175138,-7.83325
663.8888888888889,263.5022243499521,193.96824642772293,254.4810276223782,-173.20080071373837,-84.77235965298303,16.74550771373837,39.620891,25.963754,52.69961465298303,19.138165,-59.175138,-7.83325
666.6666666666666,263.5022135924153,193.96823233999297,254.48098414644696,-173.200826589491,-84.77235416584564,16.74553358949097,39.620891,25.963754,52.699609165845644,19.138165,-59.175138,-7.83325
669.4444444444445,263.50220283487846,193.96821825226303,254.48094067051574,-173.20085246524357,-84.77234867870825,16.74555946524357,39.620891,25.963754,52.699603678708264,19.138165,-59.175138,-7.83325
672.2222222222222,263.50219207734165,193.96820416453306,254.4808971945845,-173.20087834099618,-84.77234319157088,16.745585340996172,39.620891,25.963754,52.69959819157088,19.138165,-59.175138,-7.83325
675.0,263.50218131980483,193.9681900768031,254.48085371865324,-173.20090421674877,-84.7723377044335,16.74561121674877,39.620891,25.963754,52.69959270443349,19.138165,-59.175138,-7.83325
677.7777777777777,263.502170562268,193.96817598907316,254.480810242722,-173.20093009250138,-84.77233221729611,16.74563709250137,39.620891,25.963754,52.69958721729611,19.138165,-59.175138,-7.83325
680.5555555555555,263.5021598047312,193.9681619013432,254.48076676679074,-173.20095596825396,-84.77232673015872,16.74566296825397,39.620891,25.963754,52.69958173015873,19.138165,-59.175138,-7.83325
683.3333333333333,263.5021490471944,193.96814781361323,254.4807232908595,-173.20098184400658,-84.77232124302134,16.74568884400657,39.620891,25.963754,52.69957624302134,19.138165,-59.175138,-7.83325
686.1111111111111,263.5021382896575,193.96813372588326,254.48067981492824,-173.2010077197592,-84.77231575588395,16.74571471975917,39.620891,25.963754,52.69957075588396,19.138165,-59.175138,-7.83325
688.8888888888889,263.50212978454385,193.96812485155374,254.48065396179197,-173.20102449074076,-84.7723124074074,16.74573201851852,39.620891,25.963754,52.69956687962963,19.138165,-59.175138,-7.83325
691.6666666666666,263.50212233939396,193.96811843058913,254.48063640173567,-173.2010369771242,-84.77231006535948,16.745745281045753,39.620891,25.963754,52.69956376143791,19.138165,-59.175138,-7.83325
694.4444444444445,263.5021148942441,193.96811200962452,254.48061884167936,-173.20104946350764,-84.77230772331154,16.745758543572986,39.620891,25.963754,52.69956064324619,19.138165,-59.175138,-7.83325
697.2222222222222,263.50210744909424,193.96810558865988,254.48060128162308,-173.20106194989108,-84.7723053812636,16.74577180610022,39.620891,25.963754,52.699557525054466,19.138165,-59.175138,-7.83325
700.0,263.50210000394435,193.96809916769527,254.48058372156677,-173.20107443627452,-84.77230303921569,16.745785068627452,39.620891,25.963754,52.699554406862745,19.138165,-59.175138,-7.83325
702.7777777777777,263.50209255879446,193.96809274673066,254.48056616151047,-173.20108692265796,-84.77230069716775,16.745798331154685,39.620891,25.963754,52.699551288671024,19.138165,-59.175138,-7.83325
705.5555555555555,263.50208511364457,193.96808632576602,254.4805486014542,-173.2010994090414,-84.77229835511982,16.745811593681918,39.620891,25.963754,52.6995481704793,19.138165,-59.175138,-7.83325
708.3333333333333,263.5020776684947,193.9680799048014,254.48053104139788,-173.20111189542484,-84.7722960130719,16.74582485620915,39.620891,25.963754,52.699545052287576,19.138165,-59.175138,-7.83325
711.1111111111111,263.50207022334484,193.96807348383678,254.48051348134157,-173.20112438180828,-84.77229367102396,16.745838118736383,39.620891,25.963754,52.699541934095855,19.138165,-59.175138,-7.83325
713.8888888888889,263.50206277819495,193.96806706287217,254.4804959212853,-173.20113686819172,-84.77229132897602,16.74585138126362,39.620891,25.963754,52.699538815904134,19.138165,-59.175138,-7.83325
716.6666666666666,263.50205533304506,193.96806064190756,254.480478361229,-173.20114935457516,-84.7722889869281,16.745864643790853,39.620891,25.963754,52.69953569771241,19.138165,-59.175138,-7.83325
719.4444444444445,263.5020478878952,193.96805422094292,254.48046080117268,-173.2011618409586,-84.77228664488017,16.745877906318086,39.620891,25.963754,52.69953257952069,19.138165,-59.175138,-7.83325
722.2222222222222,263.5020404427453,193.9680477999783,254.4804432411164,-173.20117432734204,-84.77228430283223,16.74589116884532,39.620891,25.963754,52.69952946132897,19.138165,-59.175138,-7.83325
725.0,263.5020329975954,193.9680413790137,254.4804256810601,-173.20118681372549,-84.77228196078431,16.74590443137255,39.620891,25.963754,52.69952634313725,19.138165,-59.175138,-7.83325
727.7777777777777,263.50202555244556,193.96803495804906,254.4804081210038,-173.20119930010895,-84.77227961873638,16.745917693899784,39.620891,25.963754,52.69952322494553,19.138165,-59.175138,-7.83325
730.5555555555555,263.50201810729567,193.96802853708445,254.4803905609475,-173.2012117864924,-84.77227727668846,16.745930956427017,39.620891,25.963754,52.69952010675381,19.138165,-59.175138,-7.83325
733.3333333333333,263.5020106621458,193.96802211611984,254.4803730008912,-173.20122427287583,-84.77227493464052,16.74594421895425,39.620891,25.963754,52.69951698856209,19.138165,-59.175138,-7.83325
736.1111111111111,263.5020032169959,193.9680156951552,254.4803554408349,-173.20123675925927,-84.77227259259259,16.745957481481483,39.620891,25.963754,52.69951387037037,19.138165,-59.175138,-7.83325
738.8888888888889,263.501995771846,193.9680092741906,254.48033788077862,-173.2012492456427,-84.77227025054466,16.745970744008716,39.620891,25.963754,52.69951075217865,19.138165,-59.175138,-7.83325
741.6666666666666,263.50198832669616,193.96800285322595,254.4803203207223,-173.20126173202615,-84.77226790849673,16.74598400653595,39.620891,25.963754,52.699507633986926,19.138165,-59.175138,-7.83325
744.4444444444445,263.5019808815463,193.96799643226134,254.480302760666,-173.2012742184096,-84.7722655664488,16.74599726906318,39.620891,25.963754,52.699504515795205,19.138165,-59.175138,-7.83325
747.2222222222222,263.5019734363964,193.96799001129673,254.48028520060973,-173.20128670479303,-84.77226322440087,16.746010531590414,39.620891,25.963754,52.699501397603484,19.138165,-59.175138,-7.83325
750.0,263.5019659912465,193.9679835903321,254.48026764055342,-173.20129919117647,-84.77226088235294,16.746023794117647,39.620891,25.963754,52.69949827941176,19.138165,-59.175138,-7.83325
752.7777777777777,263.5019585460966,193.9679771693675,254.48025008049711,-173.20131167755991,-84.772258540305,16.74603705664488,39.620891,25.963754,52.69949516122004,19.138165,-59.175138,-7.83325
755.5555555555555,263.50195110094677,193.96797074840288,254.48023252044084,-173.20132416394335,-84.77225619825708,16.746050319172113,39.620891,25.963754,52.69949204302832,19.138165,-59.175138,-7.83325
758.3333333333333,263.5019436557969,193.96796432743824,254.48021496038453,-173.2013366503268,-84.77225385620915,16.74606358169935,39.620891,25.963754,52.6994889248366,19.138165,-59.175138,-7.83325
761.1111111111111,263.501936210647,193.96795790647363,254.48019740032822,-173.20134913671023,-84.77225151416121,16.746076844226582,39.620891,25.963754,52.69948580664488,19.138165,-59.175138,-7.83325
763.8888888888889,263.5019287654971,193.96795148550902,254.48017984027194,-173.20136162309367,-84.77224917211329,16.746090106753815,39.620891,25.963754,52.69948268845316,19.138165,-59.175138,-7.83325
766.6666666666666,263.5019213203472,193.96794506454438,254.48016228021564,-173.20137410947711,-84.77224683006536,16.746103369281048,39.620891,25.963754,52.69947957026144,19.138165,-59.175138,-7.83325
769.4444444444445,263.5019138751974,193.96793864357977,254.48014472015933,-173.20138659586058,-84.77224448801742,16.74611663180828,39.620891,25.963754,52.69947645206972,19.138165,-59.175138,-7.83325
772.2222222222222,263.5019064300475,193.96793222261513,254.48012716010305,-173.20139908224402,-84.7722421459695,16.746129894335514,39.620891,25.963754,52.699473333878,19.138165,-59.175138,-7.83325
775.0,263.5018989848976,193.96792580165052,254.48010960004675,-173.20141156862746,-84.77223980392156,16.746143156862747,39.620891,25.963754,52.699470215686276,19.138165,-59.175138,-7.83325
777.7777777777777,263.5018915397477,193.9679193806859,254.48009203999044,-173.2014240550109,-84.77223746187363,16.74615641938998,39.620891,25.963754,52.69946709749455,19.138165,-59.175138,-7.83325
780.5555555555555,263.5018840945978,193.96791295972128,254.48007447993416,-173.20143654139434,-84.77223511982571,16.746169681917213,39.620891,25.963754,52.69946397930283,19.138165,-59.175138,-7.83325
783.3333333333333,263.501876649448,193.96790653875667,254.48005691987785,-173.20144902777778,-84.77223277777777,16.746182944444445,39.620891,25.963754,52.699460861111106,19.138165,-59.175138,-7.83325
786.1111111111111,263.5018692042981,193.96790011779206,254.48003935982155,-173.20146151416122,-84.77223043572985,16.74619620697168,39.620891,25.963754,52.699457742919385,19.138165,-59.175138,-7.83325
788.8888888888889,263.5018617591482,193.96789369682742,254.48002179976527,-173.20147400054466,-84.77222809368192,16.74620946949891,39.620891,25.963754,52.699454624727665,19.138165,-59.175138,-7.83325
791.6666666666666,263.5018543139983,193.9678872758628,254.48000423970896,-173.2014864869281,-84.77222575163398,16.746222732026144,39.620891,25.963754,52.699451506535944,19.138165,-59.175138,-7.83325
794.4444444444445,263.5018468688484,193.9678808548982,254.47998667965265,-173.20149897331154,-84.77222340958606,16.746235994553377,39.620891,25.963754,52.69944838834422,19.138165,-59.175138,-7.83325
797.2222222222222,263.5018394236986,193.96787443393356,254.47996911959638,-173.20151145969498,-84.77222106753813,16.74624925708061,39.620891,25.963754,52.6994452701525,19.138165,-59.175138,-7.83325
800.0,263.5018319785487,193.96786801296895,254.47995155954007,-173.20152394607842,-84.77221872549019,16.746262519607843,39.620891,25.963754,52.69944215196078,19.138165,-59.175138,-7.83325
802.7777777777777,263.5018245333988,193.96786159200434,254.47993399948376,-173.20153643246186,-84.77221638344227,16.74627578213508,39.620891,25.963754,52.69943903376906,19.138165,-59.175138,-7.83325
805.5555555555555,263.5018170882489,193.9678551710397,254.47991643942748,-173.2015489188453,-84.77221404139434,16.746289044662312,39.620891,25.963754,52.69943591557734,19.138165,-59.175138,-7.83325
808.3333333333333,263.501809643099,193.9678487500751,254.47989887937118,-173.20156140522877,-84.7722116993464,16.746302307189545,39.620891,25.963754,52.69943279738562,19.138165,-59.175138,-7.83325
811.1111111111111,263.5018021979492,193.96784232911045,254.47988131931487,-173.2015738916122,-84.77220935729848,16.746315569716778,39.620891,25.963754,52.6994296791939,19.138165,-59.175138,-7.83325
813.8888888888889,263.5017947527993,193.96783590814584,254.4798637592586,-173.20158637799565,-84.77220701525054,16.74632883224401,39.620891,25.963754,52.69942656100218,19.138165,-59.175138,-7.83325
816.6666666666666,263.5017873076494,193.96782948718123,254.47984619920229,-173.2015988643791,-84.77220467320261,16.746342094771244,39.620891,25.963754,52.699423442810456,19.138165,-59.175138,-7.83325
819.4444444444445,263.5017798624995,193.9678230662166,254.47982863914598,-173.20161135076253,-84.77220233115469,16.746355357298476,39.620891,25.963754,52.699420324618735,19.138165,-59.175138,-7.83325
822.2222222222222,263.5017724173496,193.967816645252,254.4798110790897,-173.20162383714597,-84.77219998910675,16.74636861982571,39.620891,25.963754,52.699417206427015,19.138165,-59.175138,-7.83325
825.0,263.5017649721998,193.96781022428738,254.4797935190334,-173.2016363235294,-84.77219764705882,16.746381882352942,39.620891,25.963754,52.699414088235294,19.138165,-59.175138,-7.83325
827.7777777777777,263.5017575270499,193.96780380332274,254.4797759589771,-173.20164880991285,-84.7721953050109,16.746395144880175,39.620891,25.963754,52.69941097004357,19.138165,-59.175138,-7.83325
830.5555555555555,263.5017500819,193.96779738235813,254.4797583989208,-173.2016612962963,-84.77219296296296,16.746408407407408,39.620891,25.963754,52.69940785185185,19.138165,-59.175138,-7.83325
833.3333333333333,263.5017426367501,193.96779096139352,254.4797408388645,-173.20167378267973,-84.77219062091503,16.74642166993464,39.620891,25.963754,52.69940473366013,19.138165,-59.175138,-7.83325
836.1111111111111,263.50173519160023,193.96778454042888,254.4797232788082,-173.20168626906317,-84.7721882788671,16.746434932461874,39.620891,25.963754,52.69940161546841,19.138165,-59.175138,-7.83325
838.8888888888889,263.50172774645034,193.96777811946427,254.47970571875192,-173.2016987554466,-84.77218593681917,16.746448194989107,39.620891,25.963754,52.69939849727669,19.138165,-59.175138,-7.83325
841.6666666666666,263.5017203013005,193.96777169849963,254.4796881586956,-173.20171124183005,-84.77218359477125,16.74646145751634,39.620891,25.963754,52.69939537908497,19.138165,-59.175138,-7.83325
844.4444444444445,263.5017128561506,193.96776527753502,254.4796705986393,-173.2017237282135,-84.77218125272331,16.746474720043576,39.620891,25.963754,52.69939226089325,19.138165,-59.175138,-7.83325
847.2222222222222,263.5017054110007,193.9677588565704,254.47965303858302,-173.20173621459696,-84.77217891067538,16.74648798257081,39.620891,25.963754,52.69938914270153,19.138165,-59.175138,-7.83325
850.0,263.50169796585084,193.96775243560577,254.47963547852672,-173.2017487009804,-84.77217656862746,16.74650124509804,39.620891,25.963754,52.699386024509806,19.138165,-59.175138,-7.83325
852.7777777777777,263.50169052070095,193.96774601464116,254.4796179184704,-173.20176118736384,-84.77217422657952,16.746514507625275,39.620891,25.963754,52.69938290631808,19.138165,-59.175138,-7.83325
855.5555555555555,263.5016830755511,193.96773959367655,254.47960035841413,-173.20177367374728,-84.77217188453159,16.746527770152507,39.620891,25.963754,52.69937978812636,19.138165,-59.175138,-7.83325
858.3333333333333,263.5016756304012,193.96773317271192,254.47958279835782,-173.20178616013072,-84.77216954248367,16.74654103267974,39.620891,25.963754,52.69937666993464,19.138165,-59.175138,-7.83325
861.1111111111111,263.50166818525133,193.9677267517473,254.47956523830152,-173.20179864651416,-84.77216720043573,16.746554295206973,39.620891,25.963754,52.699373551742916,19.138165,-59.175138,-7.83325
863.8888888888889,263.50166074010144,193.9677203307827,254.47954767824524,-173.2018111328976,-84.7721648583878,16.746567557734206,39.620891,25.963754,52.699370433551195,19.138165,-59.175138,-7.83325
866.6666666666666,263.50165329495155,193.96771390981806,254.47953011818893,-173.20182361928104,-84.77216251633988,16.74658082026144,39.620891,25.963754,52.699367315359474,19.138165,-59.175138,-7.83325
869.4444444444445,263.5016458498017,193.96770748885345,254.47951255813263,-173.20183610566448,-84.77216017429194,16.746594082788672,39.620891,25.963754,52.69936419716775,19.138165,-59.175138,-7.83325
872.2222222222222,263.5016384046518,193.96770106788884,254.47949499807635,-173.20184859204792,-84.772157832244,16.746607345315905,39.620891,25.963754,52.69936107897603,19.138165,-59.175138,-7.83325
875.0,263.50163095950194,193.9676946469242,254.47947743802004,-173.20186107843136,-84.77215549019608,16.746620607843138,39.620891,25.963754,52.69935796078431,19.138165,-59.175138,-7.83325
877.7777777777777,263.50162351435205,193.9676882259596,254.47945987796373,-173.2018735648148,-84.77215314814815,16.74663387037037,39.620891,25.963754,52.69935484259259,19.138165,-59.175138,-7.83325
880.5555555555555,263.50161606920216,193.96768180499495,254.47944231790746,-173.20188605119824,-84.77215080610021,16.746647132897603,39.620891,25.963754,52.69935172440087,19.138165,-59.175138,-7.83325
883.3333333333333,263.5016086240523,193.96767538403034,254.47942475785115,-173.20189853758168,-84.7721484640523,16.746660395424836,39.620891,25.963754,52.69934860620915,19.138165,-59.175138,-7.83325
886.1111111111111,263.50160117890243,193.96766896306573,254.47940719779484,-173.20191102396515,-84.77214612200436,16.74667365795207,39.620891,25.963754,52.69934548801743,19.138165,-59.175138,-7.83325
888.8888888888889,263.50159373375254,193.9676625421011,254.47938963773856,-173.2019235103486,-84.77214377995642,16.746686920479306,39.620891,25.963754,52.69934236982571,19.138165,-59.175138,-7.83325
891.6666666666666,263.5015857117347,193.96765593000436,254.47937236860056,-173.20193724400872,-84.77214100217866,16.7467009956427,39.620891,25.963754,52.69933900217865,19.138165,-59.175138,-7.83325
894.4444444444445,263.5015758629683,193.9676487126559,254.47935602070385,-173.20195492737835,-84.7721368445897,16.746717644153957,39.620891,25.963754,52.699334844589686,19.138165,-59.175138,-7.83325
897.2222222222222,263.50156601420196,193.96764149530745,254.47933967280713,-173.201972610748,-84.77213268700073,16.746734292665217,39.620891,25.963754,52.699330687000725,19.138165,-59.175138,-7.83325
900.0,263.50155616543555,193.96763427795898,254.4793233249104,-173.20199029411765,-84.77212852941177,16.746750941176472,39.620891,25.963754,52.69932652941176,19.138165,-59.175138,-7.83325
902.7777777777777,263.5015463166692,193.9676270606105,254.4793069770137,-173.20200797748728,-84.7721243718228,16.746767589687728,39.620891,25.963754,52.6993223718228,19.138165,-59.175138,-7.83325
905.5555555555555,263.5015364679028,193.96761984326204,254.47929062911697,-173.20202566085695,-84.77212021423384,16.746784238198984,39.620891,25.963754,52.69931821423384,19.138165,-59.175138,-7.83325
908.3333333333333,263.5015266191364,193.96761262591357,254.47927428122026,-173.20204334422658,-84.77211605664488,16.74680088671024,39.620891,25.963754,52.69931405664488,19.138165,-59.175138,-7.83325
911.1111111111111,263.50151677037,193.9676054085651,254.47925793332354,-173.20206102759622,-84.77211189905591,16.746817535221496,39.620891,25.963754,52.69930989905592,19.138165,-59.175138,-7.83325
913.8888888888888,263.50150692160366,193.96759819121664,254.47924158542682,-173.20207871096588,-84.77210774146695,16.74683418373275,39.620891,25.963754,52.69930574146696,19.138165,-59.175138,-7.83325
916.6666666666666,263.50149707283725,193.9675909738682,254.4792252375301,-173.2020963943355,-84.77210358387799,16.74685083224401,39.620891,25.963754,52.699301583878,19.138165,-59.175138,-7.83325
919.4444444444445,263.50148722407084,193.96758375651973,254.47920888963338,-173.20211407770515,-84.77209942628903,16.746867480755267,39.620891,25.963754,52.699297426289036,19.138165,-59.175138,-7.83325
922.2222222222222,263.5014773753045,193.96757653917126,254.47919254173667,-173.2021317610748,-84.77209526870007,16.746884129266522,39.620891,25.963754,52.699293268700075,19.138165,-59.175138,-7.83325
925.0,263.5014675265381,193.9675693218228,254.47917619383995,-173.20214944444444,-84.77209111111111,16.74690077777778,39.620891,25.963754,52.69928911111111,19.138165,-59.175138,-7.83325
927.7777777777777,263.5014576777717,193.96756210447433,254.47915984594323,-173.20216712781408,-84.77208695352215,16.746917426289034,39.620891,25.963754,52.69928495352215,19.138165,-59.175138,-7.83325
930.5555555555555,263.5014478290053,193.96755488712586,254.4791434980465,-173.20218481118374,-84.77208279593319,16.74693407480029,39.620891,25.963754,52.69928079593319,19.138165,-59.175138,-7.83325
933.3333333333333,263.50143798023896,193.9675476697774,254.4791271501498,-173.20220249455338,-84.77207863834423,16.746950723311546,39.620891,25.963754,52.69927663834423,19.138165,-59.175138,-7.83325
936.1111111111111,263.50142813147255,193.96754045242895,254.47911080225308,-173.202220177923,-84.77207448075526,16.746967371822805,39.620891,25.963754,52.69927248075526,19.138165,-59.175138,-7.83325
938.8888888888888,263.5014182827062,193.96753323508048,254.47909445435636,-173.20223786129267,-84.7720703231663,16.74698402033406,39.620891,25.963754,52.6992683231663,19.138165,-59.175138,-7.83325
941.6666666666666,263.5014084339398,193.967526017732,254.47907810645964,-173.2022555446623,-84.77206616557734,16.747000668845317,39.620891,25.963754,52.69926416557734,19.138165,-59.175138,-7.83325
944.4444444444445,263.50139858517343,193.96751880038354,254.47906175856292,-173.20227322803194,-84.77206200798838,16.747017317356573,39.620891,25.963754,52.69926000798838,19.138165,-59.175138,-7.83325
947.2222222222222,263.501388736407,193.96751158303508,254.4790454106662,-173.2022909114016,-84.77205785039942,16.74703396586783,39.620891,25.963754,52.69925585039942,19.138165,-59.175138,-7.83325
950.0,263.50137888764067,193.9675043656866,254.4790290627695,-173.20230859477124,-84.77205369281046,16.747050614379084,39.620891,25.963754,52.699251692810456,19.138165,-59.175138,-7.83325
952.7777777777777,263.50136903887426,193.96749714833814,254.4790127148728,-173.2023262781409,-84.7720495352215,16.74706726289034,39.620891,25.963754,52.699247535221495,19.138165,-59.175138,-7.83325
955.5555555555555,263.5013591901079,193.9674899309897,254.47899636697608,-173.20234396151054,-84.77204537763254,16.7470839114016,39.620891,25.963754,52.699243377632534,19.138165,-59.175138,-7.83325
958.3333333333333,263.5013493413415,193.96748271364123,254.47898001907936,-173.20236164488017,-84.77204122004358,16.747100559912855,39.620891,25.963754,52.69923922004357,19.138165,-59.175138,-7.83325
961.1111111111111,263.50133949257514,193.96747549629276,254.47896367118264,-173.20237932824983,-84.77203706245461,16.74711720842411,39.620891,25.963754,52.69923506245461,19.138165,-59.175138,-7.83325
963.8888888888888,263.50132964380873,193.9674682789443,254.47894732328592,-173.20239701161947,-84.77203290486565,16.747133856935367,39.620891,25.963754,52.69923090486565,19.138165,-59.175138,-7.83325
966.6666666666666,263.5013197950424,193.96746106159583,254.4789309753892,-173.2024146949891,-84.77202874727669,16.747150505446623,39.620891,25.963754,52.69922674727669,19.138165,-59.175138,-7.83325
969.4444444444445,263.50130994627597,193.96745384424736,254.4789146274925,-173.20243237835876,-84.77202458968773,16.74716715395788,39.620891,25.963754,52.69922258968773,19.138165,-59.175138,-7.83325
972.2222222222222,263.5013000975096,193.9674466268989,254.47889827959577,-173.2024500617284,-84.77202043209877,16.747183802469134,39.620891,25.963754,52.69921843209877,19.138165,-59.175138,-7.83325
975.0,263.5012902487432,193.96743940955045,254.47888193169905,-173.20246774509803,-84.77201627450981,16.74720045098039,39.620891,25.963754,52.699214274509806,19.138165,-59.175138,-7.83325
977.7777777777777,263.50128039997685,193.96743219220198,254.47886558380233,-173.2024854284677,-84.77201211692085,16.74721709949165,39.620891,25.963754,52.699210116920845,19.138165,-59.175138,-7.83325
980.5555555555555,263.50127055121044,193.96742497485351,254.4788492359056,-173.20250311183733,-84.77200795933189,16.747233748002905,39.620891,25.963754,52.699205959331884,19.138165,-59.175138,-7.83325
983.3333333333333,263.5012607024441,193.96741775750505,254.4788328880089,-173.20252079520696,-84.77200380174293,16.74725039651416,39.620891,25.963754,52.69920180174292,19.138165,-59.175138,-7.83325
986.1111111111111,263.5012508536777,193.96741054015658,254.47881654011218,-173.20253847857663,-84.77199964415395,16.747267045025417,39.620891,25.963754,52.69919764415396,19.138165,-59.175138,-7.83325
988.8888888888888,263.5012410049113,193.9674033228081,254.47880019221546,-173.20255616194626,-84.77199548656499,16.747283693536673,39.620891,25.963754,52.699193486565,19.138165,-59.175138,-7.83325
991.6666666666666,263.5012311561449,193.96739610545964,254.47878384431874,-173.2025738453159,-84.77199132897603,16.74730034204793,39.620891,25.963754,52.69918932897603,19.138165,-59.175138,-7.83325
994.4444444444445,263.5012213073785,193.9673888881112,254.47876749642202,-173.20259152868556,-84.77198717138707,16.747316990559185,39.620891,25.963754,52.69918517138707,19.138165,-59.175138,-7.83325
997.2222222222222,263.50121145861215,193.96738167076273,254.4787511485253,-173.2026092120552,-84.7719830137981,16.747333639070444,39.620891,25.963754,52.69918101379811,19.138165,-59.175138,-7.83325
1000.0,263.50120160984574,193.96737445341427,254.4787348006286,-173.20262689542486,-84.77197885620915,16.7473502875817,39.620891,25.963754,52.69917685620915,19.138165,-59.175138,-7.83325
1002.7777777777777,263.5011917610794,193.9673672360658,254.47871845273187,-173.2026445787945,-84.77197469862018,16.747366936092956,39.620891,25.963754,52.69917269862019,19.138165,-59.175138,-7.83325
1005.5555555555555,263.501181912313,193.96736001871733,254.47870210483515,-173.20266226216413,-84.77197054103122,16.74738358460421,39.620891,25.963754,52.69916854103123,19.138165,-59.175138,-7.83325
1008.3333333333333,263.5011720635466,193.96735280136886,254.47868575693843,-173.2026799455338,-84.77196638344226,16.747400233115467,39.620891,25.963754,52.699164383442266,19.138165,-59.175138,-7.83325
1011.1111111111111,263.5011622147802,193.9673455840204,254.47866940904174,-173.20269762890342,-84.7719622258533,16.747416881626723,39.620891,25.963754,52.699160225853305,19.138165,-59.175138,-7.83325
1013.8888888888888,263.50115236601386,193.96733836667195,254.47865306114502,-173.20271531227306,-84.77195806826434,16.74743353013798,39.620891,25.963754,52.699156068264344,19.138165,-59.175138,-7.83325
1016.6666666666666,263.50114251724744,193.96733114932348,254.4786367132483,-173.20273299564272,-84.77195391067538,16.74745017864924,39.620891,25.963754,52.69915191067538,19.138165,-59.175138,-7.83325
1019.4444444444445,263.5011326684811,193.96732393197502,254.4786203653516,-173.20275067901235,-84.77194975308642,16.747466827160494,39.620891,25.963754,52.69914775308642,19.138165,-59.175138,-7.83325
1022.2222222222222,263.5011228197147,193.96731671462655,254.47860401745487,-173.202768362382,-84.77194559549746,16.74748347567175,39.620891,25.963754,52.69914359549746,19.138165,-59.175138,-7.83325
1025.0,263.5011129709483,193.96730949727808,254.47858766955815,-173.20278604575165,-84.7719414379085,16.747500124183006,39.620891,25.963754,52.6991394379085,19.138165,-59.175138,-7.83325
1027.7777777777778,263.5011031221819,193.9673022799296,254.47857132166143,-173.20280372912129,-84.77193728031953,16.74751677269426,39.620891,25.963754,52.69913528031954,19.138165,-59.175138,-7.83325
1030.5555555555554,263.50109327341556,193.96729506258114,254.47855497376472,-173.20282141249092,-84.77193312273057,16.747533421205517,39.620891,25.963754,52.69913112273058,19.138165,-59.175138,-7.83325
1033.3333333333333,263.50108342464915,193.9672878452327,254.478538625868,-173.20283909586058,-84.77192896514161,16.747550069716773,39.620891,25.963754,52.699126965141616,19.138165,-59.175138,-7.83325
1036.111111111111,263.5010735758828,193.96728062788424,254.47852227797128,-173.20285677923022,-84.77192480755265,16.74756671822803,39.620891,25.963754,52.699122807552655,19.138165,-59.175138,-7.83325
1038.888888888889,263.5010637271164,193.96727341053577,254.47850593007456,-173.20287446259985,-84.77192064996369,16.74758336673929,39.620891,25.963754,52.699118649963694,19.138165,-59.175138,-7.83325
1041.6666666666667,263.50105387835004,193.9672661931873,254.47848958217784,-173.2028921459695,-84.77191649237473,16.747600015250544,39.620891,25.963754,52.69911449237473,19.138165,-59.175138,-7.83325
1044.4444444444443,263.501044458555,193.96726013656033,254.47847516880336,-173.20290769472888,-84.77191282707622,16.74761486916951,39.62089117444065,25.963753827076225,52.699110652635575,19.138165,-59.175138,-7.83325
1047.2222222222222,263.50103729085964,193.96726017372112,254.47847091167048,-173.20291203678423,-84.77191174630262,16.747620301478953,39.62089226469473,25.963752746302617,52.69910848160789,19.138165,-59.175138,-7.83325
1050.0,263.50103012316424,193.9672602108819,254.47846665453764,-173.2029163788396,-84.771910665529,16.747625733788393,39.620893354948805,25.963751665529013,52.699106310580206,19.138165,-59.175138,-7.83325
1052.7777777777778,263.5010229554689,193.9672602480427,254.4784623974048,-173.20292072089498,-84.7719095847554,16.747631166097836,39.620894445202886,25.963750584755406,52.699104139552524,19.138165,-59.175138,-7.83325
1055.5555555555554,263.5010157877735,193.96726028520348,254.47845814027195,-173.20292506295033,-84.77190850398179,16.74763659840728,39.62089553545696,25.9637495039818,52.69910196852484,19.138165,-59.175138,-7.83325
1058.3333333333333,263.50100862007815,193.96726032236427,254.4784538831391,-173.2029294050057,-84.77190742320819,16.747642030716722,39.62089662571103,25.96374842320819,52.699099797497155,19.138165,-59.175138,-7.83325
1061.111111111111,263.5010014523828,193.96726035952506,254.47844962600627,-173.20293374706105,-84.77190634243458,16.747647463026166,39.620897715965114,25.963747342434587,52.699097626469474,19.138165,-59.175138,-7.83325
1063.888888888889,263.5009942846874,193.96726039668584,254.47844536887342,-173.20293808911643,-84.77190526166098,16.74765289533561,39.62089880621919,25.96374626166098,52.69909545544179,19.138165,-59.175138,-7.83325
1066.6666666666665,263.50098711699206,193.96726043384663,254.47844111174055,-173.2029424311718,-84.77190418088738,16.74765832764505,39.62089989647327,25.963745180887372,52.69909328441411,19.138165,-59.175138,-7.83325
1069.4444444444443,263.50097994929666,193.96726047100742,254.4784368546077,-173.20294677322715,-84.77190310011376,16.74766375995449,39.62090098672734,25.963744100113768,52.69909111338642,19.138165,-59.175138,-7.83325
1072.2222222222222,263.5009727816013,193.9672605081682,254.47843259747486,-173.20295111528253,-84.77190201934016,16.747669192263935,39.620902076981416,25.96374301934016,52.69908894235874,19.138165,-59.175138,-7.83325
1075.0,263.5009656139059,193.967260545329,254.47842834034202,-173.20295545733788,-84.77190093856655,16.747674624573378,39.6209031672355,25.963741938566553,52.69908677133106,19.138165,-59.175138,-7.83325
1077.7777777777778,263.5009584462106,193.96726058248979,254.47842408320918,-173.20295979939326,-84.77189985779295,16.74768005688282,39.62090425748957,25.96374085779295,52.69908460030338,19.138165,-59.175138,-7.83325
1080.5555555555554,263.50095127851523,193.96726061965057,254.47841982607633,-173.20296414144863,-84.77189877701935,16.747685489192264,39.62090534774365,25.96373977701934,52.69908242927569,19.138165,-59.175138,-7.83325
1083.3333333333333,263.50094411081983,193.96726065681136,254.4784155689435,-173.20296848350398,-84.77189769624573,16.747690921501704,39.620906437997725,25.963738696245734,52.69908025824801,19.138165,-59.175138,-7.83325
1086.111111111111,263.5009369431245,193.96726069397215,254.47841131181062,-173.20297282555936,-84.77189661547213,16.747696353811147,39.6209075282518,25.96373761547213,52.69907808722033,19.138165,-59.175138,-7.83325
1088.888888888889,263.5009297754291,193.9672607311329,254.47840705467777,-173.20297716761473,-84.77189553469852,16.74770178612059,39.62090861850588,25.963736534698523,52.69907591619265,19.138165,-59.175138,-7.83325
1091.6666666666665,263.50092260773374,193.9672607682937,254.47840279754493,-173.20298150967008,-84.77189445392492,16.747707218430033,39.62090970875995,25.963735453924915,52.69907374516496,19.138165,-59.175138,-7.83325
1094.4444444444443,263.5009154400384,193.9672608054545,254.4783985404121,-173.20298585172546,-84.7718933731513,16.747712650739476,39.620910799014034,25.96373437315131,52.69907157413728,19.138165,-59.175138,-7.83325
1097.2222222222222,263.500908272343,193.96726084261527,254.47839428327924,-173.2029901937808,-84.7718922923777,16.74771808304892,39.62091188926811,25.963733292377704,52.6990694031096,19.138165,-59.175138,-7.83325
1100.0,263.50090110464765,193.96726087977606,254.4783900261464,-173.20299453583618,-84.7718912116041,16.74772351535836,39.62091297952218,25.963732211604096,52.699067232081916,19.138165,-59.175138,-7.83325
1102.7777777777778,263.50089393695225,193.96726091693685,254.47838576901356,-173.20299887789156,-84.77189013083049,16.747728947667802,39.62091406977626,25.963731130830492,52.69906506105423,19.138165,-59.175138,-7.83325
1105.5555555555554,263.5008867692569,193.96726095409764,254.4783815118807,-173.2030032199469,-84.77188905005688,16.747734379977246,39.620915160030336,25.963730050056885,52.699062890026546,19.138165,-59.175138,-7.83325
1108.3333333333333,263.5008796015615,193.96726099125843,254.47837725474784,-173.20300756200228,-84.77188796928327,16.74773981228669,39.62091625028442,25.963728969283277,52.699060718998865,19.138165,-59.175138,-7.83325
1111.111111111111,263.50087243386616,193.96726102841922,254.478372997615,-173.20301190405766,-84.77188688850967,16.747745244596132,39.62091734053849,25.963727888509673,52.69905854797118,19.138165,-59.175138,-7.83325
1113.888888888889,263.5008652661708,193.96726106558,254.47836874048215,-173.203016246113,-84.77188580773607,16.747750676905575,39.62091843079257,25.963726807736066,52.699056376943496,19.138165,-59.175138,-7.83325
1116.6666666666665,263.5008580984754,193.9672611027408,254.4783644833493,-173.20302058816839,-84.77188472696245,16.747756109215015,39.620919521046645,25.96372572696246,52.699054205915814,19.138165,-59.175138,-7.83325
1119.4444444444443,263.5008509307801,193.96726113990158,254.47836022621647,-173.20302493022373,-84.77188364618885,16.747761541524458,39.62092061130072,25.96372464618885,52.69905203488813,19.138165,-59.175138,-7.83325
1122.2222222222222,263.5008437630847,193.96726117706237,254.47835596908362,-173.2030292722791,-84.77188256541524,16.7477669738339,39.6209217015548,25.963723565415247,52.699049863860445,19.138165,-59.175138,-7.83325
1125.0,263.50083659538933,193.96726121422316,254.47835171195078,-173.2030336143345,-84.77188148464164,16.747772406143344,39.62092279180887,25.96372248464164,52.699047692832764,19.138165,-59.175138,-7.83325
1127.7777777777778,263.50082942769393,193.96726125138395,254.4783474548179,-173.20303795638984,-84.77188040386802,16.747777838452787,39.620923882062954,25.963721403868032,52.69904552180508,19.138165,-59.175138,-7.83325
1130.5555555555554,263.5008222599986,193.96726128854473,254.47834319768506,-173.2030422984452,-84.77187932309442,16.74778327076223,39.62092497231703,25.963720323094428,52.6990433507774,19.138165,-59.175138,-7.83325
1133.3333333333333,263.50081509230324,193.96726132570552,254.47833894055222,-173.20304664050056,-84.77187824232082,16.74778870307167,39.6209260625711,25.96371924232082,52.69904117974971,19.138165,-59.175138,-7.83325
1136.111111111111,263.50080792460784,193.9672613628663,254.47833468341938,-173.20305098255594,-84.77187716154721,16.747794135381113,39.62092715282518,25.963718161547213,52.69903900872203,19.138165,-59.175138,-7.83325
1138.888888888889,263.5008007569125,193.9672614000271,254.47833042628653,-173.2030553246113,-84.77187608077361,16.747799567690556,39.620928243079256,25.96371708077361,52.69903683769435,19.138165,-59.175138,-7.83325
1141.6666666666665,263.5007935892171,193.9672614371879,254.4783261691537,-173.20305966666666,-84.771875,16.747805,39.620929333333336,25.963716,52.69903466666667,19.138165,-59.175138,-7.83325
1144.4444444444443,263.50078642152175,193.96726147434867,254.47832191202085,-173.20306400872204,-84.7718739192264,16.747810432309443,39.62093042358741,25.963714919226394,52.69903249563898,19.138165,-59.175138,-7.83325
1147.2222222222222,263.50077925382635,193.96726151150946,254.47831765488797,-173.20306835077741,-84.77187283845278,16.747815864618886,39.620931513841484,25.96371383845279,52.6990303246113,19.138165,-59.175138,-7.83325
1150.0,263.500772086131,193.96726154867025,254.47831339775513,-173.20307269283276,-84.77187175767918,16.74782129692833,39.620932604095564,25.963712757679183,52.69902815358362,19.138165,-59.175138,-7.83325
1152.7777777777778,263.50076491843566,193.96726158583104,254.4783091406223,-173.20307703488814,-84.77187067690558,16.74782672923777,39.62093369434964,25.963711676905575,52.69902598255594,19.138165,-59.175138,-7.83325
1155.5555555555554,263.50075775074026,193.96726162299183,254.47830488348944,-173.2030813769435,-84.77186959613196,16.747832161547212,39.62093478460372,25.96371059613197,52.69902381152825,19.138165,-59.175138,-7.83325
1158.3333333333333,263.5007505830449,193.96726166015262,254.4783006263566,-173.20308571899886,-84.77186851535836,16.747837593856655,39.62093587485779,25.963709515358364,52.69902164050057,19.138165,-59.175138,-7.83325
1161.111111111111,263.5007434153495,193.9672616973134,254.47829636922376,-173.20309006105424,-84.77186743458475,16.747843026166098,39.62093696511187,25.963708434584756,52.69901946947289,19.138165,-59.175138,-7.83325
1163.888888888889,263.5007362476542,193.9672617344742,254.4782921120909,-173.2030944031096,-84.77186635381115,16.74784845847554,39.62093805536595,25.963707353811152,52.699017298445206,19.138165,-59.175138,-7.83325
1166.6666666666665,263.50072907995883,193.96726177163498,254.47828785495804,-173.20309874516497,-84.77186527303755,16.747853890784985,39.62093914562002,25.963706273037545,52.69901512741752,19.138165,-59.175138,-7.83325
1169.4444444444443,263.50072191226343,193.96726180879577,254.4782835978252,-173.20310308722034,-84.77186419226393,16.747859323094424,39.6209402358741,25.963705192263937,52.699012956389836,19.138165,-59.175138,-7.83325
1172.2222222222222,263.5007147445681,193.96726184595656,254.47827934069235,-173.2031074292757,-84.77186311149033,16.747864755403867,39.620941326128175,25.96370411149033,52.699010785362155,19.138165,-59.175138,-7.83325
1175.0,263.5007075768727,193.96726188311735,254.4782750835595,-173.20311177133107,-84.77186203071672,16.74787018771331,39.620942416382256,25.963703030716726,52.699008614334474,19.138165,-59.175138,-7.83325
1177.7777777777778,263.50070040917734,193.96726192027813,254.47827082642667,-173.20311611338641,-84.77186094994312,16.747875620022754,39.62094350663633,25.96370194994312,52.699006443306786,19.138165,-59.175138,-7.83325
1180.5555555555554,263.50069324148194,193.96726195743892,254.47826656929382,-173.2031204554418,-84.7718598691695,16.747881052332197,39.6209445968904,25.96370086916951,52.699004272279105,19.138165,-59.175138,-7.83325
1183.3333333333333,263.5006860737866,193.9672619945997,254.47826231216098,-173.20312479749717,-84.7718587883959,16.74788648464164,39.620945687144484,25.963699788395907,52.69900210125142,19.138165,-59.175138,-7.83325
1186.111111111111,263.50067890609125,193.9672620317605,254.4782580550281,-173.20312913955252,-84.7718577076223,16.74789191695108,39.62094677739856,25.9636987076223,52.69899993022374,19.138165,-59.175138,-7.83325
1188.888888888889,263.50067173839585,193.9672620689213,254.47825379789526,-173.2031334816079,-84.77185662684869,16.747897349260523,39.62094786765264,25.963697626848692,52.698997759196054,19.138165,-59.175138,-7.83325
1191.6666666666665,263.5006645707005,193.96726210608207,254.47824954076242,-173.20313782366324,-84.77185554607509,16.747902781569966,39.62094895790671,25.963696546075088,52.69899558816837,19.138165,-59.175138,-7.83325
1194.4444444444443,263.5006574030051,193.96726214324286,254.47824528362958,-173.20314216571862,-84.77185446530147,16.74790821387941,39.620950048160786,25.96369546530148,52.69899341714069,19.138165,-59.175138,-7.83325
1197.2222222222222,263.50065023530976,193.96726218040365,254.47824102649673,-173.203146507774,-84.77185338452787,16.747913646188852,39.62095113841487,25.963694384527873,52.69899124611301,19.138165,-59.175138,-7.83325
1200.0,263.50064306761436,193.96726221756444,254.4782367693639,-173.20315084982934,-84.77185230375427,16.747919078498295,39.62095222866894,25.96369330375427,52.69898907508532,19.138165,-59.175138,-7.83325
1202.7777777777778,263.500635899919,193.96726225472523,254.47823251223105,-173.20315519188472,-84.77185122298066,16.747924510807735,39.62095331892302,25.96369222298066,52.69898690405764,19.138165,-59.175138,-7.83325
1205.5555555555554,263.5006287322237,193.96726229188602,254.47822825509817,-173.2031595339401,-84.77185014220706,16.747929943117178,39.620954409177095,25.963691142207054,52.69898473302996,19.138165,-59.175138,-7.83325
1208.3333333333333,263.5006215645283,193.9672623290468,254.47822399796533,-173.20316387599544,-84.77184906143344,16.74793537542662,39.620955499431176,25.96369006143345,52.69898256200227,19.138165,-59.175138,-7.83325
1211.111111111111,263.50061439683293,193.9672623662076,254.4782197408325,-173.20316821805082,-84.77184798065984,16.747940807736065,39.62095658968525,25.963688980659843,52.69898039097459,19.138165,-59.175138,-7.83325
1213.888888888889,263.50060722913753,193.96726240336838,254.47821548369964,-173.20317256010617,-84.77184689988623,16.747946240045508,39.62095767993932,25.963687899886235,52.69897821994691,19.138165,-59.175138,-7.83325
1216.6666666666665,263.5006000614422,193.96726244052917,254.4782112265668,-173.20317690216154,-84.77184581911263,16.74795167235495,39.620958770193404,25.96368681911263,52.69897604891923,19.138165,-59.175138,-7.83325
1219.4444444444443,263.5005928937468,193.96726247768996,254.47820696943396,-173.20318124421692,-84.77184473833903,16.74795710466439,39.62095986044748,25.963685738339024,52.69897387789154,19.138165,-59.175138,-7.83325
1222.2222222222222,263.50058572605144,193.96726251485074,254.4782027123011,-173.20318558627227,-84.77184365756541,16.747962536973834,39.62096095070156,25.963684657565416,52.69897170686386,19.138165,-59.175138,-7.83325
1225.0,263.5005785583561,193.96726255201153,254.47819845516824,-173.20318992832765,-84.77184257679181,16.747967969283277,39.62096204095563,25.963683576791812,52.69896953583618,19.138165,-59.175138,-7.83325
1227.7777777777778,263.5005713906607,193.96726258917232,254.4781941980354,-173.20319427038302,-84.7718414960182,16.74797340159272,39.620963131209706,25.963682496018205,52.698967364808496,19.138165,-59.175138,-7.83325
1230.5555555555554,263.50056422296535,193.9672626263331,254.47818994090255,-173.20319861243837,-84.7718404152446,16.747978833902163,39.62096422146379,25.963681415244597,52.69896519378081,19.138165,-59.175138,-7.83325
1233.3333333333333,263.50055705526995,193.9672626634939,254.4781856837697,-173.20320295449375,-84.771839334471,16.747984266211606,39.62096531171786,25.96368033447099,52.69896302275313,19.138165,-59.175138,-7.83325
1236.111111111111,263.5005498875746,193.9672627006547,254.47818142663687,-173.2032072965491,-84.77183825369738,16.747989698521046,39.62096640197194,25.963679253697386,52.698960851725445,19.138165,-59.175138,-7.83325
1238.888888888889,263.50054271987926,193.96726273781547,254.47817716950402,-173.20321163860447,-84.77183717292378,16.74799513083049,39.620967492226015,25.963678172923778,52.698958680697764,19.138165,-59.175138,-7.83325
1241.6666666666665,263.50053555218386,193.96726277497626,254.47817291237118,-173.20321598065985,-84.77183609215017,16.748000563139932,39.62096858248009,25.96367709215017,52.698956509670076,19.138165,-59.175138,-7.83325
1244.4444444444443,263.5005283844885,193.96726281213705,254.4781686552383,-173.2032203227152,-84.77183501137657,16.748005995449375,39.62096967273417,25.963676011376567,52.698954338642395,19.138165,-59.175138,-7.83325
1247.2222222222222,263.5005212167931,193.96726284929784,254.47816439810546,-173.20322466477057,-84.77183393060295,16.74801142775882,39.62097076298824,25.96367493060296,52.69895216761471,19.138165,-59.175138,-7.83325
1250.0,263.5005140490978,193.96726288645863,254.47816014097262,-173.20322900682592,-84.77183284982935,16.74801686006826,39.620971853242324,25.963673849829352,52.69894999658703,19.138165,-59.175138,-7.83325
1252.7777777777778,263.5005068814024,193.96726292361942,254.47815588383978,-173.2032333488813,-84.77183176905575,16.7480222923777,39.6209729434964,25.963672769055748,52.698947825559344,19.138165,-59.175138,-7.83325
1255.5555555555554,263.50049971370703,193.9672629607802,254.47815162670693,-173.20323769093667,-84.77183068828214,16.748027724687145,39.62097403375048,25.96367168828214,52.69894565453166,19.138165,-59.175138,-7.83325
1258.3333333333333,263.5004925460117,193.967262997941,254.4781473695741,-173.20324203299202,-84.77182960750854,16.748033156996588,39.62097512400455,25.963670607508533,52.69894348350398,19.138165,-59.175138,-7.83325
1261.111111111111,263.5004853783163,193.96726303510178,254.47814311244124,-173.2032463750474,-84.77182852673492,16.74803858930603,39.620976214258626,25.96366952673493,52.6989413124763,19.138165,-59.175138,-7.83325
1263.888888888889,263.50047821062094,193.96726307226257,254.47813885530837,-173.20325071710278,-84.77182744596132,16.748044021615474,39.62097730451271,25.96366844596132,52.69893914144861,19.138165,-59.175138,-7.83325
1266.6666666666665,263.50047104292554,193.96726310942336,254.47813459817553,-173.20325505915812,-84.77182636518772,16.748049453924917,39.62097839476678,25.963667365187714,52.69893697042093,19.138165,-59.175138,-7.83325
1269.4444444444443,263.5004638752302,193.96726314658414,254.4781303410427,-173.2032594012135,-84.7718252844141,16.748054886234357,39.62097948502086,25.96366628441411,52.69893479939325,19.138165,-59.175138,-7.83325
1272.2222222222222,263.5004567075348,193.96726318374493,254.47812608390984,-173.20326374326885,-84.7718242036405,16.7480603185438,39.620980575274935,25.963665203640502,52.69893262836557,19.138165,-59.175138,-7.83325
1275.0,263.50044953983945,193.96726322090572,254.478121826777,-173.20326808532423,-84.77182312286689,16.748065750853243,39.62098166552901,25.963664122866895,52.69893045733788,19.138165,-59.175138,-7.83325
1277.7777777777778,263.5004423721441,193.9672632580665,254.47811756964416,-173.2032724273796,-84.77182204209329,16.748071183162686,39.62098275578309,25.96366304209329,52.6989282863102,19.138165,-59.175138,-7.83325
1280.5555555555554,263.5004352044487,193.9672632952273,254.4781133125113,-173.20327676943495,-84.77182096131968,16.74807661547213,39.62098384603716,25.963661961319684,52.69892611528252,19.138165,-59.175138,-7.83325
1283.3333333333333,263.50042803675336,193.9672633323881,254.47810905537844,-173.20328111149033,-84.77181988054608,16.748082047781573,39.620984936291244,25.963660880546076,52.69892394425484,19.138165,-59.175138,-7.83325
1286.111111111111,263.50042086905796,193.96726336954887,254.4781047982456,-173.2032854535457,-84.77181879977248,16.748087480091012,39.62098602654532,25.963659799772472,52.69892177322715,19.138165,-59.175138,-7.83325
1288.888888888889,263.5004137013626,193.96726340670966,254.47810054111275,-173.20328979560105,-84.77181771899886,16.748092912400455,39.62098711679939,25.963658718998865,52.69891960219947,19.138165,-59.175138,-7.83325
1291.6666666666665,263.5004065336673,193.96726344387045,254.4780962839799,-173.20329413765643,-84.77181663822526,16.7480983447099,39.62098820705347,25.963657638225257,52.698917431171786,19.138165,-59.175138,-7.83325
1294.4444444444443,263.5003993659719,193.96726348103124,254.47809202684707,-173.20329847971178,-84.77181555745165,16.74810377701934,39.620989297307545,25.96365655745165,52.698915260144105,19.138165,-59.175138,-7.83325
1297.2222222222222,263.50039219827653,193.96726351819203,254.47808776971422,-173.20330282176715,-84.77181447667805,16.748109209328785,39.620990387561626,25.963655476678046,52.69891308911642,19.138165,-59.175138,-7.83325
1300.0,263.5003850305811,193.96726355535282,254.47808351258138,-173.20330716382253,-84.77181339590443,16.748114641638228,39.6209914778157,25.963654395904438,52.698910918088735,19.138165,-59.175138,-7.83325
1302.7777777777778,263.5003778628858,193.9672635925136,254.4780792554485,-173.20331150587788,-84.77181231513083,16.748120073947668,39.62099256806978,25.96365331513083,52.698908747061054,19.138165,-59.175138,-7.83325
1305.5555555555554,263.5003706951904,193.9672636296744,254.47807499831566,-173.20331584793325,-84.77181123435723,16.74812550625711,39.620993658323854,25.963652234357227,52.698906576033366,19.138165,-59.175138,-7.83325
1308.3333333333333,263.50036352749504,193.96726366683518,254.47807074118282,-173.2033201899886,-84.77181015358362,16.748130938566554,39.62099474857793,25.96365115358362,52.698904405005685,19.138165,-59.175138,-7.83325
1311.111111111111,263.5003563597997,193.96726370399597,254.47806648404998,-173.20332453204398,-84.77180907281002,16.748136370875997,39.62099583883201,25.96365007281001,52.698902233978,19.138165,-59.175138,-7.83325
1313.888888888889,263.5003491921043,193.96726374115676,254.47806222691713,-173.20332887409936,-84.7718079920364,16.74814180318544,39.62099692908608,25.963648992036408,52.69890006295032,19.138165,-59.175138,-7.83325
1316.6666666666665,263.50034202440895,193.96726377831754,254.4780579697843,-173.2033332161547,-84.7718069112628,16.748147235494883,39.62099801934016,25.9636479112628,52.698897891922634,19.138165,-59.175138,-7.83325
1319.4444444444443,263.50033485671355,193.96726381547833,254.47805371265144,-173.20333755821008,-84.7718058304892,16.748152667804323,39.62099910959424,25.963646830489193,52.69889572089495,19.138165,-59.175138,-7.83325
1322.2222222222222,263.5003276890182,193.96726385263912,254.47804945551857,-173.20334190026546,-84.77180474971559,16.748158100113766,39.62100019984831,25.96364574971559,52.69889354986727,19.138165,-59.175138,-7.83325
1325.0,263.5003205213228,193.9672638897999,254.47804519838573,-173.2033462423208,-84.77180366894198,16.74816353242321,39.62100129010239,25.96364466894198,52.69889137883959,19.138165,-59.175138,-7.83325
