BAEK26/lfd/data/robot_data_1.csv
timestamp,x,y,z,roll,pitch,yaw,joint1,joint2,joint3,joint4,joint5,joint6
1717057435.921705,-64.800461,263.558319,203.521576,65.57204,-82.722615,-143.888381,105.10842,30.286148,36.739715,3.669451,-86.801158,-6.943332
1717057436.040228,-64.800461,263.558319,203.521576,65.57204,-82.722615,-143.888381,105.10842,30.286148,36.739715,3.669451,-86.801158,-6.943332
1717057436.1582413,-64.800507,263.558624,203.516495,65.425936,-82.774525,-143.740615,105.10842,30.286148,36.739715,3.669451,-86.796574,-6.888442
1717057436.2673523,-64.880768,263.541992,203.515503,64.484108,-83.025939,-142.714562,105.10842,30.286148,36.739715,3.592503,-86.796574,-6.602766
1717057436.3768902,-64.972687,263.523102,203.510132,64.280192,-83.088907,-142.420692,105.10842,30.286148,36.739715,3.504611,-86.791991,-6.525875
1717057436.4862218,-64.823273,263.554291,203.510117,63.699213,-83.230771,-141.978426,105.10842,30.286148,36.739715,3.647449,-86.791991,-6.383036
1717057436.595668,-65.202904,263.477783,203.454376,63.575683,-83.376475,-141.486026,105.10842,30.286148,36.739715,3.284939,-86.741628,-6.207253
1717057436.7069876,-65.248497,263.468445,203.447342,60.660245,-83.996186,-138.508364,105.10842,30.286148,36.739715,3.240993,-86.737044,-5.504176
1717057436.8166583,-65.138268,263.508453,203.184845,63.741096,-83.907549,-141.692692,105.108535,30.285575,36.739715,3.350829,-86.48987,-5.74585
1717057436.9258473,-64.899483,263.561401,203.197678,71.309239,-81.569366,-149.551152,105.108535,30.284887,36.740346,3.581559,-86.48987,-8.294653
1717057437.0353377,-65.108147,263.51712,203.204865,75.973,-78.827419,-154.084967,105.108535,30.284887,36.740346,3.383774,-86.48987,-11.129132
1717057437.1444266,-64.368324,263.703644,202.559967,76.403636,-81.037031,-155.131532,105.108535,30.284887,36.740346,4.097909,-85.894796,-9.074735
1717057437.2585337,-64.405525,263.704132,202.389709,78.525126,-80.210195,-157.222484,105.108535,30.284887,36.740346,4.064964,-85.720846,-9.953595
1717057437.3741019,-65.174393,263.58429,201.210815,85.666358,-78.790864,-163.55785,105.108535,30.284887,36.739715,3.339828,-84.640477,-11.458755
1717057437.4903345,-63.630676,263.906219,199.651627,92.813147,-77.595159,-172.028114,105.107618,30.284601,36.738054,5.064718,-83.253461,-12.83202
1717057437.6008704,-62.625843,264.342896,211.099792,64.959205,-73.37097,-145.251447,104.811571,29.292983,36.752664,4.361584,-90.065012,-15.721446
1717057437.7102273,-66.810143,270.332642,238.77179,54.209199,-72.562011,-132.46343,104.789569,23.618638,37.946651,2.197293,-86.02755,-14.699691
1717057437.8225255,-69.505386,281.648743,279.867523,68.456253,-75.277831,-146.266843,104.716058,14.504828,41.660621,2.460911,-68.467712,-14.677746
1717057437.932027,-66.299965,285.392822,333.375732,72.798127,-73.251967,-151.041243,103.751713,5.291895,46.482061,2.098401,-53.965749,-17.193604
1717057438.0411682,-60.666901,279.595978,389.389648,74.799526,-69.841779,-152.019626,102.28878,-3.132303,52.481903,-1.592995,-39.797992,-18.028575
1717057438.1506763,-54.209511,266.328705,432.464233,82.268431,-70.315844,-160.934907,101.834711,-9.184227,57.446181,0.867916,-26.22531,-20.017083
1717057438.2613788,-52.627186,254.543243,456.166595,73.240049,-65.743469,-151.666856,101.685284,-12.560896,59.109191,-2.175292,-25.437951,-20.939946
1717057438.3676534,-52.447712,254.885056,451.975494,81.763255,-67.409631,-159.639392,101.685284,-12.590003,59.021299,-1.988507,-21.839891,-20.181865
1717057438.4769294,-54.671753,260.910706,436.468506,93.298557,-66.752505,-169.362027,101.690211,-10.672428,57.907756,-4.921879,-20.361316,-18.237304
1717057438.5863526,-57.217922,272.012787,404.975098,99.207298,-69.056254,-174.55228,101.690669,-6.763939,54.585689,-4.746096,-25.758349,-16.270741
1717057438.6957066,-60.116444,281.702484,363.47998,88.34356,-69.92841,-163.281684,101.676689,-0.522538,49.40575,-4.76804,-41.056838,-16.19385
1717057438.8070283,-60.46199,283.211884,313.591431,78.593767,-72.441231,-153.613595,101.672621,7.288424,43.6921,-4.064964,-57.398969,-14.6338
1717057438.9167123,-58.769737,278.388702,270.553589,88.342013,-77.827035,-163.391234,101.693534,13.976159,39.711189,-3.207991,-64.947516,-10.634784
1717057439.0258856,-55.617916,272.108063,243.315811,81.553953,-79.562065,-158.30377,101.707686,19.5205,37.200603,-1.329319,-74.12567,-9.799813
1717057439.1353421,-51.970379,268.924652,222.287109,84.670213,-82.609399,-163.974333,101.707686,24.352712,36.392961,1.395267,-78.895544,-7.53663
1717057439.2447033,-51.370831,266.279388,209.862549,62.587961,-81.175056,-142.121837,101.707915,28.792218,36.340135,1.384266,-86.8973,-7.932142
1717057439.3562741,-50.796951,264.025513,202.006989,53.845829,-79.671729,-133.618628,101.708889,31.411093,36.340135,1.461157,-91.392498,-8.404546
1717057439.4655266,-50.874107,263.444519,198.22081,56.348623,-80.743619,-135.843366,101.713187,32.171351,36.340135,1.285374,-91.195687,-7.734357
1717057439.574714,-51.108383,263.421783,197.994629,55.963423,-81.211725,-135.205836,101.713301,32.171466,36.340135,1.065701,-90.989709,-7.294899
1717057439.6842213,-51.784424,263.34314,197.396576,55.066401,-82.385888,-133.596168,101.713301,32.171351,36.340135,0.428458,-90.440357,-6.207253
1717057439.793489,-52.049046,263.288727,197.394989,55.523392,-82.300975,-133.803636,101.713301,32.171236,36.340135,0.142838,-90.440357,-6.306145
1717057439.9053082,-52.829693,263.12088,197.387299,55.31409,-82.354432,-132.842442,101.713301,32.171236,36.340135,-0.615242,-90.440357,-6.185309
1717057440.0146484,-53.551113,262.956207,197.380478,56.497076,-82.129203,-133.341546,101.713301,32.171236,36.340135,-1.263429,-90.440357,-6.416039
1717057440.1237476,-53.528545,262.962769,197.366425,57.219805,-81.999772,-134.091777,101.713301,32.171236,36.340135,-1.241428,-90.426663,-6.580821
1717057440.2333415,-53.917507,262.873383,197.327789,57.617553,-81.979718,-134.114809,101.713301,32.171236,36.340135,-1.614996,-90.394577,-6.602766
1717057440.34257,-53.906075,262.876251,197.328262,57.360982,-82.035811,-133.866776,101.713301,32.171179,36.340135,-1.603995,-90.394577,-6.536875
1717057440.453968,-53.780453,262.906342,197.329651,57.321849,-82.041827,-133.948594,101.713301,32.171179,36.340135,-1.483159,-90.394577,-6.536875
1717057440.5633192,-53.780453,262.906342,197.329651,57.321849,-82.041827,-133.948594,101.713301,32.171179,36.340135,-1.483159,-90.394577,-6.536875
1717057440.672669,-53.780453,262.906342,197.329651,57.321849,-82.041827,-133.948594,101.713301,32.171179,36.340135,-1.483159,-90.394577,-6.536875
1717057440.782054,-53.78035,262.906403,197.329132,56.585828,-82.198416,-133.205525,101.713301,32.171179,36.340135,-1.483159,-90.394577,-6.350091
1717057440.8914044,-53.780338,262.906433,197.329071,56.497248,-82.216693,-133.116144,101.713301,32.171179,36.340135,-1.483159,-90.394577,-6.328147
1717057441.0028906,-53.780327,262.906433,197.32901,56.408268,-82.235028,-133.026361,101.713301,32.171179,36.340135,-1.483159,-90.394577,-6.306145
