BAEK26/lfd/data/robot_data_0.csv
timestamp,x,y,z,roll,pitch,yaw,joint1,joint2,joint3,joint4,joint5,joint6
1717052109.974289,-54.573082,218.152145,188.567688,98.778268,-78.604538,179.094747,107.405293,27.218761,24.364572,10.052487,-91.273495,-10.645728
1717052110.0861924,-54.512188,217.942261,184.479721,116.433905,-77.51397,161.780936,107.405293,27.218761,24.364572,10.052487,-87.47404,-10.601782
1717052110.1977015,-53.996159,215.450302,171.510773,148.894198,-69.083183,130.358785,107.405293,27.218761,24.364572,10.052487,-75.196814,-10.546893
1717052110.3127117,-52.525764,206.383179,153.273605,165.360834,-51.73001,115.58438,107.405293,27.218761,24.364572,10.052487,-56.176736,-10.546893
1717052110.4220743,-50.679733,193.93631,140.503952,171.573472,-35.651325,111.014011,107.405293,27.218761,24.364572,10.052487,-39.495872,-10.546893
1717052110.5314286,-49.394073,184.933609,134.799271,174.113795,-25.927314,109.569584,107.405293,27.218761,24.364515,10.052487,-29.530359,-10.546893
1717052110.640787,-49.281609,184.057785,134.355804,174.324185,-25.031266,109.488167,107.405179,27.218761,24.3644,10.030543,-28.61483,-10.546893
1717052110.7523608,-49.163239,184.074478,134.358047,174.294449,-25.029719,109.300122,107.405179,27.218761,24.3644,10.261216,-28.61483,-10.579838
1717052110.8617191,-48.679245,184.199356,134.397812,174.307398,-25.118699,108.172999,107.405179,27.218761,24.3644,11.217024,-28.678887,-10.393053
1717052110.9710798,-46.561871,185.995239,135.275055,174.990936,-27.07747,101.309366,107.405179,27.218761,24.3644,15.633555,-30.638116,-7.756359
1717052111.0804043,-46.363823,197.311035,143.043274,172.058596,-39.594363,102.353467,107.405179,27.217959,24.3644,16.523415,-43.098458,-8.041978
1717052111.1897886,-44.259029,205.643463,151.876724,157.226151,-47.57916,117.118303,107.405179,27.217844,24.3644,19.33595,-54.313649,-18.116467
1717052111.3034863,-44.853676,214.713654,168.030624,129.212525,-55.010996,144.704445,107.405179,27.217615,24.3644,18.863547,-71.539281,-27.344984
1717052111.4046981,-47.002304,218.638596,187.142136,96.50712,-61.564315,174.845921,107.405179,27.217615,24.3644,17.171602,-89.74914,-27.290037
1717052111.5197916,-47.039429,218.479233,194.959335,80.190027,-64.745377,-170.498374,107.405179,27.217501,24.3644,17.160659,-97.041346,-23.818371
1717052111.6331575,-50.325882,218.190186,196.709,63.50521,-76.835187,-150.381711,107.405293,27.217501,24.3644,14.183341,-98.744177,-10.96435
1717052111.7374525,-48.919979,218.23497,196.865265,29.4333,-83.102887,-117.20058,107.405293,27.217501,24.362165,15.512718,-98.886098,-2.471912
1717052111.8525543,-50.524261,218.126511,196.358704,50.899909,-81.186573,-137.290485,107.405293,27.217844,24.342628,13.963612,-98.483252,-6.009525
1717052111.961909,-52.332302,218.078384,194.991333,62.465807,-80.714914,-147.128285,107.405293,27.218074,24.334606,12.227779,-97.261075,-7.492684
1717052112.071268,-52.086563,218.182739,193.812057,65.830387,-82.197442,-150.619145,107.405293,27.218074,24.332601,12.447508,-96.167013,-6.361092
1717052112.1806262,-51.906914,218.261322,192.579575,69.132457,-84.240094,-153.991002,107.405293,27.218074,24.330997,12.60129,-95.02717,-4.614258
1717052112.2899845,-51.534328,218.29538,192.588837,62.855189,-85.485876,-148.039746,107.405293,27.216985,24.331283,12.952857,-95.02717,-3.229992
1717052112.3993814,-53.054409,218.186081,192.973465,59.005027,-85.474474,-142.779822,107.405637,27.182722,24.337471,11.480699,-95.292679,-3.175046
1717052112.508744,-53.807514,218.761627,195.365601,53.806868,-85.145539,-137.090638,107.405752,26.570975,24.369327,11.019296,-95.20112,-3.36183
1717052112.6181078,-53.95639,221.045837,203.016129,40.090831,-83.646853,-124.016715,107.405752,24.791196,24.610027,11.568591,-95.20112,-3.911125
1717052112.7274606,-55.456257,226.312836,217.453262,30.660805,-80.683573,-115.008615,107.405752,21.577018,25.530885,11.755375,-94.294758,-5.416285
1717052112.8377588,-57.81015,235.039444,227.759018,47.524443,-86.690634,-131.886978,107.405408,17.340911,27.24082,12.194834,-82.704166,-4.339582
1717052112.9483984,-62.164074,243.397232,249.611847,53.403964,-85.83051,-136.317259,107.405408,12.42797,29.581582,10.953349,-75.787362,-6.361092
1717052113.0577564,-65.009384,251.064926,278.446625,37.956277,-82.682279,-120.795431,107.405408,7.529468,32.624675,10.942405,-71.241744,-8.920896
1717052113.1671147,-66.851646,256.122253,305.463287,41.529012,-81.971353,-124.324737,107.405293,2.678234,35.907723,11.436753,-63.519304,-11.392807
1717052113.2764728,-68.818573,258.468811,336.253265,48.323547,-81.355309,-130.201107,107.405293,-2.017556,39.548927,11.359862,-54.927057,-13.743882
1717052113.386953,-69.760071,258.193756,362.615143,100.301018,-84.022427,178.998432,107.405293,-6.519515,44.002357,13.414317,-39.308171,-15.90823
1717052113.496346,-69.588455,253.641129,394.125458,77.422641,-81.628839,-157.339253,107.405293,-10.228729,47.686934,13.205589,-34.77172,-19.028329
1717052113.6057117,-67.783302,248.854996,408.584259,79.858399,-81.878075,-160.088075,107.405293,-12.533509,49.314993,15.468772,-30.628949,-21.280512
1717052113.7150667,-66.81398,247.8069,410.295074,77.882096,-81.976395,-158.706273,107.405293,-12.951424,49.314993,16.688255,-30.601504,-22.225319
1717052113.8244262,-66.314011,247.910736,408.856354,81.407448,-81.195052,-162.685579,107.405293,-12.907078,49.10403,17.589117,-30.601504,-23.862317
1717052113.936001,-66.319138,248.950043,394.744781,100.008866,-81.049063,178.712927,107.405293,-12.072851,47.162964,18.028575,-30.53739,-23.928207
1717052114.0453591,-67.565414,250.431946,366.693909,124.758409,-81.610332,154.953685,107.405293,-9.713697,43.198439,15.051258,-33.302312,-18.610815
1717052114.1547177,-67.210037,250.368042,341.193237,85.549016,-81.354335,-166.284613,107.406611,-6.156603,38.42106,11.55759,-46.833799,-16.42458
1717052114.2640767,-65.349968,248.936218,312.786102,98.950843,-83.938202,179.288292,107.406611,-2.302947,34.84821,12.01905,-52.651957,-12.952857
1717052114.3734343,-63.595184,245.493805,287.791779,136.311243,-83.619695,141.532149,107.406611,1.004395,32.032753,12.23878,-55.055228,-10.469944
1717052114.4850504,-60.838829,238.642288,266.150879,121.185845,-84.449567,156.192134,107.406496,4.827399,28.596553,11.656483,-63.935845,-9.206515
1717052114.5944123,-59.198936,230.110962,245.04158,113.448508,-84.931597,164.945783,107.406496,9.109341,25.544407,9.92065,-71.951295,-7.250953
1717052114.7037323,-56.58897,223.063126,225.83931,132.691869,-84.589713,145.456853,107.406496,13.324993,23.582714,9.986597,-76.400771,-5.581067
1717052114.8131266,-53.845474,219.746414,213.774979,139.152999,-84.487497,137.491192,107.406496,16.8013,22.93361,11.381864,-79.980496,-4.658204
1717052114.9224832,-52.233601,218.0681,207.767471,97.598089,-84.954572,178.00584,107.40621,20.164849,22.887372,12.216778,-86.828603,-5.416285
1717052115.0339875,-51.30405,215.494507,200.360367,71.671864,-83.384553,-156.308788,107.40621,23.805709,22.879121,12.326671,-93.141165,-5.932634
1717052115.1433454,-50.502789,212.783951,191.741776,69.339123,-83.339805,-153.924882,107.40621,27.091507,22.878377,12.326671,-96.610997,-5.207499
1717052115.2527037,-49.622784,210.569229,185.636597,69.033622,-82.940855,-153.792816,107.40621,29.279748,22.878262,12.557401,-98.936461,-5.075661
1717052115.362063,-49.262573,209.23082,183.206085,65.570551,-81.907525,-150.348537,107.40621,30.498372,22.878262,12.579346,-100.946053,-5.592068
1717052115.4714224,-49.675331,208.870041,181.732819,69.662443,-81.99238,-153.91646,107.40621,30.819858,22.878262,12.062996,-100.694296,-5.74585
1717052115.5830655,-49.129555,208.93428,181.514053,70.805093,-82.147423,-155.559015,107.40621,30.820488,22.878262,12.667237,-100.497428,-5.482175
1717052115.6924248,-47.383514,209.066452,181.582275,64.453397,-83.859764,-150.809883,107.40621,30.820488,22.878262,14.260232,-100.497428,-3.460665
1717052115.8017821,-47.153618,209.080063,181.592148,63.91327,-83.956824,-150.483641,107.40621,30.820488,22.878262,14.479961,-100.497428,-3.317884
1717052115.9111412,-47.153648,209.080063,181.5923,64.139703,-83.907435,-150.711334,107.40621,30.820488,22.878262,14.479961,-100.497428,-3.383774
1717052116.0237024,-46.716892,209.103455,181.612213,64.306205,-83.827793,-151.290995,107.40621,30.820488,22.878262,14.897476,-100.497428,-3.394775
1717052116.1310186,-46.406467,209.118164,181.626572,64.357599,-83.785165,-151.635572,107.40621,30.820488,22.878262,15.194096,-100.497428,-3.394775
1717052116.240373,-46.383472,209.119202,181.627655,64.361266,-83.782014,-151.661012,107.40621,30.820488,22.878262,15.21604,-100.497428,-3.394775
1717052116.3497355,-46.383472,209.119202,181.627655,64.361266,-83.782014,-151.661012,107.40621,30.820488,22.878262,15.21604,-100.497428,-3.394775
1717052116.4590902,-46.463959,209.11557,181.623901,64.34826,-83.793015,-151.571974,107.40621,30.820488,22.878262,15.128148,-100.497428,-3.394775
1717052116.5706885,-46.727825,209.103745,181.596909,64.419306,-83.835299,-151.393154,107.40621,30.820488,22.878262,14.886475,-100.483677,-3.394775
1717052116.6800833,-46.784008,209.102844,181.559784,64.6792,-83.857014,-151.598502,107.40621,30.820488,22.878262,14.831528,-100.451648,-3.394775
1717052116.78944,-46.781216,209.107086,181.485901,65.261039,-83.886121,-152.179768,107.40621,30.820488,22.878262,14.831528,-100.383008,-3.394775
1717052116.8987987,-46.665836,209.113419,181.481339,65.356035,-83.874146,-152.38334,107.40621,30.820488,22.878262,14.941421,-100.373841,-3.394775
1717052117.0081575,-46.412407,209.1259,181.483215,65.469767,-83.843206,-152.735938,107.40621,30.820488,22.878262,15.183095,-100.364673,-3.394775
1717052117.1196623,-46.308483,209.131027,181.478195,65.561269,-83.832721,-152.925128,107.40621,30.820488,22.878262,15.281988,-100.355506,-3.394775
