BAEK26/lfd/data/sumin_3.csv
timestamp,x,y,z,roll,pitch,yaw,joint1,joint2,joint3,joint4,joint5,joint6
6.0,-133.240067,231.175522,183.537613,-150.309519,-85.014962,56.530995,129.39908,35.193589,40.299846,43.846455,-81.875612,-0.889918
113.0,-133.380783,231.18544,183.548721,-150.34762,-85.025161,56.700534,129.399309,35.192729,40.299846,43.714617,-81.875612,-0.889918
222.0,-133.381516,231.18631,183.55368,-149.898651,-85.003617,56.250017,129.399309,35.191641,40.299846,43.714617,-81.875612,-0.845972
330.0,-133.33696,231.184494,183.559875,-144.532615,-84.691126,50.818835,129.399424,35.189406,40.299846,43.769506,-81.875612,-0.263675
439.0,-133.303406,231.182755,183.563477,-143.843404,-84.6438,50.094101,129.399481,35.188203,40.299846,43.791508,-81.875612,-0.197728
546.0,-133.303482,231.182846,183.563995,-143.8422,-84.6438,50.092955,129.399481,35.188088,40.299846,43.791508,-81.875612,-0.197728
654.0,-133.304077,231.182755,183.565002,-143.839909,-84.643857,50.090778,129.399596,35.187917,40.299846,43.791508,-81.875612,-0.197728
763.0,-133.316879,231.183426,183.567902,-144.699001,-84.702528,50.964768,129.399825,35.187458,40.299846,43.780507,-81.875612,-0.29662
871.0,-133.338196,231.177292,183.439377,-146.041499,-84.635607,52.324511,129.399825,35.185682,40.299961,43.769506,-81.747441,-0.362568
980.0,-133.024841,231.155167,183.281601,-148.67275,-84.583181,54.652553,129.399825,35.178463,40.302711,44.088128,-81.578075,-0.571296
1089.0,-132.287506,231.206589,183.502289,-151.216626,-84.363051,56.394803,129.397934,35.039005,40.314342,44.9231,-81.198146,-0.834971
1197.0,-131.826584,232.210266,186.266708,-150.978447,-83.969314,55.513766,129.257101,34.259438,40.377195,45.527341,-80.296311,-1.263429
1310.0,-127.802353,237.038849,189.6539,-148.155026,-83.739615,51.477622,127.839432,33.568623,40.812128,45.505397,-79.421977,-1.680886
1414.0,-119.485954,244.226105,191.413956,-147.361422,-83.498343,48.472745,125.425847,33.41043,41.424046,45.439449,-78.735345,-2.02151
1529.0,-106.124596,253.160187,193.207214,-147.594272,-84.086369,45.83777,122.043162,33.38986,41.965262,44.890155,-78.735345,-2.702642
1646.0,-82.912575,265.76474,199.750275,-137.244477,-84.872238,31.433152,116.257778,32.365526,42.462819,43.242213,-78.662121,-3.240993
1754.0,-57.270081,277.501404,208.69754,-130.951796,-84.434212,20.373806,110.249226,30.662524,43.277794,42.31935,-76.744087,-4.075907
1863.0,-28.645618,286.901337,214.371643,-131.719502,-84.058982,16.146925,103.934831,29.818443,44.29743,41.319596,-74.830637,-4.899878
1972.0,-0.104814,294.97879,219.644073,-123.010257,-84.740744,3.470176,97.721103,29.748542,45.791876,39.166249,-74.336232,-5.471174
2081.0,28.85467,302.419556,226.577164,-109.559958,-84.544105,-13.742565,91.656517,29.747568,47.992263,37.045904,-73.214724,-5.559066
2189.0,58.862293,309.097534,235.420547,-102.260132,-83.645192,-25.006743,85.549245,29.747568,51.099585,35.5188,-70.770257,-5.789796
2302.0,86.529198,313.799408,246.018677,-91.17867,-83.099163,-39.206184,80.379619,29.747568,54.243347,33.782967,-68.980394,-6.240255
2413.0,112.996872,313.637177,253.758865,-89.857544,-82.555942,-44.099874,75.680334,29.747568,56.64828,33.13478,-66.764824,-6.679714
2514.0,139.403702,306.838562,256.909485,-92.775274,-82.18541,-45.289907,71.02465,29.747568,57.687912,32.739267,-65.359473,-6.72366
2638.0,161.47287,297.832825,258.807251,-87.89694,-82.72061,-52.97161,66.01826,29.747338,58.044292,31.04738,-65.290833,-6.767606
2747.0,183.026291,286.223602,259.745087,-85.152013,-83.166772,-58.916219,62.383989,29.719665,58.164498,29.860841,-65.231302,-6.778549
2855.0,197.498199,276.874878,261.727325,-80.894937,-83.432281,-65.367322,59.329551,29.429748,58.166905,28.916034,-65.231302,-6.833496
2963.0,209.993591,267.514709,264.682159,-77.325868,-83.205848,-71.414777,56.662948,28.937233,58.167764,28.740251,-65.19469,-6.833496
3072.0,219.727875,259.788513,264.980347,-76.529514,-83.195363,-74.089001,54.51745,28.90383,58.167764,28.44363,-65.19469,-6.734603
3180.0,226.035065,254.615814,265.121674,-75.599833,-83.188831,-76.002852,53.059903,28.903142,58.167764,27.91628,-65.19469,-6.525875
3289.0,228.566986,252.584854,265.220245,-74.140166,-83.500463,-77.652282,52.426784,28.903142,58.167764,27.399873,-65.180939,-6.690657
3397.0,228.828522,252.512421,264.996979,-74.066999,-84.299853,-77.53666,52.346799,28.903142,58.167764,27.147199,-64.897153,-7.3169
3506.0,228.58902,253.005844,264.248535,-79.980955,-85.011295,-71.150071,52.346685,28.903142,58.167764,26.773688,-64.123546,-7.701412
3633.0,228.326767,253.487,264.172272,-79.864358,-85.467369,-70.761835,52.34657,28.903486,58.167764,26.235336,-63.949596,-7.910141
3738.0,228.119217,253.85788,264.226227,-78.273311,-85.697527,-71.95542,52.346341,28.909445,58.167764,25.784934,-63.949596,-7.954087
3847.0,228.170044,253.76683,264.384888,-75.879265,-85.645273,-74.435755,52.345252,28.918326,58.167764,25.839824,-64.160158,-7.965087
3955.0,228.071823,253.950455,264.332794,-74.582489,-85.910724,-75.540589,52.344909,28.934483,58.167764,25.620094,-64.160158,-8.140871
4089.0,227.846832,254.352341,264.302643,-70.047929,-86.619645,-79.653681,52.344909,28.96061,58.167764,25.13669,-64.160158,-8.800059
4203.0,227.836792,254.386139,264.161255,-67.123667,-87.078412,-82.553994,52.344909,28.980721,58.167764,25.103745,-64.160158,-9.140625
4312.0,227.7117,254.646439,263.907257,-61.078218,-87.638994,-88.327403,52.341299,29.034006,58.167764,24.78518,-64.160158,-9.602028
4420.0,227.828537,254.600601,263.245575,-44.413855,-87.964606,-105.047744,52.327319,29.237922,58.168967,24.719233,-64.659147,-10.140379
4529.0,228.484818,254.039139,263.211884,-38.124153,-88.157464,-111.486643,52.181787,29.247375,58.173494,24.719233,-64.659147,-10.425998
4637.0,231.700531,251.422821,263.061157,-31.367205,-88.44526,-118.4981,51.39208,29.258434,58.180713,24.158937,-64.439417,-10.502947
4746.0,234.842361,249.05368,262.805756,-19.22451,-88.897553,-130.42307,50.549946,29.259007,58.194235,23.060291,-63.949596,-10.459001
4854.0,235.147354,248.887939,262.433044,-44.891988,-89.094765,-104.738805,50.478097,29.259007,58.212168,23.04929,-63.523888,-10.184325
4963.0,234.992111,249.237732,261.792786,-88.247647,-89.460312,-61.039314,50.477123,29.259866,58.223799,22.796616,-62.837198,-10.173324
5072.0,235.335556,248.992996,261.865906,-88.269534,-89.498815,-61.134081,50.415588,29.262101,58.249869,22.862563,-62.823504,-10.250272
5180.0,236.194687,249.112625,262.764221,-62.518462,-89.524312,-86.73607,50.265759,29.265366,58.462952,22.53294,-62.777725,-10.250272
5288.0,237.597107,250.087234,264.342712,-93.430566,-89.266366,-55.816288,50.169732,29.28393,59.061292,22.587887,-61.962865,-10.162381
5397.0,238.876343,251.627853,262.799591,-135.13668,-88.801296,-14.08061,50.161252,29.886567,59.751878,22.730725,-61.079421,-10.162381
5506.0,239.639755,252.466232,259.672852,-152.907653,-88.734203,3.673404,50.155465,30.633933,60.052279,22.708724,-61.225869,-10.261216
5614.0,239.790833,252.58815,258.828613,-155.685238,-88.743886,6.441822,50.150079,30.831031,60.102929,22.68678,-61.34493,-10.261216
5723.0,241.849457,252.480331,260.094055,-142.531445,-88.973642,-6.965333,49.872882,30.957597,60.575734,22.664778,-61.34493,-10.261216
5836.0,245.571655,252.6996,261.300293,-138.585656,-89.226374,-10.829418,49.313332,31.371559,61.508051,22.016591,-60.964944,-10.228271
5940.0,247.107819,253.892319,259.174225,-158.370118,-88.27429,9.249143,49.186364,31.943944,62.080034,21.741972,-59.898383,-9.997541
6066.0,247.241592,254.289795,256.129913,-169.794496,-87.964549,20.913532,49.169003,32.543143,62.145695,21.346459,-59.921244,-9.975596
6200.0,247.288177,254.56636,255.689636,-173.165722,-88.047628,24.450802,49.165909,32.630176,62.205799,21.214622,-60.031137,-9.964595
6312.0,247.445282,254.727768,256.007721,-169.544113,-88.106413,20.825526,49.164133,32.634988,62.280054,21.214622,-60.031137,-9.887705
6420.0,247.826935,255.614029,257.332367,-163.413751,-88.381605,14.975111,49.164019,32.635561,62.582633,20.896,-60.008219,-9.711921
6528.0,247.666733,256.255707,257.127594,-165.936198,-87.957215,18.018778,49.164019,32.637108,62.66405,20.401595,-59.422312,-9.47019
6642.0,247.561249,256.419952,256.952026,-167.376957,-87.804808,19.640363,49.164019,32.638082,62.664681,20.225811,-59.225444,-9.4043
6745.0,247.447281,256.578308,256.530518,-167.933529,-87.412389,20.375009,49.164019,32.638713,62.66491,20.08303,-58.822655,-9.283463
6854.0,247.356491,256.712524,256.359863,-169.086893,-87.26342,21.678775,49.164019,32.639171,62.665253,19.951193,-58.644121,-9.239517
6962.0,247.40506,256.63678,256.343933,-168.175603,-87.240731,20.682688,49.163904,32.639629,62.665597,20.050028,-58.644121,-9.239517
7071.0,247.426636,256.603577,256.332825,-167.117694,-87.222683,19.586333,49.163904,32.640489,62.665769,20.093974,-58.644121,-9.206515
7179.0,247.482193,256.516541,256.327972,-165.208599,-87.197702,17.579606,49.163732,32.641062,62.665884,20.203867,-58.657815,-9.162626
7289.0,247.507431,256.47879,256.350189,-163.388312,-87.194493,15.715602,49.163618,32.641176,62.665998,20.247813,-58.685317,-9.096679
7396.0,247.513382,256.472687,256.398712,-162.477996,-87.228069,14.797093,49.163618,32.641176,62.665998,20.247813,-58.731096,-9.063734
7505.0,247.553879,256.418854,256.547333,-159.832135,-87.331316,12.088321,49.163503,32.641234,62.666113,20.291759,-58.882128,-8.997787
7642.0,247.565369,256.401733,256.548462,-159.39027,-87.325242,11.626574,49.163503,32.641692,62.666342,20.313703,-58.882128,-8.986843
7753.0,247.566223,256.401672,256.542145,-159.403161,-87.32444,11.639351,49.163388,32.642552,62.666457,20.313703,-58.882128,-8.986843
7861.0,247.56839,256.399963,256.534668,-159.41886,-87.323466,11.654649,49.16293,32.643812,62.666457,20.313703,-58.882128,-8.986843
7970.0,247.569427,256.399078,256.532623,-159.423157,-87.323237,11.65866,49.162701,32.644098,62.666457,20.313703,-58.882128,-8.986843
8078.0,247.453781,256.585663,256.569,-162.464532,-87.407003,14.908362,49.162701,32.644098,62.666457,20.072029,-58.882128,-9.030789
8187.0,247.449493,256.593231,256.570801,-163.966082,-87.428948,16.420569,49.162472,32.644098,62.666457,20.061029,-58.882128,-9.096679
