BAEK26/lfd/data/test_sumin_c.csv
timestamp,x,y,z,roll,pitch,yaw,joint1,joint2,joint3,joint4,joint5,joint6,gripper
163.0,-133.182373,231.165634,183.533936,-150.322525,-85.035588,56.490315,129.400341,35.19949,40.299961,43.901,-81.899905,-0.900575,0
184.0,-133.182373,231.165634,183.533936,-150.322525,-85.035588,56.490315,129.400341,35.19949,40.299961,43.901,-81.899905,-0.900575,0
199.0,-133.182373,231.165634,183.533936,-150.322525,-85.035588,56.490315,129.400341,35.19949,40.299961,43.901,-81.899905,-0.900575,0
216.0,-133.182373,231.165634,183.533936,-150.322525,-85.035588,56.490315,129.400341,35.19949,40.299961,43.901,-81.899905,-0.900575,0
232.0,-133.182373,231.165634,183.533936,-150.322525,-85.035588,56.490315,129.400341,35.19949,40.299961,43.901,-81.899905,-0.900575,0
247.0,-133.182373,231.165634,183.533936,-150.322525,-85.035588,56.490315,129.400341,35.19949,40.299961,43.901,-81.899905,-0.900575,0
263.0,-133.182373,231.165634,183.533936,-150.322525,-85.035588,56.490315,129.400341,35.19949,40.299961,43.901,-81.899905,-0.900575,0
278.0,-133.182373,231.165634,183.533936,-150.322525,-85.035588,56.490315,129.400341,35.19949,40.299961,43.901,-81.899905,-0.900575,0
292.0,-133.182373,231.165634,183.533936,-150.322525,-85.035588,56.490315,129.400341,35.19949,40.299961,43.901,-81.899905,-0.900575,0
309.0,-133.182373,231.165634,183.533936,-150.322525,-85.035588,56.490315,129.400341,35.19949,40.299961,43.901,-81.899905,-0.900575,0
323.0,-133.182373,231.165634,183.533936,-150.322525,-85.035588,56.490315,129.400341,35.19949,40.299961,43.901,-81.899905,-0.900575,0
337.0,-133.182373,231.165634,183.533936,-150.322525,-85.035588,56.490315,129.400341,35.19949,40.299961,43.901,-81.899905,-0.900575,0
352.0,-133.182373,231.165634,183.533936,-150.322525,-85.035588,56.490315,129.400341,35.19949,40.299961,43.901,-81.899905,-0.900575,0
368.0,-133.182373,231.165634,183.533936,-150.322525,-85.035588,56.490315,129.400341,35.19949,40.299961,43.901,-81.899905,-0.900575,0
383.0,-133.182373,231.165634,183.533936,-150.322525,-85.035588,56.490315,129.400341,35.19949,40.299961,43.901,-81.899905,-0.900575,0
399.0,-133.182373,231.165634,183.533936,-150.322525,-85.035588,56.490315,129.400341,35.19949,40.299961,43.901,-81.899905,-0.900575,0
414.0,-133.182373,231.165634,183.533936,-150.322525,-85.035588,56.490315,129.400341,35.19949,40.299961,43.901,-81.899905,-0.900575,0
430.0,-133.182373,231.165634,183.533936,-150.322525,-85.035588,56.490315,129.400341,35.19949,40.299961,43.901,-81.899905,-0.900575,0
446.0,-133.182373,231.165634,183.533936,-150.322525,-85.035588,56.490315,129.400341,35.19949,40.299961,43.901,-81.899905,-0.900575,0
461.0,-133.182373,231.165634,183.533936,-150.322525,-85.035588,56.490315,129.400341,35.19949,40.299961,43.901,-81.899905,-0.900575,0
476.0,-133.182373,231.165634,183.533936,-150.322525,-85.035588,56.490315,129.400341,35.19949,40.299961,43.901,-81.899905,-0.900575,0
492.0,-133.182373,231.165634,183.533936,-150.322525,-85.035588,56.490315,129.400341,35.19949,40.299961,43.901,-81.899905,-0.900575,0
509.0,-133.182373,231.165634,183.533936,-150.322525,-85.035588,56.490315,129.400341,35.19949,40.299961,43.901,-81.899905,-0.900575,0
522.0,-133.182373,231.165634,183.533936,-150.322525,-85.035588,56.490315,129.400341,35.19949,40.299961,43.901,-81.899905,-0.900575,0
537.0,-133.182373,231.165634,183.533936,-150.322525,-85.035588,56.490315,129.400341,35.19949,40.299961,43.901,-81.899905,-0.900575,0
553.0,-133.182373,231.165634,183.533936,-150.322525,-85.035588,56.490315,129.400341,35.19949,40.299961,43.901,-81.899905,-0.900575,0
568.0,-133.182373,231.165634,183.533936,-150.322525,-85.035588,56.490315,129.400341,35.19949,40.299961,43.901,-81.899905,-0.900575,0
583.0,-133.182373,231.165634,183.533936,-150.322525,-85.035588,56.490315,129.400341,35.19949,40.299961,43.901,-81.899905,-0.900575,0
599.0,-133.182373,231.165634,183.533936,-150.322525,-85.035588,56.490315,129.400341,35.19949,40.299961,43.901,-81.899905,-0.900575,0
616.0,-133.182373,231.165634,183.533936,-150.322525,-85.035588,56.490315,129.400341,35.19949,40.299961,43.901,-81.899905,-0.900575,0
630.0,-133.182373,231.165634,183.533936,-150.322525,-85.035588,56.490315,129.400341,35.19949,40.299961,43.901,-81.899905,-0.900575,0
646.0,-133.182373,231.165634,183.533936,-150.322525,-85.035588,56.490315,129.400341,35.19949,40.299961,43.901,-81.899905,-0.900575,0
662.0,-133.182373,231.165634,183.533936,-150.322525,-85.035588,56.490315,129.400341,35.19949,40.299961,43.901,-81.899905,-0.900575,0
678.0,-133.182373,231.165634,183.533936,-150.322525,-85.035588,56.490315,129.400341,35.19949,40.299961,43.901,-81.899905,-0.900575,0
693.0,-133.182373,231.165634,183.533936,-150.322525,-85.035588,56.490315,129.400341,35.19949,40.299961,43.901,-81.899905,-0.900575,0
709.0,-133.182373,231.165634,183.533936,-150.322525,-85.035588,56.490315,129.400341,35.19949,40.299961,43.901,-81.899905,-0.900575,0
724.0,-133.182373,231.165634,183.533936,-150.322525,-85.035588,56.490315,129.400341,35.19949,40.299961,43.901,-81.899905,-0.900575,0
739.0,-133.182373,231.165634,183.533936,-150.322525,-85.035588,56.490315,129.400341,35.19949,40.299961,43.901,-81.899905,-0.900575,0
754.0,-133.182373,231.165634,183.533936,-150.322525,-85.035588,56.490315,129.400341,35.19949,40.299961,43.901,-81.899905,-0.900575,0
770.0,-133.182373,231.165634,183.533936,-150.322525,-85.035588,56.490315,129.400341,35.19949,40.299961,43.901,-81.899905,-0.900575,0
785.0,-133.182373,231.165634,183.533936,-150.322525,-85.035588,56.490315,129.400341,35.19949,40.299961,43.901,-81.899905,-0.900575,0
801.0,-133.182373,231.165634,183.533936,-150.322525,-85.035588,56.490315,129.400341,35.19949,40.299961,43.901,-81.899905,-0.900575,0
817.0,-133.182373,231.165634,183.533936,-150.322525,-85.035588,56.490315,129.400341,35.19949,40.299961,43.901,-81.899905,-0.900575,0
833.0,-133.182373,231.165634,183.533936,-150.322525,-85.035588,56.490315,129.400341,35.19949,40.299961,43.901,-81.899905,-0.900575,0
848.0,-133.182373,231.165634,183.533936,-150.322525,-85.035588,56.490315,129.400341,35.19949,40.299961,43.901,-81.899905,-0.900575,0
864.0,-133.182373,231.165634,183.533936,-150.322525,-85.035588,56.490315,129.400341,35.19949,40.299961,43.901,-81.899905,-0.900575,0
880.0,-133.182373,231.165634,183.533936,-150.322525,-85.035588,56.490315,129.400341,35.19949,40.299961,43.901,-81.899905,-0.900575,0
895.0,-133.182373,231.165634,183.533936,-150.322525,-85.035588,56.490315,129.400341,35.19949,40.299961,43.901,-81.899905,-0.900575,0
911.0,-133.182373,231.165634,183.533936,-150.322525,-85.035588,56.490315,129.400341,35.19949,40.299961,43.901,-81.899905,-0.900575,0
926.0,-133.182373,231.165634,183.533936,-150.322525,-85.035588,56.490315,129.400341,35.19949,40.299961,43.901,-81.899905,-0.900575,0
942.0,-133.182373,231.165634,183.533936,-150.322525,-85.035588,56.490315,129.400341,35.19949,40.299961,43.901,-81.899905,-0.900575,0
957.0,-133.182373,231.165634,183.533936,-150.322525,-85.035588,56.490315,129.400341,35.19949,40.299961,43.901,-81.899905,-0.900575,0
971.0,-133.182373,231.165634,183.533936,-150.322525,-85.035588,56.490315,129.400341,35.19949,40.299961,43.901,-81.899905,-0.900575,0
987.0,-133.182373,231.165634,183.533936,-150.322525,-85.035588,56.490315,129.400341,35.19949,40.299961,43.901,-81.899905,-0.900575,0
1003.0,-133.182373,231.165634,183.533936,-150.322525,-85.035588,56.490315,129.400341,35.19949,40.299961,43.901,-81.899905,-0.900575,0
1018.0,-133.182373,231.165634,183.533936,-150.322525,-85.035588,56.490315,129.400341,35.19949,40.299961,43.901,-81.899905,-0.900575,0
1033.0,-133.182373,231.165634,183.533936,-150.322525,-85.035588,56.490315,129.400341,35.19949,40.299961,43.901,-81.899905,-0.900575,0
1049.0,-133.182373,231.165634,183.533936,-150.322525,-85.035588,56.490315,129.400341,35.19949,40.299961,43.901,-81.899905,-0.900575,0
1065.0,-133.182373,231.165634,183.533936,-150.322525,-85.035588,56.490315,129.400341,35.19949,40.299961,43.901,-81.899905,-0.900575,0
1080.0,-133.182373,231.165634,183.533936,-150.322525,-85.035588,56.490315,129.400341,35.19949,40.299961,43.901,-81.899905,-0.900575,0
1097.0,-133.182373,231.165634,183.533936,-150.322525,-85.035588,56.490315,129.400341,35.19949,40.299961,43.901,-81.899905,-0.900575,0
1113.0,-133.182373,231.165634,183.533936,-150.322525,-85.035588,56.490315,129.400341,35.19949,40.299961,43.901,-81.899905,-0.900575,0
1128.0,-133.182373,231.165634,183.533936,-150.322525,-85.035588,56.490315,129.400341,35.19949,40.299961,43.901,-81.899905,-0.900575,0
1144.0,-133.182373,231.165634,183.533936,-150.322525,-85.035588,56.490315,129.400341,35.19949,40.299961,43.901,-81.899905,-0.900575,0
1159.0,-133.182373,231.165634,183.533936,-150.322525,-85.035588,56.490315,129.400341,35.19949,40.299961,43.901,-81.899905,-0.900575,0
1175.0,-133.182373,231.165634,183.533936,-150.322525,-85.035588,56.490315,129.400341,35.19949,40.299961,43.901,-81.899905,-0.900575,0
1189.0,-133.182373,231.165634,183.533936,-150.322525,-85.035588,56.490315,129.400341,35.19949,40.299961,43.901,-81.899905,-0.900575,0
1204.0,-133.182373,231.165634,183.533936,-150.322525,-85.035588,56.490315,129.400341,35.19949,40.299961,43.901,-81.899905,-0.900575,0
1219.0,-133.182373,231.165634,183.533936,-150.322525,-85.035588,56.490315,129.400341,35.19949,40.299961,43.901,-81.899905,-0.900575,0
1235.0,-133.182373,231.165634,183.533936,-150.322525,-85.035588,56.490315,129.400341,35.19949,40.299961,43.901,-81.899905,-0.900575,0
1251.0,-133.182373,231.165634,183.533936,-150.322525,-85.035588,56.490315,129.400341,35.19949,40.299961,43.901,-81.899905,-0.900575,0
1266.0,-133.182373,231.165634,183.533936,-150.322525,-85.035588,56.490315,129.400341,35.19949,40.299961,43.901,-81.899905,-0.900575,0
1282.0,-133.182373,231.165634,183.533936,-150.322525,-85.035588,56.490315,129.400341,35.19949,40.299961,43.901,-81.899905,-0.900575,0
1297.0,-133.182373,231.165634,183.533936,-150.322525,-85.035588,56.490315,129.400341,35.19949,40.299961,43.901,-81.899905,-0.900575,0
1313.0,-133.182373,231.165634,183.533936,-150.322525,-85.035588,56.490315,129.400341,35.19949,40.299961,43.901,-81.899905,-0.900575,0
1330.0,-133.182373,231.165634,183.533936,-150.322525,-85.035588,56.490315,129.400341,35.19949,40.299961,43.901,-81.899905,-0.900575,0
1344.0,-133.182373,231.165634,183.533936,-150.322525,-85.035588,56.490315,129.400341,35.19949,40.299961,43.901,-81.899905,-0.900575,0
1360.0,-133.182373,231.165634,183.533936,-150.322525,-85.035588,56.490315,129.400341,35.19949,40.299961,43.901,-81.899905,-0.900575,0
1375.0,-133.182373,231.165634,183.533936,-150.322525,-85.035588,56.490315,129.400341,35.19949,40.299961,43.901,-81.899905,-0.900575,0
1391.0,-133.182373,231.165634,183.533936,-150.322525,-85.035588,56.490315,129.400341,35.19949,40.299961,43.901,-81.899905,-0.900575,0
1406.0,-133.182373,231.165634,183.533936,-150.322525,-85.035588,56.490315,129.400341,35.19949,40.299961,43.901,-81.899905,-0.900575,0
1421.0,-133.182373,231.165634,183.533936,-150.322525,-85.035588,56.490315,129.400341,35.19949,40.299961,43.901,-81.899905,-0.900575,0
1436.0,-133.182373,231.165634,183.533936,-150.322525,-85.035588,56.490315,129.400341,35.19949,40.299961,43.901,-81.899905,-0.900575,0
1452.0,-133.182373,231.165634,183.533936,-150.322525,-85.035588,56.490315,129.400341,35.19949,40.299961,43.901,-81.899905,-0.900575,0
1467.0,-133.182373,231.165634,183.533936,-150.322525,-85.035588,56.490315,129.400341,35.19949,40.299961,43.901,-81.899905,-0.900575,0
1483.0,-133.182373,231.165634,183.533936,-150.322525,-85.035588,56.490315,129.400341,35.19949,40.299961,43.901,-81.899905,-0.900575,0
1499.0,-133.182373,231.165634,183.533936,-150.322525,-85.035588,56.490315,129.400341,35.19949,40.299961,43.901,-81.899905,-0.900575,0
1514.0,-133.182373,231.165634,183.533936,-150.322525,-85.035588,56.490315,129.400341,35.19949,40.299961,43.901,-81.899905,-0.900575,0
1530.0,-133.182373,231.165634,183.533936,-150.322525,-85.035588,56.490315,129.400341,35.19949,40.299961,43.901,-81.899905,-0.900575,0
1546.0,-133.182373,231.165634,183.533936,-150.322525,-85.035588,56.490315,129.400341,35.19949,40.299961,43.901,-81.899905,-0.900575,0
1562.0,-133.182373,231.165634,183.533936,-150.322525,-85.035588,56.490315,129.400341,35.19949,40.299961,43.901,-81.899905,-0.900575,0
1577.0,-133.182373,231.165634,183.533936,-150.322525,-85.035588,56.490315,129.400341,35.19949,40.299961,43.901,-81.899905,-0.900575,0
1592.0,-133.182373,231.165634,183.533936,-150.322525,-85.035588,56.490315,129.400341,35.19949,40.299961,43.901,-81.899905,-0.900575,0
1608.0,-133.182373,231.165634,183.533936,-150.322525,-85.035588,56.490315,129.400341,35.19949,40.299961,43.901,-81.899905,-0.900575,0
1623.0,-133.182373,231.165634,183.533936,-150.322525,-85.035588,56.490315,129.400341,35.19949,40.299961,43.901,-81.899905,-0.900575,0
1638.0,-133.182373,231.165634,183.533936,-150.322525,-85.035588,56.490315,129.400341,35.19949,40.299961,43.901,-81.899905,-0.900575,0
1654.0,-133.182373,231.165634,183.533936,-150.322525,-85.035588,56.490315,129.400341,35.19949,40.299961,43.901,-81.899905,-0.900575,0
1669.0,-133.182373,231.165634,183.533936,-150.322525,-85.035588,56.490315,129.400341,35.19949,40.299961,43.901,-81.899905,-0.900575,0
1685.0,-133.182373,231.165634,183.533936,-150.322525,-85.035588,56.490315,129.400341,35.19949,40.299961,43.901,-81.899905,-0.900575,0
1700.0,-133.182373,231.165634,183.533936,-150.322525,-85.035588,56.490315,129.400341,35.19949,40.299961,43.901,-81.899905,-0.900575,0
1716.0,-133.182373,231.165634,183.533936,-150.322525,-85.035588,56.490315,129.400341,35.19949,40.299961,43.901,-81.899905,-0.900575,0
1731.0,-133.182373,231.165634,183.533936,-150.322525,-85.035588,56.490315,129.400341,35.19949,40.299961,43.901,-81.899905,-0.900575,0
1747.0,-133.182373,231.165634,183.533936,-150.322525,-85.035588,56.490315,129.400341,35.19949,40.299961,43.901,-81.899905,-0.900575,0
1764.0,-133.182373,231.165634,183.533936,-150.322525,-85.035588,56.490315,129.400341,35.19949,40.299961,43.901,-81.899905,-0.900575,0
1779.0,-133.182373,231.165634,183.533936,-150.322525,-85.035588,56.490315,129.400341,35.19949,40.299961,43.901,-81.899905,-0.900575,0
1794.0,-133.182373,231.165634,183.533936,-150.322525,-85.035588,56.490315,129.400341,35.19949,40.299961,43.901,-81.899905,-0.900575,0
1810.0,-133.182373,231.165634,183.533936,-150.322525,-85.035588,56.490315,129.400341,35.19949,40.299961,43.901,-81.899905,-0.900575,0
1826.0,-133.182373,231.165634,183.533936,-150.322525,-85.035588,56.490315,129.400341,35.19949,40.299961,43.901,-81.899905,-0.900575,0
1841.0,-133.182373,231.165634,183.533936,-150.322525,-85.035588,56.490315,129.400341,35.19949,40.299961,43.901,-81.899905,-0.900575,0
1855.0,-133.182373,231.165634,183.533936,-150.322525,-85.035588,56.490315,129.400341,35.19949,40.299961,43.901,-81.899905,-0.900575,0
1871.0,-133.182373,231.165634,183.533936,-150.322525,-85.035588,56.490315,129.400341,35.19949,40.299961,43.901,-81.899905,-0.900575,0
1886.0,-133.182373,231.165634,183.533936,-150.322525,-85.035588,56.490315,129.400341,35.19949,40.299961,43.901,-81.899905,-0.900575,0
1902.0,-133.182373,231.165634,183.533936,-150.322525,-85.035588,56.490315,129.400341,35.19949,40.299961,43.901,-81.899905,-0.900575,0
1917.0,-133.182373,231.165634,183.533936,-150.322525,-85.035588,56.490315,129.400341,35.19949,40.299961,43.901,-81.899905,-0.900575,0
1934.0,-133.182373,231.165634,183.533936,-150.322525,-85.035588,56.490315,129.400341,35.19949,40.299961,43.901,-81.899905,-0.900575,0
1949.0,-133.182373,231.165634,183.533936,-150.322525,-85.035588,56.490315,129.400341,35.19949,40.299961,43.901,-81.899905,-0.900575,0
1966.0,-133.182373,231.165634,183.533936,-150.322525,-85.035588,56.490315,129.400341,35.19949,40.299961,43.901,-81.899905,-0.900575,0
1980.0,-133.182373,231.165634,183.533936,-150.322525,-85.035588,56.490315,129.400341,35.19949,40.299961,43.901,-81.899905,-0.900575,0
1997.0,-133.182373,231.165634,183.533936,-150.322525,-85.035588,56.490315,129.400341,35.19949,40.299961,43.901,-81.899905,-0.900575,0
2011.0,-133.182373,231.165634,183.533936,-150.322525,-85.035588,56.490315,129.400341,35.19949,40.299961,43.901,-81.899905,-0.900575,0
2026.0,-133.182373,231.165634,183.533936,-150.322525,-85.035588,56.490315,129.400341,35.19949,40.299961,43.901,-81.899905,-0.900575,0
2042.0,-133.182373,231.165634,183.533936,-150.322525,-85.035588,56.490315,129.400341,35.19949,40.299961,43.901,-81.899905,-0.900575,0
2057.0,-133.182373,231.165634,183.533936,-150.322525,-85.035588,56.490315,129.400341,35.19949,40.299961,43.901,-81.899905,-0.900575,0
2072.0,-133.182373,231.165634,183.533936,-150.322525,-85.035588,56.490315,129.400341,35.19949,40.299961,43.901,-81.899905,-0.900575,0
2087.0,-133.182373,231.165634,183.533936,-150.322525,-85.035588,56.490315,129.400341,35.19949,40.299961,43.901,-81.899905,-0.900575,0
2103.0,-133.182373,231.165634,183.533936,-150.322525,-85.035588,56.490315,129.400341,35.19949,40.299961,43.901,-81.899905,-0.900575,0
2118.0,-133.182373,231.165634,183.533936,-150.322525,-85.035588,56.490315,129.400341,35.19949,40.299961,43.901,-81.899905,-0.900575,0
2135.0,-133.182373,231.165634,183.533936,-150.322525,-85.035588,56.490315,129.400341,35.19949,40.299961,43.901,-81.899905,-0.900575,0
2151.0,-133.182373,231.165634,183.533936,-150.322525,-85.035588,56.490315,129.400341,35.19949,40.299961,43.901,-81.899905,-0.900575,0
2166.0,-133.182373,231.165634,183.533936,-150.322525,-85.035588,56.490315,129.400341,35.19949,40.299961,43.901,-81.899905,-0.900575,0
2182.0,-133.182373,231.165634,183.533936,-150.322525,-85.035588,56.490315,129.400341,35.19949,40.299961,43.901,-81.899905,-0.900575,0
2197.0,-133.182373,231.165634,183.533936,-150.322525,-85.035588,56.490315,129.400341,35.19949,40.299961,43.901,-81.899905,-0.900575,0
2213.0,-133.182373,231.165634,183.533936,-150.322525,-85.035588,56.490315,129.400341,35.19949,40.299961,43.901,-81.899905,-0.900575,0
2229.0,-133.182373,231.165634,183.533936,-150.322525,-85.035588,56.490315,129.400341,35.19949,40.299961,43.901,-81.899905,-0.900575,0
2244.0,-133.182373,231.165634,183.533936,-150.322525,-85.035588,56.490315,129.400341,35.19949,40.299961,43.901,-81.899905,-0.900575,0
2260.0,-133.182373,231.165634,183.533936,-150.322525,-85.035588,56.490315,129.400341,35.19949,40.299961,43.901,-81.899905,-0.900575,0
2275.0,-133.182373,231.165634,183.533936,-150.322525,-85.035588,56.490315,129.400341,35.19949,40.299961,43.901,-81.899905,-0.900575,0
2289.0,-133.182373,231.165634,183.533936,-150.322525,-85.035588,56.490315,129.400341,35.19949,40.299961,43.901,-81.899905,-0.900575,0
2305.0,-133.182373,231.165634,183.533936,-150.322525,-85.035588,56.490315,129.400341,35.19949,40.299961,43.901,-81.899905,-0.900575,0
2320.0,-133.182373,231.165634,183.533936,-150.322525,-85.035588,56.490315,129.400341,35.19949,40.299961,43.901,-81.899905,-0.900575,0
2336.0,-133.182373,231.165634,183.533936,-150.322525,-85.035588,56.490315,129.400341,35.19949,40.299961,43.901,-81.899905,-0.900575,0
2351.0,-133.182373,231.165634,183.533936,-150.322525,-85.035588,56.490315,129.400341,35.19949,40.299961,43.901,-81.899905,-0.900575,0
2367.0,-133.182373,231.165634,183.533936,-150.322525,-85.035588,56.490315,129.400341,35.19949,40.299961,43.901,-81.899905,-0.900575,0
2383.0,-133.182373,231.165634,183.533936,-150.322525,-85.035588,56.490315,129.400341,35.19949,40.299961,43.901,-81.899905,-0.900575,0
2399.0,-133.182373,231.165634,183.533936,-150.322525,-85.035588,56.490315,129.400341,35.19949,40.299961,43.901,-81.899905,-0.900575,0
2414.0,-133.182373,231.165634,183.533936,-150.322525,-85.035588,56.490315,129.400341,35.19949,40.299961,43.901,-81.899905,-0.900575,0
2429.0,-133.182373,231.165634,183.533936,-150.322525,-85.035588,56.490315,129.400341,35.19949,40.299961,43.901,-81.899905,-0.900575,0
2445.0,-133.182373,231.165634,183.533936,-150.322525,-85.035588,56.490315,129.400341,35.19949,40.299961,43.901,-81.899905,-0.900575,0
2461.0,-133.182373,231.165634,183.533936,-150.322525,-85.035588,56.490315,129.400341,35.19949,40.299961,43.901,-81.899905,-0.900575,0
2477.0,-133.182373,231.165634,183.533936,-150.322525,-85.035588,56.490315,129.400341,35.19949,40.299961,43.901,-81.899905,-0.900575,0
2491.0,-133.182373,231.165634,183.533936,-150.322525,-85.035588,56.490315,129.400341,35.19949,40.299961,43.901,-81.899905,-0.900575,0
2507.0,-133.182373,231.165634,183.533936,-150.322525,-85.035588,56.490315,129.400341,35.19949,40.299961,43.901,-81.899905,-0.900575,0
2522.0,-133.182373,231.165634,183.533936,-150.322525,-85.035588,56.490315,129.400341,35.19949,40.299961,43.901,-81.899905,-0.900575,0
2537.0,-133.182373,231.165634,183.533936,-150.322525,-85.035588,56.490315,129.400341,35.19949,40.299961,43.901,-81.899905,-0.900575,0
2553.0,-133.182373,231.165634,183.533936,-150.322525,-85.035588,56.490315,129.400341,35.19949,40.299961,43.901,-81.899905,-0.900575,0
2569.0,-133.182373,231.165634,183.533936,-150.322525,-85.035588,56.490315,129.400341,35.19949,40.299961,43.901,-81.899905,-0.900575,0
2584.0,-133.182373,231.165634,183.533936,-150.322525,-85.035588,56.490315,129.400341,35.19949,40.299961,43.901,-81.899905,-0.900575,0
2599.0,-133.182373,231.165634,183.533936,-150.322525,-85.035588,56.490315,129.400341,35.19949,40.299961,43.901,-81.899905,-0.900575,0
2615.0,-133.182373,231.165634,183.533936,-150.322525,-85.035588,56.490315,129.400341,35.19949,40.299961,43.901,-81.899905,-0.900575,0
2630.0,-133.182373,231.165634,183.533936,-150.322525,-85.035588,56.490315,129.400341,35.19949,40.299961,43.901,-81.899905,-0.900575,0
2646.0,-133.182373,231.165634,183.533936,-150.322525,-85.035588,56.490315,129.400341,35.19949,40.299961,43.901,-81.899905,-0.900575,0
2662.0,-133.182373,231.165634,183.533936,-150.322525,-85.035588,56.490315,129.400341,35.19949,40.299961,43.901,-81.899905,-0.900575,0
2678.0,-133.182373,231.165634,183.533936,-150.322525,-85.035588,56.490315,129.400341,35.19949,40.299961,43.901,-81.899905,-0.900575,0
2692.0,-133.182373,231.165634,183.533936,-150.322525,-85.035588,56.490315,129.400341,35.19949,40.299961,43.901,-81.899905,-0.900575,0
2708.0,-133.182373,231.165634,183.533936,-150.322525,-85.035588,56.490315,129.400341,35.19949,40.299961,43.901,-81.899905,-0.900575,0
2723.0,-133.182373,231.165634,183.533936,-150.322525,-85.035588,56.490315,129.400341,35.19949,40.299961,43.901,-81.899905,-0.900575,0
2739.0,-133.182373,231.165634,183.533936,-150.322525,-85.035588,56.490315,129.400341,35.19949,40.299961,43.901,-81.899905,-0.900575,0
2754.0,-133.182373,231.165634,183.533936,-150.322525,-85.035588,56.490315,129.400341,35.19949,40.299961,43.901,-81.899905,-0.900575,0
2770.0,-133.182373,231.165634,183.533936,-150.322525,-85.035588,56.490315,129.400341,35.19949,40.299961,43.901,-81.899905,-0.900575,0
2785.0,-133.182373,231.165634,183.533936,-150.322525,-85.035588,56.490315,129.400341,35.19949,40.299961,43.901,-81.899905,-0.900575,0
2800.0,-133.182373,231.165634,183.533936,-150.322525,-85.035588,56.490315,129.400341,35.19949,40.299961,43.901,-81.899905,-0.900575,0
2816.0,-133.182373,231.165634,183.533936,-150.322525,-85.035588,56.490315,129.400341,35.19949,40.299961,43.901,-81.899905,-0.900575,0
2832.0,-133.182373,231.165634,183.533936,-150.322525,-85.035588,56.490315,129.400341,35.19949,40.299961,43.901,-81.899905,-0.900575,0
2847.0,-133.182373,231.165634,183.533936,-150.322525,-85.035588,56.490315,129.400341,35.19949,40.299961,43.901,-81.899905,-0.900575,0
2863.0,-133.182373,231.165634,183.533936,-150.322525,-85.035588,56.490315,129.400341,35.19949,40.299961,43.901,-81.899905,-0.900575,0
2879.0,-133.182373,231.165634,183.533936,-150.322525,-85.035588,56.490315,129.400341,35.19949,40.299961,43.901,-81.899905,-0.900575,0
2895.0,-133.182373,231.165634,183.533936,-150.322525,-85.035588,56.490315,129.400341,35.19949,40.299961,43.901,-81.899905,-0.900575,0
2910.0,-133.182373,231.165634,183.533936,-150.322525,-85.035588,56.490315,129.400341,35.19949,40.299961,43.901,-81.899905,-0.900575,0
2925.0,-133.182373,231.165634,183.533936,-150.322525,-85.035588,56.490315,129.400341,35.19949,40.299961,43.901,-81.899905,-0.900575,0
2941.0,-133.182373,231.165634,183.533936,-150.322525,-85.035588,56.490315,129.400341,35.19949,40.299961,43.901,-81.899905,-0.900575,0
2956.0,-133.182373,231.165634,183.533936,-150.322525,-85.035588,56.490315,129.400341,35.19949,40.299961,43.901,-81.899905,-0.900575,0
2971.0,-133.182373,231.165634,183.533936,-150.322525,-85.035588,56.490315,129.400341,35.19949,40.299961,43.901,-81.899905,-0.900575,0
2987.0,-133.182373,231.165634,183.533936,-150.322525,-85.035588,56.490315,129.400341,35.19949,40.299961,43.901,-81.899905,-0.900575,0
3002.0,-133.182373,231.165634,183.533936,-150.322525,-85.035588,56.490315,129.400341,35.19949,40.299961,43.901,-81.899905,-0.900575,0
3018.0,-133.182373,231.165634,183.533936,-150.322525,-85.035588,56.490315,129.400341,35.19949,40.299961,43.901,-81.899905,-0.900575,0
3033.0,-133.182373,231.165634,183.533936,-150.322525,-85.035588,56.490315,129.400341,35.19949,40.299961,43.901,-81.899905,-0.900575,0
3049.0,-133.182373,231.165634,183.533936,-150.322525,-85.035588,56.490315,129.400341,35.19949,40.299961,43.901,-81.899905,-0.900575,0
3064.0,-133.182373,231.165634,183.533936,-150.322525,-85.035588,56.490315,129.400341,35.19949,40.299961,43.901,-81.899905,-0.900575,0
3080.0,-133.182373,231.165634,183.533936,-150.322525,-85.035588,56.490315,129.400341,35.19949,40.299961,43.901,-81.899905,-0.900575,0
3096.0,-133.182373,231.165634,183.533936,-150.322525,-85.035588,56.490315,129.400341,35.19949,40.299961,43.901,-81.899905,-0.900575,0
3112.0,-133.182373,231.165634,183.533936,-150.322525,-85.035588,56.490315,129.400341,35.19949,40.299961,43.901,-81.899905,-0.900575,0
3127.0,-133.182373,231.165634,183.533936,-150.322525,-85.035588,56.490315,129.400341,35.19949,40.299961,43.901,-81.899905,-0.900575,0
3142.0,-133.182373,231.165634,183.533936,-150.322525,-85.035588,56.490315,129.400341,35.19949,40.299961,43.901,-81.899905,-0.900575,0
3158.0,-133.182373,231.165634,183.533936,-150.322525,-85.035588,56.490315,129.400341,35.19949,40.299961,43.901,-81.899905,-0.900575,0
3173.0,-133.182327,231.16568,183.533768,-150.322468,-85.035531,56.490258,129.400283,35.199548,40.299961,43.900943,-81.899905,-0.900518,0
3188.0,-133.181793,231.166229,183.531845,-150.32178,-85.035302,56.490144,129.399997,35.200006,40.300018,43.900026,-81.90002,-0.900002,0
3203.0,-133.181793,231.166229,183.531845,-150.32178,-85.035302,56.490144,129.399997,35.200006,40.300018,43.900026,-81.90002,-0.900002,0
3219.0,-133.181793,231.166229,183.531845,-150.32178,-85.035302,56.490144,129.399997,35.200006,40.300018,43.900026,-81.90002,-0.900002,0
3234.0,-133.181793,231.166229,183.531845,-150.32178,-85.035302,56.490144,129.399997,35.200006,40.300018,43.900026,-81.90002,-0.900002,0
3250.0,-133.181793,231.166229,183.531845,-150.32178,-85.035302,56.490144,129.399997,35.200006,40.300018,43.900026,-81.90002,-0.900002,0
3265.0,-133.181793,231.166229,183.531845,-150.32178,-85.035302,56.490144,129.399997,35.200006,40.300018,43.900026,-81.90002,-0.900002,0
3281.0,-133.181793,231.166229,183.531845,-150.32178,-85.035302,56.490144,129.399997,35.200006,40.300018,43.900026,-81.90002,-0.900002,0
3297.0,-133.181793,231.166229,183.531845,-150.32178,-85.035302,56.490144,129.399997,35.200006,40.300018,43.900026,-81.90002,-0.900002,0
3312.0,-133.181793,231.166229,183.531845,-150.32178,-85.035302,56.490144,129.399997,35.200006,40.300018,43.900026,-81.90002,-0.900002,0
3329.0,-133.181793,231.166229,183.531845,-150.32178,-85.035302,56.490144,129.399997,35.200006,40.300018,43.900026,-81.90002,-0.900002,0
3344.0,-133.181793,231.166229,183.531845,-150.32178,-85.035302,56.490144,129.399997,35.200006,40.300018,43.900026,-81.90002,-0.900002,0
3360.0,-133.181793,231.166229,183.531845,-150.32178,-85.035302,56.490144,129.399997,35.200006,40.300018,43.900026,-81.90002,-0.900002,0
3375.0,-133.181793,231.166229,183.531845,-150.32178,-85.035302,56.490144,129.399997,35.200006,40.300018,43.900026,-81.90002,-0.900002,0
3390.0,-133.181793,231.166229,183.531845,-150.32178,-85.035302,56.490144,129.399997,35.200006,40.300018,43.900026,-81.90002,-0.900002,0
3405.0,-133.181793,231.166229,183.531845,-150.32178,-85.035302,56.490144,129.399997,35.200006,40.300018,43.900026,-81.90002,-0.900002,0
3421.0,-133.181793,231.166229,183.531845,-150.32178,-85.035302,56.490144,129.399997,35.200006,40.300018,43.900026,-81.90002,-0.900002,0
3436.0,-133.181793,231.166229,183.531845,-150.32178,-85.035302,56.490144,129.399997,35.200006,40.300018,43.900026,-81.90002,-0.900002,0
3452.0,-133.181793,231.166229,183.531845,-150.32178,-85.035302,56.490144,129.399997,35.200006,40.300018,43.900026,-81.90002,-0.900002,0
3467.0,-133.181793,231.166229,183.531845,-150.32178,-85.035302,56.490144,129.399997,35.200006,40.300018,43.900026,-81.90002,-0.900002,0
3483.0,-133.181793,231.166229,183.531845,-150.32178,-85.035302,56.490144,129.399997,35.200006,40.300018,43.900026,-81.90002,-0.900002,0
3498.0,-133.181793,231.166229,183.531845,-150.32178,-85.035302,56.490144,129.399997,35.200006,40.300018,43.900026,-81.90002,-0.900002,0
3514.0,-133.181793,231.166229,183.531845,-150.32178,-85.035302,56.490144,129.399997,35.200006,40.300018,43.900026,-81.90002,-0.900002,0
3530.0,-133.181793,231.166229,183.531845,-150.32178,-85.035302,56.490144,129.399997,35.200006,40.300018,43.900026,-81.90002,-0.900002,0
3545.0,-133.181793,231.166229,183.531845,-150.32178,-85.035302,56.490144,129.399997,35.200006,40.300018,43.900026,-81.90002,-0.900002,0
3561.0,-133.181793,231.166229,183.531845,-150.32178,-85.035302,56.490144,129.399997,35.200006,40.300018,43.900026,-81.90002,-0.900002,0
3576.0,-133.181793,231.166229,183.531845,-150.32178,-85.035302,56.490144,129.399997,35.200006,40.300018,43.900026,-81.90002,-0.900002,0
3591.0,-133.181793,231.166229,183.531845,-150.32178,-85.035302,56.490144,129.399997,35.200006,40.300018,43.900026,-81.90002,-0.900002,0
3607.0,-133.181793,231.166229,183.531845,-150.32178,-85.035302,56.490144,129.399997,35.200006,40.300018,43.900026,-81.90002,-0.900002,0
3622.0,-133.181793,231.166229,183.531845,-150.32178,-85.035302,56.490144,129.399997,35.200006,40.300018,43.900026,-81.90002,-0.900002,0
3637.0,-133.181793,231.166229,183.531845,-150.32178,-85.035302,56.490144,129.399997,35.200006,40.300018,43.900026,-81.90002,-0.900002,0
3653.0,-133.181793,231.166229,183.531845,-150.32178,-85.035302,56.490144,129.399997,35.200006,40.300018,43.900026,-81.90002,-0.900002,0
3669.0,-133.181793,231.166229,183.531845,-150.32178,-85.035302,56.490144,129.399997,35.200006,40.300018,43.900026,-81.90002,-0.900002,0
3684.0,-133.181793,231.166229,183.531845,-150.32178,-85.035302,56.490144,129.399997,35.200006,40.300018,43.900026,-81.90002,-0.900002,0
3700.0,-133.181793,231.166229,183.531845,-150.32178,-85.035302,56.490144,129.399997,35.200006,40.300018,43.900026,-81.90002,-0.900002,0
3715.0,-133.181793,231.166229,183.531845,-150.32178,-85.035302,56.490144,129.399997,35.200006,40.300018,43.900026,-81.90002,-0.900002,0
3731.0,-133.181793,231.166229,183.531845,-150.32178,-85.035302,56.490144,129.399997,35.200006,40.300018,43.900026,-81.90002,-0.900002,0
3746.0,-133.181793,231.166229,183.531845,-150.32178,-85.035302,56.490144,129.399997,35.200006,40.300018,43.900026,-81.90002,-0.900002,0
3762.0,-133.181793,231.166229,183.531845,-150.32178,-85.035302,56.490144,129.399997,35.200006,40.300018,43.900026,-81.90002,-0.900002,0
3778.0,-133.181793,231.166229,183.531845,-150.32178,-85.035302,56.490144,129.399997,35.200006,40.300018,43.900026,-81.90002,-0.900002,0
3794.0,-133.181793,231.166229,183.531845,-150.32178,-85.035302,56.490144,129.399997,35.200006,40.300018,43.900026,-81.90002,-0.900002,0
3809.0,-133.181793,231.166229,183.531845,-150.32178,-85.035302,56.490144,129.399997,35.200006,40.300018,43.900026,-81.90002,-0.900002,0
3825.0,-133.181793,231.166229,183.531845,-150.32178,-85.035302,56.490144,129.399997,35.200006,40.300018,43.900026,-81.90002,-0.900002,0
3839.0,-133.181793,231.166229,183.531845,-150.32178,-85.035302,56.490144,129.399997,35.200006,40.300018,43.900026,-81.90002,-0.900002,0
3855.0,-133.181793,231.166229,183.531845,-150.32178,-85.035302,56.490144,129.399997,35.200006,40.300018,43.900026,-81.90002,-0.900002,0
3870.0,-133.181793,231.166229,183.531845,-150.32178,-85.035302,56.490144,129.399997,35.200006,40.300018,43.900026,-81.90002,-0.900002,0
3886.0,-133.181793,231.166229,183.531845,-150.32178,-85.035302,56.490144,129.399997,35.200006,40.300018,43.900026,-81.90002,-0.900002,0
3901.0,-133.181793,231.166229,183.531845,-150.32178,-85.035302,56.490144,129.399997,35.200006,40.300018,43.900026,-81.90002,-0.900002,0
3917.0,-133.181793,231.166229,183.531845,-150.32178,-85.035302,56.490144,129.399997,35.200006,40.300018,43.900026,-81.90002,-0.900002,0
3932.0,-133.181793,231.166229,183.531845,-150.32178,-85.035302,56.490144,129.399997,35.200006,40.300018,43.900026,-81.90002,-0.900002,0
3948.0,-133.181793,231.166229,183.531845,-150.32178,-85.035302,56.490144,129.399997,35.200006,40.300018,43.900026,-81.90002,-0.900002,0
3964.0,-133.181793,231.166229,183.531845,-150.32178,-85.035302,56.490144,129.399997,35.200006,40.300018,43.900026,-81.90002,-0.900002,0
3979.0,-133.181793,231.166229,183.531845,-150.32178,-85.035302,56.490144,129.399997,35.200006,40.300018,43.900026,-81.90002,-0.900002,0
3995.0,-133.181793,231.166229,183.531845,-150.32178,-85.035302,56.490144,129.399997,35.200006,40.300018,43.900026,-81.90002,-0.900002,0
4011.0,-133.181793,231.166229,183.531845,-150.32178,-85.035302,56.490144,129.399997,35.200006,40.300018,43.900026,-81.90002,-0.900002,0
4026.0,-133.181793,231.166229,183.531845,-150.32178,-85.035302,56.490144,129.399997,35.200006,40.300018,43.900026,-81.90002,-0.900002,0
4041.0,-133.181793,231.166229,183.531845,-150.32178,-85.035302,56.490144,129.399997,35.200006,40.300018,43.900026,-81.90002,-0.900002,0
4057.0,-133.181793,231.166229,183.531845,-150.32178,-85.035302,56.490144,129.399997,35.200006,40.300018,43.900026,-81.90002,-0.900002,0
4072.0,-133.181793,231.166229,183.531845,-150.32178,-85.035302,56.490144,129.399997,35.200006,40.300018,43.900026,-81.90002,-0.900002,0
4087.0,-133.181793,231.166229,183.531845,-150.32178,-85.035302,56.490144,129.399997,35.200006,40.300018,43.900026,-81.90002,-0.900002,0
4103.0,-133.181793,231.166229,183.531845,-150.32178,-85.035302,56.490144,129.399997,35.200006,40.300018,43.900026,-81.90002,-0.900002,0
4118.0,-133.181793,231.166229,183.531845,-150.32178,-85.035302,56.490144,129.399997,35.200006,40.300018,43.900026,-81.90002,-0.900002,0
4133.0,-133.181793,231.166229,183.531845,-150.32178,-85.035302,56.490144,129.399997,35.200006,40.300018,43.900026,-81.90002,-0.900002,0
4149.0,-133.181793,231.166229,183.531845,-150.32178,-85.035302,56.490144,129.399997,35.200006,40.300018,43.900026,-81.90002,-0.900002,0
4165.0,-133.181793,231.166229,183.531845,-150.32178,-85.035302,56.490144,129.399997,35.200006,40.300018,43.900026,-81.90002,-0.900002,0
4181.0,-133.181793,231.166229,183.531845,-150.32178,-85.035302,56.490144,129.399997,35.200006,40.300018,43.900026,-81.90002,-0.900002,0
4196.0,-133.181793,231.166229,183.531845,-150.32178,-85.035302,56.490144,129.399997,35.200006,40.300018,43.900026,-81.90002,-0.900002,0
4211.0,-133.181793,231.166229,183.531845,-150.32178,-85.035302,56.490144,129.399997,35.200006,40.300018,43.900026,-81.90002,-0.900002,0
4228.0,-133.181793,231.166229,183.531845,-150.32178,-85.035302,56.490144,129.399997,35.200006,40.300018,43.900026,-81.90002,-0.900002,0
4243.0,-133.181793,231.166229,183.531845,-150.32178,-85.035302,56.490144,129.399997,35.200006,40.300018,43.900026,-81.90002,-0.900002,0
4258.0,-133.181793,231.166229,183.531845,-150.32178,-85.035302,56.490144,129.399997,35.200006,40.300018,43.900026,-81.90002,-0.900002,0
4274.0,-133.181793,231.166229,183.531845,-150.32178,-85.035302,56.490144,129.399997,35.200006,40.300018,43.900026,-81.90002,-0.900002,0
4289.0,-133.181793,231.166229,183.531845,-150.32178,-85.035302,56.490144,129.399997,35.200006,40.300018,43.900026,-81.90002,-0.900002,0
4304.0,-133.181793,231.166229,183.531845,-150.32178,-85.035302,56.490144,129.399997,35.200006,40.300018,43.900026,-81.90002,-0.900002,0
4320.0,-133.181793,231.166229,183.531845,-150.32178,-85.035302,56.490144,129.399997,35.200006,40.300018,43.900026,-81.90002,-0.900002,0
4335.0,-133.181793,231.166229,183.531845,-150.32178,-85.035302,56.490144,129.399997,35.200006,40.300018,43.900026,-81.90002,-0.900002,0
4351.0,-133.181793,231.166229,183.531845,-150.32178,-85.035302,56.490144,129.399997,35.200006,40.300018,43.900026,-81.90002,-0.900002,0
4366.0,-133.181793,231.166229,183.531845,-150.32178,-85.035302,56.490144,129.399997,35.200006,40.300018,43.900026,-81.90002,-0.900002,0
4382.0,-133.181793,231.166229,183.531845,-150.32178,-85.035302,56.490144,129.399997,35.200006,40.300018,43.900026,-81.90002,-0.900002,0
4397.0,-133.181793,231.166229,183.531845,-150.35484,-85.036906,56.523318,129.399997,35.200006,40.300018,43.900026,-81.90002,-0.903325,0
4413.0,-133.181808,231.166245,183.531967,-150.742675,-85.055928,56.912643,129.399997,35.200006,40.300018,43.900026,-81.90002,-0.941885,0
4428.0,-133.181824,231.166275,183.532303,-151.974591,-85.11374,58.149028,129.399997,35.200006,40.300018,43.900026,-81.90002,-1.062608,0
4445.0,-133.18187,231.166321,183.532974,-154.467989,-85.220081,60.651307,129.399997,35.200006,40.300018,43.900026,-81.90002,-1.298723,0
4460.0,-133.181915,231.166382,183.533646,-157.076265,-85.317197,63.268521,129.399997,35.200006,40.300018,43.900026,-81.90002,-1.621757,0
4475.0,-133.181976,231.166458,183.534653,-161.211645,-85.444508,67.417365,129.399997,35.200006,40.300018,43.900026,-81.90002,-1.984783,0
4491.0,-133.182053,231.166534,183.53569,-165.691201,-85.549302,71.910787,129.399997,35.200006,40.300018,43.900026,-81.90002,-2.260777,0
4506.0,-133.182144,231.166626,183.536728,-170.356968,-85.62562,76.590362,129.399997,35.200006,40.300018,43.900026,-81.90002,-2.628673,0
4521.0,-133.182236,231.166702,183.537766,-175.155433,-85.67203,81.402692,129.399997,35.200006,40.300018,43.900026,-81.90002,-2.996627,0
4536.0,-133.182343,231.166794,183.538803,179.977102,-85.687443,86.283949,129.399997,35.200006,40.300018,43.900026,-81.90002,-3.364523,0
4552.0,-133.182449,231.166885,183.539841,175.110112,-85.671572,91.164747,129.399997,35.200006,40.300018,43.900026,-81.90002,-3.732476,0
4568.0,-133.182541,231.166946,183.540619,171.502139,-85.639371,94.783148,129.399997,35.200006,40.300018,43.900026,-81.90002,-4.100372,0
4583.0,-133.182678,231.167053,183.541916,165.64949,-85.548042,100.653043,129.399997,35.200006,40.300018,43.900026,-81.90002,-4.468326,0
4599.0,-133.182785,231.167114,183.542694,162.272018,-85.471724,104.040942,129.399997,35.200006,40.300018,43.900026,-81.90002,-4.836222,0
4614.0,-133.182907,231.167206,183.543716,157.962344,-85.346418,108.364425,129.399997,35.200006,40.300018,43.900026,-81.90002,-5.112216,0
4631.0,-133.183044,231.167282,183.544754,153.900589,-85.196246,112.440045,129.399997,35.200006,40.300018,43.900026,-81.90002,-5.480112,0
4646.0,-133.183197,231.167374,183.545792,150.103197,-85.023384,116.251303,129.399997,35.200006,40.300018,43.900026,-81.90002,-5.848066,0
4661.0,-133.18335,231.167465,183.546814,146.575381,-84.830068,119.792927,129.399997,35.200006,40.300018,43.900026,-81.90002,-6.215962,0
4677.0,-133.183502,231.167557,183.547852,143.31359,-84.618647,123.068584,129.399997,35.200006,40.300018,43.900026,-81.90002,-6.583915,0
4692.0,-133.18367,231.167648,183.548874,140.307796,-84.391011,126.088244,129.399997,35.200006,40.300018,43.900026,-81.90002,-6.951812,0
4708.0,-133.183838,231.167725,183.549911,137.543675,-84.149165,128.86623,129.399997,35.200006,40.300018,43.900026,-81.90002,-7.319765,0
4723.0,-133.183975,231.167801,183.550674,135.619339,-83.959402,130.800936,129.399997,35.200006,40.300018,43.900026,-81.90002,-7.595701,0
4738.0,-133.184158,231.167892,183.551697,133.237898,-83.696586,133.196243,129.399997,35.200006,40.300018,43.900026,-81.90002,-7.963655,0
4754.0,-133.184357,231.167984,183.552719,131.050975,-83.423686,135.397032,129.399997,35.200006,40.300018,43.900026,-81.90002,-8.331551,0
4769.0,-133.18454,231.16806,183.553757,129.041325,-83.141906,137.420547,129.399997,35.200006,40.300018,43.900026,-81.90002,-8.699505,0
4785.0,-133.184753,231.168152,183.554779,127.192734,-82.85239,139.283003,129.399997,35.200006,40.300018,43.900026,-81.90002,-9.067401,0
4800.0,-133.184967,231.168243,183.555786,125.490076,-82.555942,140.999528,129.399997,35.200006,40.300018,43.900026,-81.90002,-9.435354,0
4815.0,-133.185181,231.168335,183.556808,123.919484,-82.25342,142.583985,129.399997,35.200006,40.300018,43.900026,-81.90002,-9.803308,0
4831.0,-133.185349,231.168411,183.557571,122.820551,-82.022919,143.693346,129.399997,35.200006,40.300018,43.900026,-81.90002,-10.079244,0
4847.0,-133.185577,231.168503,183.558594,121.451411,-81.711287,145.076409,129.399997,35.200006,40.300018,43.900026,-81.90002,-10.539158,0
4863.0,-133.185806,231.168594,183.559601,120.182481,-81.395244,146.359204,129.399997,35.200006,40.300018,43.900026,-81.90002,-10.907054,0
4878.0,-133.18605,231.168686,183.560623,119.004308,-81.075247,147.551243,129.399997,35.200006,40.300018,43.900026,-81.90002,-11.18299,0
4895.0,-133.186295,231.168777,183.56163,117.908469,-80.751755,148.661005,129.399997,35.200006,40.300018,43.900026,-81.90002,-11.550944,0
4910.0,-133.186554,231.168869,183.562637,116.887344,-80.425054,149.696053,129.399997,35.200006,40.300018,43.900026,-81.90002,-11.918897,0
4925.0,-133.186813,231.168961,183.56366,115.934228,-80.095489,150.663091,129.399997,35.200006,40.300018,43.900026,-81.90002,-12.286793,0
4940.0,-133.187012,231.169037,183.564407,115.260315,-79.846596,151.347375,129.399997,35.200006,40.300018,43.900026,-81.90002,-12.654747,0
4955.0,-133.187286,231.169128,183.565414,114.411994,-79.512676,152.209676,129.399997,35.200006,40.300018,43.900026,-81.90002,-13.022643,0
4970.0,-133.187561,231.16922,183.566422,113.616442,-79.176522,153.019151,129.399997,35.200006,40.300018,43.900026,-81.90002,-13.29858,0
4986.0,-133.187836,231.169312,183.567413,112.869248,-78.83842,153.780268,129.399997,35.200006,40.300018,43.900026,-81.90002,-13.666533,0
5002.0,-133.188141,231.169403,183.56842,112.166401,-78.498541,154.497095,129.399997,35.200006,40.300018,43.900026,-81.90002,-14.034487,0
5017.0,-133.188431,231.16951,183.569412,111.504291,-78.156944,155.173186,129.399997,35.200006,40.300018,43.900026,-81.90002,-14.402383,0
5033.0,-133.188736,231.169601,183.570419,110.879595,-77.813914,155.811862,129.399997,35.200006,40.300018,43.900026,-81.90002,-14.770336,0
5048.0,-133.189041,231.169693,183.571411,110.289448,-77.469394,156.415988,129.399997,35.200006,40.300018,43.900026,-81.90002,-15.138232,0
5064.0,-133.189362,231.169785,183.572403,109.731215,-77.123672,156.988201,129.399997,35.200006,40.300018,43.900026,-81.90002,-15.506186,0
5079.0,-133.189606,231.169861,183.573151,109.331978,-76.863606,157.397923,129.399997,35.200006,40.300018,43.900026,-81.90002,-15.874082,0
5095.0,-133.189926,231.169952,183.574127,108.823937,-76.515821,157.920003,129.399997,35.200006,40.300018,43.900026,-81.90002,-16.150019,0
5111.0,-133.190262,231.170059,183.575119,108.341678,-76.167061,158.416241,129.399997,35.200006,40.300018,43.900026,-81.90002,-16.609932,0
5127.0,-133.190613,231.170151,183.576096,107.883426,-75.817328,158.888588,129.399997,35.200006,40.300018,43.900026,-81.90002,-16.977885,0
5142.0,-133.190948,231.170242,183.577087,107.447463,-75.466735,159.338532,129.399997,35.200006,40.300018,43.900026,-81.90002,-17.253822,0
5157.0,-133.191315,231.170349,183.578064,107.032298,-75.11534,159.767734,129.399997,35.200006,40.300018,43.900026,-81.90002,-17.621775,0
5172.0,-133.191666,231.170441,183.579041,106.636556,-74.763143,160.177571,129.399997,35.200006,40.300018,43.900026,-81.90002,-17.989672,0
5188.0,-133.192032,231.170547,183.580017,106.258919,-74.410258,160.569302,129.399997,35.200006,40.300018,43.900026,-81.90002,-18.357625,0
5203.0,-133.192307,231.170609,183.58075,105.986822,-74.14515,160.851885,129.399997,35.200006,40.300018,43.900026,-81.90002,-18.633562,0
5219.0,-133.192688,231.170715,183.581711,105.638177,-73.79112,161.214682,129.399997,35.200006,40.300018,43.900026,-81.90002,-19.001515,0
5234.0,-133.193069,231.170807,183.582687,105.304601,-73.436516,161.562353,129.399997,35.200006,40.300018,43.900026,-81.90002,-19.369411,0
5249.0,-133.193466,231.170914,183.583649,104.985234,-73.08134,161.895814,129.399997,35.200006,40.300018,43.900026,-81.90002,-19.737365,0
5265.0,-133.193863,231.171005,183.58461,104.67916,-72.725648,162.215983,129.399997,35.200006,40.300018,43.900026,-81.90002,-20.105261,0
5281.0,-133.19426,231.171112,183.585571,104.385691,-72.369497,162.523604,129.399997,35.200006,40.300018,43.900026,-81.90002,-20.473214,0
5297.0,-133.194672,231.171204,183.586533,104.104082,-72.012831,162.819422,129.399997,35.200006,40.300018,43.900026,-81.90002,-20.841111,0
5312.0,-133.195084,231.17131,183.587494,103.833589,-71.655763,163.104067,129.399997,35.200006,40.300018,43.900026,-81.90002,-21.209064,0
5329.0,-133.195496,231.171402,183.58844,103.573581,-71.298295,163.378228,129.399997,35.200006,40.300018,43.900026,-81.90002,-21.577018,0
5344.0,-133.195923,231.171509,183.589386,103.323599,-70.940426,163.642476,129.399997,35.200006,40.300018,43.900026,-81.90002,-21.944914,0
5359.0,-133.196243,231.171585,183.590103,103.142258,-70.671823,163.834474,129.399997,35.200006,40.300018,43.900026,-81.90002,-22.22085,0
5374.0,-133.196686,231.171677,183.591049,102.908319,-70.313323,164.082565,129.399997,35.200006,40.300018,43.900026,-81.90002,-22.588804,0
5389.0,-133.197128,231.171783,183.591995,102.682975,-69.954537,164.322176,129.399997,35.200006,40.300018,43.900026,-81.90002,-22.9567,0
5405.0,-133.197586,231.171875,183.592926,102.465709,-69.595407,164.553708,129.399997,35.200006,40.300018,43.900026,-81.90002,-23.324653,0
5420.0,-133.197922,231.171951,183.593628,102.30786,-69.325888,164.722272,129.399997,35.200006,40.300018,43.900026,-81.90002,-23.69255,0
5436.0,-133.198502,231.172089,183.594803,102.053925,-68.876288,164.994083,129.399997,35.200006,40.300018,43.900026,-81.90002,-24.060503,0
5451.0,-133.198853,231.17215,183.59549,101.906789,-68.606367,165.151933,129.399997,35.200006,40.300018,43.900026,-81.90002,-24.428457,0
5467.0,-133.199326,231.172256,183.59642,101.71651,-68.246206,165.356536,129.399997,35.200006,40.300018,43.900026,-81.90002,-24.704393,0
5482.0,-133.199799,231.172363,183.597351,101.532533,-67.885816,165.554837,129.399997,35.200006,40.300018,43.900026,-81.90002,-25.072289,0
5498.0,-133.200287,231.172455,183.598267,101.35463,-67.525196,165.747122,129.399997,35.200006,40.300018,43.900026,-81.90002,-25.440243,0
5513.0,-133.200775,231.172562,183.599197,101.182513,-67.164347,165.933562,129.399997,35.200006,40.300018,43.900026,-81.90002,-25.808139,0
5530.0,-133.201263,231.172668,183.600113,101.015954,-66.803269,166.11456,129.399997,35.200006,40.300018,43.900026,-81.90002,-26.176093,0
5545.0,-133.201767,231.17276,183.601013,100.854609,-66.442019,166.290286,129.399997,35.200006,40.300018,43.900026,-81.90002,-26.544046,0
5561.0,-133.202271,231.172867,183.601929,100.698307,-66.08054,166.461027,129.399997,35.200006,40.300018,43.900026,-81.90002,-26.911942,0
5577.0,-133.202652,231.172943,183.6026,100.584288,-65.809359,166.585932,129.399997,35.200006,40.300018,43.900026,-81.90002,-27.279896,0
5591.0,-133.203171,231.17305,183.603516,100.436236,-65.447594,166.748365,129.399997,35.200006,40.300018,43.900026,-81.90002,-27.647792,0
5607.0,-133.203705,231.173141,183.604416,100.292652,-65.085656,166.906445,129.399997,35.200006,40.300018,43.900026,-81.90002,-28.015745,0
5622.0,-133.204224,231.173248,183.605301,100.153366,-64.723547,167.060226,129.399997,35.200006,40.300018,43.900026,-81.90002,-28.291682,0
5637.0,-133.204758,231.173355,183.606201,100.018148,-64.361266,167.209998,129.399997,35.200006,40.300018,43.900026,-81.90002,-28.659635,0
5653.0,-133.205307,231.173462,183.607086,99.886826,-63.99887,167.355815,129.399997,35.200006,40.300018,43.900026,-81.90002,-29.027532,0
5668.0,-133.205856,231.173553,183.607971,99.759286,-63.63636,167.497966,129.399997,35.200006,40.300018,43.900026,-81.90002,-29.395485,0
5684.0,-133.206268,231.17363,183.608643,99.666008,-63.364319,167.602187,129.399997,35.200006,40.300018,43.900026,-81.90002,-29.763381,0
5699.0,-133.206955,231.173767,183.609741,99.514862,-62.910823,167.771554,129.399997,35.200006,40.300018,43.900026,-81.90002,-30.131335,0
5715.0,-133.207382,231.173843,183.610397,99.426741,-62.638668,167.870675,129.399997,35.200006,40.300018,43.900026,-81.90002,-30.499231,0
5731.0,-133.207947,231.17395,183.611267,99.311978,-62.275642,168.000106,129.399997,35.200006,40.300018,43.900026,-81.90002,-30.775225,0
5747.0,-133.208527,231.174042,183.612137,99.200308,-61.912444,168.126386,129.399997,35.200006,40.300018,43.900026,-81.90002,-31.235081,0
5762.0,-133.209106,231.174149,183.613007,99.091676,-61.549189,168.249744,129.399997,35.200006,40.300018,43.900026,-81.90002,-31.511074,0
5778.0,-133.209686,231.174255,183.613861,98.985908,-61.185819,168.370237,129.399997,35.200006,40.300018,43.900026,-81.90002,-31.878971,0
5792.0,-133.210281,231.174362,183.614716,98.882947,-60.822335,168.48798,129.399997,35.200006,40.300018,43.900026,-81.90002,-32.246924,0
5808.0,-133.210876,231.174469,183.61557,98.782622,-60.458793,168.60303,129.399997,35.200006,40.300018,43.900026,-81.90002,-32.61482,0
5823.0,-133.211319,231.174545,183.616211,98.709054,-60.186065,168.687713,129.399997,35.200006,40.300018,43.900026,-81.90002,-32.982774,0
5840.0,-133.211929,231.174637,183.617065,98.613141,-59.822294,168.798408,129.399997,35.200006,40.300018,43.900026,-81.90002,-33.25871,0
5855.0,-133.21254,231.174744,183.617905,98.519692,-59.458466,168.906697,129.399997,35.200006,40.300018,43.900026,-81.90002,-33.718624,0
5870.0,-133.21315,231.17485,183.618744,98.428592,-59.094523,169.012695,129.399997,35.200006,40.300018,43.900026,-81.90002,-33.99456,0
5886.0,-133.213776,231.174957,183.619583,98.339668,-58.730523,169.116457,129.399997,35.200006,40.300018,43.900026,-81.90002,-34.362514,0
5901.0,-133.214401,231.175064,183.620407,98.25298,-58.366466,169.2181,129.399997,35.200006,40.300018,43.900026,-81.90002,-34.73041,0
5917.0,-133.215027,231.175156,183.621231,98.168354,-58.002294,169.317623,129.399997,35.200006,40.300018,43.900026,-81.90002,-35.098363,0
5932.0,-133.215668,231.175262,183.622055,98.085791,-57.638064,169.41514,129.399997,35.200006,40.300018,43.900026,-81.90002,-35.466259,0
5946.0,-133.216156,231.175339,183.622665,98.025172,-57.364821,169.487046,129.399997,35.200006,40.300018,43.900026,-81.90002,-35.742253,0
5962.0,-133.216797,231.175446,183.623489,97.945989,-57.00042,169.581241,129.399997,35.200006,40.300018,43.900026,-81.90002,-36.110149,0
5978.0,-133.217453,231.175552,183.624298,97.868697,-56.636019,169.673602,129.399997,35.200006,40.300018,43.900026,-81.90002,-36.478103,0
5993.0,-133.218109,231.175659,183.625107,97.793181,-56.271503,169.764186,129.399997,35.200006,40.300018,43.900026,-81.90002,-36.845999,0
6010.0,-133.218765,231.175766,183.625916,97.719384,-55.90693,169.853052,129.399997,35.200006,40.300018,43.900026,-81.90002,-37.213953,0
6024.0,-133.219437,231.175858,183.626709,97.647306,-55.542299,169.940256,129.399997,35.200006,40.300018,43.900026,-81.90002,-37.581849,0
6039.0,-133.21994,231.175949,183.627304,97.594308,-55.268769,170.004657,129.399997,35.200006,40.300018,43.900026,-81.90002,-37.949802,0
6054.0,-133.220612,231.176041,183.628098,97.525037,-54.904024,170.08911,129.399997,35.200006,40.300018,43.900026,-81.90002,-38.225739,0
6071.0,-133.221298,231.176147,183.628876,97.457313,-54.539222,170.172017,129.399997,35.200006,40.300018,43.900026,-81.90002,-38.593692,0
6086.0,-133.221985,231.176254,183.629669,97.39108,-54.174363,170.253492,129.399997,35.200006,40.300018,43.900026,-81.90002,-38.961588,0
6102.0,-133.222672,231.176361,183.630447,97.326278,-53.809446,170.333534,129.399997,35.200006,40.300018,43.900026,-81.90002,-39.329542,0
6117.0,-133.22319,231.176437,183.631027,97.278665,-53.535744,170.392664,129.399997,35.200006,40.300018,43.900026,-81.90002,-39.697438,0
6134.0,-133.224075,231.176559,183.631989,97.200972,-53.079498,170.489551,129.399997,35.200006,40.300018,43.900026,-81.90002,-40.065392,0
6147.0,-133.224594,231.176651,183.632553,97.155365,-52.805738,170.546675,129.399997,35.200006,40.300018,43.900026,-81.90002,-40.433288,0
6162.0,-133.225311,231.176743,183.633316,97.09572,-52.440592,170.621732,129.399997,35.200006,40.300018,43.900026,-81.90002,-40.709282,0
6177.0,-133.226028,231.176849,183.634079,97.037278,-52.075504,170.695586,129.399997,35.200006,40.300018,43.900026,-81.90002,-41.077178,0
6194.0,-133.226746,231.176956,183.634827,96.980097,-51.7103,170.768237,129.399997,35.200006,40.300018,43.900026,-81.90002,-41.445131,0
6210.0,-133.227478,231.177063,183.635574,96.924119,-51.34504,170.839685,129.399997,35.200006,40.300018,43.900026,-81.90002,-41.813027,0
6225.0,-133.228012,231.177139,183.636124,96.882923,-51.071109,170.892569,129.399997,35.200006,40.300018,43.900026,-81.90002,-42.180981,0
6241.0,-133.228943,231.177261,183.637054,96.815658,-50.614461,170.979258,129.399997,35.200006,40.300018,43.900026,-81.90002,-42.548934,0
6255.0,-133.229492,231.177353,183.637604,96.776124,-50.340473,171.03048,129.399997,35.200006,40.300018,43.900026,-81.90002,-42.916831,0
6270.0,-133.230225,231.177444,183.638336,96.724386,-49.975098,171.097917,129.399997,35.200006,40.300018,43.900026,-81.90002,-43.192767,0
6285.0,-133.230972,231.177551,183.639053,96.673679,-49.609665,171.164266,129.399997,35.200006,40.300018,43.900026,-81.90002,-43.560721,0
6301.0,-133.231735,231.177658,183.639771,96.623946,-49.244176,171.229698,129.399997,35.200006,40.300018,43.900026,-81.90002,-43.928617,0
6317.0,-133.232483,231.177765,183.640488,96.575302,-48.878686,171.294098,129.399997,35.200006,40.300018,43.900026,-81.90002,-44.29657,0
6332.0,-133.233063,231.177841,183.641022,96.539378,-48.604525,171.341825,129.399997,35.200006,40.300018,43.900026,-81.90002,-44.664467,0
6347.0,-133.234009,231.177963,183.641907,96.480821,-48.147592,171.420206,129.399997,35.200006,40.300018,43.900026,-81.90002,-45.03242,0
6363.0,-133.234787,231.17807,183.642609,96.434928,-47.781987,171.481914,129.399997,35.200006,40.300018,43.900026,-81.90002,-45.400374,0
6379.0,-133.235367,231.178146,183.643127,96.40118,-47.50777,171.527578,129.399997,35.200006,40.300018,43.900026,-81.90002,-45.67631,0
6394.0,-133.236145,231.178253,183.643814,96.356891,-47.142108,171.587796,129.399997,35.200006,40.300018,43.900026,-81.90002,-46.044206,0
6410.0,-133.236923,231.17836,183.644501,96.313461,-46.776389,171.647212,129.399997,35.200006,40.300018,43.900026,-81.90002,-46.41216,0
6426.0,-133.237717,231.178452,183.645187,96.27089,-46.41067,171.705768,129.399997,35.200006,40.300018,43.900026,-81.90002,-46.780056,0
6441.0,-133.23851,231.178558,183.645859,96.229121,-46.044951,171.76358,129.399997,35.200006,40.300018,43.900026,-81.90002,-47.148009,0
6456.0,-133.239304,231.178665,183.64653,96.188155,-45.679175,171.820646,129.399997,35.200006,40.300018,43.900026,-81.90002,-47.515963,0
6471.0,-133.240097,231.178772,183.647202,96.14799,-45.313341,171.876911,129.399997,35.200006,40.300018,43.900026,-81.90002,-47.883859,0
6487.0,-133.240707,231.178848,183.64769,96.118368,-45.039009,171.918679,129.399997,35.200006,40.300018,43.900026,-81.90002,-48.159796,0
6502.0,-133.241516,231.17894,183.648346,96.079522,-44.673118,171.973741,129.399997,35.200006,40.300018,43.900026,-81.90002,-48.527749,0
6517.0,-133.242325,231.179047,183.649002,96.04142,-44.307285,172.028114,129.399997,35.200006,40.300018,43.900026,-81.90002,-48.895645,0
6533.0,-133.243134,231.179153,183.649643,96.004006,-43.941337,172.0818,129.399997,35.200006,40.300018,43.900026,-81.90002,-49.263599,0
6549.0,-133.243958,231.179245,183.650284,95.967337,-43.575446,172.134799,129.399997,35.200006,40.300018,43.900026,-81.90002,-49.631552,0
6565.0,-133.244781,231.179352,183.650925,95.931355,-43.209498,172.187167,129.399997,35.200006,40.300018,43.900026,-81.90002,-49.999448,0
6580.0,-133.245605,231.179459,183.65155,95.896003,-42.843492,172.238963,129.399997,35.200006,40.300018,43.900026,-81.90002,-50.367402,0
6596.0,-133.246231,231.179535,183.652023,95.869934,-42.568988,172.277351,129.399997,35.200006,40.300018,43.900026,-81.90002,-50.735298,0
6612.0,-133.247284,231.179657,183.652802,95.827306,-42.111481,172.340663,129.399997,35.200006,40.300018,43.900026,-81.90002,-51.103252,0
6627.0,-133.24791,231.179733,183.653259,95.802153,-41.83692,172.378191,129.399997,35.200006,40.300018,43.900026,-81.90002,-51.471148,0
6642.0,-133.248749,231.17984,183.65387,95.769208,-41.470857,172.427752,129.399997,35.200006,40.300018,43.900026,-81.90002,-51.747084,0
6658.0,-133.249603,231.179932,183.65448,95.736893,-41.104794,172.47674,129.399997,35.200006,40.300018,43.900026,-81.90002,-52.115038,0
6673.0,-133.250458,231.180038,183.655075,95.705094,-40.738674,172.525212,129.399997,35.200006,40.300018,43.900026,-81.90002,-52.482991,0
6688.0,-133.251312,231.180145,183.65567,95.673925,-40.372554,172.573112,129.399997,35.200006,40.300018,43.900026,-81.90002,-52.850888,0
6704.0,-133.251953,231.180222,183.656113,95.650949,-40.097936,172.608692,129.399997,35.200006,40.300018,43.900026,-81.90002,-53.218841,0
6719.0,-133.253036,231.180344,183.656845,95.613306,-39.640257,172.667421,129.399997,35.200006,40.300018,43.900026,-81.90002,-53.586737,0
6735.0,-133.253677,231.18042,183.657272,95.591133,-39.365638,172.702256,129.399997,35.200006,40.300018,43.900026,-81.90002,-53.954691,0
6750.0,-133.254547,231.180511,183.657852,95.562026,-38.999461,172.748322,129.399997,35.200006,40.300018,43.900026,-81.90002,-54.230627,0
6766.0,-133.255417,231.180618,183.658417,95.533436,-38.633226,172.793872,129.399997,35.200006,40.300018,43.900026,-81.90002,-54.598581,0
6781.0,-133.256302,231.18071,183.658981,95.505361,-38.266992,172.838964,129.399997,35.200006,40.300018,43.900026,-81.90002,-54.966477,0
6797.0,-133.257187,231.180817,183.659531,95.477802,-37.900757,172.883598,129.399997,35.200006,40.300018,43.900026,-81.90002,-55.33443,0
6813.0,-133.258057,231.180923,183.66008,95.450758,-37.534465,172.92783,129.399997,35.200006,40.300018,43.900026,-81.90002,-55.702327,0
6829.0,-133.258957,231.181015,183.660629,95.424173,-37.168231,172.971604,129.399997,35.200006,40.300018,43.900026,-81.90002,-56.07028,0
6844.0,-133.259842,231.181122,183.661163,95.398103,-36.801939,173.014919,129.399997,35.200006,40.300018,43.900026,-81.90002,-56.438176,0
6860.0,-133.260513,231.181183,183.661575,95.378794,-36.527205,173.047177,129.399997,35.200006,40.300018,43.900026,-81.90002,-56.80613,0
6875.0,-133.261414,231.18129,183.662094,95.353527,-36.160856,173.089805,129.399997,35.200006,40.300018,43.900026,-81.90002,-57.174083,0
6892.0,-133.262314,231.181381,183.662628,95.328718,-35.794507,173.132032,129.399997,35.200006,40.300018,43.900026,-81.90002,-57.45002,0
6905.0,-133.263214,231.181488,183.663132,95.30431,-35.428158,173.173915,129.399997,35.200006,40.300018,43.900026,-81.90002,-57.817916,0
6921.0,-133.264114,231.18158,183.663651,95.28036,-35.061808,173.215397,129.399997,35.200006,40.300018,43.900026,-81.90002,-58.185869,0
6936.0,-133.26503,231.181686,183.664154,95.256869,-34.695402,173.256478,129.399997,35.200006,40.300018,43.900026,-81.90002,-58.553766,0
6952.0,-133.265945,231.181778,183.664658,95.233779,-34.329053,173.297216,129.399997,35.200006,40.300018,43.900026,-81.90002,-58.921719,0
6967.0,-133.266632,231.181854,183.665024,95.216705,-34.054205,173.327525,129.399997,35.200006,40.300018,43.900026,-81.90002,-59.197656,0
6982.0,-133.267548,231.181946,183.665512,95.194302,-33.687798,173.367632,129.399997,35.200006,40.300018,43.900026,-81.90002,-59.657569,0
6998.0,-133.268478,231.182053,183.666,95.172358,-33.321392,173.407453,129.399997,35.200006,40.300018,43.900026,-81.90002,-59.933505,0
7014.0,-133.269394,231.182144,183.666473,95.150757,-32.954928,173.446872,129.399997,35.200006,40.300018,43.900026,-81.90002,-60.301459,0
7029.0,-133.270325,231.182236,183.666946,95.129558,-32.588464,173.486005,129.399997,35.200006,40.300018,43.900026,-81.90002,-60.669355,0
7044.0,-133.271255,231.182327,183.667419,95.108759,-32.222,173.524795,129.399997,35.200006,40.300018,43.900026,-81.90002,-61.037309,0
7060.0,-133.272202,231.182434,183.667877,95.088305,-31.855537,173.563297,129.399997,35.200006,40.300018,43.900026,-81.90002,-61.405205,0
7076.0,-133.272903,231.182495,183.668213,95.073236,-31.580689,173.592003,129.399997,35.200006,40.300018,43.900026,-81.90002,-61.773158,0
7091.0,-133.273834,231.182602,183.668671,95.053469,-31.214168,173.629932,129.399997,35.200006,40.300018,43.900026,-81.90002,-62.141112,0
7108.0,-133.27478,231.182693,183.669113,95.033988,-30.847647,173.667633,129.399997,35.200006,40.300018,43.900026,-81.90002,-62.509008,0
7123.0,-133.275726,231.182785,183.66954,95.014966,-30.481126,173.70499,129.399997,35.200006,40.300018,43.900026,-81.90002,-62.784944,0
7138.0,-133.276672,231.182877,183.669983,94.996231,-30.114604,173.742118,129.399997,35.200006,40.300018,43.900026,-81.90002,-63.152898,0
7154.0,-133.277618,231.182983,183.670395,94.977839,-29.748083,173.778959,129.399997,35.200006,40.300018,43.900026,-81.90002,-63.520794,0
7168.0,-133.27858,231.183075,183.670822,94.959733,-29.381505,173.815513,129.399997,35.200006,40.300018,43.900026,-81.90002,-63.888748,0
7183.0,-133.279297,231.183136,183.671127,94.946441,-29.1066,173.842729,129.399997,35.200006,40.300018,43.900026,-81.90002,-64.256701,0
7198.0,-133.280258,231.183243,183.671539,94.928965,-28.740021,173.878825,129.399997,35.200006,40.300018,43.900026,-81.90002,-64.624597,0
7214.0,-133.281219,231.183334,183.671936,94.911777,-28.373443,173.914692,129.399997,35.200006,40.300018,43.900026,-81.90002,-64.900534,0
7229.0,-133.282181,231.183426,183.672333,94.894989,-28.006865,173.950273,129.399997,35.200006,40.300018,43.900026,-81.90002,-65.268487,0
7244.0,-133.283142,231.183517,183.672729,94.87843,-27.640286,173.985682,129.399997,35.200006,40.300018,43.900026,-81.90002,-65.636383,0
7261.0,-133.284119,231.183609,183.673111,94.862216,-27.27365,174.020804,129.399997,35.200006,40.300018,43.900026,-81.90002,-66.004337,0
7277.0,-133.28508,231.183701,183.673477,94.846345,-26.907072,174.055697,129.399997,35.200006,40.300018,43.900026,-81.90002,-66.372233,0
7291.0,-133.285812,231.183762,183.673767,94.834599,-26.63211,174.08171,129.399997,35.200006,40.300018,43.900026,-81.90002,-66.648227,0
7308.0,-133.286789,231.183853,183.674133,94.819187,-26.265474,174.116202,129.399997,35.200006,40.300018,43.900026,-81.90002,-67.10814,0
7322.0,-133.287766,231.183945,183.674484,94.804118,-25.898838,174.150522,129.399997,35.200006,40.300018,43.900026,-81.90002,-67.384077,0
7339.0,-133.288757,231.184036,183.674835,94.789335,-25.532145,174.184556,129.399997,35.200006,40.300018,43.900026,-81.90002,-67.751973,0
7354.0,-133.289734,231.184128,183.675186,94.774782,-25.16551,174.218417,129.399997,35.200006,40.300018,43.900026,-81.90002,-68.119926,0
7368.0,-133.290726,231.184219,183.675522,94.760573,-24.798874,174.252107,129.399997,35.200006,40.300018,43.900026,-81.90002,-68.487822,0
7383.0,-133.291702,231.184311,183.675858,94.746593,-24.432181,174.285568,129.399997,35.200006,40.300018,43.900026,-81.90002,-68.855776,0
7399.0,-133.29245,231.184387,183.676117,94.736337,-24.157161,174.310549,129.399997,35.200006,40.300018,43.900026,-81.90002,-69.131712,0
7415.0,-133.293442,231.184464,183.676437,94.722872,-23.790525,174.343666,129.399997,35.200006,40.300018,43.900026,-81.90002,-69.591626,0
7431.0,-133.294434,231.184555,183.676743,94.709637,-23.423832,174.376611,129.399997,35.200006,40.300018,43.900026,-81.90002,-69.867562,0
7446.0,-133.295425,231.184647,183.677063,94.696688,-23.057139,174.409384,129.399997,35.200006,40.300018,43.900026,-81.90002,-70.235516,0
7462.0,-133.296417,231.184738,183.677368,94.684026,-22.690389,174.441928,129.399997,35.200006,40.300018,43.900026,-81.90002,-70.603412,0
7477.0,-133.297424,231.18483,183.677658,94.671593,-22.323696,174.474358,129.399997,35.200006,40.300018,43.900026,-81.90002,-70.971365,0
7493.0,-133.298416,231.184906,183.677948,94.659446,-21.957003,174.506558,129.399997,35.200006,40.300018,43.900026,-81.90002,-71.339319,0
7508.0,-133.299179,231.184982,183.678162,94.650508,-21.681926,174.530622,129.399997,35.200006,40.300018,43.900026,-81.90002,-71.707215,0
7523.0,-133.300171,231.185059,183.678452,94.638762,-21.315233,174.562593,129.399997,35.200006,40.300018,43.900026,-81.90002,-72.075169,0
7538.0,-133.301178,231.18515,183.678726,94.627303,-20.948483,174.594392,129.399997,35.200006,40.300018,43.900026,-81.90002,-72.351105,0
7554.0,-133.302185,231.185242,183.678986,94.616073,-20.581733,174.62602,129.399997,35.200006,40.300018,43.900026,-81.90002,-72.719001,0
7568.0,-133.303207,231.185318,183.679245,94.605072,-20.21504,174.657475,129.399997,35.200006,40.300018,43.900026,-81.90002,-73.086955,0
7584.0,-133.304214,231.18541,183.679504,94.594301,-19.848289,174.688816,129.399997,35.200006,40.300018,43.900026,-81.90002,-73.454908,0
7599.0,-133.305222,231.185486,183.679749,94.583816,-19.481539,174.720042,129.399997,35.200006,40.300018,43.900026,-81.90002,-73.822804,0
7614.0,-133.305984,231.185562,183.679932,94.576081,-19.206462,174.743304,129.399997,35.200006,40.300018,43.900026,-81.90002,-74.098741,0
7629.0,-133.307007,231.185638,183.680161,94.565997,-18.839654,174.774244,129.399997,35.200006,40.300018,43.900026,-81.90002,-74.466694,0
7645.0,-133.308014,231.18573,183.680405,94.556084,-18.472904,174.805069,129.399997,35.200006,40.300018,43.900026,-81.90002,-74.834591,0
7661.0,-133.309036,231.185806,183.680618,94.546459,-18.106154,174.835779,129.399997,35.200006,40.300018,43.900026,-81.90002,-75.202544,0
7677.0,-133.310059,231.185898,183.680832,94.537062,-17.739346,174.866318,129.399997,35.200006,40.300018,43.900026,-81.90002,-75.570498,0
7693.0,-133.311081,231.185974,183.681046,94.527838,-17.372596,174.896742,129.399997,35.200006,40.300018,43.900026,-81.90002,-75.938394,0
7707.0,-133.312103,231.18605,183.681244,94.518842,-17.005788,174.927052,129.399997,35.200006,40.300018,43.900026,-81.90002,-76.306347,0
7722.0,-133.312866,231.186111,183.681396,94.51231,-16.730711,174.949683,129.399997,35.200006,40.300018,43.900026,-81.90002,-76.582284,0
7739.0,-133.313889,231.186203,183.681595,94.503716,-16.363904,174.979764,129.399997,35.200006,40.300018,43.900026,-81.90002,-77.042197,0
7754.0,-133.314926,231.186279,183.681778,94.495351,-15.997096,175.009787,129.399997,35.200006,40.300018,43.900026,-81.90002,-77.318133,0
7771.0,-133.315948,231.186356,183.681961,94.487158,-15.630289,175.039638,129.399997,35.200006,40.300018,43.900026,-81.90002,-77.686087,0
7785.0,-133.316971,231.186447,183.682129,94.479251,-15.263481,175.069374,129.399997,35.200006,40.300018,43.900026,-81.90002,-78.053983,0
7801.0,-133.318008,231.186523,183.682297,94.471516,-14.896673,175.099053,129.399997,35.200006,40.300018,43.900026,-81.90002,-78.421937,0
7814.0,-133.318771,231.186584,183.682419,94.465844,-14.621539,175.121227,129.399997,35.200006,40.300018,43.900026,-81.90002,-78.789833,0
7830.0,-133.319809,231.186661,183.682571,94.458452,-14.254732,175.150734,129.399997,35.200006,40.300018,43.900026,-81.90002,-79.065769,0
7846.0,-133.320847,231.186737,183.682709,94.45129,-13.887924,175.180127,129.399997,35.200006,40.300018,43.900026,-81.90002,-79.433723,0
7862.0,-133.321869,231.186813,183.682861,94.444358,-13.521116,175.209405,129.399997,35.200006,40.300018,43.900026,-81.90002,-79.893636,0
7878.0,-133.322906,231.18689,183.682983,94.437597,-13.154252,175.238626,129.399997,35.200006,40.300018,43.900026,-81.90002,-80.169572,0
7893.0,-133.323944,231.186966,183.683121,94.431065,-12.787444,175.26779,129.399997,35.200006,40.300018,43.900026,-81.90002,-80.537526,0
7909.0,-133.324982,231.187057,183.683243,94.424705,-12.420579,175.296781,129.399997,35.200006,40.300018,43.900026,-81.90002,-80.905422,0
7924.0,-133.326019,231.187134,183.68335,94.418517,-12.053772,175.325773,129.399997,35.200006,40.300018,43.900026,-81.90002,-81.273376,0
7939.0,-133.326797,231.18718,183.683426,94.414048,-11.778637,175.347431,129.399997,35.200006,40.300018,43.900026,-81.90002,-81.549312,0
7954.0,-133.327835,231.187256,183.683533,94.408261,-11.411772,175.37625,129.399997,35.200006,40.300018,43.900026,-81.90002,-81.917266,0
7970.0,-133.328873,231.187332,183.683624,94.402646,-11.044965,175.404956,129.399997,35.200006,40.300018,43.900026,-81.90002,-82.285162,0
7985.0,-133.32991,231.187408,183.683716,94.397203,-10.6781,175.433661,129.399997,35.200006,40.300018,43.900026,-81.90002,-82.653115,0
8001.0,-133.330948,231.187485,183.683807,94.391989,-10.311235,175.462251,129.399997,35.200006,40.300018,43.900026,-81.90002,-83.021012,0
8016.0,-133.332001,231.187561,183.683884,94.386947,-9.94437,175.490785,129.399997,35.200006,40.300018,43.900026,-81.90002,-83.388965,0
8032.0,-133.333038,231.187637,183.683945,94.382077,-9.577505,175.519261,129.399997,35.200006,40.300018,43.900026,-81.90002,-83.756861,0
8047.0,-133.333817,231.187683,183.68399,94.378582,-9.302371,175.540575,129.399997,35.200006,40.300018,43.900026,-81.90002,-84.124815,0
8063.0,-133.335114,231.187775,183.684067,94.372967,-8.843833,175.576041,129.399997,35.200006,40.300018,43.900026,-81.90002,-84.492711,0
8079.0,-133.335907,231.187836,183.684097,94.369758,-8.568641,175.59724,129.399997,35.200006,40.300018,43.900026,-81.90002,-84.860664,0
8095.0,-133.336945,231.187897,183.684143,94.365633,-8.201776,175.625487,129.399997,35.200006,40.300018,43.900026,-81.90002,-85.136601,0
8111.0,-133.337982,231.187973,183.684189,94.36168,-7.834911,175.653734,129.399997,35.200006,40.300018,43.900026,-81.90002,-85.596514,0
8125.0,-133.339035,231.188049,183.684219,94.357898,-7.468046,175.681866,129.399997,35.200006,40.300018,43.900026,-81.90002,-85.872451,0
8141.0,-133.340073,231.18811,183.684235,94.354346,-7.101182,175.709998,129.399997,35.200006,40.300018,43.900026,-81.90002,-86.240404,0
8156.0,-133.34111,231.188187,183.68425,94.350908,-6.734317,175.738016,129.399997,35.200006,40.300018,43.900026,-81.90002,-86.6083,0
8171.0,-133.342163,231.188248,183.684265,94.3477,-6.367452,175.766034,129.399997,35.200006,40.300018,43.900026,-81.90002,-86.976254,0
8187.0,-133.342941,231.188309,183.684265,94.345465,-6.09226,175.787061,129.399997,35.200006,40.300018,43.900026,-81.90002,-87.344207,0
8202.0,-133.343994,231.18837,183.684265,94.342543,-5.725395,175.815022,129.399997,35.200006,40.300018,43.900026,-81.90002,-87.620144,0
8217.0,-133.345032,231.188446,183.684265,94.33985,-5.35853,175.842925,129.399997,35.200006,40.300018,43.900026,-81.90002,-87.98804,0
8233.0,-133.346069,231.188507,183.68425,94.337272,-4.991666,175.87077,129.399997,35.200006,40.300018,43.900026,-81.90002,-88.355993,0
8248.0,-133.347122,231.188583,183.684219,94.334923,-4.624801,175.898616,129.399997,35.200006,40.300018,43.900026,-81.90002,-88.72389,0
8264.0,-133.3479,231.188629,183.684204,94.333318,-4.349609,175.919472,129.399997,35.200006,40.300018,43.900026,-81.90002,-89.091843,0
8279.0,-133.348938,231.18869,183.684174,94.331256,-3.982744,175.947317,129.399997,35.200006,40.300018,43.900026,-81.90002,-89.459797,0
8294.0,-133.349991,231.188751,183.684128,94.329422,-3.615822,175.975049,129.399997,35.200006,40.300018,43.900026,-81.90002,-89.827693,0
8310.0,-133.351028,231.188828,183.684082,94.327761,-3.248957,176.002837,129.399997,35.200006,40.300018,43.900026,-81.90002,-90.103629,0
8327.0,-133.352066,231.188889,183.684036,94.326214,-2.882092,176.030568,129.399997,35.200006,40.300018,43.900026,-81.90002,-90.563543,0
8342.0,-133.353119,231.18895,183.683975,94.324896,-2.51517,176.058299,129.399997,35.200006,40.300018,43.900026,-81.90002,-90.839479,0
8357.0,-133.354156,231.189011,183.683899,94.32375,-2.148305,176.085973,129.399997,35.200006,40.300018,43.900026,-81.90002,-91.207433,0
8372.0,-133.355194,231.189072,183.683838,94.322833,-1.78144,176.113647,129.399997,35.200006,40.300018,43.900026,-81.90002,-91.575329,0
8387.0,-133.356247,231.189133,183.683746,94.322031,-1.414518,176.141321,129.399997,35.200006,40.300018,43.900026,-81.90002,-91.943282,0
8403.0,-133.357025,231.189178,183.683685,94.321573,-1.139384,176.162062,129.399997,35.200006,40.300018,43.900026,-81.90002,-92.311236,0
8418.0,-133.358063,231.18924,183.683594,94.321057,-0.772462,176.189736,129.399997,35.200006,40.300018,43.900026,-81.90002,-92.587172,0
8434.0,-133.3591,231.189301,183.683502,94.320771,-0.405597,176.21741,129.399997,35.200006,40.300018,43.900026,-81.90002,-92.955068,0
8450.0,-133.360138,231.189362,183.683395,94.320656,-0.038732,176.245026,129.399997,35.200006,40.300018,43.900026,-81.90002,-93.323022,0
8465.0,-133.361176,231.189423,183.683289,94.320713,0.32819,176.2727,129.399997,35.200006,40.300018,43.900026,-81.90002,-93.690918,0
8481.0,-133.362213,231.189484,183.683167,94.320942,0.695055,176.300374,129.399997,35.200006,40.300018,43.900026,-81.90002,-94.058872,0
8497.0,-133.363251,231.189545,183.683044,94.321344,1.061977,176.327991,129.399997,35.200006,40.300018,43.900026,-81.90002,-94.426825,0
8512.0,-133.364288,231.189606,183.682907,94.321917,1.428842,176.355664,129.399997,35.200006,40.300018,43.900026,-81.90002,-94.794721,0
8528.0,-133.365067,231.189651,183.6828,94.322489,1.704034,176.376406,129.399997,35.200006,40.300018,43.900026,-81.90002,-95.162675,0
8544.0,-133.366364,231.189713,183.682617,94.323635,2.162629,176.411012,129.399997,35.200006,40.300018,43.900026,-81.90002,-95.530571,0
8558.0,-133.367126,231.189758,183.68251,94.324438,2.437764,176.431811,129.399997,35.200006,40.300018,43.900026,-81.90002,-95.806507,0
8574.0,-133.368164,231.189819,183.682358,94.325698,2.804686,176.459484,129.399997,35.200006,40.300018,43.900026,-81.90002,-96.174461,0
8589.0,-133.369202,231.189865,183.68219,94.32713,3.171551,176.487216,129.399997,35.200006,40.300018,43.900026,-81.90002,-96.542414,0
8604.0,-133.370224,231.189926,183.682022,94.328735,3.538415,176.515004,129.399997,35.200006,40.300018,43.900026,-81.90002,-96.910311,0
8620.0,-133.371262,231.189972,183.681854,94.330511,3.905338,176.542735,129.399997,35.200006,40.300018,43.900026,-81.90002,-97.278264,0
8635.0,-133.372025,231.190018,183.681717,94.332001,4.180472,176.563591,129.399997,35.200006,40.300018,43.900026,-81.90002,-97.554201,0
8650.0,-133.373062,231.190079,183.681519,94.334063,4.547337,176.591379,129.399997,35.200006,40.300018,43.900026,-81.90002,-97.922097,0
8666.0,-133.374084,231.190125,183.681335,94.336355,4.914259,176.619225,129.399997,35.200006,40.300018,43.900026,-81.90002,-98.29005,0
8681.0,-133.375107,231.19017,183.681122,94.338819,5.281124,176.647128,129.399997,35.200006,40.300018,43.900026,-81.90002,-98.658004,0
8697.0,-133.376129,231.190231,183.680923,94.341454,5.647989,176.675031,129.399997,35.200006,40.300018,43.900026,-81.90002,-99.0259,0
8712.0,-133.377151,231.190277,183.68071,94.344262,6.014854,176.702934,129.399997,35.200006,40.300018,43.900026,-81.90002,-99.393854,0
8728.0,-133.378174,231.190323,183.680481,94.347299,6.381776,176.730952,129.399997,35.200006,40.300018,43.900026,-81.90002,-99.76175,0
8745.0,-133.379196,231.190384,183.680252,94.35045,6.748641,176.758969,129.399997,35.200006,40.300018,43.900026,-81.90002,-100.129703,0
8760.0,-133.380219,231.19043,183.680023,94.35383,7.115506,176.786987,129.399997,35.200006,40.300018,43.900026,-81.90002,-100.497599,0
8776.0,-133.380981,231.19046,183.67984,94.356523,7.39064,176.808072,129.399997,35.200006,40.300018,43.900026,-81.90002,-100.865553,0
8791.0,-133.381989,231.190506,183.679596,94.36019,7.757505,176.836204,129.399997,35.200006,40.300018,43.900026,-81.90002,-101.141489,0
8807.0,-133.383011,231.190567,183.679352,94.364086,8.12437,176.864394,129.399997,35.200006,40.300018,43.900026,-81.90002,-101.509443,0
8820.0,-133.384018,231.190613,183.679092,94.368154,8.491235,176.892641,129.399997,35.200006,40.300018,43.900026,-81.90002,-101.877339,0
8835.0,-133.385025,231.190659,183.678833,94.372394,8.858099,176.920945,129.399997,35.200006,40.300018,43.900026,-81.90002,-102.245293,0
8852.0,-133.385788,231.190689,183.678619,94.375717,9.133291,176.942201,129.399997,35.200006,40.300018,43.900026,-81.90002,-102.613189,0
8867.0,-133.387054,231.19075,183.678284,94.381447,9.591829,176.977667,129.399997,35.200006,40.300018,43.900026,-81.90002,-102.981142,0
8882.0,-133.387802,231.190781,183.67807,94.385056,9.866963,176.999039,129.399997,35.200006,40.300018,43.900026,-81.90002,-103.257079,0
8898.0,-133.388809,231.190826,183.67778,94.389984,10.233828,177.027572,129.399997,35.200006,40.300018,43.900026,-81.90002,-103.625032,0
8914.0,-133.389816,231.190857,183.677475,94.395141,10.600693,177.056163,129.399997,35.200006,40.300018,43.900026,-81.90002,-103.992928,0
8929.0,-133.390808,231.190903,183.677185,94.400526,10.967558,177.084811,129.399997,35.200006,40.300018,43.900026,-81.90002,-104.360882,0
8944.0,-133.391815,231.190948,183.676865,94.406027,11.334366,177.113516,129.399997,35.200006,40.300018,43.900026,-81.90002,-104.728778,0
8961.0,-133.392807,231.190994,183.676559,94.411756,11.701231,177.142336,129.399997,35.200006,40.300018,43.900026,-81.90002,-105.096732,0
8976.0,-133.393799,231.191025,183.676239,94.417715,12.068095,177.171213,129.399997,35.200006,40.300018,43.900026,-81.90002,-105.464628,0
8992.0,-133.394791,231.191071,183.675903,94.423846,12.434903,177.200147,129.399997,35.200006,40.300018,43.900026,-81.90002,-105.832581,0
9007.0,-133.395538,231.191101,183.675659,94.428544,12.710037,177.221919,129.399997,35.200006,40.300018,43.900026,-81.90002,-106.108518,0
9023.0,-133.39653,231.191147,183.675323,94.435018,13.076902,177.251026,129.399997,35.200006,40.300018,43.900026,-81.90002,-106.568431,0
9038.0,-133.397507,231.191177,183.674973,94.441722,13.44371,177.280189,129.399997,35.200006,40.300018,43.900026,-81.90002,-106.844367,0
9053.0,-133.398499,231.191223,183.674622,94.448597,13.810517,177.309467,129.399997,35.200006,40.300018,43.900026,-81.90002,-107.212321,0
9070.0,-133.399475,231.191254,183.674271,94.455702,14.177382,177.338803,129.399997,35.200006,40.300018,43.900026,-81.90002,-107.580217,0
9085.0,-133.400452,231.191299,183.673904,94.462979,14.54419,177.368253,129.399997,35.200006,40.300018,43.900026,-81.90002,-107.948171,0
9100.0,-133.401443,231.19133,183.673538,94.470484,14.910997,177.397817,129.399997,35.200006,40.300018,43.900026,-81.90002,-108.316067,0
9116.0,-133.402176,231.19136,183.673248,94.476214,15.186132,177.420105,129.399997,35.200006,40.300018,43.900026,-81.90002,-108.68402,0
9132.0,-133.403137,231.191391,183.672867,94.484121,15.552939,177.449785,129.399997,35.200006,40.300018,43.900026,-81.90002,-109.051974,0
9147.0,-133.404114,231.191422,183.672485,94.4922,15.919747,177.479636,129.399997,35.200006,40.300018,43.900026,-81.90002,-109.41987,0
9161.0,-133.405075,231.191452,183.672089,94.50045,16.286497,177.509601,129.399997,35.200006,40.300018,43.900026,-81.90002,-109.695807,0
9177.0,-133.406052,231.191498,183.671692,94.508987,16.653305,177.539682,129.399997,35.200006,40.300018,43.900026,-81.90002,-110.06376,0
9193.0,-133.407013,231.191528,183.671295,94.517696,17.020112,177.569877,129.399997,35.200006,40.300018,43.900026,-81.90002,-110.431656,0
9209.0,-133.407974,231.191559,183.670883,94.526634,17.38692,177.600129,129.399997,35.200006,40.300018,43.900026,-81.90002,-110.79961,0
9224.0,-133.408691,231.191574,183.670563,94.53351,17.661997,177.622933,129.399997,35.200006,40.300018,43.900026,-81.90002,-111.167563,0
9238.0,-133.409653,231.191605,183.670135,94.542849,18.028747,177.653471,129.399997,35.200006,40.300018,43.900026,-81.90002,-111.4435,0
9254.0,-133.410599,231.191635,183.669708,94.552417,18.395555,177.684067,129.399997,35.200006,40.300018,43.900026,-81.90002,-111.811396,0
9269.0,-133.41156,231.191666,183.669281,94.562215,18.762305,177.714892,129.399997,35.200006,40.300018,43.900026,-81.90002,-112.179349,0
9284.0,-133.412506,231.191696,183.668839,94.572184,19.129055,177.745775,129.399997,35.200006,40.300018,43.900026,-81.90002,-112.547246,0
9300.0,-133.413452,231.191727,183.668396,94.58244,19.495863,177.776829,129.399997,35.200006,40.300018,43.900026,-81.90002,-112.915199,0
9315.0,-133.414383,231.191757,183.667938,94.592811,19.857743,177.807597,129.399997,35.200006,40.300018,43.900026,-81.90002,-113.278282,0
9332.0,-133.415009,231.191772,183.667633,94.60003,20.105547,177.828739,129.399997,35.200006,40.300018,43.900026,-81.90002,-113.601316,0
9347.0,-133.41568,231.191788,183.667313,94.607765,20.366931,177.851142,129.399997,35.200006,40.300018,43.900026,-81.90002,-113.837432,0
9363.0,-133.416061,231.191803,183.667114,94.612177,20.514811,177.863804,129.399997,35.200006,40.300018,43.900026,-81.90002,-113.958097,0
9378.0,-133.416199,231.191803,183.667053,94.613839,20.569357,177.868502,129.399997,35.200006,40.300018,43.900026,-81.90002,-113.992188,0
9394.0,-133.416214,231.191803,183.667038,94.614068,20.577149,177.86919,129.399997,35.200006,40.300018,43.900026,-81.90002,-113.99998,0
9409.0,-133.416214,231.191803,183.667038,94.614068,20.577149,177.86919,129.399997,35.200006,40.300018,43.900026,-81.90002,-113.99998,0
9423.0,-133.416214,231.191803,183.667038,94.614068,20.577149,177.86919,129.399997,35.200006,40.300018,43.900026,-81.90002,-113.99998,0
9440.0,-133.416214,231.191803,183.667038,94.614068,20.577149,177.86919,129.399997,35.200006,40.300018,43.900026,-81.90002,-113.99998,0
9456.0,-133.416214,231.191803,183.667038,94.614068,20.577149,177.86919,129.399997,35.200006,40.300018,43.900026,-81.90002,-113.99998,0
9470.0,-133.416214,231.191803,183.667038,94.614068,20.577149,177.86919,129.399997,35.200006,40.300018,43.900026,-81.90002,-113.99998,0
9485.0,-133.416214,231.191803,183.667038,94.614068,20.577149,177.86919,129.399997,35.200006,40.300018,43.900026,-81.90002,-113.99998,0
9500.0,-133.416214,231.191803,183.667038,94.614068,20.577149,177.86919,129.399997,35.200006,40.300018,43.900026,-81.90002,-113.99998,0
9516.0,-133.416214,231.191803,183.667038,94.614068,20.577149,177.86919,129.399997,35.200006,40.300018,43.900026,-81.90002,-113.99998,0
9532.0,-133.416214,231.191803,183.667038,94.614068,20.577149,177.86919,129.399997,35.200006,40.300018,43.900026,-81.90002,-113.99998,0
9548.0,-133.416214,231.191803,183.667038,94.614068,20.577149,177.86919,129.399997,35.200006,40.300018,43.900026,-81.90002,-113.99998,0
9563.0,-133.416214,231.191803,183.667038,94.614068,20.577149,177.86919,129.399997,35.200006,40.300018,43.900026,-81.90002,-113.99998,0
9578.0,-133.416214,231.191803,183.667038,94.614068,20.577149,177.86919,129.399997,35.200006,40.300018,43.900026,-81.90002,-113.99998,0
9594.0,-133.416214,231.191803,183.667038,94.614068,20.577149,177.86919,129.399997,35.200006,40.300018,43.900026,-81.90002,-113.99998,0
9610.0,-133.416214,231.191803,183.667038,94.614068,20.577149,177.86919,129.399997,35.200006,40.300018,43.900026,-81.90002,-113.99998,0
9624.0,-133.416214,231.191803,183.667038,94.614068,20.577149,177.86919,129.399997,35.200006,40.300018,43.900026,-81.90002,-113.99998,0
9641.0,-133.416214,231.191803,183.667038,94.614068,20.577149,177.86919,129.399997,35.200006,40.300018,43.900026,-81.90002,-113.99998,0
9657.0,-133.416214,231.191803,183.667038,94.614068,20.577149,177.86919,129.399997,35.200006,40.300018,43.900026,-81.90002,-113.99998,0
9672.0,-133.416214,231.191803,183.667038,94.614068,20.577149,177.86919,129.399997,35.200006,40.300018,43.900026,-81.90002,-113.99998,0
9686.0,-133.416214,231.191803,183.667038,94.614068,20.577149,177.86919,129.399997,35.200006,40.300018,43.900026,-81.90002,-113.99998,0
9701.0,-133.416214,231.191803,183.667038,94.614068,20.577149,177.86919,129.399997,35.200006,40.300018,43.900026,-81.90002,-113.99998,0
9717.0,-133.416214,231.191803,183.667038,94.614068,20.577149,177.86919,129.399997,35.200006,40.300018,43.900026,-81.90002,-113.99998,0
9732.0,-133.416214,231.191803,183.667038,94.614068,20.577149,177.86919,129.399997,35.200006,40.300018,43.900026,-81.90002,-113.99998,0
9748.0,-133.416214,231.191803,183.667038,94.614068,20.577149,177.86919,129.399997,35.200006,40.300018,43.900026,-81.90002,-113.99998,0
9764.0,-133.416214,231.191803,183.667038,94.614068,20.577149,177.86919,129.399997,35.200006,40.300018,43.900026,-81.90002,-113.99998,0
9779.0,-133.416214,231.191803,183.667038,94.614068,20.577149,177.86919,129.399997,35.200006,40.300018,43.900026,-81.90002,-113.99998,0
9796.0,-133.416214,231.191803,183.667038,94.614068,20.577149,177.86919,129.399997,35.200006,40.300018,43.900026,-81.90002,-113.99998,0
9811.0,-133.416214,231.191803,183.667038,94.614068,20.577149,177.86919,129.399997,35.200006,40.300018,43.900026,-81.90002,-113.99998,0
9826.0,-133.416214,231.191803,183.667038,94.614068,20.577149,177.86919,129.399997,35.200006,40.300018,43.900026,-81.90002,-113.99998,0
9842.0,-133.416214,231.191803,183.667038,94.614068,20.577149,177.86919,129.399997,35.200006,40.300018,43.900026,-81.90002,-113.99998,0
9857.0,-133.416214,231.191803,183.667038,94.614068,20.577034,177.86919,129.399997,35.200006,40.300018,43.900026,-81.90002,-113.999866,0
9872.0,-133.416183,231.191803,183.667053,94.613609,20.561908,177.867872,129.399997,35.200006,40.300018,43.900026,-81.90002,-113.984682,0
9887.0,-133.416061,231.191803,183.667114,94.612177,20.514754,177.863804,129.399997,35.200006,40.300018,43.900026,-81.90002,-113.910828,0
9903.0,-133.415543,231.191788,183.667374,94.606046,20.31038,177.846271,129.399997,35.200006,40.300018,43.900026,-81.90002,-113.732352,0
9919.0,-133.414978,231.191772,183.667648,94.599686,20.093802,177.827708,129.399997,35.200006,40.300018,43.900026,-81.90002,-113.426621,0
9934.0,-133.413956,231.191742,183.668152,94.588113,19.695195,177.793731,129.399997,35.200006,40.300018,43.900026,-81.90002,-113.115219,0
9949.0,-133.412674,231.191711,183.668747,94.574133,19.19867,177.751676,129.399997,35.200006,40.300018,43.900026,-81.90002,-112.617089,0
9964.0,-133.41127,231.191666,183.669418,94.559178,18.650636,177.705496,129.399997,35.200006,40.300018,43.900026,-81.90002,-112.067336,0
9980.0,-133.409821,231.19162,183.670074,94.544453,18.092231,177.658742,129.399997,35.200006,40.300018,43.900026,-81.90002,-111.507155,0
9995.0,-133.408722,231.191574,183.670547,94.533796,17.673399,177.623907,129.399997,35.200006,40.300018,43.900026,-81.90002,-110.946974,0
10010.0,-133.407257,231.191528,183.671188,94.519988,17.114994,177.577669,129.399997,35.200006,40.300018,43.900026,-81.90002,-110.386794,0
10027.0,-133.405792,231.191483,183.671799,94.506695,16.556532,177.531718,129.399997,35.200006,40.300018,43.900026,-81.90002,-109.826613,0
10042.0,-133.404327,231.191437,183.672409,94.493918,15.99807,177.486053,129.399997,35.200006,40.300018,43.900026,-81.90002,-109.40652,0
10058.0,-133.402847,231.191376,183.672989,94.481657,15.439608,177.440617,129.399997,35.200006,40.300018,43.900026,-81.90002,-108.846339,0
10073.0,-133.401352,231.19133,183.673569,94.469854,14.881146,177.395411,129.399997,35.200006,40.300018,43.900026,-81.90002,-108.286158,0
10087.0,-133.399872,231.191269,183.674118,94.458567,14.322627,177.350491,129.399997,35.200006,40.300018,43.900026,-81.90002,-107.725978,0
10103.0,-133.398743,231.191223,183.67453,94.450374,13.903795,177.316916,129.399997,35.200006,40.300018,43.900026,-81.90002,-107.165797,0
10118.0,-133.397247,231.191162,183.675064,94.439889,13.345276,177.27234,129.399997,35.200006,40.300018,43.900026,-81.90002,-106.605616,0
10134.0,-133.395737,231.191116,183.675583,94.429919,12.786756,177.227993,129.399997,35.200006,40.300018,43.900026,-81.90002,-106.185466,0
10150.0,-133.394226,231.191055,183.676102,94.420351,12.228237,177.183818,129.399997,35.200006,40.300018,43.900026,-81.90002,-105.625285,0
10165.0,-133.392715,231.190994,183.67659,94.411298,11.669718,177.139815,129.399997,35.200006,40.300018,43.900026,-81.90002,-105.065104,0
10181.0,-133.391205,231.190918,183.677063,94.402646,11.111199,177.096041,129.399997,35.200006,40.300018,43.900026,-81.90002,-104.504924,0
10196.0,-133.389679,231.190857,183.677521,94.394453,10.552679,177.052381,129.399997,35.200006,40.300018,43.900026,-81.90002,-103.944743,0
10212.0,-133.388153,231.190796,183.677963,94.386718,9.994103,177.008894,129.399997,35.200006,40.300018,43.900026,-81.90002,-103.384562,0
10229.0,-133.386612,231.19072,183.678391,94.379441,9.435584,176.965578,129.399997,35.200006,40.300018,43.900026,-81.90002,-102.824381,0
10244.0,-133.385086,231.190659,183.678818,94.372623,8.877007,176.922377,129.399997,35.200006,40.300018,43.900026,-81.90002,-102.2642,0
10259.0,-133.383926,231.190598,183.679108,94.367753,8.458118,176.890062,129.399997,35.200006,40.300018,43.900026,-81.90002,-101.844108,0
10275.0,-133.382385,231.190536,183.679504,94.36168,7.899541,176.847148,129.399997,35.200006,40.300018,43.900026,-81.90002,-101.143896,0
10289.0,-133.380844,231.19046,183.679871,94.356008,7.340964,176.80429,129.399997,35.200006,40.300018,43.900026,-81.90002,-100.723746,0
10305.0,-133.379288,231.190384,183.680237,94.350794,6.782388,176.761548,129.399997,35.200006,40.300018,43.900026,-81.90002,-100.163565,0
10320.0,-133.377731,231.190308,183.680588,94.345981,6.223811,176.718862,129.399997,35.200006,40.300018,43.900026,-81.90002,-99.603384,0
10335.0,-133.376175,231.190231,183.680908,94.341569,5.665235,176.676349,129.399997,35.200006,40.300018,43.900026,-81.90002,-99.043203,0
10351.0,-133.374619,231.190155,183.681229,94.337616,5.106658,176.633836,129.399997,35.200006,40.300018,43.900026,-81.90002,-98.483023,0
10368.0,-133.373444,231.190094,183.681442,94.334923,4.687711,176.602036,129.399997,35.200006,40.300018,43.900026,-81.90002,-98.062873,0
10383.0,-133.371887,231.190018,183.681732,94.331714,4.129135,176.559695,129.399997,35.200006,40.300018,43.900026,-81.90002,-97.362661,0
10397.0,-133.370316,231.189926,183.682007,94.328907,3.570558,176.51741,129.399997,35.200006,40.300018,43.900026,-81.90002,-96.942568,0
10414.0,-133.368744,231.18985,183.682266,94.3265,3.011982,176.475183,129.399997,35.200006,40.300018,43.900026,-81.90002,-96.382387,0
10430.0,-133.367172,231.189758,183.68251,94.324495,2.453405,176.432957,129.399997,35.200006,40.300018,43.900026,-81.90002,-95.822207,0
10445.0,-133.365601,231.189682,183.682724,94.322948,1.894771,176.390844,129.399997,35.200006,40.300018,43.900026,-81.90002,-95.262026,0
10461.0,-133.364029,231.18959,183.682938,94.321745,1.336195,176.348674,129.399997,35.200006,40.300018,43.900026,-81.90002,-94.701845,0
10476.0,-133.362839,231.189514,183.68309,94.321172,0.917248,176.317104,129.399997,35.200006,40.300018,43.900026,-81.90002,-94.141664,0
10491.0,-133.361267,231.189438,183.683273,94.320713,0.358672,176.274992,129.399997,35.200006,40.300018,43.900026,-81.90002,-93.581483,0
10506.0,-133.35968,231.189346,183.683441,94.320656,-0.199905,176.23288,129.399997,35.200006,40.300018,43.900026,-81.90002,-93.021302,0
10521.0,-133.358093,231.189255,183.683594,94.321057,-0.758539,176.190767,129.399997,35.200006,40.300018,43.900026,-81.90002,-92.601152,0
10536.0,-133.356522,231.189148,183.683731,94.321859,-1.317115,176.148655,129.399997,35.200006,40.300018,43.900026,-81.90002,-92.040972,0
10552.0,-133.354935,231.189056,183.683853,94.323062,-1.875692,176.106542,129.399997,35.200006,40.300018,43.900026,-81.90002,-91.480791,0
10568.0,-133.353348,231.188965,183.68396,94.324667,-2.434268,176.064373,129.399997,35.200006,40.300018,43.900026,-81.90002,-90.92061,0
10584.0,-133.352158,231.188889,183.684021,94.326156,-2.853215,176.032745,129.399997,35.200006,40.300018,43.900026,-81.90002,-90.360429,0
10599.0,-133.350571,231.188797,183.684113,94.328448,-3.411849,175.990518,129.399997,35.200006,40.300018,43.900026,-81.90002,-89.800248,0
10614.0,-133.348984,231.18869,183.684174,94.331198,-3.970426,175.948234,129.399997,35.200006,40.300018,43.900026,-81.90002,-89.380156,0
10630.0,-133.347397,231.188599,183.684219,94.33435,-4.529002,175.905893,129.399997,35.200006,40.300018,43.900026,-81.90002,-88.819975,0
10645.0,-133.345795,231.188492,183.68425,94.337959,-5.087579,175.863494,129.399997,35.200006,40.300018,43.900026,-81.90002,-88.259794,0
10661.0,-133.344208,231.188385,183.684265,94.341913,-5.646155,175.821038,129.399997,35.200006,40.300018,43.900026,-81.90002,-87.699613,0
10676.0,-133.342621,231.188278,183.684265,94.346382,-6.204732,175.778467,129.399997,35.200006,40.300018,43.900026,-81.90002,-87.139432,0
10691.0,-133.341431,231.188202,183.684265,94.349934,-6.623679,175.746496,129.399997,35.200006,40.300018,43.900026,-81.90002,-86.579251,0
10707.0,-133.339447,231.18808,183.684219,94.356466,-7.321885,175.693096,129.399997,35.200006,40.300018,43.900026,-81.90002,-86.019071,0
10722.0,-133.338257,231.187988,183.684189,94.360706,-7.740774,175.660953,129.399997,35.200006,40.300018,43.900026,-81.90002,-85.598921,0
10738.0,-133.33667,231.187881,183.684128,94.366722,-8.299351,175.618039,129.399997,35.200006,40.300018,43.900026,-81.90002,-85.03874,0
10753.0,-133.335083,231.187775,183.684067,94.373139,-8.857928,175.574952,129.399997,35.200006,40.300018,43.900026,-81.90002,-84.478559,0
10769.0,-133.333496,231.187668,183.683975,94.380014,-9.416447,175.531751,129.399997,35.200006,40.300018,43.900026,-81.90002,-83.918378,0
10783.0,-133.331909,231.187546,183.683868,94.387348,-9.975023,175.488436,129.399997,35.200006,40.300018,43.900026,-81.90002,-83.358197,0
10799.0,-133.330719,231.187469,183.683777,94.393135,-10.393913,175.455834,129.399997,35.200006,40.300018,43.900026,-81.90002,-82.798074,0
10814.0,-133.329132,231.187347,183.683655,94.401214,-10.952489,175.412232,129.399997,35.200006,40.300018,43.900026,-81.90002,-82.237893,0
10830.0,-133.32756,231.187241,183.683502,94.409808,-11.511009,175.368458,129.399997,35.200006,40.300018,43.900026,-81.90002,-81.817743,0
10847.0,-133.325974,231.187119,183.68335,94.418804,-12.069528,175.324512,129.399997,35.200006,40.300018,43.900026,-81.90002,-81.257562,0
10862.0,-133.324402,231.187012,183.683167,94.428257,-12.628047,175.280395,129.399997,35.200006,40.300018,43.900026,-81.90002,-80.697381,0
10878.0,-133.322815,231.18689,183.682983,94.43817,-13.186566,175.236048,129.399997,35.200006,40.300018,43.900026,-81.90002,-80.1372,0
10892.0,-133.321243,231.186768,183.68277,94.44854,-13.745028,175.191529,129.399997,35.200006,40.300018,43.900026,-81.90002,-79.57702,0
10907.0,-133.320068,231.186676,183.682602,94.456676,-14.163918,175.158011,129.399997,35.200006,40.300018,43.900026,-81.90002,-79.15687,0
10922.0,-133.318497,231.186554,183.682373,94.467906,-14.72238,175.113148,129.399997,35.200006,40.300018,43.900026,-81.90002,-78.596689,0
10937.0,-133.316925,231.186432,183.682114,94.479595,-15.280899,175.067999,129.399997,35.200006,40.300018,43.900026,-81.90002,-78.036565,0
10952.0,-133.315369,231.18631,183.681854,94.491799,-15.839361,175.022621,129.399997,35.200006,40.300018,43.900026,-81.90002,-77.476384,0
10968.0,-133.313797,231.186188,183.68158,94.504461,-16.397823,174.977013,129.399997,35.200006,40.300018,43.900026,-81.90002,-76.916204,0
10983.0,-133.312241,231.186066,183.681274,94.517696,-16.956285,174.93112,129.399997,35.200006,40.300018,43.900026,-81.90002,-76.356023,0
10999.0,-133.310684,231.185944,183.680969,94.53139,-17.51469,174.884939,129.399997,35.200006,40.300018,43.900026,-81.90002,-75.795842,0
11015.0,-133.309509,231.185852,183.680725,94.54199,-17.933522,174.850161,129.399997,35.200006,40.300018,43.900026,-81.90002,-75.375692,0
11030.0,-133.307968,231.185715,183.680389,94.5566,-18.491926,174.803465,129.399997,35.200006,40.300018,43.900026,-81.90002,-74.815511,0
11046.0,-133.306412,231.185593,183.680038,94.571726,-19.050388,174.756482,129.399997,35.200006,40.300018,43.900026,-81.90002,-74.25533,0
11061.0,-133.304871,231.185471,183.679672,94.587425,-19.608736,174.709213,129.399997,35.200006,40.300018,43.900026,-81.90002,-73.695149,0
11078.0,-133.303329,231.185333,183.679276,94.60364,-20.16714,174.6616,129.399997,35.200006,40.300018,43.900026,-81.90002,-73.134969,0
11093.0,-133.301804,231.185196,183.678879,94.620428,-20.725488,174.613644,129.399997,35.200006,40.300018,43.900026,-81.90002,-72.574788,0
11109.0,-133.300262,231.185074,183.678467,94.637788,-21.283892,174.565343,129.399997,35.200006,40.300018,43.900026,-81.90002,-72.014607,0
11125.0,-133.298737,231.184937,183.67804,94.655664,-21.84224,174.516642,129.399997,35.200006,40.300018,43.900026,-81.90002,-71.454426,0
11139.0,-133.297592,231.184845,183.677719,94.66953,-22.260957,174.479858,129.399997,35.200006,40.300018,43.900026,-81.90002,-70.894245,0
11155.0,-133.296066,231.184708,183.677261,94.688438,-22.819305,174.430526,129.399997,35.200006,40.300018,43.900026,-81.90002,-70.334064,0
11171.0,-133.294556,231.18457,183.676788,94.707975,-23.377595,174.380736,129.399997,35.200006,40.300018,43.900026,-81.90002,-69.913972,0
11184.0,-133.293045,231.184433,183.6763,94.728144,-23.935885,174.330545,129.399997,35.200006,40.300018,43.900026,-81.90002,-69.353791,0
11200.0,-133.291534,231.184296,183.675812,94.748942,-24.494175,174.279953,129.399997,35.200006,40.300018,43.900026,-81.90002,-68.79361,0
11215.0,-133.290405,231.184189,183.67543,94.764985,-24.912835,174.241622,129.399997,35.200006,40.300018,43.900026,-81.90002,-68.233429,0
11230.0,-133.28891,231.184052,183.674896,94.786872,-25.471068,174.190228,129.399997,35.200006,40.300018,43.900026,-81.90002,-67.813279,0
11245.0,-133.287415,231.183914,183.674362,94.809446,-26.029301,174.138318,129.399997,35.200006,40.300018,43.900026,-81.90002,-67.253098,0
11261.0,-133.285934,231.183777,183.673813,94.832708,-26.587534,174.085892,129.399997,35.200006,40.300018,43.900026,-81.90002,-66.692918,0
11277.0,-133.284454,231.18364,183.673233,94.856658,-27.145709,174.033008,129.399997,35.200006,40.300018,43.900026,-81.90002,-66.132737,0
11293.0,-133.282974,231.183502,183.672653,94.881295,-27.703884,173.979551,129.399997,35.200006,40.300018,43.900026,-81.90002,-65.572556,0
11307.0,-133.281876,231.183395,183.672211,94.90026,-28.122487,173.9391,129.399997,35.200006,40.300018,43.900026,-81.90002,-65.012432,0
11322.0,-133.280411,231.183258,183.6716,94.926158,-28.680606,173.884669,129.399997,35.200006,40.300018,43.900026,-81.90002,-64.452252,0
11339.0,-133.278946,231.183105,183.670975,94.9528,-29.238724,173.829665,129.399997,35.200006,40.300018,43.900026,-81.90002,-64.032102,0
11353.0,-133.277496,231.182968,183.670349,94.980245,-29.796785,173.774031,129.399997,35.200006,40.300018,43.900026,-81.90002,-63.471921,0
11369.0,-133.276047,231.182816,183.669693,95.008435,-30.354846,173.717824,129.399997,35.200006,40.300018,43.900026,-81.90002,-62.91174,0
11384.0,-133.274612,231.182678,183.669022,95.037426,-30.912907,173.660929,129.399997,35.200006,40.300018,43.900026,-81.90002,-62.351559,0
11399.0,-133.273529,231.182571,183.668518,95.059772,-31.331395,173.617843,129.399997,35.200006,40.300018,43.900026,-81.90002,-61.931409,0
11415.0,-133.27211,231.182419,183.667831,95.090196,-31.889398,173.559745,129.399997,35.200006,40.300018,43.900026,-81.90002,-61.231197,0
11431.0,-133.270691,231.182281,183.66713,95.121536,-32.447345,173.501017,129.399997,35.200006,40.300018,43.900026,-81.90002,-60.671017,0
11447.0,-133.269272,231.182129,183.666412,95.153737,-33.005291,173.441487,129.399997,35.200006,40.300018,43.900026,-81.90002,-60.250867,0
11463.0,-133.267868,231.181976,183.66568,95.186796,-33.56318,173.381211,129.399997,35.200006,40.300018,43.900026,-81.90002,-59.550655,0
