BAEK26/lfd/data/test_sumin_ddd.csv
timestamp,x,y,z,roll,pitch,yaw,joint1,joint2,joint3,joint4,joint5,joint6,gripper
135.0,-133.052948,231.143112,183.506683,-150.143934,-85.009232,56.19169,129.40183,35.201095,40.297325,44.022238,-81.893946,-0.878917,0
153.0,-133.052948,231.143112,183.506683,-150.143934,-85.009232,56.19169,129.40183,35.201095,40.297325,44.022238,-81.893946,-0.878917,0
169.0,-133.052948,231.143112,183.506683,-150.143934,-85.009232,56.19169,129.40183,35.201095,40.297325,44.022238,-81.893946,-0.878917,0
186.0,-133.052948,231.143112,183.506683,-150.143934,-85.009232,56.19169,129.40183,35.201095,40.297325,44.022238,-81.893946,-0.878917,0
201.0,-133.052948,231.143112,183.506714,-150.253197,-85.014676,56.301354,129.40183,35.201095,40.297325,44.022238,-81.893946,-0.889918,0
216.0,-133.052948,231.143112,183.506714,-150.253197,-85.014676,56.301354,129.40183,35.201095,40.297325,44.022238,-81.893946,-0.889918,0
232.0,-133.052948,231.143112,183.506714,-150.253197,-85.014676,56.301354,129.40183,35.201095,40.297325,44.022238,-81.893946,-0.889918,0
247.0,-133.052948,231.143112,183.506714,-150.253197,-85.014676,56.301354,129.40183,35.201095,40.297325,44.022238,-81.893946,-0.889918,0
262.0,-133.052948,231.143112,183.506714,-150.253197,-85.014676,56.301354,129.40183,35.201095,40.297325,44.022238,-81.893946,-0.889918,0
277.0,-133.052948,231.143112,183.506714,-150.253197,-85.014676,56.301354,129.40183,35.201095,40.297325,44.022238,-81.893946,-0.889918,0
292.0,-133.018158,231.140533,183.504974,-150.350829,-85.017655,56.366671,129.40183,35.201095,40.297325,44.055183,-81.893946,-0.900862,0
308.0,-132.844193,231.127274,183.496124,-150.292273,-85.005222,56.14402,129.40183,35.201095,40.297325,44.219966,-81.893946,-0.900862,0
323.0,-132.623901,231.109787,183.484909,-150.327968,-84.994908,55.972362,129.40183,35.201095,40.297325,44.428694,-81.893946,-0.911862,0
339.0,-132.392075,231.0905,183.473007,-150.25165,-84.978293,55.677346,129.40183,35.201095,40.297325,44.725315,-81.893946,-0.922863,0
354.0,-132.056091,231.060959,183.455673,-150.251249,-84.959557,55.360213,129.40183,35.201095,40.297325,45.054937,-81.893946,-0.922863,0
370.0,-131.662384,231.023941,183.435181,-150.126573,-84.931196,54.863803,129.40183,35.201095,40.297325,45.428448,-81.893946,-0.922863,0
385.0,-131.280792,230.985901,183.415405,-150.007742,-84.903579,54.384008,129.40183,35.201095,40.29744,45.703124,-81.893946,-0.922863,0
400.0,-130.864777,230.94162,183.393646,-149.881863,-84.873327,53.86445,129.40183,35.201095,40.297497,46.098637,-81.893946,-0.922863,0
418.0,-130.506943,230.902145,183.375366,-149.773918,-84.847257,53.417428,129.401716,35.201095,40.297841,46.439203,-81.893946,-0.922863,0
435.0,-130.172897,230.863129,183.358185,-149.675312,-84.822792,53.00169,129.401716,35.201095,40.298299,46.834716,-81.893946,-0.922863,0
463.0,-129.654327,230.799545,183.336334,-149.501305,-84.788701,52.335283,129.401487,35.201095,40.298815,47.329121,-81.898473,-0.922863,0
479.0,-129.321793,230.757629,183.321487,-149.400579,-84.764293,51.91731,129.401372,35.200636,40.299846,47.669687,-81.898473,-0.922863,0
492.0,-128.864883,230.69809,183.301971,-149.260662,-84.730546,51.339941,129.401372,35.200292,40.301049,48.010254,-81.898473,-0.922863,0
507.0,-128.353226,230.629639,183.282516,-149.098515,-84.692559,50.685508,129.401143,35.199662,40.30357,48.504659,-81.898473,-0.922863,0
523.0,-127.653069,230.531799,183.258011,-148.871739,-84.64019,49.780636,129.400914,35.19886,40.308383,49.185791,-81.898473,-0.922863,0
538.0,-126.842888,230.420334,183.242203,-148.466027,-84.573097,48.576393,129.400685,35.197542,40.318811,49.987817,-81.898473,-0.911862,0
554.0,-125.753174,230.269592,183.239807,-147.80237,-84.477184,46.818731,129.400283,35.194792,40.339724,51.086407,-81.898473,-0.889918,0
570.0,-124.89798,230.149933,183.255844,-147.179622,-84.401038,45.320675,129.39994,35.191755,40.372669,52.283946,-81.903056,-0.856916,0
585.0,-123.583481,230.006256,183.332596,-146.21224,-84.282951,42.933733,129.399309,35.189521,40.444976,53.734102,-81.903056,-0.856916,0
601.0,-122.383606,229.914825,183.463959,-145.168598,-84.170078,40.515565,129.398507,35.188891,40.513617,54.777859,-81.903056,-0.856916,0
618.0,-121.164253,229.865768,183.674866,-143.822834,-84.039158,37.677074,129.397075,35.187229,40.673128,56.634529,-81.903056,-0.856916,0
633.0,-120.08934,229.866577,183.937103,-142.774322,-83.941583,35.22556,129.395413,35.186599,40.785313,57.700173,-81.90764,-0.911862,0
648.0,-118.923172,229.856537,184.241989,-141.477947,-83.809631,32.362146,129.392147,35.18614,40.957773,59.282224,-81.912224,-0.955808,0
663.0,-117.94828,229.875336,184.562531,-140.132413,-83.693492,29.652056,129.384986,35.185797,41.125364,60.655489,-81.935142,-0.988753,0
679.0,-117.14621,230.004349,184.945114,-139.272232,-83.618091,27.537498,129.37238,35.184823,41.322346,61.918919,-81.944252,-1.109647,0
694.0,-116.476501,230.093643,185.220657,-139.62546,-83.647369,26.924089,129.339493,35.184708,41.517324,63.149403,-81.958003,-1.439213,0
709.0,-115.835762,230.447266,185.667892,-140.817041,-83.786426,27.105888,129.294057,35.184593,41.686862,63.874481,-81.962587,-1.779779,0
724.0,-115.037903,230.801086,186.072983,-142.886908,-83.994983,28.185341,129.20141,35.183963,41.878574,64.808345,-81.990031,-2.307129,0
740.0,-114.401772,231.331726,186.548996,-143.734828,-84.139081,28.233126,129.086818,35.18339,42.086099,65.522479,-82.031227,-2.691641,0
755.0,-113.72937,231.927521,186.987457,-144.0456,-84.219295,27.820653,128.943579,35.182932,42.282395,66.126721,-82.054145,-2.977318,0
771.0,-113.160431,232.604736,187.432083,-144.676542,-84.312859,27.844889,128.793578,35.182817,42.484992,66.610125,-82.058729,-3.295882,0
787.0,-112.464333,233.349289,187.826309,-146.343734,-84.467272,28.984044,128.599804,35.182645,42.662781,66.972636,-82.058729,-3.702396,0
802.0,-112.09491,233.960297,188.147018,-147.426911,-84.582092,29.796154,128.412504,35.182416,42.86876,67.170421,-82.058729,-4.086908,0
818.0,-111.586632,234.955841,188.661758,-148.311787,-84.716451,30.328432,128.179139,35.182302,43.070383,67.335203,-82.058729,-4.394529,0
833.0,-111.054161,235.976379,189.174911,-147.423989,-84.749339,29.102646,128.024669,35.182187,43.232301,67.423095,-82.058729,-4.493422,0
849.0,-110.651634,237.04155,189.742554,-145.516097,-84.731692,26.901629,127.815253,35.182072,43.466297,67.521988,-82.058729,-4.559312,0
864.0,-110.177231,238.153412,190.291885,-144.32337,-84.759938,25.468948,127.581028,35.181614,43.686829,67.543932,-82.058729,-4.691149,0
879.0,-109.778481,239.305283,190.882553,-143.637425,-84.831501,24.575248,127.353965,35.181614,43.922142,67.543932,-82.058729,-4.899878,0
895.0,-109.318871,240.553299,191.460754,-142.952855,-84.920195,23.787775,127.091837,35.181327,44.142216,67.401151,-82.058729,-5.097663,0
910.0,-109.158478,241.569519,191.945999,-141.827337,-84.948442,22.680133,126.846381,35.181213,44.390249,67.148419,-82.026643,-5.196555,0
925.0,-108.741753,242.965652,192.547592,-139.454948,-84.8739,20.263626,126.630491,35.181098,44.575028,66.994637,-81.985448,-5.196555,0
940.0,-108.431412,244.439209,193.239777,-136.968941,-84.802968,17.755618,126.360341,35.180984,44.850449,66.763907,-81.935142,-5.2185,0
955.0,-107.928864,245.905853,193.943756,-134.530204,-84.73765,15.193294,126.067216,35.180869,45.122833,66.610125,-81.90764,-5.251445,0
971.0,-107.463539,247.428345,194.745895,-132.377716,-84.685569,12.835057,125.784576,35.180755,45.438246,66.555179,-81.875612,-5.361338,0
986.0,-106.787224,248.960266,195.502335,-131.000211,-84.695882,11.227108,125.465152,35.180411,45.732231,66.489231,-81.843583,-5.548122,0
1001.0,-106.484062,250.189529,196.185928,-129.658917,-84.692731,9.747674,125.182283,35.18001,46.074688,66.434342,-81.802388,-5.778795,0
1017.0,-105.814919,251.7547,196.971909,-128.842566,-84.700752,8.650517,124.939062,35.18001,46.317564,66.434342,-81.742857,-5.954578,0
1033.0,-105.330315,253.465118,197.895966,-127.901139,-84.689808,7.451946,124.641984,35.179666,46.698295,66.434342,-81.642131,-6.240255,0
1048.0,-104.641838,255.084167,198.746674,-127.654997,-84.713529,6.849825,124.330982,35.179551,47.056623,66.522233,-81.536879,-6.580821,0
1064.0,-104.01548,256.693848,199.663132,-126.64407,-84.616126,5.39921,124.043644,35.179437,47.447838,66.719961,-81.422402,-6.822495,0
1079.0,-103.134415,258.237305,200.541855,-125.305182,-84.530469,3.577147,123.723647,35.178119,47.79952,66.917746,-81.362929,-7.02028,0
1095.0,-102.559074,259.87561,201.577652,-123.536691,-84.460625,1.438812,123.441522,35.177546,48.194402,67.038583,-81.321733,-7.240009,0
1110.0,-102.029533,261.029663,202.313873,-122.643965,-84.459136,0.223912,123.130922,35.177546,48.567913,67.214366,-81.294231,-7.525629,0
1125.0,-101.158752,262.614777,203.307358,-121.269038,-84.40797,-1.642613,122.911536,35.177546,48.850496,67.379149,-81.275954,-7.712413,0
1141.0,-100.413818,264.181519,204.383224,-119.659371,-84.316985,-3.777282,122.62775,35.177317,49.256322,67.653825,-81.257619,-7.954087,0
1156.0,-99.55928,265.815033,205.497696,-118.073309,-84.24336,-5.893673,122.317952,35.176916,49.667649,67.9065,-81.248452,-8.217762,0
1171.0,-98.649582,267.311005,206.511322,-117.22367,-84.246855,-7.2847,122.017436,35.176687,50.045457,68.181175,-81.234758,-8.558328,0
1187.0,-97.771828,268.900879,207.539169,-116.046242,-84.175235,-8.905311,121.704544,35.176687,50.427219,68.345958,-81.193563,-8.81106,0
1203.0,-97.031631,270.430939,208.59227,-114.759436,-84.041335,-10.641889,121.427289,35.176687,50.821013,68.554687,-81.147783,-9.019788,0
1219.0,-96.003792,271.877197,209.554138,-113.801106,-83.962267,-12.122928,121.114397,35.176572,51.175845,68.79636,-81.124865,-9.261462,0
1235.0,-95.149391,273.335114,210.62764,-112.842835,-83.947026,-13.584428,120.833247,35.176114,51.559269,69.049092,-81.124865,-9.591084,0
1251.0,-94.122467,274.653992,211.565308,-112.226733,-83.942843,-14.749137,120.540924,35.176114,51.898975,69.334711,-81.124865,-9.909649,0
1266.0,-93.401367,275.662628,212.322128,-111.98781,-83.976132,-15.423508,120.263841,35.175999,52.256673,69.664334,-81.120281,-10.327163,0
1283.0,-92.329903,276.900421,213.210007,-112.430534,-84.186293,-15.54148,119.978737,35.175942,52.579248,69.971898,-81.115698,-10.942405,0
1298.0,-91.411804,278.09079,214.137054,-113.952998,-84.604953,-14.581375,119.724172,35.175942,52.917752,70.334465,-81.111171,-11.744374,0
1313.0,-90.259155,279.232513,214.978973,-115.775175,-84.996857,-13.368939,119.503813,35.175713,53.151748,70.609141,-81.111171,-12.326671,0
1327.0,-89.171082,280.338898,215.864639,-118.924438,-85.4896,-10.888203,119.238247,35.175598,53.485266,71.059544,-81.111171,-13.249534,0
1342.0,-87.912376,281.386566,216.667313,-122.294805,-85.87331,-8.222002,118.950049,35.175598,53.792601,71.521004,-81.111171,-14.051503,0
1358.0,-87.083839,282.160675,217.29512,-124.210718,-86.001767,-6.844153,118.691129,35.175598,54.113916,72.0923,-81.088253,-14.688747,0
1373.0,-85.65786,283.072906,217.981613,-127.108911,-86.114926,-4.771077,118.460055,35.175598,54.331468,72.487813,-81.069918,-15.062258,0
1388.0,-84.455109,284.006348,218.74556,-129.381032,-86.215423,-3.223002,118.194891,35.175598,54.632729,72.993162,-81.065392,-15.578608,0
1404.0,-83.117294,284.778076,219.36351,-131.685411,-86.260458,-1.693262,117.923939,35.175598,54.889987,73.542456,-81.065392,-16.018066,0
1420.0,-81.91626,285.599121,220.030121,-133.217443,-86.279308,-0.838753,117.666452,35.175369,55.153662,74.003916,-81.065392,-16.402578,0
1435.0,-80.529968,286.348114,220.612045,-135.5778,-86.312482,0.780197,117.385645,35.175254,55.395049,74.509265,-81.065392,-16.820093,0
1451.0,-79.352356,287.091827,221.225159,-136.958571,-86.299476,1.504186,117.138013,35.175254,55.641135,74.959725,-81.065392,-17.160659,0
1467.0,-78.057442,287.746613,221.743927,-138.421332,-86.264239,2.277221,116.878807,35.175254,55.859546,75.432128,-81.065392,-17.46828,0
1483.0,-76.869576,288.502319,222.331177,-138.946792,-86.207803,2.212935,116.623497,35.175254,56.091995,75.805639,-81.056225,-17.720954,0
1498.0,-75.993958,288.998047,222.684677,-140.883676,-86.236966,3.746285,116.357873,35.175254,56.287889,76.124261,-81.028723,-18.094466,0
1513.0,-74.799713,289.72998,223.145981,-142.606789,-86.235247,5.010058,116.177449,35.175254,56.427634,76.300045,-80.992111,-18.303251,0
1529.0,-73.63739,290.472076,223.542816,-145.420413,-86.192218,7.384051,115.919045,35.175025,56.620033,76.552719,-80.873107,-18.643817,0
1544.0,-72.341225,291.226929,223.834793,-147.445818,-86.037004,8.973092,115.634056,35.175025,56.798338,76.79445,-80.68999,-18.87449,0
1560.0,-71.106361,291.97937,224.042709,-148.319063,-85.720273,9.418108,115.358979,35.175025,56.983002,77.069069,-80.415314,-18.973383,0
1575.0,-69.661903,292.696838,224.187286,-148.936712,-85.415058,9.586902,115.049696,35.175025,57.138674,77.3218,-80.158973,-19.03933,0
1590.0,-68.315651,293.483063,224.432434,-149.772657,-85.158832,10.015302,114.750899,35.175025,57.317667,77.54153,-79.916382,-19.171168,0
1606.0,-67.156158,294.018005,224.593018,-150.912901,-85.026077,10.808104,114.436459,35.175025,57.472537,77.772202,-79.724098,-19.379896,0
1621.0,-65.810699,294.698273,224.821487,-153.089625,-84.854706,12.543994,114.22011,35.175025,57.599676,77.980931,-79.568482,-19.610569,0
1636.0,-64.223648,295.352814,225.027603,-154.853074,-84.687517,13.805991,113.894499,35.175025,57.750422,78.255607,-79.394532,-19.863301,0
1652.0,-62.693287,296.016998,225.30864,-155.526643,-84.517176,13.984066,113.578742,35.175025,57.911881,78.519282,-79.257195,-20.039084,0
1668.0,-60.974396,296.682465,225.635605,-155.30021,-84.386771,13.232747,113.230727,35.175025,58.062111,78.750012,-79.188554,-20.13792,0
1684.0,-59.2785,297.252808,225.937454,-155.525727,-84.27831,12.900259,112.896521,35.175025,58.202714,79.024688,-79.142775,-20.280758,0
1700.0,-57.543304,297.835022,226.234131,-156.213963,-84.2476,13.104118,112.551314,35.175025,58.322233,79.200414,-79.119857,-20.467542,0
1715.0,-55.932507,298.38562,226.553726,-156.930103,-84.239807,13.364871,112.230744,35.175025,58.441982,79.365254,-79.115273,-20.66527,0
1730.0,-54.46278,298.815216,226.758209,-157.12829,-84.211503,13.175451,111.853107,35.175025,58.5454,79.530037,-79.101579,-20.808108,0
1745.0,-52.61842,299.322113,226.997192,-157.782149,-84.175865,13.328202,111.583301,35.175025,58.621948,79.661875,-79.087828,-20.928945,0
1760.0,-50.531654,299.830048,227.231354,-158.637117,-84.155296,13.625223,111.181658,35.175025,58.717288,79.848659,-79.083245,-21.115729,0
1775.0,-48.69278,300.320282,227.487961,-159.236316,-84.128997,13.732309,110.824247,35.175025,58.818587,80.013441,-79.074077,-21.280512,0
1791.0,-46.761784,300.778473,227.714767,-159.414563,-84.079093,13.391341,110.452798,35.175025,58.911979,80.189225,-79.064967,-21.390405,0
1806.0,-44.845257,301.225586,227.91597,-159.289429,-84.010739,12.772089,110.083241,35.175025,58.998897,80.343007,-79.042049,-21.456295,0
1822.0,-42.712967,301.66687,228.116699,-158.689313,-83.939062,11.629955,109.675638,35.175025,59.079855,80.496846,-79.037465,-21.467296,0
1837.0,-41.156059,301.96228,228.243317,-158.25822,-83.892652,10.814521,109.280355,35.175025,59.143568,80.628684,-79.037465,-21.467296,0
1853.0,-39.15638,302.305267,228.371933,-157.82323,-83.841201,9.90243,108.999949,35.175025,59.181785,80.705575,-79.037465,-21.467296,0
1869.0,-37.100697,302.669189,228.523361,-157.338794,-83.792614,8.939116,108.608505,35.175025,59.239138,80.804467,-79.037465,-21.467296,0
1884.0,-35.052883,302.971161,228.607117,-157.048992,-83.725807,8.17118,108.221701,35.175025,59.282568,80.914303,-79.019188,-21.467296,0
1900.0,-32.691479,303.335632,228.73584,-156.66299,-83.691544,7.278627,107.772903,35.175025,59.328233,80.98025,-79.019188,-21.467296,0
1917.0,-30.481394,303.67804,228.860443,-156.309476,-83.670975,6.475913,107.351492,35.175025,59.368569,81.013196,-79.019188,-21.467296,0
1931.0,-28.316181,304.030579,229.017609,-155.8691,-83.648171,5.594245,106.937301,35.175025,59.418989,81.046141,-79.019188,-21.467296,0
1947.0,-26.171806,304.313904,229.138138,-155.516846,-83.613163,4.778353,106.53159,35.175025,59.462419,81.112088,-79.019188,-21.467296,0
1962.0,-23.72069,304.620819,229.25563,-155.281475,-83.596834,4.051041,106.066978,35.175025,59.500177,81.145033,-79.019188,-21.478297,0
1977.0,-22.018885,304.874481,229.380356,-154.95042,-83.589099,3.396551,105.741195,35.175025,59.536789,81.145033,-79.019188,-21.478297,0
1992.0,-19.665213,305.179993,229.527847,-154.557199,-83.575004,2.548001,105.293199,35.175025,59.581079,81.156034,-79.019188,-21.478297,0
2008.0,-17.607182,305.45224,229.690674,-154.203569,-83.554779,1.776341,104.901639,35.175025,59.633218,81.188979,-79.019188,-21.48924,0
2023.0,-15.181445,305.68924,229.804199,-154.427252,-83.566639,1.527334,104.443502,35.175025,59.668283,81.210923,-79.019188,-21.555188,0
2039.0,-12.749826,305.882385,229.885834,-155.008174,-83.599183,1.646738,103.985595,35.175025,59.692004,81.221924,-79.019188,-21.65408,0
2055.0,-10.354067,306.017456,229.921844,-154.920053,-83.597407,1.109819,103.536166,35.175025,59.700369,81.221924,-79.019188,-21.65408,0
2070.0,-8.278866,306.109619,229.942749,-154.871523,-83.596548,0.672939,103.147472,35.175025,59.704437,81.221924,-79.019188,-21.65408,0
2086.0,-6.387115,306.151001,229.941254,-155.140126,-83.60159,0.570895,102.686986,35.175025,59.704895,81.26587,-79.014604,-21.70897,0
2101.0,-4.045865,306.143951,229.91478,-155.901816,-83.603137,0.835716,102.362462,35.175025,59.705182,81.320817,-79.014604,-21.774917,0
2117.0,-1.582729,306.138641,229.902435,-156.186863,-83.594256,0.615299,101.905529,35.175025,59.705755,81.375706,-79.014604,-21.807862,0
2133.0,0.516959,306.102264,229.884674,-156.210583,-83.567556,0.190394,101.517178,35.175025,59.706499,81.441653,-79.014604,-21.807862,0
2148.0,2.871775,306.04068,229.862457,-156.241981,-83.536444,-0.284072,101.081673,35.175025,59.707072,81.518544,-79.014604,-21.807862,0
2164.0,5.234974,305.960205,229.839645,-156.540836,-83.518568,-0.491082,100.644448,35.175025,59.707416,81.595435,-79.014604,-21.840807,0
2180.0,7.832556,305.878204,229.828201,-156.998056,-83.517938,-0.563962,100.161674,35.175025,59.708046,81.650382,-79.014604,-21.895754,0
2195.0,9.962247,305.796539,229.820404,-157.449776,-83.521261,-0.54557,99.765646,35.175025,59.708906,81.694328,-79.014604,-21.950701,0
2210.0,11.583076,305.704376,229.804474,-157.557607,-83.503098,-0.787645,99.322692,35.175025,59.709364,81.760275,-79.014604,-21.972645,0
2225.0,14.127698,305.578979,229.796066,-158.011905,-83.50602,-0.844597,98.879567,35.175025,59.709593,81.815165,-79.014604,-22.038592,0
2241.0,16.544754,305.438599,229.787643,-158.736467,-83.520516,-0.60596,98.540891,35.175025,59.709937,81.837166,-79.014604,-22.104483,0
2256.0,19.001055,305.307281,229.794006,-159.083451,-83.531746,-0.72651,98.080978,35.175025,59.710453,81.848167,-79.014604,-22.148428,0
2271.0,21.137903,305.16864,229.797302,-159.340308,-83.534267,-0.887512,97.681283,35.175025,59.711885,81.870111,-79.014604,-22.181373,0
2287.0,23.626936,304.997681,229.803543,-160.054958,-83.560222,-0.644635,97.214838,35.175025,59.712344,81.881112,-79.014604,-22.269265,0
2302.0,26.030876,304.824524,229.809814,-161.152,-83.599871,0.00974,96.76329,35.175025,59.712802,81.881112,-79.010021,-22.401103,0
2318.0,27.878338,304.677856,229.818619,-161.600225,-83.617346,0.113961,96.319648,35.175025,59.713776,81.881112,-79.010021,-22.46705,0
2333.0,29.923784,304.505493,229.831711,-162.039798,-83.634306,0.172117,96.031737,35.175025,59.714979,81.881112,-79.010021,-22.510996,0
2349.0,32.314613,304.2836,229.843994,-162.579639,-83.654245,0.26591,95.582023,35.175025,59.715953,81.881112,-79.010021,-22.576886,0
2366.0,34.61042,304.051514,229.854507,-163.127387,-83.67361,0.3852,95.042812,35.175025,59.716641,81.881112,-79.010021,-22.653834,0
2381.0,37.029186,303.787903,229.865311,-163.201929,-83.676762,0.004813,94.694339,35.175025,59.717042,81.881112,-79.010021,-22.653834,0
2397.0,39.095459,303.550232,229.877686,-163.365852,-83.68295,-0.2195,94.304785,35.175025,59.718474,81.881112,-79.010021,-22.675779,0
2412.0,41.444668,303.262787,229.891754,-163.335886,-83.682778,-0.692534,93.861488,35.175025,59.720136,81.881112,-79.010021,-22.675779,0
2427.0,43.8064,302.951782,229.902328,-163.315833,-83.682721,-1.158521,93.41544,35.175025,59.720709,81.881112,-79.010021,-22.675779,0
2443.0,46.405983,302.589294,229.915558,-163.289305,-83.682606,-1.676417,92.923899,35.175025,59.721797,81.881112,-79.010021,-22.675779,0
2458.0,48.004814,302.361786,229.93074,-163.253208,-83.682319,-2.014978,92.522657,35.175025,59.726095,81.881112,-79.010021,-22.675779,0
2473.0,50.379562,302.012207,229.945206,-163.215565,-83.673782,-2.498898,92.170918,35.175025,59.729131,81.881112,-79.000853,-22.675779,0
2488.0,52.822155,301.648193,229.958786,-163.198319,-83.670287,-2.954973,91.706307,35.175025,59.731767,81.85911,-78.987102,-22.675779,0
2504.0,55.537594,301.233704,229.999023,-163.138445,-83.687877,-3.491605,91.189041,35.175025,59.735319,81.815165,-78.987102,-22.675779,0
2521.0,57.806667,300.912628,230.063416,-162.174272,-83.684554,-4.83393,90.755312,35.175025,59.743971,81.749274,-78.987102,-22.576886,0
2534.0,60.284134,300.570435,230.136673,-161.493827,-83.695268,-5.898371,90.280158,35.175025,59.753539,81.650382,-78.977992,-22.510996,0
2550.0,62.174198,300.307312,230.189682,-161.149021,-83.716525,-6.514129,89.789706,35.175025,59.758238,81.518544,-78.968825,-22.478051,0
2566.0,64.792,299.955811,230.288696,-160.847015,-83.78528,-7.151258,89.254277,35.175025,59.76179,81.309816,-78.968825,-22.445049,0
2581.0,67.283684,299.642273,230.416809,-160.273427,-83.850081,-8.027196,88.930154,35.175025,59.771129,81.166977,-78.968825,-22.412104,0
2596.0,69.592995,299.368408,230.54628,-159.875966,-83.909383,-8.685983,88.482789,35.175025,59.786484,80.96925,-78.955074,-22.390159,0
2612.0,72.414436,298.93927,230.659119,-159.621172,-83.973038,-9.300308,87.937104,35.175025,59.796167,80.771465,-78.941323,-22.379159,0
2627.0,74.934036,298.61145,230.813553,-159.296591,-84.07554,-9.873553,87.447454,35.174796,59.80585,80.507789,-78.941323,-22.368158,0
2642.0,77.33979,298.283142,230.988007,-158.161046,-84.12556,-11.287498,86.981067,35.174796,59.829342,80.299061,-78.941323,-22.280266,0
2658.0,79.079292,298.071777,231.115433,-157.318855,-84.144639,-12.31017,86.520179,35.174796,59.859135,80.079332,-78.909295,-22.192374,0
2673.0,81.911057,297.636902,231.309067,-156.599851,-84.18658,-13.387503,85.967447,35.174796,59.902508,79.870603,-78.895544,-22.181373,0
2689.0,84.387169,297.416595,231.654755,-155.74007,-84.277451,-14.492452,85.614276,35.174796,59.958429,79.683819,-78.895544,-22.181373,0
2704.0,86.719696,297.170044,231.986816,-154.454868,-84.303177,-16.07095,85.164389,35.174796,60.03807,79.519036,-78.886434,-22.137428,0
2719.0,89.065689,297.032532,232.389359,-153.293769,-84.309651,-17.488677,84.71181,35.174796,60.148193,79.332252,-78.836071,-22.126484,0
2735.0,91.7369,296.777679,232.87384,-151.93139,-84.322371,-19.229667,84.200331,35.174796,60.278598,79.200414,-78.82232,-22.126484,0
2750.0,93.990059,296.752014,233.497086,-150.14783,-84.334689,-21.300336,83.772045,35.174796,60.446646,79.057633,-78.817736,-22.126484,0
2766.0,95.716713,296.741425,233.977539,-149.181995,-84.341737,-22.485328,83.344675,35.174796,60.6273,78.925796,-78.781124,-22.203375,0
2783.0,98.455429,296.850342,234.806351,-148.66639,-84.368952,-23.298985,82.926474,35.174796,60.83282,78.782957,-78.698733,-22.368158,0
2799.0,100.392952,296.854523,235.373489,-148.347654,-84.40522,-23.85017,82.453726,35.174796,61.056216,78.640119,-78.639202,-22.576886,0
2813.0,102.616669,297.064392,236.240707,-148.4505,-84.47323,-23.996561,82.146964,35.174796,61.258585,78.552227,-78.579729,-22.796616,0
2829.0,104.739388,297.274475,237.023132,-149.396969,-84.534308,-23.25842,81.751681,35.174796,61.506618,78.43139,-78.456142,-23.137182,0
2845.0,106.754509,297.592072,237.82486,-151.108738,-84.556882,-21.728049,81.379487,35.174796,61.782956,78.343499,-78.263858,-23.554696,0
2859.0,109.024017,297.67865,238.557678,-153.835386,-84.623116,-19.278712,80.958994,35.174796,62.035286,78.299553,-78.099075,-24.060045,0
2874.0,111.081276,297.924774,239.432495,-155.221314,-84.656921,-18.126265,80.583706,35.174681,62.319932,78.244606,-77.957153,-24.466558,0
2890.0,112.51783,298.079895,240.025192,-156.281572,-84.668953,-17.228612,80.212487,35.174681,62.580742,78.20066,-77.806122,-24.85107,0
2905.0,114.456688,298.323364,240.857529,-157.514807,-84.663051,-16.205366,79.970584,35.174681,62.794341,78.167715,-77.682477,-25.125746,0
2920.0,116.196449,298.598083,241.606949,-159.697891,-84.667807,-14.161397,79.655629,35.174681,63.051771,78.101825,-77.49025,-25.565205,0
2936.0,118.1521,298.822632,242.437286,-161.030533,-84.62707,-13.043957,79.303375,35.174681,63.33676,78.079824,-77.297965,-25.949717,0
2952.0,119.960533,299.00293,243.095673,-162.152671,-84.503884,-12.107744,78.976101,35.174681,63.590638,78.079824,-77.046208,-26.268281,0
2967.0,121.81311,299.201538,243.813004,-162.104428,-84.349987,-12.349876,78.642755,35.174681,63.859985,78.079824,-76.79445,-26.488011,0
2984.0,123.374069,299.453796,244.432465,-162.018828,-84.16412,-12.56422,78.363151,35.174681,64.108076,78.079824,-76.51519,-26.674795,0
2999.0,125.045959,299.681885,245.078644,-161.405935,-83.972523,-13.307919,78.063265,35.174681,64.359318,78.057879,-76.235988,-26.806633,0
3014.0,126.213699,299.871826,245.516022,-161.32045,-83.837534,-13.444455,77.787386,35.174681,64.590506,78.002933,-75.947561,-26.971415,0
3030.0,127.80806,300.055634,246.173737,-161.15561,-83.723286,-13.729616,77.501079,35.174681,64.847363,77.958987,-75.732415,-27.158199,0
3045.0,129.301254,300.31662,246.928375,-161.247512,-83.660031,-13.736262,77.306846,35.174681,65.017303,77.915041,-75.604245,-27.333983,0
3060.0,130.834412,300.466492,247.598633,-161.666516,-83.618893,-13.423198,77.03492,35.174681,65.237376,77.849151,-75.430295,-27.575657,0
3075.0,132.171402,300.732208,248.32811,-162.083572,-83.613908,-13.051749,76.802013,35.174681,65.463694,77.750258,-75.274679,-27.828388,0
3091.0,133.53894,300.923065,249.005112,-161.912487,-83.649088,-13.235497,76.560339,35.174681,65.654489,77.574475,-75.155619,-27.98217,0
3106.0,134.786865,301.20108,249.725052,-160.97954,-83.706269,-14.114987,76.341699,35.174681,65.842591,77.332744,-75.05495,-28.048118,0
3122.0,135.819778,301.316132,250.237518,-160.37421,-83.752335,-14.719171,76.101744,35.174681,66.015739,77.113015,-74.972559,-28.136009,0
3137.0,137.04335,301.50296,250.905075,-160.562369,-83.844065,-14.515198,75.944524,35.174681,66.148665,76.970233,-74.908445,-28.289791,0
3151.0,138.357254,301.590576,251.531189,-160.87572,-83.948516,-14.212447,75.711846,35.174681,66.306973,76.772448,-74.839804,-28.476575,0
3167.0,139.511719,301.693237,252.149429,-160.970143,-84.039387,-14.145755,75.510222,35.174681,66.464307,76.618667,-74.789442,-28.641358,0
3184.0,140.744049,301.706726,252.701721,-160.326769,-84.085166,-14.844191,75.292155,35.174681,66.607146,76.475828,-74.729911,-28.707248,0
3200.0,141.780319,301.763367,253.19809,-159.790939,-84.049299,-15.460349,75.112074,35.174681,66.75875,76.431882,-74.629185,-28.784196,0
3215.0,142.538956,301.773315,253.539734,-159.829213,-84.036808,-15.490659,74.928269,35.174681,66.895401,76.409938,-74.542268,-28.916034,0
3230.0,143.469742,301.758606,253.98378,-159.871382,-84.031537,-15.565716,74.780331,35.174681,67.02615,76.409938,-74.491905,-29.036871,0
3246.0,144.358643,301.708374,254.378403,-159.608452,-84.053424,-15.921065,74.618815,35.174681,67.126016,76.354991,-74.464403,-29.102761,0
3261.0,145.122421,301.63385,254.726044,-158.939753,-84.067118,-16.695933,74.52972,35.174681,67.193568,76.343991,-74.464403,-29.113762,0
3276.0,145.82074,301.494141,254.960449,-158.363873,-84.076801,-17.374601,74.404815,35.174681,67.252468,76.322046,-74.464403,-29.113762,0
3290.0,146.434753,301.356537,255.154785,-157.876687,-84.080582,-17.959649,74.294692,35.174681,67.302258,76.311046,-74.464403,-29.113762,0
3305.0,146.673187,301.32077,255.256058,-157.615647,-84.079322,-18.26091,74.252981,35.174681,67.329073,76.311046,-74.464403,-29.113762,0
3320.0,147.012299,301.205414,255.31781,-157.45711,-84.078462,-18.480811,74.190701,35.174681,67.345173,76.311046,-74.464403,-29.113762,0
3336.0,147.224243,301.114868,255.333099,-157.712592,-84.090781,-18.263316,74.15088,35.174681,67.349069,76.311046,-74.464403,-29.146707,0
3351.0,147.300797,301.081604,255.338028,-158.094354,-84.107225,-17.893758,74.136499,35.174681,67.350272,76.311046,-74.464403,-29.190653,0
3368.0,147.334488,301.066071,255.339188,-158.786659,-84.135472,-17.204146,74.130139,35.174681,67.350501,76.311046,-74.464403,-29.267601,0
3385.0,147.353073,301.057495,255.339951,-159.68838,-84.170479,-16.301222,74.126644,35.174681,67.350559,76.311046,-74.464403,-29.366436,0
3400.0,147.356186,301.056702,255.341415,-161.730573,-84.243073,-14.249059,74.126071,35.174681,67.350788,76.311046,-74.464403,-29.586165,0
3413.0,147.358109,301.056488,255.342773,-163.505138,-84.298822,-12.4659,74.125727,35.174681,67.351017,76.311046,-74.464403,-29.77295,0
3428.0,147.363083,301.05542,255.344894,-165.096242,-84.343398,-10.867806,74.124868,35.174681,67.351475,76.311046,-74.464403,-29.937732,0
3445.0,147.374741,301.050171,255.345657,-166.172199,-84.370671,-9.788755,74.122691,35.174681,67.35159,76.311046,-74.464403,-30.047626,0
3459.0,147.384766,301.086487,255.36528,-168.178468,-84.433696,-7.735732,74.120571,35.174681,67.35159,76.2671,-74.459819,-30.245353,0
3475.0,147.388168,301.143433,255.401245,-170.809376,-84.514082,-5.037961,74.119826,35.174681,67.351704,76.201152,-74.459819,-30.498028,0
3490.0,147.388779,301.231018,255.454895,-173.096279,-84.594354,-2.65818,74.119482,35.174681,67.351876,76.102317,-74.459819,-30.706814,0
3506.0,147.388275,301.396393,255.554459,-173.9391,-84.696283,-1.655848,74.119024,35.174681,67.352106,75.915533,-74.459819,-30.761703,0
3521.0,147.387039,301.513245,255.624527,-174.612211,-84.76796,-0.869922,74.118794,35.174681,67.35222,75.739749,-74.459819,-30.82765,0
3537.0,147.383606,301.659973,255.712112,-176.091073,-84.860435,0.752637,74.118794,35.174681,67.352335,75.618913,-74.459819,-30.915542,0
3552.0,147.379456,301.79953,255.789749,-178.099633,-84.941566,2.899739,74.118794,35.174681,67.352449,75.465073,-74.455235,-31.069324,0
3568.0,147.374451,301.965851,255.888779,-179.870703,-85.036333,4.833128,74.118794,35.174681,67.352564,75.278346,-74.455235,-31.190161,0
3585.0,147.368286,302.110413,255.957672,178.636438,-85.098843,6.466516,74.118794,35.174681,67.352679,75.124507,-74.441542,-31.289053,0
3601.0,147.364456,302.193848,255.995819,178.430345,-85.133793,6.751162,74.118794,35.174681,67.352793,75.036615,-74.432374,-31.289053,0
3616.0,147.364075,302.19693,255.992432,178.436475,-85.129955,6.747437,74.118794,35.174681,67.353022,75.036615,-74.427791,-31.289053,0
3632.0,147.364227,302.197479,255.993225,178.567797,-85.130356,6.615657,74.118794,35.174681,67.353194,75.036615,-74.427791,-31.278053,0
3647.0,147.368866,302.070801,255.918594,178.913004,-85.060799,6.150473,74.118794,35.174681,67.353309,75.2234,-74.427791,-31.278053,0
3662.0,147.375275,301.875793,255.803436,179.421619,-84.953312,5.457308,74.118794,35.174681,67.353423,75.45413,-74.427791,-31.278053,0
3677.0,147.3797,301.702576,255.695114,179.859473,-84.852242,4.85576,74.118794,35.174681,67.353423,75.596911,-74.423207,-31.278053,0
3693.0,147.381927,301.553955,255.589813,-179.643583,-84.753693,4.217714,74.118794,35.174681,67.353423,75.772694,-74.409513,-31.267109,0
3708.0,147.383301,301.468658,255.533463,-179.441157,-84.700809,3.934616,74.118794,35.174681,67.353423,75.871587,-74.40493,-31.267109,0
3724.0,147.384277,301.419861,255.504486,-179.331836,-84.673594,3.779115,74.118794,35.174681,67.353423,75.926534,-74.40493,-31.267109,0
3739.0,147.382217,301.430237,255.488052,-179.322841,-84.657952,3.779573,74.118794,35.174681,67.353538,75.926534,-74.386595,-31.267109,0
3754.0,147.37738,301.452911,255.45015,-179.305137,-84.622658,3.783183,74.118794,35.174681,67.353538,75.926534,-74.322538,-31.256108,0
3769.0,147.366501,301.503296,255.365906,-179.151126,-84.544105,3.675925,74.118794,35.174681,67.353538,75.926534,-74.253841,-31.256108,0
3783.0,147.356583,301.548615,255.290115,-179.117894,-84.473574,3.685265,74.118794,35.174681,67.353538,75.926534,-74.171449,-31.256108,0
3799.0,147.352142,301.568787,255.256439,-179.103169,-84.442176,3.689504,74.118794,35.174681,67.353538,75.926534,-74.134837,-31.256108,0
3815.0,147.351578,301.571289,255.252228,-179.101336,-84.43828,3.69002,74.118794,35.174681,67.353538,75.926534,-74.130254,-31.256108,0
3830.0,147.351578,301.571289,255.252167,-178.875762,-84.437879,3.463358,74.118794,35.174681,67.353538,75.926534,-74.130254,-31.234107,0
3846.0,147.351562,301.571259,255.251953,-178.086455,-84.435874,2.670327,74.118794,35.174681,67.353538,75.926534,-74.130254,-31.157216,0
3862.0,147.351562,301.571259,255.251953,-178.086455,-84.435874,2.670327,74.118794,35.174681,67.353538,75.926534,-74.130254,-31.157216,0
3877.0,147.35257,301.522827,255.223419,-177.987448,-84.408429,2.52514,74.118794,35.174681,67.353653,75.981423,-74.130254,-31.157216,0
3892.0,147.355591,301.454071,255.183304,-177.851199,-84.369983,2.323974,74.118508,35.174681,67.353767,76.058371,-74.130254,-31.157216,0
3907.0,147.362488,301.383118,255.142776,-177.718273,-84.331481,2.12533,74.117419,35.174681,67.353767,76.135262,-74.130254,-31.157216,0
3923.0,147.376587,301.328278,255.114273,-177.623563,-84.303979,1.981976,74.114841,35.174681,67.353882,76.190209,-74.130254,-31.157216,0
3938.0,147.39679,301.279877,255.091156,-177.549422,-84.28192,1.867155,74.111117,35.174681,67.353882,76.234155,-74.130254,-31.157216,0
3954.0,147.425934,301.266815,255.092499,-177.546042,-84.282034,1.858331,74.105616,35.174681,67.354225,76.234155,-74.130254,-31.157216,0
3970.0,147.467239,301.250153,255.089691,-177.541859,-84.278196,1.848591,74.094444,35.174681,67.354741,76.234155,-74.12567,-31.157216,0
3984.0,147.552689,301.210968,255.092484,-177.534926,-84.278425,1.825558,74.081552,35.174681,67.3552,76.234155,-74.12567,-31.157216,0
4000.0,147.665344,301.171173,255.097794,-177.543349,-84.280258,1.82424,74.060181,35.174681,67.356059,76.223154,-74.121086,-31.157216,0
4017.0,147.807144,301.137268,255.093552,-176.57866,-84.26708,0.857546,74.032793,35.174681,67.357377,76.201152,-74.098225,-31.058323,0
4031.0,148.055862,301.069946,255.107071,-175.319069,-84.264788,-0.409665,73.985238,35.174681,67.359153,76.157206,-74.079891,-30.926486,0
4046.0,148.347321,301.00592,255.154114,-175.079115,-84.297905,-0.639421,73.929833,35.174624,67.361559,76.080315,-74.075307,-30.893541,0
4062.0,148.709564,300.86911,255.164429,-174.966929,-84.293379,-0.792916,73.860963,35.174509,67.365226,76.058371,-74.05703,-30.88254,0
4077.0,149.011459,300.755646,255.145096,-174.385549,-84.254189,-1.41343,73.803209,35.174395,67.369695,76.058371,-74.015834,-30.82765,0
4092.0,149.541367,300.553925,255.120499,-173.24353,-84.189616,-2.62873,73.702025,35.174395,67.378404,76.058371,-73.95172,-30.717757,0
4108.0,150.148361,300.334167,255.094757,-172.415606,-84.112439,-3.533316,73.58623,35.174395,67.391124,76.058371,-73.869329,-30.640866,0
4123.0,150.770523,300.123962,255.08577,-172.289211,-84.04208,-3.73219,73.468086,35.174395,67.409344,76.058371,-73.782354,-30.640866,0
4139.0,151.545654,299.879883,255.062271,-172.12483,-83.934134,-3.974379,73.320664,35.174395,67.434726,76.058371,-73.649599,-30.640866,0
4154.0,152.451691,299.585114,255.025833,-171.959703,-83.807052,-4.230835,73.14786,35.174395,67.462113,76.058371,-73.493984,-30.640866,0
4169.0,153.035492,299.500916,255.027634,-171.713618,-83.702144,-4.469529,72.995167,35.174395,67.502335,75.992424,-73.287948,-30.618922,0
4185.0,154.080933,299.278931,255.017853,-171.203743,-83.579645,-4.968862,72.836629,35.17428,67.525368,75.893531,-73.123166,-30.574976,0
4200.0,155.006485,299.199646,255.069397,-170.527137,-83.459783,-5.572931,72.660846,35.174166,67.573153,75.739749,-72.889685,-30.509029,0
4218.0,156.108383,299.014465,255.097931,-169.58783,-83.310298,-6.487372,72.404963,35.174166,67.636465,75.585967,-72.582981,-30.388192,0
4232.0,157.09024,298.919006,255.200577,-168.868596,-83.146088,-7.196006,72.267854,35.174166,67.696339,75.531021,-72.395337,-30.36619,0
4248.0,158.211349,298.71637,255.333984,-168.464259,-83.009896,-7.649674,72.059355,35.174166,67.773459,75.476074,-72.184775,-30.36619,0
4264.0,159.182541,298.619293,255.500854,-167.976214,-82.86236,-8.160237,71.881108,35.174051,67.862897,75.432128,-71.965046,-30.36619,0
4279.0,160.224701,298.503967,255.727463,-167.452015,-82.750461,-8.714058,71.690943,35.173822,67.957894,75.366238,-71.772761,-30.36619,0
4294.0,161.167969,298.492584,256.057953,-166.683564,-82.633234,-9.518376,71.524613,35.173822,68.082741,75.333236,-71.589644,-30.36619,0
4309.0,161.918365,298.43045,256.257507,-166.208811,-82.534112,-10.028194,71.389796,35.173822,68.165992,75.311291,-71.443196,-30.36619,0
4325.0,162.864151,298.438995,256.604919,-165.724604,-82.432011,-10.524891,71.223352,35.173822,68.292673,75.256345,-71.255495,-30.399193,0
4340.0,163.869217,298.488708,257.040161,-165.835357,-82.369157,-10.408409,71.048829,35.173822,68.438663,75.179454,-71.067794,-30.53103,0
4355.0,164.887436,298.499481,257.484314,-165.893054,-82.336098,-10.35604,70.871613,35.173707,68.577318,75.091562,-70.912179,-30.651867,0
4371.0,165.92012,298.522247,257.968079,-165.587209,-82.30745,-10.666354,70.69308,35.173707,68.722334,74.99267,-70.765674,-30.728758,0
4387.0,166.990738,298.456818,258.456696,-165.471758,-82.328879,-10.82197,70.506983,35.173593,68.855146,74.893777,-70.674115,-30.82765,0
4402.0,168.0513,298.435059,259.054932,-165.037514,-82.419291,-11.276497,70.325814,35.173478,68.995578,74.739995,-70.637503,-30.893541,0
4418.0,169.185547,298.269135,259.554016,-164.680332,-82.499047,-11.697678,70.126596,35.173191,69.11057,74.608158,-70.610058,-30.948487,0
4434.0,170.035141,298.214752,259.98114,-164.111843,-82.582871,-12.25975,69.93053,35.173077,69.226938,74.399429,-70.582556,-30.948487,0
4450.0,171.16037,298.03833,260.422638,-163.4962,-82.648532,-12.90851,69.729021,35.173077,69.325143,74.234646,-70.527667,-30.948487,0
4464.0,172.286469,297.872192,260.822937,-163.001393,-82.70852,-13.397873,69.575526,35.173077,69.392809,74.080807,-70.468137,-30.948487,0
4479.0,173.443542,297.634155,261.14212,-162.585713,-82.720552,-13.838707,69.364734,35.173077,69.475258,73.927025,-70.367411,-30.948487,0
4495.0,174.565994,297.411346,261.417725,-162.194726,-82.680904,-14.254273,69.159787,35.173077,69.560399,73.806131,-70.225546,-30.948487,0
4510.0,175.834167,297.025818,261.61731,-161.926983,-82.630942,-14.599308,68.923843,35.173077,69.627837,73.707296,-70.088208,-30.948487,0
4526.0,176.742599,296.763794,261.770966,-161.762888,-82.61255,-14.797323,68.697926,35.173077,69.688341,73.575459,-69.964621,-30.948487,0
4541.0,178.103714,296.282074,261.996918,-161.515198,-82.624926,-15.143618,68.499969,35.173077,69.731198,73.476566,-69.909675,-30.948487,0
4558.0,179.335495,295.835388,262.205078,-161.325263,-82.661079,-15.412737,68.208162,35.173077,69.786489,73.289782,-69.841034,-30.948487,0
4573.0,180.645279,295.356689,262.423737,-161.242069,-82.754071,-15.53936,68.020862,35.173077,69.810209,73.113998,-69.808949,-30.948487,0
4588.0,181.792297,295.001038,262.649902,-161.236855,-82.877486,-15.513061,67.80331,35.173077,69.838112,72.83938,-69.767753,-30.948487,0
4604.0,182.949768,294.658691,262.876709,-161.350817,-83.040549,-15.320548,67.581976,35.173077,69.856103,72.498756,-69.731141,-30.948487,0
4619.0,183.971298,294.375031,263.07666,-161.535366,-83.202811,-15.033209,67.385394,35.173077,69.867562,72.15819,-69.694529,-30.948487,0
4634.0,185.025253,294.020752,263.264893,-161.635462,-83.36725,-14.868656,67.181708,35.172962,69.873693,71.839626,-69.680778,-30.937486,0
4650.0,185.773056,293.720978,263.375397,-161.187065,-83.441391,-15.318485,66.994293,35.172962,69.88074,71.619896,-69.671611,-30.860595,0
4666.0,186.634064,293.371124,263.496613,-161.001771,-83.525043,-15.511343,66.812265,35.172962,69.887215,71.433112,-69.653333,-30.82765,0
4680.0,187.576599,292.92099,263.561493,-160.650318,-83.555295,-15.924159,66.686787,35.172962,69.890652,71.34522,-69.630415,-30.783705,0
4696.0,188.330734,292.541718,263.584381,-160.287579,-83.546987,-16.352387,66.53925,35.172962,69.89472,71.268329,-69.589219,-30.728758,0
4712.0,189.209015,292.066315,263.595276,-160.024133,-83.535757,-16.714669,66.366847,35.172962,69.897127,71.202382,-69.548024,-30.684812,0
4727.0,189.908646,291.71933,263.563507,-159.950336,-83.494733,-16.831724,66.228134,35.172962,69.89833,71.136492,-69.465632,-30.651867,0
4742.0,190.767212,291.275696,263.492493,-160.036108,-83.421509,-16.810696,66.057049,35.172962,69.899304,71.081545,-69.346629,-30.629865,0
4758.0,191.325333,291.044556,263.449524,-160.207479,-83.381631,-16.624542,65.911174,35.172962,69.900507,70.949708,-69.209291,-30.618922,0
4773.0,192.124176,290.752472,263.448425,-160.472186,-83.382319,-16.30191,65.785925,35.172962,69.902054,70.806869,-69.117732,-30.607921,0
4789.0,192.969635,290.50708,263.479431,-160.839566,-83.420707,-15.807218,65.61696,35.172962,69.903487,70.53225,-68.980394,-30.59692,0
4804.0,193.816544,290.269501,263.570648,-160.426464,-83.481956,-16.091577,65.44874,35.172962,69.906466,70.224629,-68.884252,-30.498028,0
4819.0,194.669556,290.038757,263.696472,-159.907078,-83.575978,-16.46887,65.279431,35.172962,69.908643,69.884006,-68.811028,-30.388192,0
4835.0,195.488113,289.786804,263.851654,-159.874534,-83.7018,-16.401662,65.118487,35.172962,69.915805,69.587386,-68.774416,-30.355247,0
4850.0,196.295837,289.531647,264.016968,-160.042467,-83.821491,-16.155576,64.960866,35.172962,69.929843,69.323711,-68.737804,-30.355247,0
4867.0,197.004044,289.359741,264.199554,-160.137235,-83.919295,-15.971829,64.824502,35.172962,69.954365,69.082037,-68.687441,-30.355247,0
4883.0,197.704895,289.18045,264.379303,-159.962998,-83.944677,-16.110084,64.692435,35.172962,69.995847,68.928198,-68.609633,-30.344246,0
4898.0,198.296341,288.991119,264.496002,-159.892582,-83.939463,-16.180672,64.553608,35.172962,70.044549,68.818362,-68.508907,-30.344246,0
4914.0,198.861862,288.970947,264.739563,-159.539926,-83.900215,-16.492017,64.45483,35.172962,70.124992,68.741471,-68.380737,-30.344246,0
4929.0,199.604584,288.806519,264.967682,-159.162748,-83.838909,-16.887358,64.347343,35.172962,70.183319,68.697525,-68.284594,-30.344246,0
4943.0,200.353775,288.784271,265.357941,-158.601536,-83.838393,-17.393795,64.21774,35.172962,70.287311,68.554687,-68.165591,-30.344246,0
4959.0,201.063629,288.865906,265.867218,-158.007035,-83.916545,-17.877887,64.098966,35.172962,70.402361,68.334957,-68.0832,-30.355247,0
4974.0,201.858994,288.935638,266.432373,-157.784498,-84.020021,-17.989958,63.96581,35.172962,70.53036,68.104227,-67.996225,-30.421137,0
4990.0,202.475616,289.037323,266.900421,-157.355467,-84.139425,-18.272312,63.821654,35.172962,70.657384,67.763661,-67.923001,-30.432138,0
5005.0,203.254944,289.1828,267.58371,-156.375824,-84.296416,-19.098116,63.733877,35.172962,70.761319,67.532931,-67.890915,-30.432138,0
5021.0,204.119278,289.257904,268.280273,-155.273625,-84.444239,-20.082744,63.590638,35.172962,70.903241,67.247312,-67.849719,-30.432138,0
5036.0,205.057327,289.290192,268.982574,-154.41734,-84.588853,-20.835725,63.433533,35.172962,71.050548,66.972636,-67.794773,-30.465083,0
5052.0,205.823029,289.460968,269.678223,-153.898641,-84.677031,-21.238915,63.313326,35.172962,71.21556,66.763907,-67.68952,-30.541974,0
5067.0,206.819016,289.385773,270.275452,-154.022514,-84.717024,-21.101806,63.145908,35.172962,71.373353,66.64307,-67.556766,-30.673811,0
5084.0,207.561691,289.479004,270.86322,-154.881092,-84.761485,-20.194929,63.029425,35.172962,71.535843,66.555179,-67.410261,-30.88254,0
5099.0,208.411697,289.394897,271.355469,-155.007085,-84.738109,-20.096036,62.888478,35.172962,71.680859,66.522233,-67.268396,-31.003434,0
5114.0,209.066025,289.32135,271.66806,-155.472155,-84.695423,-19.636753,62.743691,35.173077,71.819515,66.478288,-67.071528,-31.135271,0
5130.0,209.880981,289.303406,272.096252,-155.216501,-84.635148,-19.838091,62.606926,35.173593,71.947915,66.368394,-66.874717,-31.168217,0
5145.0,210.696732,289.270477,272.436218,-155.363121,-84.5527,-19.610798,62.497148,35.173822,72.03701,66.291503,-66.687016,-31.212162,0
5159.0,211.538254,289.20697,272.719666,-155.51507,-84.499357,-19.330164,62.344111,35.173822,72.131719,66.104719,-66.448952,-31.234107,0
5175.0,212.24675,289.267303,273.043152,-155.579355,-84.4887,-19.077948,62.217143,35.173822,72.224997,65.863046,-66.229223,-31.245107,0
5190.0,213.12323,289.115387,273.298279,-155.619176,-84.46985,-18.9264,62.05385,35.174051,72.301258,65.654317,-66.032412,-31.245107,0
5206.0,213.767853,289.144165,273.53476,-155.729871,-84.433754,-18.646453,61.936107,35.174681,72.378722,65.445531,-65.812683,-31.245107,0
5222.0,214.503845,288.970093,273.680328,-155.856037,-84.374395,-18.451418,61.797222,35.175025,72.436705,65.313694,-65.624982,-31.245107,0
5238.0,215.016769,288.858124,273.819885,-155.791178,-84.32174,-18.486999,61.678219,35.175025,72.506147,65.214858,-65.464783,-31.256108,0
5253.0,215.52977,288.797272,274.022522,-155.976415,-84.317271,-18.239137,61.610438,35.17514,72.547973,65.13791,-65.377808,-31.278053,0
5268.0,216.049072,288.625641,274.085968,-156.314632,-84.280315,-17.871241,61.510572,35.175254,72.579429,65.061019,-65.254221,-31.300054,0
5285.0,216.600632,288.419617,274.133545,-156.779072,-84.312057,-17.337531,61.399704,35.175254,72.588997,64.896237,-65.162662,-31.311055,0
5301.0,216.947113,288.320984,274.167542,-157.133733,-84.352795,-16.898072,61.328658,35.175254,72.59106,64.742455,-65.098548,-31.311055,0
5317.0,217.269775,288.17572,274.145233,-157.429035,-84.343799,-16.571773,61.262309,35.175827,72.591289,64.665506,-65.029908,-31.311055,0
5331.0,217.594315,287.991791,274.031372,-157.764445,-84.249204,-16.240489,61.1947,35.177145,72.591289,64.665506,-64.910904,-31.311055,0
5346.0,217.794846,287.89093,273.939423,-158.031959,-84.169104,-15.961859,61.135513,35.177775,72.591518,64.665506,-64.773566,-31.311055,0
5362.0,218.056183,287.790955,273.807251,-158.467406,-84.054456,-15.479945,61.080681,35.178004,72.591805,64.621561,-64.595033,-31.311055,0
5378.0,218.356766,287.705658,273.699799,-158.975563,-83.967882,-14.888079,61.031006,35.178348,72.592034,64.566671,-64.485197,-31.311055,0
5394.0,218.629501,287.614868,273.640533,-159.345006,-83.924795,-14.457272,60.973252,35.178864,72.592378,64.489723,-64.375303,-31.311055,0
5409.0,218.844879,287.544678,273.596161,-159.445388,-83.889157,-14.30773,60.927644,35.179895,72.592492,64.423833,-64.292912,-31.289053,0
5424.0,219.072479,287.432068,273.592896,-159.508815,-83.891449,-14.231126,60.881063,35.180525,72.592492,64.368886,-64.260884,-31.278053,0
5438.0,219.291428,287.356018,273.645416,-159.396343,-83.94015,-14.30074,60.836544,35.180869,72.592607,64.25905,-64.2563,-31.245107,0
5455.0,219.559296,287.274963,273.726562,-159.533738,-84.025922,-14.097225,60.782056,35.180984,72.592721,64.105211,-64.2563,-31.234107,0
5470.0,219.755249,287.224091,273.786743,-159.634178,-84.088718,-13.939662,60.727453,35.180984,72.592951,63.940428,-64.251716,-31.212162,0
5484.0,220.068268,287.128387,273.853668,-159.750832,-84.158562,-13.746403,60.67772,35.181213,72.593237,63.819592,-64.228798,-31.201162,0
5500.0,220.359207,287.078003,273.904236,-159.878659,-84.214941,-13.507251,60.616757,35.181614,72.593352,63.632807,-64.178492,-31.168217,0
5516.0,220.647766,286.994568,273.953278,-159.912864,-84.266851,-13.396269,60.556998,35.182187,72.593466,63.479025,-64.146407,-31.135271,0
5532.0,220.92601,286.884399,273.980499,-159.871153,-84.293264,-13.393347,60.499645,35.182645,72.593695,63.369132,-64.114378,-31.102269,0
5547.0,221.218826,286.732269,273.999695,-159.439716,-84.296416,-13.814929,60.439885,35.182817,72.59381,63.292241,-64.091517,-31.036379,0
5562.0,221.48494,286.593719,274.008209,-158.900563,-84.285243,-14.345717,60.38534,35.183161,72.593925,63.226294,-64.064015,-30.959488,0
5578.0,221.70549,286.476593,273.995941,-158.966968,-84.277336,-14.271405,60.327987,35.183849,72.593925,63.171404,-64.009069,-30.937486,0
5593.0,221.912842,286.401337,273.941711,-159.079956,-84.23127,-14.114758,60.2955,35.184364,72.593925,63.127459,-63.940428,-30.926486,0
5609.0,222.092224,286.342712,273.874786,-159.294299,-84.175407,-13.854692,60.256482,35.184937,72.593925,63.083513,-63.844286,-30.915542,0
5625.0,222.263733,286.264648,273.813507,-159.422584,-84.121492,-13.70538,60.219812,35.185453,72.594039,63.061511,-63.766478,-30.904541,0
5639.0,222.407791,286.214111,273.783417,-159.632115,-84.102469,-13.463133,60.189044,35.18614,72.594154,63.017565,-63.711532,-30.904541,0
5655.0,222.490051,286.215424,273.761749,-159.846745,-84.096854,-13.199458,60.170824,35.187573,72.594154,62.962619,-63.665752,-30.904541,0
5670.0,222.54425,286.227386,273.740479,-160.028602,-84.088661,-12.97377,60.152146,35.189005,72.594154,62.896728,-63.615447,-30.904541,0
5686.0,222.641708,286.227844,273.743622,-160.248675,-84.106709,-12.69749,60.132264,35.190323,72.594268,62.819838,-63.583361,-30.904541,0
5702.0,222.718781,286.26709,273.769775,-160.517621,-84.147389,-12.344949,60.115649,35.191297,72.594383,62.709944,-63.5605,-30.904541,0
5718.0,222.773453,286.31073,273.79837,-160.6486,-84.185434,-12.139543,60.104361,35.192156,72.59444,62.611109,-63.546749,-30.893541,0
5733.0,222.840195,286.349121,273.842926,-160.881965,-84.240839,-11.82963,60.092902,35.192615,72.594555,62.523217,-63.537582,-30.893541,0
5747.0,222.939392,286.366638,273.902161,-161.120659,-84.30988,-11.517025,60.071817,35.193188,72.594669,62.402323,-63.537582,-30.893541,0
5763.0,223.077255,286.362488,273.965149,-161.180075,-84.37789,-11.383927,60.042826,35.193933,72.594669,62.270486,-63.537582,-30.871596,0
5779.0,223.274017,286.298523,274.01059,-160.997588,-84.422352,-11.52029,60.002146,35.195136,72.594784,62.16065,-63.532998,-30.82765,0
5795.0,223.417358,286.277374,274.026215,-160.957825,-84.445213,-11.500008,59.962612,35.197256,72.594784,62.039813,-63.496386,-30.794648,0
5810.0,223.590286,286.241455,274.024536,-160.856125,-84.44951,-11.539084,59.925026,35.199089,72.594784,61.951921,-63.450607,-30.750759,0
5826.0,223.777618,286.154144,274.015167,-161.057004,-84.454323,-11.317292,59.886465,35.200292,72.594899,61.907975,-63.423162,-30.750759,0
5841.0,223.947952,286.044769,274.012024,-161.132348,-84.459021,-11.254438,59.861083,35.201209,72.595013,61.885974,-63.418578,-30.750759,0
5856.0,224.067657,285.962128,274.002136,-160.964758,-84.457359,-11.438472,59.837134,35.20373,72.595013,61.874973,-63.418578,-30.728758,0
5870.0,224.172012,285.893799,273.983948,-160.814757,-84.451687,-11.599588,59.816164,35.206881,72.595013,61.864029,-63.413995,-30.706814,0
5885.0,224.244766,285.871277,273.965088,-160.951121,-84.458104,-11.445462,59.80098,35.210606,72.595013,61.831027,-63.400244,-30.706814,0
5901.0,224.296707,285.872437,273.959961,-161.098028,-84.471168,-11.268132,59.786599,35.2137,72.595128,61.765137,-63.381966,-30.706814,0
5917.0,224.346634,285.900513,273.973328,-161.096366,-84.495977,-11.214388,59.776171,35.215934,72.595128,61.677245,-63.368215,-30.673811,0
5932.0,224.392105,285.944794,274.001465,-161.127821,-84.540496,-11.114178,59.768264,35.218111,72.595128,61.611298,-63.368215,-30.662868,0
5949.0,224.427032,285.989746,274.018158,-160.817737,-84.567711,-11.363415,59.760243,35.22195,72.595242,61.523406,-63.363632,-30.607921,0
5965.0,224.454697,286.041199,274.037781,-160.834467,-84.60226,-11.280622,59.753425,35.224586,72.595242,61.435571,-63.354464,-30.585919,0
5980.0,224.486099,286.073364,274.045349,-160.805819,-84.624262,-11.260913,59.746205,35.227451,72.595357,61.369624,-63.345354,-30.563975,0
5994.0,224.548233,286.088196,274.057526,-161.020506,-84.663109,-10.996894,59.732798,35.23106,72.595357,61.292733,-63.340771,-30.563975,0
6010.0,224.617706,286.0737,274.056885,-161.051446,-84.676229,-10.941832,59.712344,35.234269,72.595472,61.226786,-63.322436,-30.541974,0
6025.0,224.742401,286.056061,274.035065,-161.026179,-84.674339,-10.913815,59.691144,35.237191,72.595472,61.171896,-63.290408,-30.520029,0
6042.0,224.898438,286.002228,273.99939,-160.971232,-84.649186,-10.932092,59.649949,35.239941,72.595472,61.105949,-63.217184,-30.487084,0
6058.0,225.048416,285.965302,273.960876,-161.185003,-84.629877,-10.666641,59.612935,35.242519,72.595472,61.040059,-63.157653,-30.454082,0
6073.0,225.225296,285.895233,273.920929,-160.697817,-84.590114,-11.123403,59.58721,35.244467,72.595472,60.996113,-63.116458,-30.399193,0
6087.0,225.371094,285.840485,273.90448,-160.487255,-84.576248,-11.304801,59.556213,35.246244,72.595472,60.941166,-63.079846,-30.355247,0
6104.0,225.468964,285.778229,273.885437,-160.450471,-84.570519,-11.34869,59.536331,35.248879,72.595472,60.930165,-63.070678,-30.344246,0
6119.0,225.538681,285.72995,273.860565,-160.499229,-84.562153,-11.309385,59.522294,35.251629,72.595586,60.930165,-63.061511,-30.344246,0
6133.0,225.577072,285.701324,273.851532,-160.513152,-84.561695,-11.303082,59.514673,35.253176,72.595701,60.930165,-63.061511,-30.344246,0
6149.0,225.588013,285.70285,273.840515,-160.562942,-84.567024,-11.24699,59.512496,35.255812,72.595701,60.919165,-63.061511,-30.344246,0
6165.0,225.593628,285.700043,273.825378,-160.587064,-84.566279,-11.224014,59.511522,35.258218,72.595701,60.919165,-63.061511,-30.344246,0
6180.0,225.59404,285.726044,273.829468,-160.678107,-84.584327,-11.107532,59.511064,35.260166,72.595701,60.88622,-63.061511,-30.344246,0
6196.0,225.592514,285.778259,273.852142,-160.839165,-84.621168,-10.895194,59.510548,35.261828,72.595701,60.820329,-63.061511,-30.344246,0
6211.0,225.593307,285.849243,273.862976,-161.093673,-84.66563,-10.57067,59.50923,35.266469,72.595701,60.732438,-63.056927,-30.344246,0
6226.0,225.604797,285.91037,273.872437,-161.350702,-84.713414,-10.24798,59.505907,35.271912,72.595701,60.644546,-63.056927,-30.344246,0
6242.0,225.61731,285.938507,273.864716,-161.505802,-84.733067,-10.059134,59.501495,35.276897,72.595701,60.578598,-63.047817,-30.344246,0
6257.0,225.643707,285.98288,273.866455,-161.415332,-84.756844,-10.09248,59.496339,35.280506,72.595701,60.523652,-63.043234,-30.311301,0
6273.0,225.668793,286.035858,273.865356,-161.359468,-84.789847,-10.08463,59.490208,35.286981,72.595701,60.43576,-63.03865,-30.278298,0
6288.0,225.702347,286.04715,273.845917,-161.417509,-84.808812,-9.999775,59.48316,35.29357,72.595701,60.391814,-63.03865,-30.267355,0
6304.0,225.730576,286.04599,273.830688,-161.517834,-84.816146,-9.885871,59.477259,35.297122,72.595701,60.36987,-63.034066,-30.267355,0
6319.0,225.759567,286.049133,273.812561,-161.636665,-84.812765,-9.747043,59.47067,35.29907,72.595701,60.347926,-63.015732,-30.267355,0
6335.0,225.843964,286.008942,273.795319,-161.753778,-84.809385,-9.620935,59.452966,35.300961,72.595701,60.325924,-62.997454,-30.267355,0
6350.0,226.009216,285.896942,273.775696,-161.838805,-84.799988,-9.551722,59.419218,35.302393,72.595701,60.314923,-62.97912,-30.267355,0
6367.0,226.142731,285.811279,273.728821,-161.953167,-84.765496,-9.444121,59.391315,35.303883,72.595701,60.314923,-62.937924,-30.267355,0
6383.0,226.31514,285.707764,273.648743,-162.143618,-84.707857,-9.255045,59.354875,35.306748,72.595701,60.314923,-62.869284,-30.267355,0
6398.0,226.488312,285.606567,273.552704,-162.358535,-84.645691,-9.039383,59.30308,35.313337,72.595701,60.314923,-62.754807,-30.267355,0
6413.0,226.800583,285.459717,273.376068,-162.864342,-84.528807,-8.493412,59.250482,35.319067,72.595701,60.281978,-62.635803,-30.267355,0
6428.0,227.132828,285.362427,273.213745,-163.368373,-84.432035,-7.886248,59.176972,35.327718,72.595701,60.172142,-62.45727,-30.245353,0
6443.0,227.457321,285.2659,273.103729,-163.480214,-84.352107,-7.674139,59.105238,35.332245,72.595701,60.051248,-62.301654,-30.190407,0
6459.0,227.872742,285.077209,273.008636,-163.306207,-84.282206,-7.789075,59.016257,35.337516,72.595701,59.941412,-62.173484,-30.113516,0
6474.0,228.244766,284.924744,272.967834,-163.213789,-84.251381,-7.809701,58.936272,35.339808,72.595701,59.809575,-62.072758,-30.047626,0
6490.0,228.508163,284.800873,272.966522,-163.52078,-84.261465,-7.466098,58.867632,35.340495,72.595701,59.710682,-62.013228,-30.047626,0
6505.0,228.711288,284.677612,272.952667,-163.664134,-84.252814,-7.322916,58.838067,35.34061,72.595701,59.688738,-61.99495,-30.047626,0
6521.0,228.810181,284.598999,272.953033,-163.663389,-84.252756,-7.343543,58.818186,35.34061,72.595701,59.688738,-61.99495,-30.047626,0
6536.0,228.816193,284.594238,272.953064,-163.663389,-84.252756,-7.344746,58.816982,35.34061,72.595701,59.688738,-61.99495,-30.047626,0
6552.0,228.817596,284.5849,272.947693,-163.636173,-84.24674,-7.380728,58.816868,35.34061,72.595701,59.699681,-61.99495,-30.047626,0
6568.0,228.811569,284.604828,272.914124,-163.705559,-84.216259,-7.292607,58.816868,35.34061,72.595701,59.699681,-61.958338,-30.047626,0
6584.0,228.793396,284.664703,272.812073,-163.910849,-84.124586,-7.031281,58.816868,35.340839,72.595701,59.699681,-61.848445,-30.047626,0
6599.0,228.767349,284.749603,272.665344,-164.192515,-83.994467,-6.67026,58.816868,35.341469,72.595701,59.699681,-61.69283,-30.047626,0
6614.0,228.743942,284.824341,272.537476,-164.427543,-83.879589,-6.36516,58.816868,35.341813,72.595701,59.699681,-61.555492,-30.047626,0
6630.0,228.725571,284.883789,272.43338,-164.416255,-83.78167,-6.321615,58.816524,35.342443,72.595701,59.699681,-61.41357,-30.025624,0
6645.0,228.707001,284.95047,272.313232,-164.528154,-83.671319,-6.145717,58.815951,35.342787,72.595701,59.699681,-61.317428,-30.014623,0
6660.0,228.695236,285.011444,272.193207,-164.729033,-83.563889,-5.881641,58.813774,35.343245,72.595701,59.699681,-61.189257,-30.014623,0
6676.0,228.689804,285.052551,272.10672,-164.868777,-83.486998,-5.697378,58.811597,35.343704,72.595701,59.699681,-61.097698,-30.014623,0
6691.0,228.678818,285.117218,272.045258,-165.066047,-83.439156,-5.435765,58.810451,35.344678,72.595701,59.666736,-61.019891,-30.014623,0
6707.0,228.67804,285.133575,272.030396,-165.122082,-83.429473,-5.362484,58.80982,35.345193,72.595701,59.655735,-61.001613,-30.014623,0
6722.0,228.678711,285.133301,272.027618,-165.12552,-83.429301,-5.359161,58.809706,35.345652,72.595701,59.655735,-61.001613,-30.014623,0
6738.0,228.679291,285.132904,272.026917,-165.126379,-83.429244,-5.358416,58.809477,35.345881,72.595701,59.655735,-61.001613,-30.014623,0
6753.0,228.679947,285.13266,272.02417,-165.129817,-83.429072,-5.35515,58.809477,35.346225,72.595701,59.655735,-61.001613,-30.014623,0
6769.0,228.683594,285.130585,272.015869,-165.140188,-83.428499,-5.345524,58.808846,35.347543,72.595701,59.655735,-61.001613,-30.014623,0
6785.0,228.685074,285.142883,271.995483,-165.200348,-83.42552,-5.272873,58.808159,35.350293,72.595701,59.644792,-60.992446,-30.014623,0
6800.0,228.679764,285.203094,271.996124,-165.398076,-83.448266,-5.017048,58.807815,35.353215,72.595701,59.578844,-60.978695,-30.014623,0
6816.0,228.673279,285.285919,272.01062,-165.677335,-83.495478,-4.658548,58.807586,35.357856,72.595701,59.479952,-60.974111,-30.014623,0
6831.0,228.661423,285.42865,272.056366,-165.307377,-83.562457,-4.896898,58.807414,35.363986,72.595701,59.304168,-60.974111,-29.915788,0
6847.0,228.652191,285.559265,272.039948,-164.850729,-83.607147,-5.237579,58.807185,35.377623,72.595701,59.150387,-60.969528,-29.805895,0
6862.0,228.64064,285.724487,272.022186,-164.140032,-83.665188,-5.802745,58.806956,35.395442,72.595701,58.952659,-60.969528,-29.652113,0
6877.0,228.633957,285.856567,271.950592,-163.739993,-83.708389,-6.089395,58.806727,35.41836,72.595701,58.79882,-60.969528,-29.54222,0
6892.0,228.63269,286.013153,271.75589,-163.179068,-83.741563,-6.523411,58.806096,35.462421,72.595701,58.623036,-60.969528,-29.388438,0
6908.0,228.641342,286.106964,271.420532,-163.115126,-83.738985,-6.526276,58.805867,35.522123,72.595701,58.535145,-60.969528,-29.300546,0
6924.0,228.66153,286.154388,270.934265,-163.150019,-83.695784,-6.482616,58.805523,35.600675,72.595701,58.5132,-60.969528,-29.223655,0
6939.0,228.683289,286.183319,270.445618,-163.217341,-83.64439,-6.423258,58.80518,35.677967,72.595758,58.5132,-60.969528,-29.157708,0
6955.0,228.713547,286.193634,269.793671,-163.585065,-83.571681,-6.089567,58.804893,35.778636,72.595758,58.546145,-60.969528,-29.113762,0
6970.0,228.757904,286.148438,268.951172,-164.055063,-83.450157,-5.715483,58.804206,35.903655,72.595758,58.655981,-60.969528,-29.080817,0
6986.0,228.787003,286.133667,268.363098,-163.990261,-83.361463,-5.833341,58.803346,36.018763,72.595758,58.73293,-60.969528,-28.981924,0
7001.0,228.831528,286.088287,267.67337,-163.693412,-83.24034,-6.214071,58.800252,36.121609,72.595758,58.820821,-60.969528,-28.861087,0
7017.0,228.90744,286.028351,266.835327,-163.936231,-83.121738,-6.059716,58.789824,36.251269,72.595758,58.908713,-60.964944,-28.828142,0
7033.0,228.998001,285.990387,266.101044,-164.458712,-83.042956,-5.582328,58.780485,36.334119,72.595758,58.919656,-60.964944,-28.79514,0
7049.0,229.066315,285.982788,265.493774,-164.135793,-82.966008,-5.928108,58.770917,36.430089,72.595758,58.919656,-60.964944,-28.663302,0
7064.0,229.191177,285.922852,264.970642,-163.553266,-82.888257,-6.546157,58.749373,36.512824,72.595758,58.919656,-60.964944,-28.50952,0
7079.0,229.352676,285.833496,264.439484,-163.577789,-82.831363,-6.560138,58.720496,36.596877,72.595758,58.919656,-60.964944,-28.43263,0
7094.0,229.519012,285.812408,264.151398,-163.454374,-82.855255,-6.635997,58.687952,36.653485,72.595873,58.79882,-60.978695,-28.333737,0
7110.0,229.664352,285.772675,263.906677,-163.173281,-82.852677,-6.895146,58.648304,36.711583,72.595873,58.699927,-60.983279,-28.2129,0
7125.0,229.910675,285.653992,263.657288,-162.983517,-82.849124,-7.080441,58.61066,36.743669,72.595873,58.645038,-60.983279,-28.146953,0
7141.0,230.23082,285.4729,263.576691,-162.961,-82.874735,-7.101583,58.545687,36.762977,72.595873,58.557146,-60.983279,-28.103007,0
7156.0,230.493195,285.349396,263.569336,-163.162624,-82.925671,-6.867644,58.491542,36.772317,72.595873,58.447253,-60.983279,-28.092063,0
7172.0,230.721024,285.257751,263.619019,-163.414954,-82.988811,-6.566841,58.443758,36.773463,72.595873,58.326416,-60.983279,-28.092063,0
7187.0,230.924698,285.242126,263.710724,-163.82714,-83.092517,-6.041324,58.399354,36.77352,72.595987,58.128631,-60.983279,-28.092063,0
7203.0,231.108124,285.242188,263.802704,-163.811384,-83.180695,-5.942947,58.35896,36.77352,72.596102,57.930903,-60.983279,-28.037117,0
7218.0,231.28862,285.227509,263.88385,-163.571716,-83.250997,-6.086301,58.319369,36.77352,72.596102,57.75512,-60.983279,-27.960226,0
7234.0,231.454849,285.159119,263.924011,-163.585352,-83.290703,-6.038861,58.274449,36.773749,72.596102,57.634283,-60.983279,-27.927223,0
7250.0,231.704865,285.063904,263.986725,-163.543984,-83.35264,-6.021672,58.231362,36.774207,72.596102,57.52439,-60.983279,-27.894278,0
7265.0,231.889938,284.963776,264.015381,-163.511269,-83.380714,-6.041553,58.182833,36.774666,72.596102,57.436498,-60.983279,-27.872334,0
7281.0,232.06015,284.891571,264.054749,-163.618584,-83.423343,-5.900606,58.156992,36.77478,72.596102,57.370608,-60.983279,-27.861333,0
7296.0,232.204102,284.808258,264.075775,-163.624943,-83.443224,-5.889548,58.127256,36.77478,72.596216,57.326662,-60.983279,-27.850333,0
7311.0,232.344055,284.703522,264.079895,-163.558996,-83.445745,-5.975663,58.098894,36.774952,72.596216,57.315661,-60.983279,-27.839332,0
7326.0,232.423355,284.639648,264.078064,-163.469443,-83.442479,-6.081775,58.082966,36.775296,72.596216,57.315661,-60.983279,-27.828388,0
7342.0,232.446381,284.621246,264.075348,-163.472708,-83.442307,-6.08315,58.078325,36.775754,72.596216,57.315661,-60.983279,-27.828388,0
7359.0,232.455688,284.61377,264.074707,-163.473568,-83.44225,-6.084182,58.076033,36.775984,72.596216,57.315661,-60.983279,-27.828388,0
7374.0,232.462265,284.608521,264.074036,-163.47437,-83.442193,-6.084697,58.074945,36.776098,72.596216,57.315661,-60.983279,-27.828388,0
7389.0,232.467224,284.612671,264.078369,-163.500096,-83.447865,-6.051408,58.073971,36.776098,72.596216,57.30466,-60.983279,-27.828388,0
7404.0,232.468933,284.635712,264.091309,-163.577674,-83.464939,-5.948562,58.072939,36.776385,72.596216,57.271715,-60.983279,-27.828388,0
7419.0,232.484924,284.663574,264.111542,-163.709627,-83.493186,-5.777076,58.0687,36.777187,72.596216,57.216769,-60.983279,-27.828388,0
7434.0,232.543961,284.672668,264.143311,-163.892228,-83.532949,-5.546518,58.055292,36.777703,72.596216,57.139878,-60.983279,-27.828388,0
7450.0,232.605591,284.679474,264.177155,-164.07483,-83.572713,-5.316533,58.034952,36.777932,72.596216,57.041042,-60.983279,-27.817387,0
7465.0,232.702408,284.65033,264.207642,-163.948034,-83.597865,-5.413248,58.020571,36.778046,72.596446,56.997097,-60.983279,-27.795386,0
7482.0,232.787292,284.654297,264.250549,-163.524733,-83.627545,-5.780858,57.992668,36.778505,72.596446,56.865259,-60.983279,-27.707494,0
7498.0,232.937454,284.632874,264.297272,-163.195397,-83.666105,-6.038001,57.968145,36.779135,72.596446,56.766367,-60.974111,-27.641604,0
7513.0,233.089874,284.628571,264.345886,-162.740984,-83.701571,-6.400741,57.933539,36.779822,72.596446,56.612527,-60.955834,-27.542711,0
7528.0,233.284943,284.582916,264.385956,-162.265486,-83.726953,-6.799749,57.890395,36.780338,72.596446,56.469746,-60.932916,-27.443819,0
7543.0,233.475204,284.531036,264.427368,-161.940963,-83.756919,-7.05609,57.848512,36.780567,72.596446,56.337909,-60.914638,-27.366928,0
7559.0,233.686432,284.42865,264.453918,-162.077384,-83.787973,-6.8885,57.803592,36.780796,72.59656,56.250017,-60.900887,-27.355985,0
7574.0,233.805603,284.357452,264.436371,-162.090734,-83.772675,-6.870681,57.771277,36.781255,72.59656,56.228015,-60.864275,-27.344984,0
7590.0,233.916641,284.286316,264.383148,-162.20332,-83.725979,-6.756605,57.750307,36.781541,72.59656,56.228015,-60.804745,-27.344984,0
7603.0,233.958511,284.237823,264.314941,-162.20269,-83.660203,-6.777919,57.744348,36.781656,72.59656,56.271961,-60.768133,-27.344984,0
7619.0,233.976746,284.133423,264.210846,-162.330632,-83.563774,-6.744344,57.742286,36.781885,72.59656,56.4148,-60.726937,-27.38893,0
7634.0,233.987396,284.020721,264.090454,-162.691481,-83.461616,-6.489606,57.741942,36.782458,72.59656,56.579582,-60.681158,-27.465821,0
7650.0,233.986313,283.959167,263.961304,-163.102062,-83.355332,-6.13718,57.741942,36.783432,72.59656,56.700419,-60.607934,-27.531711,0
7666.0,233.966843,283.969727,263.784851,-163.716273,-83.209114,-5.511224,57.741827,36.784234,72.59656,56.777367,-60.461429,-27.597658,0
7682.0,233.945206,284.018524,263.643768,-163.974562,-83.083407,-5.20515,57.740853,36.78475,72.59656,56.810312,-60.273728,-27.619602,0
7698.0,233.921677,284.063232,263.435272,-164.401358,-82.899545,-4.730454,57.738962,36.785437,72.59656,56.876203,-60.095194,-27.641604,0
7713.0,233.920212,284.07135,263.303802,-164.555885,-82.78163,-4.559254,57.736098,36.786068,72.59656,56.898204,-60.017386,-27.652605,0
7728.0,233.934509,284.061371,263.267029,-164.659934,-82.75493,-4.453945,57.732373,36.787042,72.59656,56.909205,-59.989942,-27.663548,0
7743.0,233.938965,284.057953,263.264313,-164.829816,-82.760545,-4.283604,57.731514,36.7875,72.59656,56.909205,-59.989942,-27.68555,0
7758.0,233.940048,284.057037,263.264313,-164.829816,-82.760545,-4.283834,57.731285,36.7875,72.59656,56.909205,-59.989942,-27.68555,0
7774.0,233.932922,284.126892,263.303802,-165.025023,-82.805465,-4.01907,57.730941,36.7875,72.59656,56.821313,-59.989942,-27.68555,0
7789.0,233.927383,284.179413,263.332672,-165.174049,-82.83904,-3.817847,57.730712,36.787729,72.59656,56.744365,-59.989942,-27.68555,0
7804.0,233.923477,284.222656,263.355225,-165.301189,-82.866829,-3.647335,57.730425,36.787958,72.59656,56.700419,-59.989942,-27.68555,0
7820.0,233.925705,284.220947,263.353821,-165.302736,-82.866714,-3.646246,57.729967,36.788188,72.59656,56.700419,-59.989942,-27.68555,0
7835.0,233.92746,284.219757,263.350342,-165.306632,-82.866485,-3.642751,57.729623,36.788703,72.59656,56.700419,-59.989942,-27.68555,0
7852.0,233.930878,284.217316,263.345459,-165.312018,-82.866084,-3.638053,57.728993,36.789505,72.59656,56.700419,-59.989942,-27.68555,0
7868.0,233.933655,284.227905,263.333374,-165.359802,-82.859552,-3.576345,57.727675,36.790136,72.59656,56.689476,-59.976191,-27.68555,0
7883.0,233.944275,284.230347,263.297913,-165.407702,-82.831649,-3.516643,57.724237,36.790995,72.59656,56.689476,-59.944162,-27.68555,0
7899.0,233.967575,284.219269,263.273102,-165.441048,-82.81171,-3.478083,57.716789,36.791683,72.59656,56.689476,-59.91666,-27.68555,0
7914.0,234.003464,284.193329,263.2612,-165.456403,-82.803574,-3.465936,57.709856,36.792313,72.59656,56.689476,-59.90755,-27.68555,0
7930.0,234.026886,284.177704,263.24646,-165.474967,-82.795209,-3.448175,57.705158,36.793344,72.59656,56.689476,-59.898383,-27.68555,0
7945.0,234.044434,284.168335,263.228821,-165.497771,-82.783062,-3.422964,57.701949,36.79386,72.59656,56.689476,-59.889216,-27.68555,0
7958.0,234.056992,284.161682,263.212616,-165.517709,-82.77464,-3.401536,57.699085,36.795063,72.59656,56.689476,-59.880048,-27.68555,0
7973.0,234.062363,284.160675,263.199188,-165.534669,-82.766389,-3.381711,57.697251,36.796094,72.59656,56.689476,-59.870938,-27.68555,0
7989.0,234.071289,284.153839,263.192932,-165.541487,-82.765873,-3.376727,57.695933,36.796839,72.59656,56.689476,-59.870938,-27.68555,0
8005.0,234.077591,284.150543,263.183807,-165.552603,-82.761576,-3.364924,57.694501,36.797584,72.59656,56.689476,-59.866355,-27.68555,0
8020.0,234.082672,284.14679,263.178223,-165.558676,-82.761175,-3.359882,57.69347,36.798501,72.59656,56.689476,-59.866355,-27.68555,0
8036.0,234.087189,284.143433,263.17337,-165.564004,-82.760774,-3.35547,57.69261,36.799246,72.59656,56.689476,-59.866355,-27.68555,0
8052.0,234.088211,284.145966,263.159943,-165.580849,-82.752524,-3.334844,57.692094,36.800048,72.59656,56.689476,-59.857187,-27.68555,0
8067.0,234.089569,284.146637,263.152161,-165.59036,-82.748341,-3.323614,57.691636,36.800564,72.59656,56.689476,-59.852604,-27.68555,0
8083.0,234.090347,284.147705,263.145111,-165.599184,-82.744216,-3.313014,57.691292,36.801022,72.59656,56.689476,-59.84802,-27.68555,0
8100.0,234.091736,284.148376,263.136627,-165.60944,-82.739918,-3.301039,57.690834,36.801652,72.59656,56.689476,-59.843436,-27.68555,0
8115.0,234.091263,284.153656,263.118927,-165.6319,-82.727772,-3.272506,57.690433,36.802454,72.59656,56.689476,-59.829685,-27.68555,0
8131.0,234.090958,284.155609,263.111847,-165.640666,-82.723589,-3.261734,57.690089,36.80297,72.59656,56.689476,-59.825159,-27.68555,0
8146.0,234.09137,284.158539,263.099823,-165.655792,-82.715453,-3.242712,57.689745,36.803657,72.59656,56.689476,-59.815992,-27.68555,0
8162.0,234.091278,284.161957,263.086365,-165.672465,-82.70726,-3.222085,57.689459,36.804288,72.59656,56.689476,-59.802241,-27.68555,0
8177.0,234.090652,284.165833,263.072937,-165.689024,-82.699009,-3.201402,57.689344,36.804975,72.59656,56.689476,-59.797657,-27.68555,0
8192.0,234.09259,284.166107,263.063782,-165.699967,-82.694655,-3.188911,57.688771,36.80572,72.59656,56.689476,-59.793073,-27.68555,0
8206.0,234.09285,284.167664,263.056,-165.709364,-82.690472,-3.177567,57.688542,36.806293,72.59656,56.689476,-59.78849,-27.68555,0
8221.0,234.094009,284.16684,263.053925,-165.711598,-82.6903,-3.175561,57.688313,36.806637,72.59656,56.689476,-59.78849,-27.68555,0
8237.0,234.095703,284.165619,263.051819,-165.713833,-82.690128,-3.173671,57.688026,36.806923,72.59656,56.689476,-59.78849,-27.68555,0
8252.0,234.099091,284.15506,263.044128,-165.692003,-82.684399,-3.204668,57.687568,36.807382,72.59656,56.700419,-59.78849,-27.68555,0
8268.0,234.101013,284.147278,263.031464,-165.676591,-82.674601,-3.227013,57.687224,36.807955,72.59656,56.71142,-59.783963,-27.68555,0
8284.0,234.10495,284.136322,263.023102,-165.738355,-82.671507,-3.1739,57.686709,36.80847,72.59656,56.722421,-59.783963,-27.696551,0
8300.0,234.107376,284.136047,263.016022,-165.74695,-82.667325,-3.163816,57.686021,36.808929,72.59656,56.722421,-59.77938,-27.696551,0
8316.0,234.110291,284.135284,263.010376,-165.753997,-82.663314,-3.155336,57.685276,36.809158,72.59656,56.722421,-59.774796,-27.696551,0
8331.0,234.113068,284.133118,263.009064,-165.921014,-82.668585,-2.987517,57.684703,36.809387,72.59656,56.722421,-59.774796,-27.718495,0
8346.0,234.114334,284.133667,263.004089,-165.92726,-82.664575,-2.97961,57.684245,36.809559,72.59656,56.722421,-59.770212,-27.718495,0
8361.0,234.113602,284.137421,262.993439,-165.940438,-82.656553,-2.962306,57.684073,36.809788,72.59656,56.722421,-59.761045,-27.718495,0
8376.0,234.115875,284.135742,262.990662,-165.943417,-82.656324,-2.959785,57.683615,36.810247,72.59656,56.722421,-59.761045,-27.718495,0
8392.0,234.117203,284.136383,262.983582,-165.95184,-82.652141,-2.949587,57.683156,36.810705,72.59656,56.722421,-59.756461,-27.718495,0
8409.0,234.118362,284.13559,262.981506,-165.954074,-82.652027,-2.947581,57.682927,36.810991,72.59656,56.722421,-59.756461,-27.718495,0
8423.0,234.118546,284.137024,262.97583,-165.961007,-82.647959,-2.938701,57.682755,36.811221,72.59656,56.722421,-59.751878,-27.718495,0
8438.0,234.117279,284.141235,262.965179,-165.974128,-82.63988,-2.921397,57.682641,36.811564,72.59656,56.722421,-59.74271,-27.718495,0
8453.0,234.116913,284.143127,262.959503,-165.98106,-82.635869,-2.912402,57.682526,36.811793,72.59656,56.722421,-59.738184,-27.718495,0
8470.0,234.116211,284.146912,262.948151,-165.994811,-82.627791,-2.894525,57.682297,36.812195,72.59656,56.722421,-59.729017,-27.718495,1
8485.0,234.116226,284.146942,262.947479,-165.995614,-82.627733,-2.893781,57.682297,36.812309,72.59656,56.722421,-59.729017,-27.718495,1
8500.0,234.113068,284.155701,262.928253,-166.019391,-82.611805,-2.861409,57.682182,36.812653,72.59656,56.722421,-59.710682,-27.718495,1
8517.0,234.105972,284.191467,262.925171,-166.116164,-82.61255,-2.729686,57.682182,36.812768,72.59656,56.689476,-59.692405,-27.718495,1
8532.0,234.101791,284.202423,262.903107,-166.143437,-82.592783,-2.691641,57.682068,36.812882,72.59656,56.689476,-59.669486,-27.718495,1
8548.0,234.101944,284.203827,262.898834,-166.148708,-82.588829,-2.684422,57.681838,36.812882,72.59656,56.689476,-59.664903,-27.718495,1
8563.0,234.099915,284.215027,262.898041,-166.180392,-82.590319,-2.641851,57.681838,36.813111,72.59656,56.678475,-59.660319,-27.718495,1
8578.0,234.101013,284.214142,262.898041,-166.180392,-82.590319,-2.64208,57.681495,36.813111,72.59656,56.678475,-59.660319,-27.718495,1
8592.0,234.1017,284.215088,262.893799,-166.185606,-82.586366,-2.634976,57.681323,36.813111,72.59656,56.678475,-59.655735,-27.718495,1
8608.0,234.102814,284.214203,262.893097,-166.186351,-82.586366,-2.634517,57.681094,36.813226,72.59656,56.678475,-59.655735,-27.718495,1
8623.0,234.104462,284.212921,262.892395,-166.187096,-82.586308,-2.634116,57.68075,36.81334,72.59656,56.678475,-59.655735,-27.718495,1
8639.0,234.104614,284.214294,262.888123,-166.192367,-82.582355,-2.626897,57.680521,36.81334,72.59656,56.678475,-59.651209,-27.718495,1
8654.0,234.106262,284.212982,262.887421,-166.193055,-82.582298,-2.626496,57.680177,36.813455,72.59656,56.678475,-59.651209,-27.718495,1
8670.0,234.107376,284.212128,262.886749,-166.1938,-82.58224,-2.62598,57.680005,36.813512,72.59656,56.678475,-59.651209,-27.718495,1
8686.0,234.107376,284.212128,262.886749,-166.1938,-82.58224,-2.62598,57.67989,36.813512,72.59656,56.678475,-59.651209,-27.718495,1
8701.0,234.108475,284.211243,262.886749,-166.1938,-82.58224,-2.626209,57.679776,36.813512,72.59656,56.678475,-59.651209,-27.718495,1
8716.0,234.109039,284.210846,262.886047,-166.194544,-82.582183,-2.625579,57.679661,36.813627,72.59656,56.678475,-59.651209,-27.718495,1
8732.0,234.109573,284.218414,262.890259,-166.220213,-82.587626,-2.591545,57.679317,36.813742,72.59656,56.667474,-59.651209,-27.718495,1
8748.0,234.110123,284.217957,262.890259,-166.220213,-82.587626,-2.59166,57.679203,36.813742,72.59656,56.667474,-59.651209,-27.718495,1
8763.0,234.110687,284.217529,262.889557,-166.220958,-82.587569,-2.59103,57.679088,36.813856,72.59656,56.667474,-59.651209,-27.718495,1
8780.0,234.111786,284.216644,262.889557,-166.220901,-82.587569,-2.591259,57.678859,36.813856,72.59656,56.667474,-59.651209,-27.718495,1
8795.0,234.112869,284.215759,262.889557,-166.220901,-82.587569,-2.591488,57.678687,36.813856,72.59656,56.667474,-59.651209,-27.718495,1
8810.0,234.113434,284.215363,262.888885,-166.221645,-82.587512,-2.590858,57.678458,36.813971,72.59656,56.667474,-59.651209,-27.718495,1
8826.0,234.115082,284.21402,262.888885,-166.221645,-82.587512,-2.591202,57.678114,36.813971,72.59656,56.667474,-59.651209,-27.718495,1
8842.0,234.116165,284.213135,262.888916,-166.303693,-82.590147,-2.508696,57.677885,36.813971,72.59656,56.667474,-59.651209,-27.729496,1
8857.0,234.116745,284.212708,262.888245,-166.386543,-82.592668,-2.425273,57.677885,36.814085,72.59656,56.667474,-59.651209,-27.740496,1
8872.0,234.117828,284.211823,262.888275,-166.468705,-82.595247,-2.342653,57.677656,36.814085,72.59656,56.667474,-59.651209,-27.75144,1
8887.0,234.118958,284.210968,262.887634,-166.551612,-82.597768,-2.25923,57.677427,36.8142,72.59656,56.667474,-59.651209,-27.762441,1
8902.0,234.119492,284.210541,262.887665,-166.633889,-82.600289,-2.17638,57.677369,36.8142,72.59656,56.667474,-59.651209,-27.773442,1
8918.0,234.120041,284.210083,262.887665,-166.633889,-82.600289,-2.176495,57.677255,36.8142,72.59656,56.667474,-59.651209,-27.773442,1
8934.0,234.120621,284.209686,262.886993,-166.716967,-82.60281,-2.092843,57.67714,36.814315,72.59656,56.667474,-59.651209,-27.795386,1
8950.0,234.120621,284.209686,262.887024,-166.799359,-82.605273,-2.009764,57.67714,36.814315,72.59656,56.667474,-59.651209,-27.806387,1
8964.0,234.12117,284.209229,262.887085,-166.964313,-82.610258,-1.843549,57.677026,36.814315,72.59656,56.667474,-59.651209,-27.817387,1
8980.0,234.121201,284.20929,262.886444,-167.130242,-82.615128,-1.676245,57.677026,36.814429,72.59656,56.667474,-59.651209,-27.839332,1
8996.0,234.121201,284.20929,262.886505,-167.295597,-82.619998,-1.509515,57.677026,36.814429,72.59656,56.667474,-59.651209,-27.861333,1
9011.0,234.12178,284.208862,262.885834,-167.379135,-82.622348,-1.425404,57.676911,36.814544,72.59656,56.667474,-59.651209,-27.872334,1
9026.0,234.12178,284.208893,262.885895,-167.544834,-82.627103,-1.25833,57.676911,36.814544,72.59656,56.667474,-59.651209,-27.894278,1
9041.0,234.12178,284.208893,262.885925,-167.627741,-82.629509,-1.174678,57.676911,36.814544,72.59656,56.667474,-59.651209,-27.905279,1
9057.0,234.121796,284.208893,262.885986,-167.793784,-82.63415,-1.00726,57.676911,36.814544,72.59656,56.667474,-59.651209,-27.927223,1
9072.0,234.12291,284.200012,262.881104,-167.767543,-82.628707,-1.042268,57.676911,36.814544,72.59656,56.678475,-59.651209,-27.927223,1
9088.0,234.12291,284.200012,262.881104,-167.767543,-82.628707,-1.042268,57.676911,36.814544,72.59656,56.678475,-59.651209,-27.927223,1
9103.0,234.12291,284.200012,262.881134,-167.850564,-82.631056,-0.958558,57.676911,36.814544,72.59656,56.678475,-59.651209,-27.938224,1
9119.0,234.124573,284.190704,262.876221,-167.824266,-82.625613,-0.993681,57.676796,36.814544,72.59656,56.689476,-59.651209,-27.938224,1
9134.0,234.126801,284.172974,262.866455,-167.854632,-82.617076,-0.979987,57.676796,36.814544,72.59656,56.71142,-59.651209,-27.949225,1
9151.0,234.129013,284.155212,262.856628,-167.802207,-82.60619,-1.049888,57.676796,36.814544,72.59656,56.733421,-59.651209,-27.949225,1
9166.0,234.130142,284.146393,262.851074,-167.859503,-82.603039,-1.000613,57.676796,36.814658,72.59656,56.744365,-59.651209,-27.960226,1
9181.0,234.130676,284.145935,262.851074,-167.859503,-82.603039,-1.000728,57.676682,36.814658,72.59656,56.744365,-59.651209,-27.960226,1
9196.0,234.130676,284.145935,262.851074,-167.859503,-82.603039,-1.000728,57.676682,36.814658,72.59656,56.744365,-59.651209,-27.960226,1
9212.0,234.130676,284.145935,262.851074,-167.859503,-82.603039,-1.000728,57.676682,36.814658,72.59656,56.744365,-59.651209,-27.960226,1
9227.0,234.131226,284.145508,262.851074,-167.859503,-82.603039,-1.000843,57.676567,36.814658,72.59656,56.744365,-59.651209,-27.960226,1
9242.0,234.13028,284.147766,262.846802,-167.863857,-82.599028,-0.994311,57.676567,36.814658,72.59656,56.744365,-59.646625,-27.960226,1
9258.0,234.13028,284.147766,262.846802,-167.863857,-82.599028,-0.994311,57.676567,36.814658,72.59656,56.744365,-59.646625,-27.960226,1
9274.0,234.13028,284.147766,262.846802,-167.863857,-82.599028,-0.994311,57.676567,36.814658,72.59656,56.744365,-59.642042,-27.960226,1
9289.0,234.128372,284.152344,262.838226,-167.872566,-82.591121,-0.981248,57.676567,36.814658,72.59656,56.744365,-59.637458,-27.960226,1
9305.0,234.12648,284.156891,262.829681,-167.881218,-82.583215,-0.968184,57.676567,36.814658,72.59656,56.744365,-59.628291,-27.960226,1
9320.0,234.125519,284.159149,262.825409,-167.885515,-82.579261,-0.96171,57.676567,36.814658,72.59656,56.744365,-59.623707,-27.960226,1
9335.0,234.125519,284.159149,262.825409,-167.885515,-82.579261,-0.96171,57.676567,36.814658,72.59656,56.744365,-59.623707,-27.960226,1
9350.0,234.125519,284.159149,262.825409,-167.885515,-82.579261,-0.96171,57.676567,36.814658,72.59656,56.744365,-59.623707,-27.960226,1
9366.0,234.124573,284.161438,262.821136,-167.889869,-82.575308,-0.955178,57.676567,36.814658,72.59656,56.744365,-59.619123,-27.960226,1
9382.0,234.123611,284.163727,262.816864,-167.894166,-82.571297,-0.948704,57.676567,36.814658,72.59656,56.744365,-59.61454,-27.960226,1
9397.0,234.123611,284.163727,262.816864,-167.894166,-82.571297,-0.948704,57.676567,36.814658,72.59656,56.744365,-59.61454,-27.960226,1
9412.0,234.122665,284.165985,262.812592,-167.898464,-82.567344,-0.942172,57.676567,36.814658,72.59656,56.744365,-59.609956,-27.960226,1
