BAEK26/lfd/data/test_sumin_a.csv
timestamp,x,y,z,roll,pitch,yaw,joint1,joint2,joint3,joint4,joint5,joint6,gripper
140.0,-133.209595,231.130341,183.414597,-150.548557,-84.935779,56.707065,129.411571,35.203959,40.300935,43.923346,-81.806971,-0.867916,1
155.0,-133.209595,231.130341,183.414597,-150.548557,-84.935779,56.707065,129.411571,35.203959,40.300935,43.923346,-81.806971,-0.867916,1
171.0,-133.209595,231.130341,183.414597,-150.548557,-84.935779,56.707065,129.411571,35.203959,40.300935,43.923346,-81.806971,-0.867916,1
186.0,-133.209595,231.130341,183.414597,-150.548557,-84.935779,56.707065,129.411571,35.203959,40.300935,43.923346,-81.806971,-0.867916,1
201.0,-133.209595,231.130341,183.414597,-150.548557,-84.935779,56.707065,129.411571,35.203959,40.300935,43.923346,-81.806971,-0.867916,1
217.0,-133.209595,231.130341,183.414597,-150.548557,-84.935779,56.707065,129.411571,35.203959,40.300935,43.923346,-81.806971,-0.867916,1
234.0,-133.209595,231.130341,183.414597,-150.548557,-84.935779,56.707065,129.411571,35.203959,40.300935,43.923346,-81.806971,-0.867916,1
249.0,-133.209595,231.130341,183.414597,-150.548557,-84.935779,56.707065,129.411571,35.203959,40.300935,43.923346,-81.806971,-0.867916,1
265.0,-133.209595,231.130341,183.414597,-150.548557,-84.935779,56.707065,129.411571,35.203959,40.300935,43.923346,-81.806971,-0.867916,1
280.0,-133.209595,231.130341,183.414597,-150.548557,-84.935779,56.707065,129.411571,35.203959,40.300935,43.923346,-81.806971,-0.867916,1
296.0,-133.209595,231.130341,183.414597,-150.548557,-84.935779,56.707065,129.411571,35.203959,40.300935,43.923346,-81.806971,-0.867916,1
311.0,-133.209595,231.130341,183.414597,-150.548557,-84.935779,56.707065,129.411571,35.203959,40.300935,43.934346,-81.806971,-0.867916,1
326.0,-133.140015,231.125275,183.411072,-150.525066,-84.930794,56.618028,129.411571,35.203959,40.300935,43.989236,-81.806971,-0.867916,1
341.0,-133.082031,231.120987,183.408127,-150.505642,-84.926669,56.54383,129.411571,35.203959,40.300935,44.044182,-81.806971,-0.867916,1
357.0,-132.954468,231.111374,183.401642,-150.463071,-84.917559,56.380995,129.411571,35.203959,40.300935,44.165019,-81.806971,-0.867916,1
372.0,-132.757385,231.095978,183.391586,-150.397983,-84.903464,56.13004,129.411571,35.203959,40.300935,44.351803,-81.806971,-0.867916,1
388.0,-132.445023,231.070877,183.376114,-150.294106,-84.881119,55.730917,129.411571,35.203959,40.301164,44.648424,-81.806971,-0.867916,1
403.0,-132.051575,231.037384,183.356613,-150.165764,-84.852872,55.230725,129.411456,35.203959,40.30145,45.021992,-81.806971,-0.867916,1
418.0,-131.669388,231.001785,183.336975,-150.04676,-84.825313,54.750758,129.41117,35.203959,40.301679,45.505397,-81.806971,-0.867916,1
434.0,-131.148346,230.950333,183.310425,-149.88765,-84.787612,54.099248,129.410941,35.203959,40.302023,46.010745,-81.806971,-0.867916,1
450.0,-130.524307,230.882034,183.278,-149.705163,-84.742177,53.325984,129.410826,35.203959,40.302252,46.472148,-81.806971,-0.867916,1
465.0,-129.854736,230.801987,183.243073,-149.926783,-84.715248,52.914772,129.410482,35.203959,40.302711,47.109392,-81.806971,-0.911862,1
480.0,-129.060623,230.697983,183.201843,-150.216127,-84.684308,52.451364,129.410138,35.203959,40.30357,47.867415,-81.806971,-0.966809,1
496.0,-128.142014,230.566467,183.154572,-150.675123,-84.654457,52.037975,129.409508,35.203959,40.305117,48.746332,-81.806971,-1.0437,1
511.0,-127.169197,230.413391,183.104874,-151.425927,-84.635607,51.862879,129.408591,35.203959,40.307294,49.680196,-81.806971,-1.153536,1
528.0,-126.235214,230.25386,183.058395,-152.183091,-84.618131,51.726916,129.407617,35.203959,40.310388,50.581058,-81.806971,-1.263429,1
542.0,-125.531952,230.123291,183.022903,-152.907768,-84.611199,51.777279,129.407102,35.203959,40.312795,51.26219,-81.806971,-1.362322,1
559.0,-124.545631,229.93071,182.974152,-153.858362,-84.596703,51.780259,129.404753,35.203959,40.31841,52.448728,-81.806971,-1.527104,1
573.0,-123.579407,229.731186,182.930542,-155.006283,-84.590859,51.992539,129.403206,35.203959,40.323337,53.162863,-81.806971,-1.647941,1
588.0,-122.468384,229.492569,182.8927,-155.834207,-84.561924,51.720843,129.40183,35.203959,40.336859,54.272453,-81.806971,-1.779779,1
602.0,-121.691292,229.323349,182.886108,-156.919847,-84.572982,52.025198,129.40057,35.203959,40.355652,55.327154,-81.816081,-1.988507,1
617.0,-120.528839,229.048401,182.858856,-158.410798,-84.563815,52.343247,129.398851,35.203959,40.372211,56.250017,-81.816081,-2.142346,1
632.0,-119.454712,228.790039,182.845154,-159.566626,-84.545022,52.399798,129.394898,35.203959,40.397593,57.359607,-81.816081,-2.31813,1
648.0,-118.288246,228.492249,182.826767,-160.798084,-84.519411,52.441509,129.38722,35.203959,40.424407,58.557146,-81.816081,-2.504857,1
666.0,-117.182953,228.249878,182.844925,-162.817073,-84.53786,53.349074,129.366651,35.203845,40.458269,59.666736,-81.829832,-2.779533,1
681.0,-115.971413,227.968903,182.856216,-164.730637,-84.542558,54.065558,129.337659,35.20373,40.490469,60.853274,-81.848167,-3.043208,1
696.0,-114.778412,227.765396,182.896439,-166.698575,-84.55459,54.891649,129.286551,35.20373,40.531435,61.962865,-81.871028,-3.317884,1
712.0,-113.475815,227.587234,182.918274,-168.355913,-84.53236,55.359182,129.209317,35.203501,40.574178,63.094456,-81.875612,-3.559558,1
727.0,-112.209267,227.648285,182.995193,-170.119248,-84.525083,56.086552,129.075703,35.203386,40.636459,64.017319,-81.875612,-3.823233,1
742.0,-111.224274,227.742889,183.083176,-171.516005,-84.520499,56.672573,128.92278,35.203386,40.720168,64.940182,-81.875612,-4.141855,1
759.0,-109.965714,228.05162,183.256622,-174.073574,-84.534136,58.267917,128.723277,35.203386,40.824618,65.720207,-81.875612,-4.548368,1
773.0,-108.662582,228.423904,183.454239,-176.649191,-84.539292,59.87197,128.564968,35.203272,40.910791,66.324448,-81.875612,-4.801043,1
789.0,-107.367371,229.010818,183.744476,-177.445488,-84.555965,59.747294,128.313841,35.203157,41.055806,67.016581,-81.884779,-5.042716,1
804.0,-106.00563,229.577301,183.997101,-178.358725,-84.555736,59.738069,128.049937,35.203157,41.189478,67.697771,-81.884779,-5.284447,1
818.0,-105.001968,230.209167,184.259796,-178.765983,-84.572868,59.530716,127.742086,35.203157,41.35638,68.225121,-81.884779,-5.526121,1
833.0,-103.67688,231.024323,184.599655,179.754106,-84.592176,60.210244,127.418537,35.203157,41.528096,68.752414,-81.884779,-5.855686,1
848.0,-102.245705,232.094162,185.029053,178.696942,-84.626611,60.481597,127.12862,35.203157,41.683883,69.049092,-81.884779,-6.086416,1
864.0,-100.954567,233.18782,185.467697,178.039587,-84.668208,60.472773,126.767371,35.203157,41.884303,69.378657,-81.884779,-6.350091,1
881.0,-99.355545,234.478302,185.97049,178.881091,-84.717769,58.83801,126.326422,35.203157,42.113544,69.752226,-81.884779,-6.50393,1
896.0,-97.74176,235.794327,186.491959,-179.465508,-84.766929,56.393085,125.878828,35.203043,42.349889,70.114736,-81.884779,-6.591822,1
912.0,-95.862801,237.308655,187.058762,-177.623735,-84.81901,53.725622,125.352566,35.203043,42.602563,70.433358,-81.884779,-6.679714,1
927.0,-94.291412,238.761749,187.606216,-175.757554,-84.876077,51.248726,124.879818,35.203043,42.838335,70.58714,-81.884779,-6.745604,1
943.0,-92.407242,240.429581,188.251984,-173.467212,-84.929935,48.205804,124.327888,35.203043,43.117137,70.806869,-81.884779,-6.822495,1
959.0,-90.924866,241.575851,188.68457,-172.148836,-84.957781,46.294761,123.779797,35.203043,43.367863,71.0486,-81.884779,-6.921387,1
973.0,-89.087952,243.275955,189.340576,-169.756508,-85.008545,43.268111,123.365835,35.203043,43.579915,71.103489,-81.884779,-6.965333,1
989.0,-87.182625,245.016861,189.982697,-166.757934,-85.04722,39.707007,122.790585,35.202928,43.840725,71.103489,-81.884779,-6.965333,1
1005.0,-85.052025,246.666962,190.542419,-164.251988,-85.039542,36.542733,122.192016,35.202928,44.082513,71.180438,-81.857277,-6.987278,1
1020.0,-82.699165,248.484009,191.194733,-162.759834,-85.092139,34.37615,121.53151,35.202642,44.344871,71.213383,-81.857277,-7.130116,1
1035.0,-80.85199,250.161194,191.869171,-161.905382,-85.162728,32.996296,120.984106,35.202527,44.615364,71.213383,-81.852693,-7.338845,1
1049.0,-78.992935,251.602066,192.340057,-161.438651,-85.161066,32.034013,120.462772,35.202527,44.828161,71.213383,-81.788637,-7.503684,1
1065.0,-76.645432,253.289505,192.958298,-161.333513,-85.23217,31.29421,119.82593,35.202412,45.077455,71.235327,-81.774886,-7.756359,1
1080.0,-74.488342,255.126373,193.734009,-161.655286,-85.344012,31.030134,119.210687,35.202412,45.384216,71.235327,-81.765718,-8.107926,1
1095.0,-72.083855,256.879486,194.390457,-163.607296,-85.44554,32.367646,118.559865,35.202412,45.656658,71.235327,-81.719996,-8.547384,1
1112.0,-69.508179,258.835358,195.185394,-165.359516,-85.610322,33.549887,117.851689,35.202069,45.953622,71.125491,-81.719996,-8.997787,1
1126.0,-67.598846,260.676025,196.029205,-168.180817,-85.783929,35.970577,117.28595,35.201954,46.272014,70.993653,-81.706245,-9.536138,1
1142.0,-65.569328,262.23645,196.696365,-169.008054,-85.843745,36.281693,116.566373,35.201954,46.624211,70.993653,-81.646715,-9.986597,1
1158.0,-63.130009,264.083649,197.546677,-173.113927,-85.99747,39.803951,115.942364,35.201954,46.953146,70.894761,-81.642131,-10.67873,1
1173.0,-61.080894,266.250153,198.646973,179.938771,-86.193021,46.385517,115.468586,35.201954,47.266898,70.75198,-81.628438,-11.326917,1
1189.0,-58.557171,268.177765,199.582184,170.656625,-86.235018,55.07425,114.801835,35.201954,47.625512,70.729978,-81.587242,-12.271725,1
1204.0,-56.085365,270.380859,200.734131,160.846327,-86.251691,64.425265,114.114457,35.20098,48.033573,70.543194,-81.578075,-13.260478,1
1220.0,-54.110176,272.497864,201.929611,150.204725,-86.103639,74.691809,113.538405,35.20098,48.464552,70.389412,-81.550573,-14.359124,1
1236.0,-51.260548,274.738403,203.116287,145.39589,-85.981484,78.819111,112.799691,35.20098,48.925095,70.389412,-81.454488,-15.139149,1
1250.0,-49.081055,276.885895,204.370438,138.722307,-85.806159,85.081253,112.194132,35.200636,49.371544,70.235573,-81.413292,-16.029067,1
1266.0,-47.619564,278.752991,205.547653,135.67589,-85.785476,87.841821,111.538038,35.200636,49.914823,70.114736,-81.349178,-16.765146,1
1281.0,-44.589005,281.032715,206.875488,133.081022,-85.717351,89.731894,110.999572,35.200636,50.287474,70.114736,-81.27137,-17.23755,1
1297.0,-42.372131,283.490326,208.48613,131.131304,-85.847069,91.258999,110.381637,35.200636,50.846509,69.949953,-81.216424,-17.742899,1
1313.0,-39.829784,285.811096,210.041306,129.899845,-85.999418,91.932912,109.726517,35.200636,51.387783,69.884006,-81.161477,-18.182357,1
1328.0,-36.886391,287.97583,211.48526,129.232923,-86.139564,91.92764,109.017768,35.200292,51.895251,69.884006,-81.092837,-18.57787,1
1343.0,-34.410023,290.449738,213.342728,125.738911,-86.252895,94.908625,108.378176,35.199777,52.502357,69.77417,-81.088253,-19.182111,1
1358.0,-31.746693,292.66571,214.935913,123.872845,-86.293116,96.195202,107.731363,35.199777,53.055147,69.752226,-80.992111,-19.731463,1
1374.0,-28.461351,295.012878,216.598633,123.455159,-86.402322,95.910156,106.967267,35.199662,53.642601,69.752226,-80.845663,-20.203867,1
1389.0,-26.756165,296.70343,217.949921,122.557563,-86.55152,96.444611,106.400726,35.199433,54.242888,69.719223,-80.754104,-20.610381,1
1405.0,-23.706615,299.054932,219.719223,123.304356,-86.741398,95.062464,105.838139,35.199433,54.712026,69.719223,-80.612182,-20.917944,1
1420.0,-20.515387,301.005981,221.107803,124.610242,-86.711776,93.056826,105.139245,35.198975,55.242471,69.829117,-80.351257,-21.41235,1
1436.0,-17.808598,303.223267,222.953552,123.196354,-86.688171,93.861545,104.523487,35.19886,55.880287,69.906008,-80.177307,-22.082538,1
1451.0,-14.351398,304.947601,224.405777,125.333945,-86.668289,90.775136,103.817489,35.19886,56.434681,70.268575,-79.957578,-22.598888,1
1467.0,-11.002565,306.86496,226.044083,127.724898,-86.712235,87.557749,103.119741,35.19886,57.037376,70.52125,-79.714988,-23.082292,1
1483.0,-8.218197,308.594299,227.827133,127.945314,-86.762025,86.498178,102.551137,35.19886,57.644482,70.872817,-79.623429,-23.653589,1
1498.0,-4.241662,310.150757,229.500092,130.290316,-86.768557,82.957299,101.786239,35.19886,58.24964,71.422111,-79.486091,-24.213884,1
1514.0,-1.990941,311.307861,230.787781,129.01411,-86.701864,83.596433,101.212307,35.19886,58.831249,71.762677,-79.431144,-24.927961,1
1530.0,1.079674,312.963348,232.829544,126.373176,-86.633109,85.28408,100.576324,35.19886,59.478233,72.257083,-79.426561,-25.82888,1
1546.0,4.8513,314.112579,234.481796,121.983918,-86.0731,88.411284,99.895478,35.19886,60.049529,72.971217,-79.399116,-27.147199,1
1560.0,8.019465,315.494965,236.447891,118.40339,-85.578695,90.897233,99.462952,35.19886,60.557514,73.377673,-79.394532,-28.103007,1
1576.0,11.104648,316.559082,238.223724,116.869353,-85.075065,91.201073,98.911767,35.19886,61.174188,74.1797,-79.389949,-29.311547,1
1591.0,15.099817,317.397308,239.898849,119.265061,-84.874072,87.23884,98.213159,35.19886,61.805874,75.2234,-79.335002,-30.146461,1
1606.0,17.909679,318.301514,241.561951,121.123049,-84.809843,84.2264,97.716004,35.19886,62.393671,76.014425,-79.312141,-30.794648,1
1622.0,20.196817,318.87088,242.853607,124.712515,-84.897219,79.559888,97.121675,35.19886,63.012065,77.113015,-79.280113,-31.201162,1
1637.0,24.139595,319.269073,244.182816,130.996601,-84.976173,71.706184,96.498755,35.19886,63.554942,78.145771,-79.211415,-31.442892,1
1653.0,27.053837,320.011078,245.817276,136.729273,-85.108411,64.765889,96.132349,35.19886,64.014053,78.771957,-79.188554,-31.651621,1
1669.0,30.196371,320.584381,247.360382,140.77573,-85.091681,59.491125,95.583054,35.19886,64.566098,79.595927,-79.188554,-32.047134,1
1684.0,33.663021,320.977936,248.861633,145.089988,-84.965516,53.774897,94.982938,35.19886,65.128399,80.573737,-79.188554,-32.497536,1
1700.0,36.789207,321.448151,250.28775,146.837337,-84.825141,50.952908,94.432211,35.19886,65.623836,81.232925,-79.188554,-33.013943,1
1716.0,39.563358,321.908081,251.752396,150.80931,-84.749625,45.896555,93.947374,35.19886,66.143508,81.980005,-79.188554,-33.343508,1
1731.0,43.05492,322.081268,252.969772,155.065699,-84.648154,40.459472,93.3362,35.19886,66.590645,82.694082,-79.179387,-33.563237,1
1747.0,45.963593,322.441589,254.211533,157.486503,-84.507149,37.142161,92.821397,35.19886,67.027468,83.221432,-79.129024,-33.903803,1
1763.0,48.762726,322.868744,255.556854,157.814063,-84.301171,35.977109,92.32556,35.19886,67.486292,83.715837,-79.083245,-34.464099,1
1779.0,50.872196,323.010071,256.42041,158.088051,-84.093302,34.999643,91.831957,35.19886,67.901457,84.320079,-79.051216,-35.046396,1
1793.0,53.902233,323.26413,257.716125,157.330945,-83.817996,34.849012,91.422635,35.19886,68.247753,84.715592,-79.028298,-35.562745,1
1808.0,56.491978,323.478851,258.883789,156.111404,-83.529855,35.276267,90.967764,35.19886,68.650256,85.20994,-79.005437,-36.254879,1
1824.0,59.102882,323.768677,260.113922,153.328777,-83.132452,37.33668,90.50745,35.19886,69.07138,85.660399,-78.945907,-37.188742,1
1839.0,61.652916,323.843475,261.090698,150.987844,-82.684743,38.931909,90.059683,35.19886,69.429536,86.154804,-78.886434,-38.067602,1
1855.0,64.460152,323.985016,262.235107,149.132835,-82.280406,40.04614,89.565737,35.19886,69.824132,86.594263,-78.826903,-38.924575,1
1870.0,66.825096,324.000397,263.217133,147.181284,-81.832468,41.27227,89.152176,35.19886,70.173522,87.088611,-78.808569,-39.792492,1
1886.0,68.639214,324.082672,264.051239,147.30086,-81.599045,40.60019,88.734948,35.19886,70.553221,87.615961,-78.749096,-40.440679,1
1901.0,70.942543,324.001953,264.831421,147.187243,-81.178838,39.994288,88.428874,35.19886,70.792946,88.022475,-78.671288,-40.869137,1
1917.0,73.475113,324.0065,265.776062,147.621144,-80.881358,38.877077,87.982597,35.19886,71.142966,88.472877,-78.575146,-41.374486,1
1933.0,75.74646,324.016144,266.72348,148.093433,-80.732675,37.809657,87.584334,35.19886,71.456603,88.802499,-78.552227,-41.737053,1
1948.0,78.051247,324.044952,267.759216,149.964827,-80.75313,35.327776,87.181258,35.19886,71.785997,89.110121,-78.547644,-41.824945,1
1963.0,80.096565,324.05484,268.681915,151.482077,-80.757026,33.276357,86.823962,35.199089,72.076658,89.373796,-78.547644,-41.923838,1
1979.0,82.480347,323.990967,269.626526,152.571384,-80.738348,31.624807,86.407364,35.199089,72.366632,89.604469,-78.547644,-42.08862,1
1995.0,84.77137,323.968567,270.522491,152.912982,-80.758229,30.865122,86.007783,35.199089,72.615239,89.670416,-78.547644,-42.286405,1
2010.0,86.410896,323.990509,271.209991,153.190637,-80.807103,30.32425,85.60316,35.199089,72.849693,89.670416,-78.547644,-42.429186,1
2025.0,88.609734,323.938538,271.986633,153.50181,-80.893447,29.697491,85.339944,35.199089,72.99362,89.615469,-78.543117,-42.517078,1
2041.0,90.701843,323.995148,272.801331,153.64356,-81.053073,29.371822,84.977261,35.199204,73.177597,89.417742,-78.529366,-42.593969,1
2056.0,92.997452,323.865112,273.463043,153.943045,-81.21969,28.829345,84.57791,35.199433,73.32032,89.230957,-78.524783,-42.60497,1
2072.0,95.138718,323.737335,274.095795,153.980058,-81.358345,28.570426,84.205831,35.199548,73.456799,89.055174,-78.520199,-42.659916,1
2087.0,97.283783,323.457886,274.562744,153.801353,-81.442742,28.47881,83.831403,35.199548,73.557296,88.934337,-78.520199,-42.736807,1
2102.0,99.08812,323.255554,275.021118,153.905803,-81.540947,28.15274,83.517193,35.199548,73.657621,88.824444,-78.520199,-42.769752,1
2118.0,101.019798,322.875214,275.293243,154.048355,-81.546619,27.705489,83.177601,35.199662,73.731647,88.8135,-78.492754,-42.824699,1
2134.0,102.360596,322.597412,275.435944,153.89463,-81.506856,27.658506,82.862417,35.199777,73.790203,88.8135,-78.433224,-42.967537,1
2149.0,104.262901,322.169983,275.584229,151.924515,-81.302711,29.368384,82.604242,35.199777,73.828878,88.8135,-78.382861,-43.330105,1
2166.0,105.930962,321.724915,275.688812,148.191752,-80.96289,32.875172,82.308825,35.199777,73.85638,88.802499,-78.364584,-44.033182,1
2180.0,107.53228,321.281311,275.779175,144.01701,-80.548928,36.861985,82.025154,35.199777,73.868584,88.747553,-78.364584,-44.835208,1
2197.0,108.937706,320.826294,275.798798,140.910834,-80.143331,39.762813,81.774771,35.199777,73.87185,88.747553,-78.364584,-45.505397,1
2212.0,110.385757,320.343414,275.8078,138.548414,-79.789186,41.903612,81.516252,35.199777,73.872423,88.747553,-78.364584,-46.054691,1
2227.0,111.61705,319.786591,275.70694,138.05166,-79.572149,42.071088,81.293315,35.199777,73.872709,88.912335,-78.364584,-46.285421,1
2242.0,112.630104,319.336395,275.632812,138.377157,-79.525625,41.472691,81.057542,35.199777,73.872938,89.077175,-78.364584,-46.285421,1
2258.0,113.739166,318.830078,275.544708,138.801719,-79.47721,40.740279,80.857523,35.199777,73.873282,89.209013,-78.364584,-46.26342,1
2273.0,114.914772,318.382751,275.517029,139.023912,-79.472397,40.275037,80.696006,35.199777,73.873282,89.219957,-78.36,-46.252419,1
2289.0,115.806709,318.104858,275.470947,139.214936,-79.44163,39.963061,80.534604,35.199777,73.873282,89.219957,-78.30047,-46.252419,1
2304.0,116.698006,317.869324,275.366638,139.619387,-79.374536,39.483037,80.372113,35.199949,73.873282,89.219957,-78.172299,-46.252419,1
2320.0,117.220833,317.800171,275.215454,140.187646,-79.277649,38.941936,80.274997,35.200178,73.873282,89.219957,-77.989182,-46.252419,1
2335.0,117.829613,317.641388,274.985413,141.047656,-79.129196,38.044741,80.160004,35.200292,73.873282,89.307848,-77.77862,-46.252419,1
2350.0,118.308723,317.561615,274.845795,142.044144,-79.112924,37.050488,80.07068,35.200522,73.873282,89.318849,-77.618421,-46.131582,1
2366.0,118.722557,317.466492,274.774414,143.675871,-79.263955,35.376706,79.994534,35.200522,73.873282,89.318849,-77.531446,-45.802017,1
2382.0,119.08506,317.392548,274.812927,145.495241,-79.551466,33.511385,79.90796,35.200636,73.873282,89.241958,-77.526862,-45.197776,1
2398.0,119.565331,317.271545,274.855804,148.237245,-79.924232,30.686244,79.845221,35.200636,73.873282,89.187011,-77.526862,-44.725315,1
2413.0,120.125008,317.064514,275.105835,147.893241,-80.162411,30.908839,79.750397,35.200636,73.873282,89.044173,-77.714563,-44.615479,1
2429.0,120.710472,316.81662,275.376862,145.275454,-80.165275,33.403325,79.650988,35.200636,73.873282,88.912335,-77.934292,-44.956045,1
2444.0,121.309807,316.73175,275.52829,142.762347,-80.019572,35.959519,79.547168,35.200636,73.873282,88.725609,-77.966321,-45.373559,1
2459.0,121.897606,316.776123,275.66983,141.102374,-79.959698,37.769951,79.445984,35.20098,73.873282,88.450933,-77.920541,-45.615233,1
2474.0,122.494034,316.874725,275.803162,139.814823,-79.946692,39.254141,79.343482,35.202813,73.873053,88.132311,-77.842734,-45.769015,1
2490.0,122.855255,316.989319,275.917389,139.722634,-80.08042,39.503034,79.262752,35.20373,73.872824,87.802745,-77.760342,-45.582288,1
2505.0,123.446175,317.097107,276.102661,141.227049,-80.521942,38.158989,79.181335,35.203959,73.872824,87.528069,-77.737424,-45.15383,1
2521.0,124.04705,317.316833,276.444397,142.233106,-81.062986,37.413628,79.081984,35.204131,73.872824,87.000719,-77.737424,-44.626479,1
2536.0,124.474892,317.559631,276.822205,140.675405,-81.325629,39.252766,79.013802,35.204246,73.872824,86.48437,-77.787787,-44.582534,1
2552.0,124.707466,317.873352,277.203796,138.773587,-81.553724,41.470112,78.980055,35.204246,73.872824,85.96802,-77.842734,-44.582534,1
2568.0,124.85038,318.072876,277.526398,138.001125,-81.859913,42.428843,78.960517,35.204246,73.872824,85.594509,-77.938819,-44.40675,1
2583.0,124.88858,318.327728,277.866241,138.076583,-82.300403,42.563373,78.9596,35.204246,73.872824,85.198996,-78.039545,-44.044182,1
2599.0,124.914871,318.597473,278.152924,139.431686,-82.81595,41.426797,78.959486,35.204246,73.872824,84.825428,-78.094491,-43.516832,1
2615.0,124.9319,318.849945,278.350525,141.961123,-83.310126,39.101333,78.959314,35.204246,73.872824,84.517807,-78.094491,-42.923592,1
2630.0,124.940437,318.957153,278.433289,148.16849,-83.894829,32.951376,78.958855,35.204246,73.872824,84.385969,-78.094491,-42.000728,1
2646.0,124.940796,318.956482,278.43045,156.999775,-84.366889,24.073738,78.958741,35.204246,73.872824,84.385969,-78.094491,-40.627463,1
2662.0,124.933022,318.829254,278.326813,171.963771,-84.670442,8.925708,78.958741,35.204246,73.872824,84.594755,-78.094491,-39.199194,1
2677.0,124.922585,318.69931,278.190308,-174.642062,-84.574816,-4.648177,78.958626,35.204246,73.872824,84.715592,-78.071573,-38.309333,1
2692.0,124.970245,318.644531,278.062653,-168.57358,-84.369525,-10.78742,78.948084,35.20436,73.872824,84.814427,-77.998349,-37.716093,1
2708.0,125.369675,318.49881,278.032501,-163.487147,-84.214024,-15.963349,78.875777,35.20436,73.872824,84.825428,-77.970904,-37.188742,1
2723.0,126.081955,318.417328,278.181152,-158.009327,-84.167901,-21.412521,78.750012,35.20459,73.872709,84.594755,-77.970904,-36.617446,1
2738.0,127.046326,318.504913,278.530457,-151.596783,-84.229781,-27.588433,78.581563,35.205907,73.872709,84.045403,-77.970904,-35.980203,1
2754.0,127.830711,318.724762,278.921082,-145.890983,-84.326267,-32.956246,78.379538,35.209288,73.872594,83.221432,-77.970904,-35.277126,1
2769.0,129.125443,318.934082,279.445435,-138.16459,-84.386943,-40.254926,78.217734,35.2137,73.872594,82.562244,-77.970904,-34.760719,1
2785.0,130.314087,319.354858,280.075317,-131.420074,-84.613834,-46.371823,78.007516,35.219773,73.872537,81.507544,-77.95257,-34.299316,1
2801.0,131.701324,319.662354,280.633423,-124.280505,-84.627929,-52.943993,77.758509,35.223268,73.872423,80.51879,-77.883929,-33.739021,1
2816.0,133.126633,319.97049,281.217773,-117.485569,-84.647123,-59.147636,77.500219,35.22556,73.872308,79.497092,-77.815232,-33.255616,1
2831.0,134.797348,319.97644,281.620117,-113.052308,-84.664025,-63.215293,77.196724,35.227336,73.872193,78.728011,-77.719089,-32.958996,1
2847.0,136.379059,319.964508,281.827637,-110.849514,-84.70207,-65.083651,76.907724,35.229972,73.872193,78.101825,-77.508527,-32.805157,1
2863.0,138.037491,319.768127,281.799072,-110.671611,-84.630278,-65.085656,76.604916,35.23381,73.872079,77.717313,-77.21099,-32.662376,1
2878.0,139.580063,319.45871,281.498718,-112.971865,-84.518551,-62.744723,76.32325,35.241259,73.87185,77.596419,-76.817311,-32.61843,1
2893.0,140.896103,319.134155,281.12735,-115.857165,-84.388719,-59.879876,76.08255,35.248994,73.871506,77.596419,-76.432799,-32.61843,1
2909.0,142.481232,318.667297,280.546112,-120.060269,-84.191507,-55.771483,75.792175,35.264464,73.870876,77.706312,-75.938394,-32.662376,1
2925.0,144.335648,318.067017,279.846375,-124.060546,-83.928176,-51.926306,75.452468,35.294773,73.86887,77.83815,-75.430295,-32.673319,1
2940.0,146.093628,317.535065,279.247864,-126.761354,-83.749527,-49.327025,75.130466,35.335224,73.866005,77.849151,-75.027448,-32.673319,1
2955.0,147.896225,316.988953,278.746704,-128.707291,-83.637285,-47.470986,74.800614,35.377623,73.862854,77.783203,-74.697883,-32.673319,1
2970.0,149.444077,316.695129,278.260132,-129.688252,-83.709592,-46.417546,74.519063,35.456748,73.862167,77.497584,-74.47357,-32.673319,1
2986.0,150.742294,316.413025,277.962494,-129.226334,-83.780811,-46.849212,74.214421,35.551745,73.862167,77.102071,-74.400346,-32.497536,1
3002.0,152.28685,316.163666,277.588226,-126.878811,-83.857587,-49.091826,73.934703,35.666795,73.862167,76.541776,-74.400346,-32.200916,1
3017.0,154.01384,315.854095,277.235535,-124.417155,-83.955277,-51.444792,73.696181,35.753712,73.862052,76.179208,-74.400346,-31.970186,1
3033.0,155.620804,315.454773,276.426147,-123.215834,-83.998535,-52.682209,73.4089,35.921875,73.862052,75.849585,-74.400346,-31.706568,1
3049.0,157.19252,314.946198,275.700531,-122.064934,-83.935452,-53.960478,73.127176,36.06374,73.862052,75.640857,-74.400346,-31.40989,1
3065.0,158.586441,314.435944,274.676575,-121.179772,-83.714978,-55.041305,72.878685,36.238377,73.861651,75.563966,-74.382011,-30.992433,1
3080.0,160.03923,313.856628,273.44635,-121.32049,-83.51874,-55.148735,72.619421,36.434386,73.861536,75.563966,-74.327065,-30.651867,1
3095.0,161.355164,313.192749,272.17627,-121.266116,-83.228594,-55.566765,72.385597,36.631713,73.861536,75.695803,-74.327065,-30.245353,1
3112.0,162.741348,312.568268,270.914307,-121.534547,-83.103976,-55.591631,72.138308,36.837577,73.861536,75.728749,-74.327065,-29.970677,1
3126.0,163.706299,312.14325,270.068878,-121.693027,-83.039404,-55.618617,71.907922,37.053238,73.861307,75.728749,-74.327065,-29.729004,1
3142.0,164.996384,311.64444,268.704315,-121.783383,-82.968701,-55.725188,71.666249,37.255206,73.861307,75.618913,-74.327065,-29.432384,1
3157.0,166.241852,311.2453,267.600739,-120.957865,-82.860182,-56.641805,71.512295,37.410764,73.861307,75.476074,-74.327065,-29.135763,1
3172.0,167.354233,311.054199,266.463715,-120.035919,-82.854395,-57.494653,71.313478,37.629576,73.861307,75.135508,-74.313371,-28.79514,1
3188.0,168.415436,310.854858,265.329376,-119.501406,-82.927276,-57.972328,71.123715,37.847472,73.861307,74.816886,-74.313371,-28.553466,1
3203.0,169.385193,310.694366,264.261169,-119.271249,-83.065874,-58.122959,70.950051,38.053336,73.861307,74.498322,-74.308787,-28.399684,1
3219.0,170.367447,310.428955,263.228912,-119.227704,-83.104721,-58.172004,70.773065,38.239891,73.861307,74.289536,-74.285869,-28.2129,1
3234.0,171.272034,310.138184,262.22052,-119.798428,-83.167746,-57.644711,70.6096,38.412351,73.861307,74.157698,-74.244673,-28.114008,1
3249.0,171.900513,309.893311,261.540588,-120.507406,-83.254664,-56.999732,70.458511,38.559487,73.861307,74.091808,-74.226396,-28.114008,1
3266.0,172.718491,309.502899,260.85614,-121.224978,-83.333732,-56.418123,70.314469,38.667031,73.861307,74.080807,-74.226396,-28.114008,1
3281.0,173.431427,309.14624,260.181488,-121.997497,-83.399278,-55.78065,70.217697,38.752975,73.861307,74.080807,-74.226396,-28.114008,1
3297.0,174.164658,308.773499,259.531616,-122.756093,-83.461215,-55.161053,70.084083,38.86006,73.861307,74.080807,-74.226396,-28.114008,1
3312.0,174.991959,308.331665,259.145477,-123.804491,-83.598209,-54.264203,69.931963,38.924002,73.861307,74.080807,-74.226396,-28.234844,1
3328.0,175.661575,308.001404,258.748901,-125.160167,-83.704321,-53.005701,69.808146,38.982158,73.861307,74.080807,-74.176033,-28.355739,1
3343.0,176.544586,307.588745,258.327484,-127.090805,-83.779207,-51.172121,69.643306,39.032864,73.861193,74.080807,-74.047862,-28.49852,1
3358.0,177.195435,307.387817,258.164368,-128.010861,-83.891564,-50.218777,69.521897,39.060023,73.861193,73.94897,-73.965471,-28.597412,1
3373.0,177.836197,307.229523,258.140015,-127.941189,-83.966564,-50.214709,69.360208,39.080363,73.861193,73.674294,-73.901357,-28.597412,1
3389.0,178.723862,307.005219,258.110229,-127.579481,-84.109459,-50.477582,69.237595,39.102192,73.861193,73.454622,-73.878496,-28.597412,1
3405.0,179.548676,306.874359,258.222992,-126.708413,-84.301744,-51.175845,69.084214,39.117949,73.861193,73.070052,-73.869329,-28.597412,1
3420.0,180.484711,306.616119,258.293793,-125.760168,-84.402699,-52.031501,68.909519,39.131413,73.861193,72.762431,-73.84641,-28.542466,1
3435.0,181.372772,306.37561,258.247894,-125.818552,-84.484747,-51.879896,68.742789,39.148143,73.861193,72.509757,-73.750325,-28.542466,1
3451.0,182.262772,306.078369,258.207886,-126.094145,-84.522963,-51.559784,68.575141,39.155821,73.861193,72.322973,-73.640432,-28.542466,1
3467.0,183.147934,305.716797,258.026276,-127.114354,-84.480049,-50.559343,68.407666,39.168541,73.861193,72.246082,-73.475649,-28.542466,1
3483.0,183.976791,305.357086,257.802124,-128.081965,-84.368837,-49.630177,68.250389,39.181547,73.861193,72.213137,-73.292532,-28.49852,1
3498.0,184.566956,305.118195,257.619873,-129.106872,-84.280946,-48.614151,68.095346,39.191115,73.861193,72.191192,-73.068219,-28.487576,1
3513.0,185.336227,304.795776,257.360077,-130.604985,-84.158104,-47.13592,67.951018,39.200741,73.861193,72.169191,-72.830212,-28.487576,1
3531.0,186.163727,304.470917,257.113556,-132.036348,-84.039673,-45.701291,67.783142,39.206814,73.861193,72.114244,-72.587565,-28.487576,1
3545.0,186.928055,304.238892,256.954315,-133.134822,-83.9641,-44.530337,67.684593,39.208762,73.861193,72.015409,-72.409031,-28.487576,1
3560.0,187.677231,304.079712,256.855347,-133.948766,-83.944276,-43.576821,67.540551,39.2122,73.861193,71.806623,-72.193885,-28.487576,1
3575.0,188.443909,303.86554,256.813477,-134.446036,-83.95373,-42.982148,67.393874,39.214034,73.861193,71.608895,-72.03827,-28.487576,1
3590.0,189.110641,303.792572,256.835175,-133.867807,-83.923764,-43.369066,67.265875,39.214836,73.861193,71.312275,-71.887181,-28.355739,1
3606.0,189.782532,303.602081,256.89621,-132.68316,-83.873,-44.471895,67.101093,39.215122,73.861193,71.015655,-71.80479,-28.136009,1
3622.0,190.465195,303.495026,256.998047,-131.337511,-83.855353,-45.64898,67.007815,39.215466,73.861193,70.773924,-71.745317,-27.993171,1
3637.0,191.167175,303.309692,257.099518,-129.741193,-83.799146,-47.143082,66.874201,39.215695,73.861193,70.510249,-71.699537,-27.773442,1
3653.0,191.859283,303.000793,257.178284,-129.051409,-83.821777,-47.846445,66.743281,39.21581,73.861193,70.367411,-71.699537,-27.707494,1
3668.0,192.396469,302.747223,257.191803,-128.882502,-83.817709,-48.038271,66.641065,39.215924,73.861193,70.29052,-71.667509,-27.674549,1
3684.0,192.8862,302.510681,257.158936,-129.036112,-83.787171,-47.91033,66.547386,39.215924,73.861193,70.246574,-71.603395,-27.652605,1
3699.0,193.455719,302.286835,257.057037,-129.775456,-83.735891,-47.15076,66.437092,39.216268,73.861193,70.180684,-71.452306,-27.652605,1
3715.0,193.844345,302.279755,256.907166,-130.888369,-83.664959,-45.884408,66.359284,39.21644,73.861193,70.048846,-71.209716,-27.652605,1
3730.0,194.213455,302.28125,256.645081,-132.475864,-83.502468,-44.144507,66.283597,39.217242,73.861193,69.971898,-70.88015,-27.641604,1
3746.0,194.53241,302.212189,256.451263,-133.600866,-83.378022,-42.953901,66.196335,39.217758,73.861193,69.938953,-70.582556,-27.641604,1
3762.0,195.053528,302.083313,256.223328,-134.798119,-83.218739,-41.663084,66.090682,39.218216,73.861193,69.851061,-70.307938,-27.608659,1
3778.0,195.522446,302.04248,256.092102,-135.172375,-83.098991,-41.132583,66.021125,39.219419,73.861193,69.719223,-70.133988,-27.531711,1
3792.0,196.04007,301.976044,255.987762,-135.282383,-82.990129,-40.86971,65.918393,39.221654,73.861193,69.532496,-69.923426,-27.421875,1
3808.0,196.637482,301.791779,255.938873,-135.343689,-82.940339,-40.731398,65.801968,39.222857,73.861193,69.378657,-69.786088,-27.355985,1
3823.0,197.306351,301.546417,255.988815,-135.358873,-83.006745,-40.661669,65.673397,39.223086,73.861193,69.191873,-69.731141,-27.355985,1
3839.0,197.815613,301.363525,256.0625,-135.150373,-83.079854,-40.823816,65.575936,39.223487,73.861193,69.02709,-69.71739,-27.344984,1
3854.0,198.503738,301.014313,256.111969,-134.988112,-83.125863,-41.021658,65.444672,39.223946,73.861193,68.917254,-69.70828,-27.333983,1
3870.0,199.027863,300.760803,256.157715,-134.90085,-83.17359,-41.122098,65.313407,39.22406,73.861193,68.774416,-69.694529,-27.333983,1
3885.0,199.630737,300.512634,256.23291,-134.749876,-83.254263,-41.244424,65.228896,39.224175,73.861193,68.653579,-69.685362,-27.333983,1
3901.0,200.306381,300.152283,256.286774,-134.616319,-83.30772,-41.424562,65.099808,39.22429,73.861193,68.554687,-69.685362,-27.333983,1
3916.0,201.058762,299.762238,256.344086,-134.496915,-83.367365,-41.582813,64.955652,39.224404,73.861193,68.43385,-69.676194,-27.333983,1
3932.0,201.655853,299.533173,256.403778,-134.308698,-83.424087,-41.722615,64.840316,39.224576,73.861193,68.258066,-69.639582,-27.312039,1
3947.0,202.238968,299.350983,256.458038,-133.794182,-83.437151,-42.150672,64.726928,39.225034,73.861193,68.049338,-69.580052,-27.224147,1
3963.0,202.921265,299.070618,256.500305,-133.76542,-83.490436,-42.138525,64.594689,39.225378,73.861193,67.873554,-69.525163,-27.213146,1
3979.0,203.349792,298.990967,256.550964,-133.808678,-83.564118,-41.973971,64.510521,39.225607,73.861193,67.664769,-69.461049,-27.213146,1
3994.0,203.790833,298.834991,256.588531,-133.488223,-83.57638,-42.243204,64.394956,39.225779,73.861193,67.478042,-69.401576,-27.147199,1
4009.0,204.398376,298.634552,256.635864,-133.422562,-83.631326,-42.220802,64.305861,39.225779,73.861193,67.313259,-69.351213,-27.136255,1
4025.0,204.950851,298.48526,256.652557,-133.329456,-83.642843,-42.201779,64.196827,39.226008,73.861193,67.104473,-69.250487,-27.081309,1
4040.0,205.447983,298.287109,256.642883,-133.309173,-83.628748,-42.182585,64.09931,39.226467,73.861193,66.983636,-69.172679,-27.037363,1
4056.0,206.077179,297.93808,256.631805,-133.486618,-83.633446,-42.047826,63.977098,39.226696,73.861193,66.917746,-69.122316,-27.037363,1
4071.0,206.652267,297.659302,256.670624,-133.467253,-83.682148,-42.064785,63.865371,39.226811,73.861193,66.796852,-69.094871,-27.037363,1
4087.0,207.183334,297.443695,256.712921,-133.4798,-83.740475,-42.00789,63.761551,39.22704,73.861193,66.64307,-69.053676,-27.037363,1
4102.0,207.580826,297.296021,256.751678,-133.475045,-83.792557,-41.96509,63.656528,39.227212,73.861193,66.445285,-69.012423,-27.037363,1
4118.0,208.20961,297.074402,256.81189,-133.502432,-83.875635,-41.849353,63.534144,39.227326,73.861193,66.236557,-68.948366,-27.037363,1
4133.0,208.649338,296.975067,256.861969,-133.575885,-83.950063,-41.658329,63.45519,39.227441,73.861193,66.016827,-68.879726,-27.037363,1
4149.0,209.029892,296.908417,256.877655,-133.386236,-83.95075,-41.728975,63.396405,39.227555,73.861193,65.895991,-68.811028,-26.971415,1
4164.0,209.416794,296.801971,256.865814,-133.49951,-83.948516,-41.531075,63.318941,39.227899,73.861193,65.753152,-68.719469,-26.93847,1
4180.0,209.848831,296.687897,256.852631,-133.807188,-83.965762,-41.122441,63.232253,39.228243,73.861193,65.58837,-68.614217,-26.927469,1
4196.0,210.151733,296.670044,256.847778,-133.936963,-83.976018,-40.860714,63.170373,39.228644,73.861193,65.412586,-68.513491,-26.894524,1
4212.0,210.425644,296.653046,256.808289,-134.214791,-83.956824,-40.464342,63.113937,39.229217,73.861193,65.269748,-68.394488,-26.861579,1
4226.0,210.676666,296.557159,256.766846,-134.55931,-83.941182,-40.089227,63.063516,39.229675,73.861193,65.214858,-68.321206,-26.861579,1
4242.0,210.882309,296.455109,256.75412,-134.698023,-83.939119,-39.948279,63.005247,39.229847,73.861193,65.181856,-68.284594,-26.861579,1
4257.0,211.164001,296.295105,256.748718,-134.787978,-83.942843,-39.875055,62.967718,39.230076,73.861193,65.148911,-68.266317,-26.861579,1
4273.0,211.443787,296.127106,256.734283,-134.895694,-83.940552,-39.792778,62.913,39.230993,73.861193,65.126967,-68.243399,-26.861579,1
4288.0,211.813705,295.899811,256.734924,-134.939296,-83.95012,-39.787278,62.840922,39.231738,73.861193,65.093964,-68.229648,-26.861579,1
4304.0,212.128174,295.735779,256.734467,-135.03349,-83.963069,-39.696006,62.779043,39.232426,73.861193,65.039075,-68.202203,-26.861579,1
4319.0,212.52037,295.545898,256.772003,-134.999284,-84.008963,-39.718523,62.702037,39.232597,73.861193,64.940182,-68.188452,-26.861579,1
4335.0,212.979156,295.355438,256.833282,-134.929154,-84.082244,-39.74253,62.61151,39.232827,73.861193,64.786401,-68.170175,-26.861579,1
4350.0,213.580658,295.131439,256.897949,-134.968975,-84.171797,-39.615448,62.491991,39.23317,73.861193,64.566671,-68.119812,-26.861579,1
4366.0,213.978989,295.061951,256.939026,-135.151004,-84.247084,-39.296482,62.385192,39.233915,73.861193,64.280994,-68.009976,-26.828634,1
4381.0,214.557755,294.931732,256.933655,-134.716415,-84.199299,-39.564741,62.261376,39.234603,73.861193,64.017319,-67.86347,-26.685796,1
4397.0,215.236282,294.755707,256.918579,-134.478924,-84.156843,-39.626964,62.155149,39.234947,73.861193,63.79759,-67.730716,-26.586903,1
4413.0,215.902954,294.605804,256.86377,-134.363645,-84.069868,-39.545203,62.017926,39.234947,73.861193,63.511971,-67.51557,-26.433121,1
4428.0,216.470413,294.50705,256.7966,-134.06691,-83.947026,-39.645643,61.899954,39.235061,73.861307,63.248295,-67.300425,-26.246337,1
4444.0,217.215408,294.196167,256.701996,-134.129363,-83.826246,-39.500398,61.748578,39.235233,73.861307,63.072512,-67.103556,-26.1145,1
4459.0,217.741364,294.028534,256.635193,-134.300677,-83.75709,-39.216898,61.640347,39.235691,73.861422,62.896728,-66.938774,-26.026608,1
4474.0,218.268906,293.792725,256.511261,-134.348003,-83.598954,-39.125684,61.532344,39.236264,73.861536,62.808837,-66.76024,-25.89477,1
4490.0,218.697418,293.556946,256.417755,-134.737213,-83.518224,-38.741286,61.418096,39.236379,73.861536,62.75389,-66.600041,-25.861825,1
4505.0,219.21492,293.319214,256.26004,-135.733816,-83.422655,-37.699993,61.338742,39.236436,73.861536,62.709944,-66.435258,-25.861825,1
4521.0,219.581223,293.181854,256.071777,-136.602592,-83.278155,-36.768592,61.261106,39.236895,73.861536,62.665998,-66.210946,-25.82888,1
4536.0,220.058929,292.964325,255.876175,-137.541441,-83.133254,-35.784652,61.161239,39.237238,73.861536,62.622052,-65.977465,-25.806879,1
4552.0,220.528336,292.769928,255.712936,-138.479487,-83.03184,-34.780372,61.062862,39.237697,73.861536,62.545162,-65.76232,-25.806879,1
4567.0,220.887634,292.737183,255.542542,-139.226853,-82.904644,-33.865072,60.983794,39.238327,73.861536,62.39138,-65.501395,-25.751932,1
4583.0,221.210144,292.710693,255.414764,-139.427847,-82.772119,-33.512301,60.912919,39.2389,73.861536,62.23754,-65.286249,-25.642096,1
4598.0,221.656494,292.575165,255.368713,-139.428019,-82.719578,-33.400174,60.819642,39.239645,73.861536,62.061757,-65.148911,-25.554204,1
4614.0,221.970734,292.487396,255.385712,-139.112033,-82.708062,-33.63056,60.734157,39.240332,73.861536,61.853029,-65.075687,-25.433367,1
4630.0,222.358261,292.405121,255.439682,-138.580672,-82.717917,-34.029625,60.648729,39.240848,73.861536,61.633299,-65.02074,-25.312473,1
4646.0,222.77095,292.239105,255.485275,-137.9597,-82.708578,-34.588946,60.571265,39.241306,73.861536,61.490461,-64.993296,-25.213638,1
4660.0,223.156357,292.048279,255.53389,-137.700379,-82.740835,-34.823401,60.513052,39.24165,73.861536,61.391626,-64.988712,-25.180636,1
4676.0,223.628601,291.778351,255.588211,-137.592663,-82.795094,-34.934726,60.418972,39.24165,73.861536,61.281732,-64.988712,-25.169692,1
4691.0,224.107376,291.513,255.642807,-137.565734,-82.859896,-34.955124,60.323289,39.241708,73.861536,61.160896,-64.984128,-25.169692,1
4706.0,224.585449,291.250854,255.68663,-137.452804,-82.903784,-35.058657,60.227375,39.242166,73.861536,61.040059,-64.970377,-25.147691,1
4722.0,225.037704,290.970642,255.710724,-137.14461,-82.903613,-35.391718,60.137192,39.243025,73.861536,60.96311,-64.961267,-25.092801,1
4738.0,225.453415,290.687347,255.730377,-136.999022,-82.913295,-35.584289,60.029075,39.243598,73.861536,60.908221,-64.961267,-25.0708,1
4753.0,225.990189,290.345306,255.77327,-136.896405,-82.955064,-35.721512,59.947887,39.243713,73.861651,60.831273,-64.961267,-25.059799,1
4769.0,226.429398,290.117249,255.823959,-136.578299,-82.982337,-36.015382,59.859135,39.243827,73.861651,60.699435,-64.947516,-25.00491,1
4784.0,226.802185,289.930939,255.866165,-136.010211,-82.972883,-36.557114,59.783505,39.244343,73.861651,60.578598,-64.933765,-24.906017,1
4800.0,227.25853,289.675995,255.891449,-135.896536,-82.993624,-36.661048,59.691144,39.244801,73.861651,60.468762,-64.906321,-24.873072,1
4816.0,227.640305,289.5271,255.92955,-135.887484,-83.04393,-36.594642,59.612248,39.24526,73.861651,60.30398,-64.865125,-24.85107,1
4831.0,227.907486,289.45282,255.948654,-135.610688,-83.037627,-36.789849,59.555983,39.245604,73.861651,60.161141,-64.814762,-24.774179,1
4846.0,228.143555,289.33786,255.938446,-135.459026,-83.009381,-36.919338,59.507225,39.246119,73.861651,60.095194,-64.773566,-24.719233,1
4862.0,228.328995,289.212463,255.944519,-135.470428,-83.01872,-36.924781,59.460872,39.246348,73.861651,60.062249,-64.768983,-24.719233,1
4878.0,228.515396,289.110352,255.969727,-135.44516,-83.049545,-36.942256,59.422427,39.246578,73.861651,59.996359,-64.768983,-24.719233,1
4893.0,228.742004,289.002625,256.009888,-135.404824,-83.098877,-36.955892,59.386273,39.246807,73.861651,59.930411,-64.768983,-24.719233,1
4908.0,228.976761,288.907471,256.055389,-135.377265,-83.157662,-36.938646,59.33803,39.247208,73.861651,59.820575,-64.764399,-24.719233,1
4923.0,229.227295,288.850281,256.108734,-135.218441,-83.212208,-37.004766,59.285318,39.247781,73.861651,59.655735,-64.741538,-24.686288,1
4939.0,229.458359,288.799164,256.158081,-134.996993,-83.25283,-37.139067,59.236502,39.248125,73.861651,59.501954,-64.71862,-24.642342,1
4955.0,229.713684,288.720428,256.176941,-134.833642,-83.258503,-37.228735,59.182587,39.248239,73.861651,59.370116,-64.67284,-24.587395,1
4970.0,229.935074,288.650696,256.185303,-134.682725,-83.251742,-37.317257,59.135662,39.248354,73.861651,59.260223,-64.627061,-24.532449,1
4986.0,230.107742,288.599976,256.1875,-134.651499,-83.251169,-37.295255,59.083465,39.248526,73.861651,59.139386,-64.576698,-24.488503,1
5001.0,230.33902,288.514984,256.185608,-134.532381,-83.235298,-37.360974,59.050004,39.24864,73.861651,59.073496,-64.535502,-24.444557,1
5017.0,230.563583,288.445374,256.183746,-134.49829,-83.230485,-37.329174,59.002105,39.248984,73.861651,58.963602,-64.480613,-24.400611,1
5033.0,230.810822,288.352448,256.168152,-134.516739,-83.213583,-37.254403,58.949565,39.249328,73.861651,58.864767,-64.416499,-24.356665,1
5048.0,231.009415,288.30304,256.139374,-134.605319,-83.187914,-37.094204,58.906249,39.249672,73.861651,58.765875,-64.338691,-24.312719,1
5064.0,231.22731,288.223938,256.11908,-134.629497,-83.164824,-37.017027,58.859668,39.249844,73.861651,58.677983,-64.274577,-24.268773,1
5079.0,231.385086,288.209351,256.106598,-134.71229,-83.161959,-36.851098,58.82466,39.250416,73.861651,58.56809,-64.210521,-24.235828,1
5095.0,231.559372,288.16925,256.096893,-134.755892,-83.158808,-36.74046,58.78673,39.251104,73.861651,58.469254,-64.155574,-24.202883,1
5110.0,231.658859,288.145325,256.090302,-134.830835,-83.161214,-36.627874,58.759515,39.251505,73.861651,58.392306,-64.109795,-24.191882,1
5125.0,231.761749,288.127136,256.087341,-134.9036,-83.169866,-36.509272,58.742555,39.251963,73.861651,58.34836,-64.091517,-24.180882,1
5141.0,231.841599,288.103119,256.091431,-134.959177,-83.185794,-36.428256,58.725538,39.252479,73.861651,58.304414,-64.077766,-24.180882,1
5156.0,231.950897,288.03006,256.081116,-134.961641,-83.175309,-36.433355,58.70325,39.252937,73.861651,58.293471,-64.064015,-24.169938,1
5172.0,232.029343,288.000275,256.076508,-135.043631,-83.182013,-36.332686,58.686577,39.253396,73.861651,58.260469,-64.045738,-24.169938,1
5187.0,232.123688,287.969849,256.067688,-135.168364,-83.188945,-36.179764,58.666237,39.253912,73.861651,58.216523,-64.018236,-24.169938,1
5203.0,232.241226,287.920868,256.058228,-135.2943,-83.195878,-36.030222,58.641314,39.254599,73.861651,58.172577,-63.990791,-24.169938,1
5218.0,232.415039,287.858978,256.074829,-135.381161,-83.230485,-35.897296,58.604472,39.255057,73.861651,58.084742,-63.967873,-24.169938,1
5234.0,232.555817,287.819733,256.100586,-135.422929,-83.270993,-35.806654,58.564251,39.255458,73.861651,57.952905,-63.949596,-24.158937,1
5249.0,232.741074,287.787079,256.150696,-134.983356,-83.288354,-36.165096,58.534629,39.255802,73.861651,57.854012,-63.940428,-24.09299,1
5265.0,232.897705,287.768768,256.170197,-134.405757,-83.246929,-36.665976,58.500137,39.256031,73.861651,57.733175,-63.903816,-23.972153,1
5280.0,233.062073,287.732086,256.19339,-134.050638,-83.236043,-36.956809,58.464499,39.256261,73.861651,57.623282,-63.876372,-23.895262,1
5297.0,233.208282,287.689453,256.213684,-133.725828,-83.22636,-37.234866,58.433215,39.256662,73.861651,57.53539,-63.858037,-23.829372,1
5312.0,233.325226,287.668304,256.239655,-133.56815,-83.243205,-37.340404,58.407833,39.256891,73.861651,57.447499,-63.844286,-23.79637,1
5327.0,233.427246,287.63205,256.254883,-133.465075,-83.252372,-37.41655,58.386175,39.25712,73.861651,57.392552,-63.835119,-23.774425,1
5342.0,233.497726,287.61261,256.265686,-133.366068,-83.255351,-37.49115,58.371049,39.257235,73.861651,57.348606,-63.826009,-23.752424,1
5358.0,233.525391,287.605743,256.253448,-133.392768,-83.242001,-37.454022,58.362913,39.257464,73.861651,57.337663,-63.80309,-23.74148,1
5373.0,233.554626,287.591034,256.229095,-133.451611,-83.219599,-37.392085,58.358272,39.257693,73.861651,57.337663,-63.784813,-23.730479,1
5389.0,233.561905,287.592224,256.208954,-133.486561,-83.200061,-37.351577,58.356324,39.258094,73.861651,57.337663,-63.766478,-23.719479,1
5404.0,233.563354,287.594635,256.197479,-133.474128,-83.186367,-37.360974,58.355751,39.258552,73.861651,57.337663,-63.757311,-23.708478,1
5420.0,233.568359,287.590668,256.196075,-133.475961,-83.186367,-37.360171,58.354777,39.258782,73.861651,57.337663,-63.757311,-23.708478,1
5435.0,233.580444,287.582825,256.188293,-133.504094,-83.18356,-37.332555,58.352256,39.259297,73.861651,57.337663,-63.752727,-23.708478,1
5450.0,233.608093,287.577484,256.19696,-133.496416,-83.195878,-37.328028,58.346298,39.259526,73.861651,57.315661,-63.752727,-23.708478,1
5466.0,233.662292,287.567688,256.213593,-133.481863,-83.220687,-37.31783,58.334667,39.260099,73.861651,57.271715,-63.752727,-23.708478,1
5481.0,233.695999,287.574249,256.232239,-133.464732,-83.245382,-37.306199,58.324353,39.260386,73.861651,57.216769,-63.752727,-23.708478,1
5497.0,233.761154,287.555542,256.249542,-133.38532,-83.262169,-37.363552,58.313238,39.26073,73.861651,57.183824,-63.752727,-23.697534,1
5512.0,233.857727,287.503082,256.26413,-133.371454,-83.280676,-37.369969,58.293356,39.260844,73.861651,57.150878,-63.752727,-23.697534,1
5528.0,233.946045,287.472534,256.264862,-133.32281,-83.277869,-37.39409,58.274334,39.261188,73.861651,57.106933,-63.73445,-23.675533,1
5544.0,234.051041,287.450439,256.261902,-133.337936,-83.278785,-37.334503,58.251187,39.261646,73.861651,57.041042,-63.702422,-23.653589,1
5558.0,234.151886,287.418243,256.240143,-133.156136,-83.229511,-37.486795,58.228956,39.262048,73.861651,56.997097,-63.661169,-23.587641,1
5574.0,234.233749,287.396088,256.231995,-132.90478,-83.188831,-37.710478,58.210965,39.262391,73.861651,56.953151,-63.633724,-23.521751,1
5589.0,234.279083,287.389832,256.231812,-132.714386,-83.166543,-37.8795,58.198417,39.26285,73.861651,56.909205,-63.619973,-23.466804,1
5605.0,234.309784,287.398773,256.222961,-132.697025,-83.154683,-37.867984,58.193375,39.263022,73.861651,56.887203,-63.597112,-23.455804,1
5620.0,234.319992,287.40918,256.2005,-132.774718,-83.135603,-37.772701,58.190281,39.263251,73.861651,56.876203,-63.569667,-23.444803,1
5636.0,234.322098,287.416077,256.176666,-132.772369,-83.105236,-37.767143,58.189193,39.263594,73.861651,56.876203,-63.546749,-23.422858,1
5651.0,234.321213,287.436951,256.176514,-132.811732,-83.111883,-37.706123,58.188677,39.263824,73.861651,56.854258,-63.537582,-23.422858,1
5667.0,234.318207,287.466156,256.185608,-132.82279,-83.127582,-37.666016,58.188448,39.264053,73.861651,56.821313,-63.532998,-23.422858,1
5683.0,234.317505,287.476868,256.184082,-132.844447,-83.130905,-37.63353,58.188219,39.264339,73.861651,56.810312,-63.528472,-23.422858,1
5699.0,234.314606,287.504242,256.198212,-132.830926,-83.149469,-37.619836,58.188104,39.264454,73.861651,56.777367,-63.528472,-23.422858,1
5714.0,234.3134,287.521912,256.207397,-132.822274,-83.161845,-37.610554,58.18776,39.264683,73.861651,56.755366,-63.528472,-23.422858,1
5729.0,234.312225,287.539612,256.215179,-132.815398,-83.17422,-37.599439,58.187646,39.264912,73.861651,56.733421,-63.528472,-23.422858,1
5745.0,234.314468,287.537903,256.213074,-132.818206,-83.174278,-37.597147,58.187245,39.265256,73.861651,56.733421,-63.528472,-23.422858,1
5760.0,234.314316,287.548157,256.211548,-132.840036,-83.177601,-37.564488,58.186901,39.2656,73.861651,56.722421,-63.523888,-23.422858,1
5776.0,234.312256,287.569885,256.212067,-132.879341,-83.184247,-37.503411,58.186557,39.265657,73.861651,56.700419,-63.514721,-23.422858,1
5792.0,234.312225,287.578308,256.214874,-132.877392,-83.190492,-37.496478,58.186328,39.266001,73.861651,56.689476,-63.514721,-23.422858,1
5806.0,234.312195,287.586761,256.217712,-132.875444,-83.19668,-37.489603,58.186099,39.266345,73.861651,56.678475,-63.514721,-23.422858,1
5825.0,234.312805,287.586365,256.214905,-132.879111,-83.196738,-37.48605,58.186041,39.266803,73.861651,56.678475,-63.514721,-23.422858,0
5841.0,234.312027,287.590515,256.2034,-132.930735,-83.191008,-37.430588,58.185927,39.267204,73.861651,56.678475,-63.505553,-23.422858,0
5853.0,234.310806,287.601715,256.199799,-132.955544,-83.194389,-37.394835,58.185812,39.267892,73.861651,56.667474,-63.50097,-23.422858,0
5868.0,234.310654,287.611969,256.196869,-132.979494,-83.197769,-37.360171,58.185468,39.268407,73.861651,56.656473,-63.496386,-23.422858,0
5884.0,234.311142,287.613434,256.189026,-133.008027,-83.194962,-37.329919,58.185239,39.26898,73.861651,56.656473,-63.491802,-23.422858,0
5902.0,234.312286,287.61261,256.18692,-133.010777,-83.194962,-37.327398,58.184781,39.269439,73.861651,56.656473,-63.491802,-23.422858,0
5917.0,234.314041,287.611389,256.181976,-133.017194,-83.195076,-37.321325,58.184666,39.270069,73.861651,56.656473,-63.491802,-23.422858,0
5932.0,234.315765,287.610168,256.178467,-133.021835,-83.195076,-37.317085,58.18438,39.270642,73.861651,56.656473,-63.491802,-23.422858,0
5945.0,234.316269,287.611633,256.170044,-133.303788,-83.224297,-37.03158,58.184151,39.271272,73.861651,56.656473,-63.487219,-23.466804,0
5960.0,234.317551,287.610962,256.162537,-133.76181,-83.28016,-36.57075,58.183921,39.272475,73.861651,56.656473,-63.487219,-23.543695,0
5977.0,234.318192,287.610626,256.158447,-134.026689,-83.311902,-36.30421,58.183807,39.273163,73.861651,56.656473,-63.487219,-23.587641,0
5992.0,234.319382,287.609833,256.154999,-134.161964,-83.327716,-36.168305,58.183578,39.273736,73.861651,56.656473,-63.487219,-23.609643,0
6007.0,234.320541,287.609009,256.152222,-134.296953,-83.343472,-36.032743,58.183348,39.274137,73.861651,56.656473,-63.487219,-23.631587,0
6023.0,234.321182,287.608673,256.148071,-134.434463,-83.359229,-35.894488,58.183291,39.274824,73.861651,56.656473,-63.487219,-23.653589,0
6039.0,234.321793,287.608307,256.145264,-134.438244,-83.359286,-35.890821,58.183177,39.275226,73.861651,56.656473,-63.487219,-23.653589,0
6054.0,234.321823,287.608368,256.14386,-134.440135,-83.359286,-35.88893,58.183062,39.275569,73.861651,56.656473,-63.487219,-23.664532,0
6068.0,234.322449,287.608002,256.140381,-134.51101,-83.367135,-35.817712,58.183062,39.276028,73.861651,56.656473,-63.487219,-23.664532,0
6086.0,234.322495,287.608093,256.137573,-134.514849,-83.367193,-35.81393,58.183062,39.276429,73.861651,56.656473,-63.487219,-23.664532,0
6101.0,234.32254,287.608124,256.135498,-134.584005,-83.375042,-35.744373,58.183062,39.276773,73.861651,56.656473,-63.487219,-23.675533,0
6115.0,234.322571,287.608185,256.134064,-134.585895,-83.375042,-35.742482,58.183062,39.277002,73.861651,56.656473,-63.487219,-23.675533,0
6130.0,234.322601,287.608215,256.13266,-134.587786,-83.375099,-35.740592,58.183062,39.277231,73.861651,56.656473,-63.487219,-23.675533,0
6145.0,234.322632,287.608246,256.131287,-134.656197,-83.382892,-35.671722,58.183062,39.27746,73.861651,56.656473,-63.487219,-23.686534,0
6162.0,234.323212,287.607849,256.129913,-134.72478,-83.390741,-35.602853,58.182947,39.277747,73.861651,56.656473,-63.487219,-23.697534,0
6177.0,234.323257,287.60791,256.127808,-134.727588,-83.390741,-35.600045,58.182947,39.277976,73.861651,56.656473,-63.487219,-23.697534,0
6192.0,234.323303,287.607941,256.125732,-134.797317,-83.398591,-35.529915,58.182947,39.27832,73.861651,56.656473,-63.487219,-23.708478,0
6208.0,234.323349,287.608002,256.123657,-134.86716,-83.406383,-35.45967,58.182947,39.278663,73.861651,56.656473,-63.487219,-23.719479,0
6223.0,234.323395,287.608063,256.121613,-135.004441,-83.421967,-35.321473,58.182947,39.279007,73.861651,56.656473,-63.487219,-23.74148,0
6239.0,234.323441,287.608124,256.119629,-135.278143,-83.452964,-35.045995,58.182947,39.279408,73.861651,56.656473,-63.487219,-23.785426,0
6253.0,234.324066,287.607758,256.116913,-135.486814,-83.476112,-34.83612,58.182833,39.279752,73.861651,56.656473,-63.487219,-23.818371,0
6268.0,234.324112,287.607819,256.114868,-135.696058,-83.499202,-34.625616,58.182833,39.280096,73.861651,56.656473,-63.487219,-23.851316,0
6284.0,234.324158,287.60788,256.112885,-135.976292,-83.529855,-34.343549,58.182833,39.280382,73.861651,56.656473,-63.487219,-23.895262,0
6300.0,234.324219,287.607941,256.110992,-136.470984,-83.583026,-33.845763,58.182833,39.280726,73.861651,56.656473,-63.487219,-23.972153,0
6316.0,234.324265,287.608002,256.109741,-136.829254,-83.620784,-33.485258,58.182833,39.280955,73.861651,56.656473,-63.487219,-24.0271,0
6331.0,234.32431,287.608063,256.107727,-137.048067,-83.643244,-33.265185,58.182833,39.281299,73.861651,56.656473,-63.487219,-24.060045,0
6347.0,234.323639,287.610321,256.102814,-137.36285,-83.670058,-32.94662,58.182833,39.281413,73.861651,56.656473,-63.482692,-24.103991,0
6363.0,234.324249,287.609955,256.100067,-137.512908,-83.684898,-32.79576,58.182718,39.281815,73.861651,56.656473,-63.482692,-24.125992,0
6378.0,234.32431,287.610046,256.09729,-137.5902,-83.692346,-32.718067,58.182718,39.282388,73.861651,56.656473,-63.482692,-24.147937,0
6393.0,234.324341,287.610077,256.095947,-137.73934,-83.707129,-32.56801,58.182718,39.282502,73.861651,56.656473,-63.482692,-24.158937,0
6408.0,234.324387,287.610138,256.093872,-137.816174,-83.71452,-32.490775,58.182718,39.282846,73.861651,56.656473,-63.482692,-24.169938,0
6424.0,234.324417,287.610168,256.092499,-137.892206,-83.721854,-32.414285,58.182718,39.283018,73.861651,56.656473,-63.482692,-24.180882,0
6439.0,234.323761,287.612457,256.086761,-137.991958,-83.726151,-32.312127,58.182718,39.283247,73.861651,56.656473,-63.478109,-24.191882,0
6455.0,234.323792,287.612488,256.085419,-138.142817,-83.740818,-32.16035,58.182718,39.283476,73.861651,56.656473,-63.478109,-24.213884,0
6470.0,234.323822,287.612549,256.084076,-138.294479,-83.755429,-32.007829,58.182718,39.283705,73.861651,56.656473,-63.478109,-24.235828,0
6485.0,234.323166,287.614807,256.078369,-138.394976,-83.759611,-31.904868,58.182718,39.283934,73.861651,56.656473,-63.473525,-24.25783,0
6501.0,234.323166,287.614838,256.07843,-138.545607,-83.774165,-31.753321,58.182718,39.283934,73.861651,56.656473,-63.473525,-24.268773,0
6517.0,234.321808,287.619354,256.068512,-139.05044,-83.811292,-31.241784,58.182718,39.284164,73.861651,56.656473,-63.464358,-24.334721,0
6532.0,234.321136,287.621643,256.06366,-139.537167,-83.851113,-30.750416,58.182718,39.284278,73.861651,56.656473,-63.459774,-24.400611,0
6548.0,234.320465,287.623901,256.058716,-139.794941,-83.869218,-30.489262,58.182718,39.284336,73.861651,56.656473,-63.45519,-24.433613,0
6564.0,234.320511,287.623962,256.056671,-139.954624,-83.88337,-30.328661,58.182718,39.284679,73.861651,56.656473,-63.45519,-24.455558,0
6579.0,234.319855,287.626251,256.051025,-140.216065,-83.901304,-30.063898,58.182718,39.284909,73.861651,56.656473,-63.450607,-24.488503,0
6595.0,234.319168,287.62854,256.046021,-140.398495,-83.912133,-29.878489,58.182718,39.285023,73.861651,56.656473,-63.446023,-24.510504,0
6610.0,234.318497,287.630798,256.041016,-140.501971,-83.915914,-29.772606,58.182718,39.285138,73.861651,56.656473,-63.441439,-24.532449,0
6625.0,234.318527,287.630829,256.039703,-140.74353,-83.936827,-29.529729,58.182718,39.285367,73.861651,56.656473,-63.441439,-24.55445,0
6641.0,234.318573,287.63089,256.038544,-141.392347,-83.992003,-28.877302,58.182718,39.285596,73.861651,56.656473,-63.441439,-24.642342,0
6656.0,234.318604,287.63092,256.038025,-141.886237,-84.032912,-28.380662,58.182718,39.285653,73.861651,56.656473,-63.441439,-24.708232,0
6671.0,234.319794,287.621674,256.032471,-142.048842,-84.040246,-28.22625,58.182718,39.285768,73.861651,56.667474,-63.441439,-24.730234,0
6686.0,234.319138,287.623962,256.026794,-142.239809,-84.050388,-28.032361,58.182718,39.285997,73.861651,56.667474,-63.436913,-24.752178,0
6702.0,234.319687,287.623505,256.026794,-142.239809,-84.050388,-28.032476,58.182604,39.285997,73.861651,56.667474,-63.436913,-24.752178,0
6718.0,234.319702,287.623535,256.026123,-142.324321,-84.057148,-27.947506,58.182604,39.286226,73.861651,56.667474,-63.436913,-24.774179,0
6733.0,234.319016,287.625824,256.021118,-142.51523,-84.067232,-27.753617,58.182604,39.286226,73.861651,56.667474,-63.432329,-24.78518,0
6748.0,234.319046,287.625854,256.019775,-142.68557,-84.080525,-27.582417,58.182604,39.286456,73.861651,56.667474,-63.432329,-24.807124,0
6765.0,234.317673,287.630371,256.010529,-143.069739,-84.100407,-27.192405,58.182604,39.28657,73.861651,56.667474,-63.423162,-24.85107,0
6781.0,234.316986,287.632629,256.005554,-143.263341,-84.110204,-26.995823,58.182604,39.286685,73.861651,56.667474,-63.418578,-24.873072,0
6796.0,234.317017,287.63266,256.004883,-143.349858,-84.116793,-26.908906,58.182604,39.286799,73.861651,56.667474,-63.418578,-24.884015,0
6811.0,234.317017,287.63269,256.004181,-143.350889,-84.116793,-26.907817,58.182604,39.286914,73.861651,56.667474,-63.418578,-24.884015,0
6826.0,234.317017,287.63269,256.004181,-143.350889,-84.116793,-26.907817,58.182604,39.286914,73.861651,56.667474,-63.418578,-24.884015,0
6841.0,234.317032,287.63269,256.003479,-143.351978,-84.116736,-26.906728,58.182604,39.286971,73.861651,56.667474,-63.418578,-24.884015,0
6856.0,234.317047,287.632721,256.002777,-143.353066,-84.116736,-26.905697,58.182604,39.287086,73.861651,56.667474,-63.418578,-24.884015,0
6871.0,234.317062,287.632721,256.002045,-143.354098,-84.116736,-26.904608,58.182604,39.2872,73.861651,56.667474,-63.418578,-24.884015,0
6888.0,234.317078,287.632751,256.001343,-143.355186,-84.116736,-26.903577,58.182604,39.287315,73.861651,56.667474,-63.418578,-24.884015,0
6903.0,234.317078,287.632751,256.001343,-143.355186,-84.116736,-26.903577,58.182604,39.287315,73.861651,56.667474,-63.418578,-24.884015,0
6918.0,234.317078,287.632751,256.001343,-143.355186,-84.116736,-26.903577,58.182604,39.287315,73.861651,56.667474,-63.418578,-24.884015,0
6933.0,234.317093,287.632782,256.000641,-143.356275,-84.116736,-26.902488,58.182604,39.28743,73.861651,56.667474,-63.418578,-24.884015,0
6950.0,234.319443,287.614227,255.990799,-143.344816,-84.10436,-26.931996,58.182604,39.28743,73.861651,56.689476,-63.418578,-24.884015,0
6966.0,234.320618,287.60498,255.98587,-143.339143,-84.098172,-26.946721,58.182604,39.28743,73.861651,56.700419,-63.418578,-24.884015,0
6980.0,234.322952,287.586456,255.976013,-143.327856,-84.085854,-26.976056,58.182604,39.28743,73.861651,56.722421,-63.418578,-24.884015,0
6996.0,234.322952,287.586456,255.976013,-143.327856,-84.085854,-26.976056,58.182604,39.28743,73.861651,56.722421,-63.418578,-24.884015,0
7012.0,234.324127,287.577209,255.970383,-143.32333,-84.079666,-26.989693,58.182604,39.287544,73.861651,56.733421,-63.418578,-24.884015,0
