BAEK26/lfd/data/test_sumin_b.csv
timestamp,x,y,z,roll,pitch,yaw,joint1,joint2,joint3,joint4,joint5,joint6,gripper
168.0,231.620651,276.080902,259.922028,-156.196259,-86.734236,-7.500934,56.615965,35.197313,67.880774,46.988498,-62.727362,-21.917698,0
191.0,231.616364,276.08905,259.92395,-156.274468,-86.716475,-7.413845,56.615965,35.19336,67.880774,46.988498,-62.704444,-21.917698,0
207.0,231.616074,276.088654,259.934906,-156.246909,-86.71722,-7.441404,56.615965,35.191641,67.880774,46.988498,-62.704444,-21.917698,0
224.0,231.615891,276.088409,259.941742,-156.229663,-86.717735,-7.45865,56.615965,35.190552,67.880774,46.988498,-62.704444,-21.917698,0
239.0,231.615768,276.088257,259.945862,-156.219292,-86.718022,-7.468963,56.615965,35.189521,67.880774,46.988498,-62.704444,-21.917698,0
255.0,231.61557,276.088013,259.9534,-156.20027,-86.718537,-7.487928,56.615965,35.188318,67.880774,46.988498,-62.704444,-21.917698,0
270.0,231.615173,276.087494,259.967743,-156.164002,-86.719569,-7.524139,56.615965,35.185338,67.880774,46.988498,-62.704444,-21.917698,0
283.0,231.614014,276.085968,260.010193,-156.056801,-86.722491,-7.631168,56.615965,35.179551,67.880774,46.988498,-62.704444,-21.917698,0
299.0,231.599213,276.1297,260.114624,-156.073532,-86.754863,-7.568085,56.615965,35.16603,67.880774,46.933609,-62.704444,-21.917698,0
313.0,231.584915,276.165924,260.296082,-155.839306,-86.803278,-7.760943,56.615965,35.142424,67.880888,46.878662,-62.718195,-21.917698,0
329.0,231.558929,276.224945,260.64328,-155.331551,-86.878221,-8.199026,56.615965,35.094295,67.881232,46.79077,-62.731946,-21.917698,0
344.0,231.535797,276.239685,261.170288,-154.096713,-86.940902,-9.398456,56.615965,35.013737,67.881232,46.746824,-62.741113,-21.917698,0
360.0,231.522232,276.19696,261.882812,-153.600073,-87.062197,-9.905581,56.615965,34.905964,67.881232,46.746824,-62.782309,-22.016591,0
375.0,231.507843,276.144836,262.680573,-153.53487,-87.218901,-9.985566,56.615965,34.786789,67.881347,46.746824,-62.837198,-22.159429,0
391.0,231.487183,276.067657,263.788757,-152.944895,-87.430896,-10.599605,56.615965,34.622121,67.881461,46.746824,-62.919589,-22.335213,0
407.0,231.447952,276.009186,264.988678,-153.319209,-87.612352,-10.220192,56.615965,34.430925,67.881461,46.746824,-62.928757,-22.554942,0
422.0,231.416946,275.958801,265.926147,-154.467416,-87.775301,-9.07038,56.615965,34.224603,67.881576,46.746824,-62.951675,-22.829618,0
437.0,231.370819,275.872986,267.354462,-153.659488,-87.984087,-9.883293,56.615621,34.058388,67.881576,46.746824,-62.974536,-22.972399,0
453.0,231.315689,275.79483,268.767029,-150.022295,-88.114721,-13.514928,56.615392,33.831382,67.881576,46.746824,-62.974536,-23.071292,0
469.0,231.266739,275.689575,270.06842,-143.828392,-88.135748,-19.732036,56.615392,33.615835,67.881576,46.79077,-62.951675,-23.071292,0
485.0,231.20108,275.582214,271.190857,-140.42594,-87.863765,-23.151162,56.615392,33.379547,67.88169,46.955553,-62.663248,-23.038346,0
500.0,231.164124,275.371948,272.203156,-138.267951,-87.544513,-25.427179,56.615392,33.154776,67.881748,47.24123,-62.384046,-23.038346,0
516.0,231.128174,275.119141,273.243591,-136.571194,-87.176044,-27.275656,56.615392,32.918087,67.881748,47.581796,-62.081925,-23.038346,0
530.0,231.102295,274.851105,274.196625,-135.61212,-86.869053,-28.406331,56.615392,32.703973,67.881748,47.922362,-61.834694,-23.082292,0
546.0,231.046082,274.759705,275.05835,-135.192314,-86.752514,-28.838341,56.615392,32.482925,67.881748,48.043199,-61.605855,-23.170184,0
561.0,230.953735,274.757294,276.008972,-136.010899,-86.694932,-27.933239,56.615392,32.339457,67.881748,48.054199,-61.427321,-23.28002,0
577.0,230.870987,274.729492,276.908081,-138.536898,-86.734809,-25.344673,56.615392,32.158746,67.881748,48.098145,-61.216759,-23.554696,0
592.0,230.788589,274.700836,277.876587,-139.242667,-86.765864,-24.57565,56.615392,31.978207,67.881748,48.109146,-61.06567,-23.730479,0
609.0,230.712021,274.742249,278.389191,-140.601723,-86.684332,-23.117472,56.615392,31.860464,67.881748,48.109146,-60.841357,-23.818371,0
623.0,230.635788,274.748108,279.085846,-140.169197,-86.602972,-23.474195,56.615392,31.721579,67.881748,48.109146,-60.671991,-23.840315,0
639.0,230.55632,274.836914,279.322723,-142.890116,-86.474228,-20.6231,56.615392,31.636896,67.881748,48.109146,-60.374454,-23.950209,0
654.0,230.480072,274.935272,279.458801,-146.24742,-86.35511,-17.132469,56.615392,31.567797,67.881748,48.109146,-60.072333,-24.103991,0
669.0,230.417343,275.016632,279.556,-147.799104,-86.20511,-15.473413,56.615392,31.513538,67.881748,48.109146,-59.825159,-24.147937,0
685.0,230.334061,275.198029,279.232849,-150.99237,-85.899208,-12.09617,56.615392,31.498469,67.881748,48.109146,-59.39481,-24.202883,0
700.0,230.265732,275.349243,278.92804,-153.581795,-85.646705,-9.35514,56.615392,31.492625,67.881748,48.109146,-59.042384,-24.268773,0
717.0,230.208023,275.478821,278.641144,-156.082355,-85.442732,-6.72492,56.615392,31.492511,67.881748,48.109146,-58.74479,-24.367666,0
733.0,230.160324,275.584991,278.427979,-158.630585,-85.314332,-4.067198,56.615507,31.492511,67.881576,48.098145,-58.520534,-24.510504,0
746.0,230.107742,275.702667,278.209412,-161.105877,-85.174531,-1.469465,56.615507,31.492511,67.881117,48.076144,-58.287054,-24.653343,0
762.0,230.073273,275.78183,278.081116,-162.336877,-85.083373,-0.157678,56.615621,31.492511,67.881117,48.054199,-58.145132,-24.719233,0
777.0,230.065033,275.801208,278.064758,-162.804869,-85.078904,0.330367,56.61585,31.492281,67.881117,48.043199,-58.122271,-24.752178,0
792.0,230.062881,275.802917,278.065643,-163.538083,-85.097984,1.066733,56.616309,31.492224,67.881117,48.043199,-58.122271,-24.818125,0
808.0,230.059692,275.80426,278.064117,-165.277182,-85.139065,2.812707,56.616825,31.492224,67.880659,48.043199,-58.122271,-24.971907,0
824.0,230.05452,275.807556,278.062958,-166.536829,-85.165593,4.077855,56.617799,31.492224,67.880373,48.043199,-58.122271,-25.0818,0
839.0,230.04895,275.811493,278.062164,-167.299322,-85.180375,4.844129,56.618944,31.492224,67.880143,48.043199,-58.122271,-25.147691,0
854.0,230.040894,275.81665,278.065002,-168.18924,-85.196876,5.738688,56.620434,31.491537,67.8798,48.043199,-58.122271,-25.224582,0
870.0,230.052246,275.756622,278.039703,-169.371022,-85.191834,6.864206,56.621981,31.490964,67.879112,48.164035,-58.131381,-25.411366,0
885.0,230.091232,275.58902,277.961792,-170.832409,-85.142674,8.166482,56.622783,31.490964,67.878024,48.328875,-58.135965,-25.565205,0
901.0,230.118607,275.449371,277.881256,-171.810218,-85.087613,9.013142,56.624101,31.490964,67.875502,48.504659,-58.135965,-25.718987,0
917.0,230.118439,275.382172,277.8284,-171.68709,-85.04997,8.824066,56.626851,31.490964,67.871434,48.592551,-58.135965,-25.740988,0
933.0,230.073975,275.396667,277.807404,-171.609339,-85.038625,8.738294,56.636305,31.490964,67.868684,48.614495,-58.135965,-25.740988,0
947.0,229.949677,275.486267,277.809967,-171.554622,-85.041605,8.697327,56.662661,31.490448,67.867596,48.625496,-58.145132,-25.740988,0
963.0,229.761063,275.612061,277.824799,-171.371848,-85.048251,8.519825,56.703971,31.488901,67.866965,48.658441,-58.16805,-25.740988,0
980.0,229.5383,275.786163,277.825134,-170.816538,-85.040745,7.998777,56.750782,31.488443,67.866622,48.669442,-58.172577,-25.697043,0
995.0,229.227676,276.039673,277.825928,-169.944668,-85.028025,7.187813,56.815011,31.487812,67.866163,48.669442,-58.172577,-25.620094,0
1010.0,228.925247,276.346527,277.867462,-170.013136,-85.066585,7.391156,56.894996,31.486495,67.865304,48.537604,-58.172577,-25.576148,0
1025.0,228.433548,276.80545,277.90564,-169.459373,-85.094947,7.008821,56.970168,31.485807,67.86433,48.471657,-58.172577,-25.499257,0
1040.0,227.911118,277.23877,277.907776,-168.067715,-85.078446,5.735422,57.076623,31.485291,67.862554,48.449712,-58.172577,-25.36742,0
1055.0,227.384094,277.659241,277.902679,-167.708471,-85.070825,5.482862,57.18474,31.484317,67.860491,48.449712,-58.172577,-25.334475,0
1070.0,226.795471,278.124023,277.896057,-167.728811,-85.069737,5.623352,57.305004,31.48277,67.857282,48.449712,-58.172577,-25.334475,0
1086.0,226.303543,278.484039,277.871918,-167.434998,-85.046188,5.396632,57.435409,31.481338,67.853787,48.537604,-58.172577,-25.312473,0
1102.0,225.820755,278.741516,277.786469,-166.563128,-84.955145,4.482764,57.539573,31.479562,67.849146,48.724388,-58.17716,-25.312473,0
1117.0,225.276474,279.048004,277.724365,-165.799719,-84.875218,3.687041,57.663389,31.476067,67.846855,48.922116,-58.186328,-25.312473,0
1134.0,224.722397,279.328491,277.714355,-164.809763,-84.816948,2.626037,57.790299,31.467472,67.84462,49.141845,-58.259609,-25.312473,0
1147.0,224.174774,279.547638,277.766571,-163.468068,-84.784175,1.147004,57.88564,31.45905,67.842787,49.361575,-58.342,-25.312473,0
1163.0,223.676926,279.742828,277.815765,-162.313787,-84.748537,-0.123931,58.000117,31.445929,67.83826,49.603248,-58.433559,-25.312473,0
1179.0,223.028763,280.051697,277.87085,-161.176179,-84.643513,-1.335622,58.142095,31.419229,67.834192,49.866923,-58.451836,-25.312473,0
1194.0,222.657074,280.159393,278.008575,-160.153736,-84.549262,-2.449395,58.248838,31.363423,67.824738,50.1526,-58.451836,-25.312473,0
1210.0,222.109512,280.331604,278.239258,-160.456945,-84.516145,-2.240609,58.340396,31.318618,67.816201,50.350328,-58.479281,-25.477313,0
1225.0,221.399094,280.656158,278.684296,-161.645431,-84.678636,-1.085755,58.492001,31.251696,67.80543,50.51511,-58.634954,-25.740988,0
1240.0,220.937897,280.700806,279.167297,-162.156624,-84.891547,-0.695571,58.59055,31.178759,67.774777,50.66895,-58.877544,-25.938716,0
1256.0,220.328125,280.870758,279.665131,-162.137144,-85.073404,-0.736766,58.709496,31.091326,67.73106,50.745841,-59.069829,-26.048609,0
1271.0,219.631744,281.000458,280.12973,-161.847628,-85.121761,-1.042268,58.835833,30.970374,67.664024,50.888679,-59.147636,-26.136501,0
1287.0,218.977158,280.99353,280.400513,-162.442129,-85.110073,-0.492801,58.946356,30.849709,67.567538,51.075463,-59.179665,-26.279282,0
1303.0,218.31282,280.93576,280.749573,-162.261132,-85.15717,-0.694941,59.050978,30.71283,67.446071,51.185299,-59.271223,-26.334229,0
1318.0,217.546051,280.878937,281.11264,-161.596444,-85.165822,-1.366791,59.169695,30.555094,67.304894,51.306136,-59.339921,-26.34523,0
1334.0,217.038574,280.674255,281.039307,-161.615638,-85.100218,-1.406669,59.26177,30.423658,67.118453,51.49292,-59.39481,-26.356173,0
1349.0,216.305466,280.381134,281.403625,-160.663382,-85.084404,-2.445613,59.371205,30.223524,66.930237,51.679705,-59.477259,-26.356173,0
1365.0,215.405975,280.150482,281.350525,-160.77763,-84.989523,-2.340704,59.466774,30.108245,66.751187,51.789541,-59.481785,-26.356173,0
1380.0,214.364029,280.03714,281.535767,-160.471957,-84.911314,-2.622027,59.620728,29.914126,66.535182,51.94338,-59.495536,-26.356173,0
1395.0,213.342133,279.622864,281.466156,-160.767431,-84.790821,-2.418913,59.760357,29.711872,66.253574,52.207055,-59.541316,-26.400119,0
1411.0,212.031845,279.481598,281.757935,-161.173486,-84.785492,-1.97149,59.955679,29.469053,65.98245,52.360837,-59.61454,-26.477067,0
1426.0,210.748932,279.076233,281.707184,-161.694305,-84.758621,-1.538793,60.141661,29.248006,65.655291,52.613511,-59.770212,-26.542957,0
1442.0,209.265137,278.810272,282.017181,-161.3605,-84.791222,-1.889844,60.365344,28.976309,65.331169,52.811296,-59.948746,-26.564959,0
1457.0,208.143692,278.46637,282.049408,-161.522819,-84.801306,-1.751761,60.523652,28.771649,65.03896,52.954077,-60.09061,-26.575902,0
1473.0,206.533707,278.104706,282.077881,-161.789187,-84.741088,-1.462475,60.755184,28.487576,64.651354,53.151862,-60.191336,-26.586903,0
1488.0,204.922272,277.672119,281.999146,-162.270528,-84.66964,-0.945037,60.98007,28.20167,64.237163,53.327646,-60.282895,-26.586903,0
1504.0,203.196655,277.400665,281.961121,-162.605078,-84.56794,-0.533882,61.234521,27.920004,63.849271,53.51443,-60.333258,-26.586903,0
1519.0,201.521896,277.014404,282.075165,-162.818333,-84.528062,-0.253477,61.473902,27.608945,63.443731,53.668212,-60.4294,-26.586903,0
1535.0,199.759262,276.728577,282.334045,-162.661228,-84.537402,-0.346926,61.740614,27.29697,63.06174,53.832994,-60.575848,-26.586903,0
1551.0,198.035156,276.356415,282.700653,-162.469001,-84.62495,-0.480196,61.996841,26.968379,62.664681,53.953831,-60.78641,-26.586903,0
1567.0,196.224411,276.158966,283.042725,-162.091995,-84.730317,-0.797328,62.286127,26.675654,62.307441,54.09667,-61.029058,-26.586903,0
1582.0,194.956375,275.940613,283.551178,-161.271347,-84.865191,-1.609725,62.556563,26.358293,61.935305,54.250509,-61.326595,-26.586903,0
1597.0,193.230148,275.560364,283.873291,-160.599955,-84.973766,-2.293722,62.760594,26.128251,61.676156,54.39329,-61.541741,-26.575902,0
1612.0,191.349289,275.386749,284.556274,-159.32415,-85.119126,-3.517961,63.071652,25.794159,61.340862,54.55813,-61.816417,-26.575902,0
1628.0,189.467789,275.166687,284.853577,-158.952702,-85.155852,-3.802664,63.374403,25.486652,60.974971,54.722913,-61.990367,-26.575902,0
1643.0,187.47374,275.093536,285.468384,-157.851993,-85.21693,-4.783281,63.707865,25.150097,60.645864,54.887695,-62.164316,-26.575902,0
1659.0,185.623703,274.850372,285.611633,-157.715915,-85.211945,-4.841207,64.008324,24.863618,60.282952,55.074479,-62.310765,-26.575902,0
1674.0,183.656479,274.754913,286.203461,-156.509552,-85.282648,-5.946385,64.342645,24.538522,59.962612,55.250263,-62.507633,-26.575902,0
1691.0,181.711227,274.608124,286.421722,-156.321107,-85.266949,-5.999728,64.664876,24.242417,59.612821,55.415046,-62.617469,-26.575902,0
1706.0,180.128891,274.669922,286.880188,-155.586918,-85.277262,-6.573258,65.022058,23.920873,59.311216,55.557884,-62.709027,-26.575902,0
1721.0,178.116165,274.600586,287.063019,-155.390279,-85.193266,-6.622189,65.279431,23.70441,59.056593,55.722667,-62.736529,-26.575902,0
1737.0,175.992691,274.678009,287.316742,-154.980328,-85.076268,-6.854008,65.652197,23.417243,58.758713,55.953397,-62.750223,-26.575902,0
1752.0,174.054749,274.557251,287.274567,-154.34211,-84.918934,-7.407542,65.989497,23.168866,58.439919,56.228015,-62.800586,-26.510012,0
1768.0,172.000824,274.600677,287.578308,-153.329465,-84.881406,-8.260161,66.355102,22.897571,58.150862,56.4148,-62.910479,-26.466066,0
1783.0,169.973618,274.615417,287.679047,-153.141821,-84.891604,-8.272365,66.714232,22.657845,57.845418,56.557638,-63.047817,-26.455066,0
1799.0,167.723999,274.803467,287.854065,-152.998295,-84.869889,-8.166367,67.120516,22.406603,57.555616,56.700419,-63.130209,-26.455066,0
1814.0,165.666397,274.84967,287.875641,-153.163307,-84.82812,-7.797153,67.48761,22.173925,57.257678,56.854258,-63.203433,-26.455066,0
1830.0,164.047501,274.999725,288.030304,-152.596423,-84.799186,-8.169805,67.871664,21.937637,56.98982,56.964094,-63.285824,-26.400119,0
1845.0,162.033752,275.064758,288.0802,-152.581869,-84.85058,-7.93833,68.14147,21.777094,56.763043,56.997097,-63.395717,-26.389176,0
1860.0,159.741119,275.387787,288.372406,-152.26743,-84.941738,-7.894671,68.561161,21.542239,56.499597,56.997097,-63.523888,-26.378175,0
1876.0,157.530914,275.58194,288.221863,-153.183647,-84.974912,-6.62259,68.956674,21.346459,56.194727,56.997097,-63.597112,-26.378175,0
1891.0,155.233856,275.861542,288.249786,-153.043502,-84.97686,-6.379942,69.373386,21.132861,55.912831,56.997097,-63.656642,-26.312227,0
1907.0,153.149368,275.970337,288.113953,-152.633321,-84.933602,-6.453281,69.743975,20.933242,55.612487,56.997097,-63.706948,-26.180447,0
1922.0,151.590836,276.063904,287.992554,-152.54096,-84.920252,-6.296176,70.15364,20.756771,55.323544,56.997097,-63.766478,-26.092555,0
1937.0,149.225433,276.407104,287.798767,-152.97595,-84.900886,-5.449459,70.460058,20.624303,55.12192,56.997097,-63.793923,-26.048609,0
1952.0,146.915085,276.577728,287.479675,-153.193043,-84.879572,-4.866016,70.882156,20.45488,54.812867,57.00804,-63.871788,-25.949717,0
1968.0,144.632385,276.777985,287.11853,-151.292944,-84.782799,-6.431394,71.306889,20.314276,54.523924,57.030042,-63.986208,-25.642096,0
1983.0,142.511856,276.751556,286.694672,-149.498325,-84.72092,-7.935981,71.69312,20.163875,54.193385,57.030042,-64.15099,-25.323474,0
1999.0,140.100723,276.95047,286.229919,-148.576665,-84.634174,-8.469978,72.140944,20.025448,53.885191,57.030042,-64.242549,-25.0708,0
2015.0,137.834335,277.026947,285.543854,-149.246854,-84.569029,-7.426622,72.555708,19.906215,53.556485,57.030042,-64.297496,-24.927961,0
2030.0,135.480042,277.200104,284.972748,-148.985127,-84.488471,-7.300284,72.994823,19.789905,53.254823,57.030042,-64.37072,-24.719233,0
2046.0,133.887909,277.184723,284.291199,-149.165609,-84.396683,-6.874691,73.385466,19.708258,52.933451,57.041042,-64.43025,-24.488503,0
2061.0,131.520477,277.365509,283.60791,-148.928118,-84.301801,-6.719936,73.732449,19.639389,52.708909,57.041042,-64.489723,-24.312719,0
2076.0,129.162964,277.493164,282.757141,-148.790378,-84.177355,-6.467891,74.17483,19.567311,52.39722,57.041042,-64.553837,-24.049044,0
2092.0,126.587921,277.763794,282.049042,-148.928805,-84.082129,-5.881354,74.665282,19.485149,52.11011,57.041042,-64.6042,-23.851316,0
2108.0,124.393425,277.688538,281.026581,-149.503138,-83.931671,-5.052285,75.085947,19.434155,51.793838,57.17288,-64.677424,-23.664532,0
2123.0,122.051598,277.764465,280.278107,-149.786236,-83.888985,-4.465518,75.543511,19.375485,51.51326,57.260714,-64.819346,-23.521751,0
2138.0,119.765099,277.779907,279.446381,-150.001497,-83.87512,-3.986755,75.995174,19.340018,51.229245,57.359607,-65.016157,-23.367912,0
2154.0,117.363625,277.837494,278.531555,-150.461639,-83.829398,-3.300065,76.480985,19.328273,50.964596,57.546391,-65.208441,-23.247075,0
2169.0,115.788574,277.68335,277.746033,-150.481864,-83.775024,-3.202318,76.801784,19.326268,50.744867,57.722175,-65.386975,-23.104237,0
2185.0,113.430023,277.69278,276.696503,-151.168096,-83.676017,-2.269715,77.276078,19.325809,50.472311,57.897958,-65.519729,-22.961398,0
2200.0,111.079933,277.690216,275.56427,-152.499593,-83.587094,-0.616617,77.739143,19.325695,50.182337,57.996851,-65.602121,-22.851562,0
2216.0,108.509323,277.817657,274.527252,-153.882655,-83.485623,1.114174,78.254633,19.325637,49.924276,58.139632,-65.666177,-22.785672,0
2231.0,106.290581,277.710449,273.452911,-155.017169,-83.401169,2.503482,78.699134,19.325408,49.644157,58.28247,-65.776071,-22.68678,0
2247.0,103.809067,277.807465,272.553162,-155.566865,-83.399565,3.450696,79.193539,19.324721,49.381685,58.293471,-65.931686,-22.53294,0
2264.0,101.274895,277.84906,271.63736,-156.149277,-83.434114,4.435037,79.699862,19.324319,49.103171,58.293471,-66.128554,-22.379159,0
2279.0,98.586037,277.998627,270.839203,-156.710832,-83.47955,5.421785,80.244057,19.324205,48.85634,58.315415,-66.325365,-22.258322,0
2295.0,96.845085,277.985046,270.232361,-157.149661,-83.505848,6.111168,80.717091,19.323861,48.586936,58.34836,-66.508482,-22.137428,0
2308.0,94.322845,278.022614,269.337524,-157.986809,-83.515646,7.391557,81.1004,19.323059,48.404792,58.326416,-66.613792,-22.038592,0
2324.0,91.275238,278.33725,268.627594,-157.913585,-83.59225,7.939705,81.70848,19.322772,48.16352,58.194578,-66.806019,-21.818863,0
2339.0,88.721741,278.297272,267.86618,-157.720842,-83.674355,8.137891,82.230387,19.322772,47.901907,58.194578,-67.076112,-21.610135,0
2354.0,86.032547,278.292053,267.193604,-157.484727,-83.807797,8.31081,82.784953,19.322314,47.65015,58.194578,-67.391983,-21.42335,0
2370.0,83.940147,278.286255,266.700684,-157.516812,-83.959631,8.719959,83.357682,19.312746,47.382693,58.073742,-67.7353,-21.236566,0
2385.0,80.952927,278.389954,266.169403,-156.927067,-84.152832,8.666445,83.822408,19.307245,47.199805,58.029796,-67.991641,-21.082784,0
2400.0,78.477203,278.227875,265.395111,-156.18268,-84.190705,8.311555,84.331824,19.306157,46.93527,58.029796,-68.238815,-20.808108,0
2415.0,75.459824,278.374756,264.647766,-155.453706,-84.145384,8.219366,84.93618,19.300542,46.698352,57.919902,-68.339541,-20.500487,0
2431.0,72.464333,278.490662,263.825623,-155.39767,-84.033543,8.790548,85.536583,19.295614,46.467909,57.854012,-68.357876,-20.247813,0
2447.0,69.681564,278.539673,263.018555,-155.753706,-83.907836,9.689289,86.100488,19.294182,46.256372,57.854012,-68.357876,-20.061029,0
2462.0,66.978523,278.438324,262.118103,-156.796375,-83.801036,11.257704,86.648522,19.287822,46.011834,57.854012,-68.362402,-19.929191,0
2478.0,64.481148,278.559326,261.606964,-156.834763,-83.739157,11.827854,87.298886,19.272982,45.801215,57.799066,-68.376153,-19.731463,0
2494.0,61.797421,278.428986,260.754242,-156.986826,-83.595173,12.491683,87.827039,19.267826,45.56338,57.865013,-68.380737,-19.500733,0
2509.0,59.103493,278.218384,259.899048,-157.062858,-83.41217,13.007288,88.262945,19.257513,45.392639,57.919902,-68.380737,-19.346951,0
2525.0,56.186092,278.04834,259.121735,-157.734422,-83.301875,14.255706,88.861056,19.227948,45.149418,57.919902,-68.380737,-19.204113,0
2540.0,53.349262,277.730652,258.279175,-158.703121,-83.130275,15.618027,89.468506,19.207207,44.920579,58.139632,-68.380737,-19.138165,0
2556.0,50.9748,277.108978,257.307068,-159.551786,-82.906363,16.702465,89.991673,19.17409,44.646762,58.436252,-68.380737,-19.03933,0
2571.0,47.999775,276.702606,256.597595,-159.853563,-82.733731,17.424678,90.634016,19.118971,44.403542,58.655981,-68.394488,-18.918436,0
2586.0,45.552109,276.004333,255.672256,-160.603909,-82.48415,18.336655,91.191905,19.081271,44.144737,59.073496,-68.399071,-18.852546,0
2602.0,43.732662,275.475586,255.036194,-161.090636,-82.305559,18.909956,91.746586,19.040648,43.904553,59.501954,-68.426516,-18.819601,0
2617.0,41.156693,274.947571,254.398026,-161.889225,-82.20701,20.065841,92.182091,18.995671,43.723727,59.62279,-68.467712,-18.786599,0
2633.0,38.42305,274.347321,253.687759,-162.665067,-82.097919,21.165519,92.796875,18.95161,43.479074,59.897466,-68.545519,-18.753653,0
2649.0,35.905006,273.595093,252.965393,-163.356169,-81.97416,22.007366,93.390402,18.912305,43.239578,60.325924,-68.664523,-18.742653,0
2666.0,33.219646,272.984344,252.368439,-164.374945,-81.947804,23.437068,93.99046,18.854093,42.986445,60.479706,-68.769832,-18.742653,0
2678.0,30.070978,272.56781,251.913803,-165.270994,-81.928782,24.925727,94.67589,18.789349,42.767117,60.545653,-68.833946,-18.742653,0
2694.0,28.226316,272.036652,251.423172,-166.091355,-81.869137,26.029129,95.23355,18.726209,42.508827,60.677491,-68.888836,-18.742653,0
2709.0,25.235369,271.532166,251.056274,-166.823423,-81.881685,27.364579,95.918463,18.631613,42.28354,60.677491,-68.989562,-18.720708,0
2725.0,22.119484,271.079041,250.852783,-167.476824,-81.967113,28.645598,96.430974,18.566984,42.126435,60.677491,-69.099398,-18.720708,0
2740.0,19.21504,270.589813,250.66893,-168.002971,-82.040337,29.712904,97.078932,18.483275,41.932375,60.732438,-69.245903,-18.720708,0
2755.0,16.361185,270.024048,250.667816,-168.412006,-82.214803,30.669801,97.72139,18.369027,41.720896,60.743381,-69.479383,-18.720708,0
2771.0,12.987725,269.554443,250.803833,-168.61214,-82.434303,31.530211,98.474657,18.257529,41.542076,60.743381,-69.744892,-18.720708,0
2786.0,10.350389,268.968262,250.953262,-168.690922,-82.641141,32.062718,99.083711,18.139615,41.361651,60.809329,-70.019511,-18.720708,0
2801.0,7.877005,268.63443,251.224686,-168.571746,-82.80409,32.418582,99.816524,18.004855,41.224772,60.842274,-70.266742,-18.742653,0
2817.0,4.904638,268.148865,251.555038,-169.055609,-83.050003,33.397481,100.323936,17.922005,41.132583,60.941166,-70.491055,-18.841545,0
2833.0,2.124993,267.557617,251.858139,-169.301866,-83.200519,34.041657,100.979285,17.789079,41.006016,61.149895,-70.710784,-18.940438,0
2848.0,-0.700605,267.067963,252.301987,-169.561073,-83.461788,34.784382,101.632629,17.663716,40.898243,61.237786,-70.999154,-19.03933,0
2865.0,-3.526171,266.509125,252.716415,-169.737601,-83.659917,35.341011,102.303792,17.54328,40.809263,61.468517,-71.264662,-19.160167,0
2880.0,-5.96299,265.941528,253.067459,-169.509621,-83.866812,35.456175,102.886833,17.434877,40.708766,61.633299,-71.539281,-19.204113,0
2895.0,-9.12855,265.54129,253.653412,-169.374288,-84.160338,35.898155,103.606984,17.324468,40.655882,61.688246,-71.836875,-19.292005,0
2910.0,-11.140904,265.20285,253.960587,-170.035195,-84.367577,36.898711,104.22171,17.245113,40.582486,61.776138,-72.125245,-19.445786,0
2926.0,-13.901728,264.614777,254.24704,-170.658401,-84.654801,38.000509,104.884393,17.170514,40.491328,61.831027,-72.496006,-19.500733,0
2942.0,-16.721724,264.008667,254.68425,-170.140218,-85.068476,37.899898,105.396045,17.135793,40.438559,61.918919,-72.875992,-19.511734,0
2957.0,-19.435587,263.213684,254.749329,-169.705687,-85.258412,37.71277,106.077807,17.108806,40.356626,62.259542,-73.233059,-19.522677,0
2973.0,-21.958282,262.453979,254.679413,-169.590924,-85.387098,37.878755,106.706227,17.093737,40.268391,62.534161,-73.507678,-19.522677,0
2987.0,-24.947184,261.592865,254.505264,-169.497703,-85.455681,38.118939,107.44752,17.093508,40.186801,62.885728,-73.750325,-19.522677,0
3001.0,-26.738884,260.899841,254.25386,-169.599805,-85.433221,38.349727,108.066486,17.093279,40.085159,63.303242,-73.901357,-19.522677,0
3017.0,-29.16927,259.955109,253.86235,-169.808075,-85.346876,38.744781,108.548115,17.093164,40.012336,63.643808,-73.992916,-19.522677,0
3033.0,-32.038883,259.026672,253.604736,-169.095143,-85.28133,38.305494,109.274969,17.093164,39.947076,64.083267,-74.12567,-19.478789,0
3048.0,-34.463661,258.118561,253.174103,-168.205397,-85.085722,37.63691,109.899207,17.093164,39.867435,64.511725,-74.130254,-19.379896,0
3063.0,-37.518349,257.333344,252.939087,-167.462443,-84.976631,37.382116,110.629785,17.093107,39.824234,64.764399,-74.144005,-19.303005,0
3079.0,-40.245384,256.628662,252.775742,-167.25062,-84.887593,37.586604,111.28479,17.093107,39.801602,65.017073,-74.157698,-19.292005,0
3094.0,-43.176975,255.943726,252.620819,-167.460953,-84.837689,38.375109,111.965636,17.093107,39.770949,65.126967,-74.157698,-19.292005,0
3110.0,-45.416275,255.483246,252.652618,-167.351232,-84.882666,38.725759,112.648315,17.093107,39.76711,65.181856,-74.244673,-19.292005,0
3127.0,-48.495258,254.815338,252.680267,-167.175677,-84.919908,39.173583,113.343428,17.093107,39.763672,65.236803,-74.295036,-19.292005,0
3141.0,-51.37999,254.172226,252.6474,-167.173156,-84.909652,39.785444,113.843735,17.093107,39.760635,65.269748,-74.29962,-19.292005,0
3156.0,-54.580868,253.354462,252.703094,-167.065727,-84.970157,40.281626,114.594768,17.093107,39.760521,65.390642,-74.409513,-19.313949,0
3172.0,-57.181,252.536636,252.720779,-166.893954,-85.013644,40.511668,115.231553,17.093107,39.752385,65.59937,-74.537684,-19.33595,0
3188.0,-60.20401,251.554001,252.67775,-166.435416,-84.978808,40.506626,115.974507,17.093107,39.749864,65.88499,-74.615492,-19.33595,0
3203.0,-62.805733,250.625778,252.684158,-165.851687,-84.982074,40.26289,116.629627,17.093107,39.749062,66.181667,-74.739079,-19.33595,0
3219.0,-65.571495,249.592987,252.552765,-165.766316,-84.880431,40.553724,117.32686,17.093107,39.742473,66.522233,-74.76194,-19.357895,0
3233.0,-67.660767,248.825134,252.520798,-165.433771,-84.848747,40.523471,117.850314,17.093107,39.742243,66.741963,-74.816886,-19.357895,0
3249.0,-70.346428,247.738815,252.490936,-165.014538,-84.828292,40.442684,118.541244,17.093107,39.738519,67.082529,-74.931363,-19.368896,0
3264.0,-72.862274,246.654221,252.352005,-165.097044,-84.736619,40.842895,119.194759,17.093107,39.726774,67.434096,-74.967975,-19.401841,0
3280.0,-75.647141,245.427078,252.304916,-164.736768,-84.690611,40.802559,119.925968,17.093107,39.726659,67.840552,-75.077811,-19.423842,0
3295.0,-77.953522,244.32193,252.223083,-165.206708,-84.647811,41.511365,120.545622,17.093107,39.720299,68.225121,-75.164786,-19.511734,0
3310.0,-80.826057,243.056656,252.10379,-165.284974,-84.560606,42.016829,121.286628,17.093107,39.714054,68.554687,-75.196814,-19.544679,0
3326.0,-83.317459,241.85585,252.027313,-164.861444,-84.487211,41.888257,121.951316,17.093623,39.713366,68.928198,-75.270096,-19.544679,0
3342.0,-85.01757,240.901611,251.870514,-164.632375,-84.350675,41.779739,122.658175,17.093623,39.706663,69.433604,-75.279263,-19.544679,0
3357.0,-87.818939,239.437851,251.73436,-164.22357,-84.21878,41.670533,123.19475,17.093623,39.706548,69.796172,-75.334152,-19.544679,0
3373.0,-89.990776,238.055771,251.675049,-163.5445,-84.153348,41.043431,123.842707,17.093737,39.704715,70.378411,-75.503519,-19.544679,0
3388.0,-92.407959,236.54332,251.6138,-163.557105,-84.121549,41.189993,124.553003,17.093737,39.697438,70.938707,-75.682052,-19.610569,0
3404.0,-94.763092,234.969559,251.679001,-163.126757,-84.182225,40.815909,125.269659,17.094711,39.697438,71.542948,-75.984173,-19.665516,0
3419.0,-97.040642,233.411987,251.728256,-163.196772,-84.242672,40.95233,125.966605,17.094711,39.696006,72.125245,-76.263433,-19.764408,0
3436.0,-99.336578,231.804337,251.776215,-163.382181,-84.301859,41.205119,126.674666,17.094711,39.695777,72.718486,-76.542692,-19.874244,0
3452.0,-101.790627,230.238754,251.92128,-162.825896,-84.433353,40.875497,127.394931,17.094711,39.695777,73.136,-76.853923,-19.907247,0
3467.0,-104.04718,228.814102,251.963104,-162.916997,-84.483658,41.221735,128.04839,17.094711,39.695605,73.49851,-77.041624,-19.973137,0
3483.0,-106.329391,227.551682,252.006775,-163.036859,-84.536027,41.767649,128.838842,17.094711,39.695605,73.71824,-77.206407,-20.028084,0
3498.0,-108.617439,226.149094,252.167099,-162.552825,-84.684595,41.62991,129.31434,17.094711,39.695605,73.894023,-77.412442,-20.039084,0
3513.0,-111.146111,224.515305,252.274979,-163.349465,-84.818724,42.785337,130.045835,17.094711,39.695605,74.212645,-77.650449,-20.181865,0
3529.0,-113.398849,222.935623,252.522888,-163.343277,-85.06756,43.033886,130.725993,17.095284,39.695605,74.531267,-78.030377,-20.280758,0
3544.0,-115.476501,221.407913,252.61055,-163.34746,-85.158431,43.248401,131.363982,17.095284,39.695605,74.904778,-78.268441,-20.346705,0
3559.0,-117.776962,219.820236,252.671509,-163.285409,-85.222258,43.526859,132.042593,17.095284,39.695605,75.201398,-78.451559,-20.390651,0
3575.0,-119.51973,218.570969,252.728149,-162.803666,-85.269642,43.288795,132.710261,17.095284,39.695662,75.542022,-78.64837,-20.390651,0
3590.0,-121.321205,217.068939,252.681137,-163.38052,-85.243171,43.990153,133.15098,17.095284,39.695662,75.893531,-78.739928,-20.478543,0
3605.0,-123.529175,215.31459,252.600266,-164.687322,-85.201746,45.544014,133.845462,17.095284,39.695662,76.343991,-78.840654,-20.621324,0
3621.0,-125.316605,213.881882,252.566574,-165.753825,-85.198251,46.825778,134.409023,17.095514,39.695662,76.684557,-78.945907,-20.742161,0
3636.0,-127.258362,212.333008,252.419922,-167.777913,-85.103026,49.116578,135.01527,17.095514,39.695662,77.058125,-78.95049,-20.928945,0
3650.0,-129.396423,210.829803,252.39418,-169.27362,-85.109844,51.069791,135.635898,17.095514,39.695662,77.222908,-78.99627,-21.071783,0
3666.0,-131.275711,209.319916,252.326767,-170.306949,-85.067044,52.399626,136.221976,17.095628,39.695662,77.519528,-79.051216,-21.181619,0
3681.0,-132.463898,208.2603,252.216309,-171.5144,-84.982475,53.739144,136.614567,17.095628,39.695662,77.805205,-79.0558,-21.302514,0
3696.0,-134.341675,206.847305,252.150146,-171.533824,-84.925294,54.153106,137.174404,17.095628,39.695662,77.980931,-79.064967,-21.313457,0
3712.0,-136.341339,205.432678,252.111877,-171.504717,-84.894813,54.626083,137.747648,17.0958,39.695662,78.057879,-79.064967,-21.313457,0
3728.0,-137.87027,204.160889,252.020676,-171.390699,-84.811333,54.788803,138.227443,17.0958,39.695662,78.277609,-79.064967,-21.313457,0
3743.0,-139.627182,202.798065,252.012665,-171.284014,-84.806806,55.081928,138.755768,17.0958,39.695662,78.398445,-79.110746,-21.313457,0
3758.0,-141.224976,201.514526,251.96019,-171.209358,-84.760397,55.359984,139.243928,17.0958,39.695662,78.541284,-79.119857,-21.313457,0
3774.0,-142.440125,200.276138,251.822815,-171.050877,-84.631711,55.316611,139.673818,17.0958,39.695662,78.88185,-79.119857,-21.313457,0
3790.0,-143.54863,199.124176,251.694275,-170.915946,-84.511217,55.283666,140.070305,17.0958,39.695662,79.200414,-79.119857,-21.313457,0
3805.0,-144.619003,198.204117,251.641678,-170.875438,-84.464865,55.46982,140.408694,17.096144,39.695662,79.321308,-79.119857,-21.313457,0
3821.0,-145.632339,197.183472,251.542007,-170.788921,-84.373192,55.513652,140.762552,17.096488,39.695662,79.562982,-79.119857,-21.313457,0
3836.0,-146.472031,196.21048,251.417999,-170.682122,-84.256882,55.444209,141.084325,17.096602,39.695662,79.870603,-79.119857,-21.313457,0
3851.0,-147.233307,195.460175,251.354904,-170.633993,-84.198383,55.515199,141.345709,17.096602,39.695662,80.024442,-79.119857,-21.313457,0
3867.0,-147.908157,194.862076,251.308609,-170.627805,-84.15627,55.658725,141.561485,17.096602,39.695662,80.101333,-79.106163,-21.313457,0
3883.0,-148.452316,194.456589,251.269257,-170.673241,-84.122007,55.873183,141.717043,17.096831,39.695662,80.101333,-79.069494,-21.313457,0
3915.0,-148.866776,194.151489,251.226776,-170.720052,-84.083734,56.052289,141.834155,17.096831,39.695662,80.101333,-79.028298,-21.313457,0
3929.0,-148.866531,194.152893,251.22525,-170.719651,-84.08402,56.052347,141.833811,17.09729,39.695719,80.100359,-79.028412,-21.312941,0
3944.0,-148.860596,194.188278,251.186279,-170.708421,-84.092099,56.05355,141.825274,17.10978,39.69612,80.075436,-79.030361,-21.298904,0
3960.0,-148.842773,194.294083,251.069656,-170.67496,-84.116048,56.057102,141.799663,17.147023,39.697381,80.000894,-79.036262,-21.256849,0
3975.0,-148.812592,194.472412,250.87262,-170.618237,-84.156327,56.063118,141.756462,17.209933,39.699443,79.875129,-79.046289,-21.185917,0
3990.0,-148.781723,194.653534,250.671875,-170.560368,-84.197065,56.069077,141.695671,17.298455,39.702423,79.698086,-79.060326,-21.086107,0
4006.0,-148.714264,195.04509,250.235779,-170.43426,-84.284441,56.081797,141.617291,17.412588,39.706204,79.469876,-79.078432,-20.957421,0
4021.0,-148.66423,195.331802,249.914597,-170.34104,-84.347867,56.090849,141.547333,17.51446,39.709642,79.26619,-79.094589,-20.842543,0
4037.0,-148.591843,195.741394,249.453003,-170.206567,-84.437592,56.103397,141.447065,17.660393,39.714512,78.974325,-79.117737,-20.67799,0
4054.0,-148.518234,196.151428,248.98761,-170.070317,-84.526458,56.115486,141.346339,17.80707,39.719382,78.681028,-79.140999,-20.512577,0
4072.0,-148.443787,196.559906,248.520645,-169.932922,-84.613949,56.127003,141.220403,17.990359,39.725513,78.31445,-79.170048,-20.305853,0
4100.0,-148.292313,197.372192,247.582016,-169.654637,-84.784919,56.14826,141.044104,18.247044,39.734107,77.801194,-79.210785,-20.016452,0
4114.0,-148.234619,197.675186,247.228409,-169.549098,-84.847601,56.155536,140.943378,18.393721,39.738978,77.507897,-79.234047,-19.851097,0
4129.0,-148.156937,198.077789,246.755554,-169.407233,-84.93005,56.164704,140.867862,18.503672,39.742645,77.287939,-79.251465,-19.727051,0
4144.0,-148.0784,198.47879,246.281128,-169.264166,-85.011123,56.173183,140.767079,18.650349,39.747572,76.994641,-79.274727,-19.561696,0
4160.0,-147.998978,198.878204,245.805145,-169.119781,-85.090822,56.180861,140.666353,18.797026,39.752442,76.701402,-79.298046,-19.396283,0
4175.0,-147.918686,199.275986,245.327591,-168.974135,-85.169202,56.187794,140.565627,18.943704,39.75737,76.408105,-79.321308,-19.230927,0
4191.0,-147.837524,199.672165,244.848465,-168.827114,-85.24615,56.193924,140.464901,19.090323,39.76224,76.114807,-79.344571,-19.065514,0
4207.0,-147.776077,199.968231,244.488098,-168.716017,-85.302988,56.197992,140.364175,19.237001,39.76711,75.82151,-79.367833,-18.900159,0
4222.0,-147.672562,200.459625,243.885529,-168.529061,-85.395979,56.203665,140.263449,19.383678,39.772037,75.528271,-79.391095,-18.734803,0
4238.0,-147.609787,200.753235,243.522812,-168.415845,-85.450754,56.206415,140.162723,19.530355,39.776907,75.234973,-79.414357,-18.56939,0
4253.0,-147.525314,201.14325,243.037827,-168.26361,-85.522603,56.209222,140.08715,19.640306,39.780574,75.015015,-79.431775,-18.445345,0
4269.0,-147.439957,201.531616,242.551285,-168.109942,-85.593076,56.211113,139.986424,19.786983,39.785502,74.721718,-79.455037,-18.279989,0
4284.0,-147.353699,201.918304,242.063171,-167.954785,-85.662118,56.21203,139.885698,19.93366,39.790372,74.428421,-79.478299,-18.114634,0
4300.0,-147.266541,202.303299,241.573517,-167.798081,-85.729784,56.211915,139.784972,20.08028,39.795299,74.135181,-79.501561,-17.949221,0
4315.0,-147.178497,202.686615,241.082291,-167.639888,-85.796133,56.210769,139.684188,20.226957,39.800169,73.841884,-79.524823,-17.783865,0
4330.0,-147.089554,203.068222,240.589523,-167.480147,-85.861049,56.208535,139.583462,20.373634,39.805097,73.548587,-79.548142,-17.618509,0
4346.0,-146.99971,203.448135,240.0952,-167.318802,-85.924532,56.205212,139.482736,20.520312,39.809967,73.255347,-79.571405,-17.453097,0
4361.0,-146.931732,203.731934,239.723434,-167.196762,-85.971286,56.202003,139.407221,20.630262,39.813634,73.035389,-79.588822,-17.329051,0
4377.0,-146.840302,204.10881,239.226395,-167.03261,-86.032363,56.196675,139.306437,20.776939,39.818561,72.742091,-79.612085,-17.163696,0
4392.0,-146.747955,204.483963,238.727814,-166.866796,-86.092065,56.1902,139.205711,20.923617,39.823432,72.448794,-79.635347,-16.99834,0
4408.0,-146.654694,204.857376,238.227692,-166.699378,-86.150335,56.182523,139.104985,21.070294,39.828302,72.155497,-79.658609,-16.832927,0
4423.0,-146.560532,205.229019,237.726028,-166.530298,-86.20723,56.173584,139.004259,21.216914,39.833229,71.862257,-79.681871,-16.667571,0
4439.0,-146.465454,205.598907,237.222809,-166.359499,-86.262749,56.1635,138.903533,21.363591,39.838099,71.56896,-79.705133,-16.502159,0
4454.0,-146.369446,205.96701,236.718063,-166.187039,-86.316837,56.152098,138.802807,21.510268,39.843027,71.275663,-79.728395,-16.336803,0
4470.0,-146.296844,206.241928,236.338501,-166.056576,-86.356485,56.142759,138.727234,21.620219,39.846694,71.055705,-79.74587,-16.212758,0
4485.0,-146.199219,206.606903,235.83107,-165.881137,-86.408109,56.12918,138.626508,21.766896,39.851564,70.762408,-79.769132,-16.047402,0
4500.0,-146.100677,206.970078,235.322113,-165.704035,-86.4583,56.114341,138.525782,21.913573,39.856491,70.469168,-79.792394,-15.882046,0
4516.0,-146.001221,207.331451,234.81163,-165.525215,-86.507116,56.098183,138.425056,22.06025,39.861361,70.175871,-79.815656,-15.716633,0
4533.0,-145.900818,207.69101,234.299622,-165.344676,-86.5545,56.080765,138.32433,22.20687,39.866289,69.882574,-79.838919,-15.551278,0
4547.0,-145.7995,208.048721,233.786102,-165.162476,-86.600451,56.062087,138.223547,22.353547,39.871159,69.589334,-79.862181,-15.385865,0
4562.0,-145.697235,208.404602,233.271057,-164.978613,-86.645027,56.042148,138.122821,22.500225,39.876086,69.296037,-79.885443,-15.220509,0
4578.0,-145.619919,208.670303,232.883774,-164.839614,-86.677514,56.026392,138.047305,22.610232,39.879753,69.076078,-79.902918,-15.096464,0
4593.0,-145.516022,209.022949,232.366089,-164.65283,-86.719569,56.004218,137.946522,22.756852,39.884623,68.782781,-79.92618,-14.931108,0
4608.0,-145.411179,209.373718,231.846893,-164.464441,-86.760191,55.980841,137.845796,22.903529,39.889551,68.489484,-79.949442,-14.765695,0
4624.0,-145.305389,209.72261,231.326187,-164.274506,-86.799439,55.956319,137.74507,23.050207,39.894421,68.196244,-79.972704,-14.60034,0
4639.0,-145.198669,210.069626,230.803986,-164.083023,-86.837197,55.930593,137.644344,23.196827,39.899291,67.902947,-79.995966,-14.434984,0
4655.0,-145.091003,210.414749,230.280289,-163.889994,-86.87358,55.903721,137.543618,23.343504,39.904219,67.60965,-80.019228,-14.269571,0
4670.0,-144.982391,210.757965,229.755112,-163.695532,-86.90853,55.875818,137.442892,23.490181,39.909089,67.316353,-80.04249,-14.104216,0
4686.0,-144.900299,211.014114,229.360245,-163.548797,-86.933798,55.85416,137.367319,23.600189,39.912756,67.096394,-80.059966,-13.98017,0
4701.0,-144.790024,211.353973,228.832443,-163.351929,-86.966227,55.824424,137.241383,23.783478,39.918886,66.729816,-80.089015,-13.773447,0
4717.0,-144.678787,211.691895,228.303177,-163.153743,-86.997224,55.793771,137.165867,23.893486,39.922553,66.509858,-80.10649,-13.649402,0
4734.0,-144.566605,212.027878,227.77243,-162.954354,-87.026789,55.762201,137.065141,24.040163,39.927481,66.21656,-80.129752,-13.484046,0
4751.0,-144.453476,212.361923,227.240204,-162.753818,-87.054921,55.729886,136.939205,24.22351,39.933611,65.849982,-80.158801,-13.277323,0
4765.0,-144.339371,212.694,226.706528,-162.552194,-87.081621,55.696769,136.863632,24.33346,39.937278,65.630024,-80.176276,-13.153278,0
4780.0,-144.224319,213.024094,226.171371,-162.349597,-87.106888,55.663022,136.762906,24.480137,39.942148,65.336727,-80.199538,-12.987922,0
4795.0,-144.137405,213.270386,225.769058,-162.197075,-87.124879,55.637353,136.66218,24.626815,39.947076,65.043429,-80.2228,-12.822509,0
4810.0,-144.020676,213.597015,225.231354,-161.992988,-87.147625,55.602689,136.561454,24.773435,39.951946,64.75019,-80.246062,-12.657153,0
4826.0,-143.902969,213.921646,224.6922,-161.788155,-87.16894,55.567567,136.460728,24.920112,39.956873,64.456893,-80.269324,-12.491798,0
4842.0,-143.784317,214.244278,224.151611,-161.58275,-87.188764,55.532215,136.385155,25.03012,39.96054,64.236934,-80.286742,-12.367752,0
4857.0,-143.664688,214.564896,223.609573,-161.376829,-87.207213,55.496635,136.284429,25.176797,39.96541,63.943637,-80.310062,-12.202339,0
4871.0,-143.544098,214.883484,223.066101,-161.170564,-87.224173,55.460939,136.183703,25.323417,39.970281,63.650397,-80.333324,-12.036984,0
4886.0,-143.422546,215.200027,222.52121,-160.964013,-87.2397,55.425301,136.082977,25.470094,39.975208,63.3571,-80.356586,-11.871628,0
4902.0,-143.330734,215.436096,222.111603,-160.80897,-87.250357,55.398716,136.007404,25.580102,39.978875,63.137142,-80.374004,-11.747583,0
4917.0,-143.207489,215.749069,221.564209,-160.602247,-87.263363,55.363365,135.906678,25.726779,39.983745,62.843844,-80.397266,-11.582227,0
4933.0,-143.083267,216.059967,221.015411,-160.395581,-87.274879,55.328414,135.805952,25.873399,39.988673,62.550547,-80.420528,-11.416814,0
4948.0,-142.958069,216.368805,220.46521,-160.189145,-87.285021,55.293922,135.705226,26.020076,39.993543,62.25725,-80.44379,-11.251459,0
4963.0,-142.831894,216.675552,219.913589,-159.982994,-87.293672,55.26006,135.6045,26.166753,39.99847,61.96401,-80.467052,-11.086046,0
4979.0,-142.704758,216.980209,219.36058,-159.77736,-87.300834,55.226886,135.503774,26.313373,40.00334,61.670713,-80.490314,-10.92069,0
4994.0,-142.576645,217.282761,218.806183,-159.572298,-87.306564,55.194571,135.403048,26.46005,40.008268,61.377416,-80.513576,-10.755335,0
5010.0,-142.479919,217.508286,218.389481,-159.418975,-87.309944,55.170966,135.327475,26.570058,40.011935,61.157458,-80.531052,-10.631289,0
5025.0,-142.350098,217.807144,217.832657,-159.215231,-87.313153,55.140427,135.226749,26.716736,40.016805,60.864218,-80.554314,-10.465876,0
5042.0,-142.219284,218.103867,217.27446,-159.012404,-87.314929,55.111034,135.100812,26.900025,40.022935,60.497582,-80.58342,-10.259153,0
5058.0,-142.087509,218.398453,216.714905,-158.810723,-87.315216,55.082959,135.025239,27.010033,40.026602,60.277624,-80.600838,-10.135165,0
5074.0,-141.954758,218.690903,216.153976,-158.61013,-87.31407,55.056259,134.924513,27.15671,40.03153,59.984327,-80.6241,-9.969752,0
5088.0,-141.82103,218.981186,215.591705,-158.410856,-87.311491,55.031107,134.823787,27.303387,40.0364,59.691087,-80.647362,-9.804396,0
5102.0,-141.68631,219.269302,215.028076,-158.213013,-87.307423,55.007501,134.723061,27.450007,40.04127,59.39779,-80.670624,-9.638984,0
5118.0,-141.584625,219.483963,214.604477,-158.065534,-87.303413,54.990942,134.647488,27.560015,40.044994,59.177831,-80.688099,-9.514996,0
5133.0,-141.448212,219.76825,214.038498,-157.870384,-87.296824,54.97043,134.546762,27.706692,40.049864,58.884534,-80.711361,-9.349583,0
5149.0,-141.310791,220.050369,213.471207,-157.676839,-87.288802,54.951752,134.446036,27.853369,40.054735,58.591237,-80.734623,-9.184227,0
5164.0,-141.172409,220.330261,212.902573,-157.485013,-87.279291,54.935022,134.34531,27.999989,40.059662,58.297997,-80.757886,-9.018871,0
5181.0,-141.033035,220.607956,212.332642,-157.295078,-87.268348,54.920354,134.244584,28.146666,40.064532,58.0047,-80.781148,-8.853458,0
5196.0,-140.892685,220.883423,211.761398,-157.107033,-87.255972,54.907691,134.143858,28.293343,40.06946,57.711403,-80.80441,-8.688103,0
5210.0,-140.751358,221.156662,211.188843,-156.920879,-87.242106,54.897206,134.043132,28.439963,40.07433,57.418163,-80.827672,-8.52269,0
5227.0,-140.644714,221.360123,210.758591,-156.782624,-87.230762,54.890789,133.942349,28.586641,40.079257,57.124866,-80.850934,-8.357334,0
5243.0,-140.501663,221.629425,210.183777,-156.600137,-87.214375,54.884143,133.841623,28.733318,40.084127,56.831569,-80.874196,-8.191979,0
5257.0,-140.357635,221.896484,209.607681,-156.419655,-87.196499,54.879788,133.766107,28.843326,40.087794,56.611611,-80.891671,-8.067933,0
5272.0,-140.212616,222.161255,209.030319,-156.241351,-87.177247,54.877726,133.665381,28.989946,40.092722,56.318314,-80.914933,-7.90252,0
5287.0,-140.06662,222.423767,208.451691,-156.065166,-87.156449,54.877955,133.564598,29.136623,40.097592,56.025074,-80.938195,-7.737165,0
5302.0,-139.919647,222.683975,207.871811,-155.891216,-87.134276,54.880476,133.463872,29.2833,40.102519,55.731777,-80.961457,-7.571809,0
5318.0,-139.771698,222.941895,207.29068,-155.719444,-87.110612,54.885346,133.363146,29.429977,40.107389,55.43848,-80.98472,-7.406396,0
5335.0,-139.66008,223.133835,206.854004,-155.592018,-87.091934,54.89056,133.26242,29.576597,40.11226,55.145182,-81.007982,-7.241041,0
5349.0,-139.510406,223.387711,206.270706,-155.424084,-87.06575,54.899498,133.186847,29.686605,40.115927,54.925224,-81.0254,-7.116995,0
5364.0,-139.359756,223.639267,205.686172,-155.258327,-87.038133,54.910728,133.086121,29.833282,40.120854,54.631984,-81.048662,-6.95164,0
5379.0,-139.20813,223.888489,205.100418,-155.09469,-87.009027,54.924307,132.985395,29.979902,40.125724,54.338687,-81.071924,-6.786227,0
5395.0,-139.055511,224.135376,204.513458,-154.933231,-86.978488,54.940121,132.884669,30.126579,40.130652,54.04539,-81.095186,-6.620871,0
5411.0,-138.901932,224.379913,203.925293,-154.773949,-86.946517,54.958169,132.783943,30.273256,40.135522,53.75215,-81.118448,-6.455515,0
5426.0,-138.74736,224.622086,203.335938,-154.616729,-86.913057,54.978394,132.683217,30.419934,40.140449,53.458853,-81.141767,-6.290103,0
5442.0,-138.630798,224.80217,202.893143,-154.500189,-86.887044,54.99501,132.607644,30.529884,40.144116,53.238895,-81.159185,-6.166057,0
5457.0,-138.474518,225.040192,202.301712,-154.346522,-86.851063,55.019017,132.506918,30.676561,40.148986,52.945597,-81.182447,-6.000702,0
5473.0,-138.317261,225.275833,201.709106,-154.194917,-86.813648,55.045087,132.406192,30.823239,40.153914,52.6523,-81.205709,-5.835346,0
5488.0,-138.159042,225.509079,201.115341,-154.045204,-86.774802,55.073219,132.305466,30.969916,40.158784,52.359061,-81.228971,-5.669933,0
5503.0,-137.999832,225.739914,200.520432,-153.897438,-86.734466,55.103299,132.204683,31.116536,40.163711,52.065763,-81.252234,-5.504577,0
5519.0,-137.839661,225.968338,199.924377,-153.751505,-86.692754,55.135328,132.103957,31.263213,40.168581,51.772466,-81.275496,-5.339165,0
5534.0,-137.678513,226.194351,199.327179,-153.607349,-86.649553,55.169189,132.003231,31.40989,40.173509,51.479169,-81.298758,-5.173809,0
5550.0,-137.557022,226.362259,198.878555,-153.500435,-86.616207,55.195775,131.902505,31.55651,40.178379,51.185929,-81.32202,-5.008453,0
5565.0,-137.39418,226.584,198.279388,-153.359316,-86.570485,55.232788,131.801779,31.703187,40.183249,50.892632,-81.345282,-4.84304,0
5581.0,-137.230362,226.803299,197.679123,-153.219801,-86.523331,55.271462,131.726206,31.813195,40.186916,50.672674,-81.362757,-4.719052,0
5598.0,-137.065582,227.020142,197.077759,-153.08189,-86.474687,55.311799,131.62548,31.959872,40.191843,50.379377,-81.386019,-4.553639,0
5613.0,-136.899841,227.234512,196.475311,-152.945526,-86.424667,55.353624,131.524754,32.106492,40.196714,50.086137,-81.409281,-4.388284,0
5627.0,-136.733124,227.446426,195.87178,-152.810594,-86.373158,55.396997,131.424028,32.253169,40.201641,49.79284,-81.432543,-4.222871,0
5642.0,-136.56546,227.655838,195.267166,-152.677038,-86.320274,55.441803,131.323302,32.399847,40.206511,49.499543,-81.455805,-4.057515,0
5658.0,-136.439072,227.811279,194.813019,-152.577801,-86.279652,55.476295,131.247729,32.509854,40.210178,49.279584,-81.473281,-3.93347,0
5675.0,-136.269714,228.016327,194.206558,-152.446594,-86.224189,55.523506,131.121792,32.693144,40.216309,48.913006,-81.50233,-3.726747,0
5689.0,-136.099396,228.218872,193.59906,-152.316647,-86.167295,55.571864,131.046277,32.803152,40.219976,48.693047,-81.519805,-3.602701,0
5703.0,-135.928116,228.4189,192.990524,-152.187846,-86.109025,55.621482,130.945551,32.949829,40.224903,48.39975,-81.543067,-3.437346,0
5719.0,-135.75589,228.616409,192.380966,-152.060191,-86.049265,55.672246,130.844825,33.096506,40.229773,48.106453,-81.566329,-3.27199,0
5734.0,-135.582718,228.811386,191.770401,-151.933568,-85.988073,55.724042,130.744041,33.243126,40.234701,47.813156,-81.589591,-3.106577,0
5750.0,-135.408585,229.003815,191.158813,-151.807975,-85.925507,55.776811,130.643315,33.389803,40.239571,47.519916,-81.612853,-2.941222,0
5766.0,-135.277359,229.146454,190.699478,-151.714469,-85.877607,55.817033,130.5678,33.499811,40.243238,47.299958,-81.630271,-2.817176,0
5781.0,-135.101562,229.334427,190.086182,-151.590481,-85.812462,55.871464,130.467074,33.646431,40.248165,47.006661,-81.65359,-2.651821,0
5796.0,-134.92482,229.519821,189.471893,-151.467409,-85.745942,55.926754,130.36629,33.793108,40.253035,46.713364,-81.676853,-2.486408,0
5812.0,-134.747147,229.702637,188.856659,-151.34514,-85.677989,55.982847,130.265564,33.939785,40.257963,46.420067,-81.700115,-2.321052,0
5827.0,-134.568512,229.882874,188.240463,-151.223673,-85.608546,56.039684,130.164838,34.086462,40.262833,46.126827,-81.723377,-2.155696,0
5843.0,-134.388962,230.060516,187.623322,-151.102893,-85.537786,56.097152,130.064112,34.233082,40.267703,45.83353,-81.746639,-1.990283,0
5858.0,-134.20845,230.235565,187.005249,-150.982859,-85.465536,56.155307,129.963386,34.37976,40.27263,45.540233,-81.769901,-1.824928,0
5873.0,-134.072464,230.365128,186.541077,-150.893191,-85.410417,56.19931,129.887813,34.489767,40.276297,45.320274,-81.787319,-1.700883,0
5889.0,-133.890335,230.535614,185.921402,-150.774188,-85.335646,56.258439,129.787087,34.636445,40.281168,45.027034,-81.810581,-1.535527,0
5904.0,-133.708145,230.702667,185.303802,-150.65633,-85.259901,56.317855,129.68682,34.782377,40.286038,44.735112,-81.833728,-1.370916,0
5920.0,-133.541595,230.852386,184.74118,-150.549531,-85.189714,56.372286,129.595662,34.915189,40.290507,44.469604,-81.854813,-1.221202,0
5935.0,-133.40593,230.97226,184.284149,-150.463186,-85.13196,56.41669,129.521636,35.022905,40.294116,44.254171,-81.871887,-1.099735,0
5950.0,-133.30217,231.062668,183.935516,-150.397582,-85.087384,56.450667,129.465257,35.10501,40.296809,44.089962,-81.884951,-1.007088,0
5965.0,-133.245483,231.111618,183.7453,-150.36183,-85.062919,56.469288,129.426468,35.161503,40.2987,43.976974,-81.893889,-0.943432,0
5981.0,-133.198227,231.152176,183.586884,-150.332151,-85.042407,56.484758,129.408878,35.187057,40.299559,43.925867,-81.897957,-0.914613,0
5996.0,-133.182419,231.165695,183.53392,-150.322181,-85.035588,56.489972,129.400341,35.19949,40.299961,43.901,-81.899905,-0.900575,0
6011.0,-133.181793,231.166229,183.531845,-150.32178,-85.035302,56.490144,129.399997,35.200006,40.300018,43.900026,-81.90002,-0.900002,0
6026.0,-133.181793,231.166229,183.531845,-150.32178,-85.035302,56.490144,129.399997,35.200006,40.300018,43.900026,-81.90002,-0.900002,0
6042.0,-133.181793,231.166229,183.531845,-150.32178,-85.035302,56.490144,129.399997,35.200006,40.300018,43.900026,-81.90002,-0.900002,0
6057.0,-133.181793,231.166229,183.531845,-150.32178,-85.035302,56.490144,129.399997,35.200006,40.300018,43.900026,-81.90002,-0.900002,0
6072.0,-133.181793,231.166229,183.531845,-150.32178,-85.035302,56.490144,129.399997,35.200006,40.300018,43.900026,-81.90002,-0.900002,0
6088.0,-133.181793,231.166229,183.531845,-150.32178,-85.035302,56.490144,129.399997,35.200006,40.300018,43.900026,-81.90002,-0.900002,0
6103.0,-133.181793,231.166229,183.531845,-150.32178,-85.035302,56.490144,129.399997,35.200006,40.300018,43.900026,-81.90002,-0.900002,0
6118.0,-133.181793,231.166229,183.531845,-150.32178,-85.035302,56.490144,129.399997,35.200006,40.300018,43.900026,-81.90002,-0.900002,0
6133.0,-133.181793,231.166229,183.531845,-150.32178,-85.035302,56.490144,129.399997,35.200006,40.300018,43.900026,-81.90002,-0.900002,0
6152.0,-133.181793,231.166229,183.531845,-150.32178,-85.035302,56.490144,129.399997,35.200006,40.300018,43.900026,-81.90002,-0.900002,0
6166.0,-133.181793,231.166229,183.531845,-150.32178,-85.035302,56.490144,129.399997,35.200006,40.300018,43.900026,-81.90002,-0.900002,0
6179.0,-133.181793,231.166229,183.531845,-150.32178,-85.035302,56.490144,129.399997,35.200006,40.300018,43.900026,-81.90002,-0.900002,0
6195.0,-133.181793,231.166229,183.531845,-150.32178,-85.035302,56.490144,129.399997,35.200006,40.300018,43.900026,-81.90002,-0.900002,0
6210.0,-133.181793,231.166229,183.531845,-150.32178,-85.035302,56.490144,129.399997,35.200006,40.300018,43.900026,-81.90002,-0.900002,0
6226.0,-133.181793,231.166229,183.531845,-150.32178,-85.035302,56.490144,129.399997,35.200006,40.300018,43.900026,-81.90002,-0.900002,0
6241.0,-133.181793,231.166229,183.531845,-150.32178,-85.035302,56.490144,129.399997,35.200006,40.300018,43.900026,-81.90002,-0.900002,0
6257.0,-133.181793,231.166229,183.531845,-150.32178,-85.035302,56.490144,129.399997,35.200006,40.300018,43.900026,-81.90002,-0.900002,0
6272.0,-133.181793,231.166229,183.531845,-150.32178,-85.035302,56.490144,129.399997,35.200006,40.300018,43.900026,-81.90002,-0.900002,0
6288.0,-133.181793,231.166229,183.531845,-150.32178,-85.035302,56.490144,129.399997,35.200006,40.300018,43.900026,-81.90002,-0.900002,0
6304.0,-133.181793,231.166229,183.531845,-150.32178,-85.035302,56.490144,129.399997,35.200006,40.300018,43.900026,-81.90002,-0.900002,0
6319.0,-133.181793,231.166229,183.531845,-150.32178,-85.035302,56.490144,129.399997,35.200006,40.300018,43.900026,-81.90002,-0.900002,0
6335.0,-133.181793,231.166229,183.531845,-150.32178,-85.035302,56.490144,129.399997,35.200006,40.300018,43.900026,-81.90002,-0.900002,0
6350.0,-133.181793,231.166229,183.531845,-150.32178,-85.035302,56.490144,129.399997,35.200006,40.300018,43.900026,-81.90002,-0.900002,0
6366.0,-133.181793,231.166229,183.531845,-150.32178,-85.035302,56.490144,129.399997,35.200006,40.300018,43.900026,-81.90002,-0.900002,0
6381.0,-133.181793,231.166229,183.531845,-150.32178,-85.035302,56.490144,129.399997,35.200006,40.300018,43.900026,-81.90002,-0.900002,0
6396.0,-133.181793,231.166229,183.531845,-150.32178,-85.035302,56.490144,129.399997,35.200006,40.300018,43.900026,-81.90002,-0.900002,0
6412.0,-133.181793,231.166229,183.531845,-150.32178,-85.035302,56.490144,129.399997,35.200006,40.300018,43.900026,-81.90002,-0.900002,0
6427.0,-133.181793,231.166229,183.531845,-150.32178,-85.035302,56.490144,129.399997,35.200006,40.300018,43.900026,-81.90002,-0.900002,0
6443.0,-133.181793,231.166229,183.531845,-150.32178,-85.035302,56.490144,129.399997,35.200006,40.300018,43.900026,-81.90002,-0.900002,0
6458.0,-133.181793,231.166229,183.531845,-150.32178,-85.035302,56.490144,129.399997,35.200006,40.300018,43.900026,-81.90002,-0.900002,0
6474.0,-133.181793,231.166229,183.531845,-150.32178,-85.035302,56.490144,129.399997,35.200006,40.300018,43.900026,-81.90002,-0.900002,0
6489.0,-133.181793,231.166229,183.531845,-150.32178,-85.035302,56.490144,129.399997,35.200006,40.300018,43.900026,-81.90002,-0.900002,0
6505.0,-133.181793,231.166229,183.531845,-150.32178,-85.035302,56.490144,129.399997,35.200006,40.300018,43.900026,-81.90002,-0.900002,0
6521.0,-133.181793,231.166229,183.531845,-150.32178,-85.035302,56.490144,129.399997,35.200006,40.300018,43.900026,-81.90002,-0.900002,0
6536.0,-133.181793,231.166229,183.531845,-150.32178,-85.035302,56.490144,129.399997,35.200006,40.300018,43.900026,-81.90002,-0.900002,0
6552.0,-133.181793,231.166229,183.531845,-150.32178,-85.035302,56.490144,129.399997,35.200006,40.300018,43.900026,-81.90002,-0.900002,0
6567.0,-133.181793,231.166229,183.531845,-150.32178,-85.035302,56.490144,129.399997,35.200006,40.300018,43.900026,-81.90002,-0.900002,0
6583.0,-133.181793,231.166229,183.531845,-150.32178,-85.035302,56.490144,129.399997,35.200006,40.300018,43.900026,-81.90002,-0.900002,0
6598.0,-133.181793,231.166229,183.531845,-150.32178,-85.035302,56.490144,129.399997,35.200006,40.300018,43.900026,-81.90002,-0.900002,0
6614.0,-133.181793,231.166229,183.531845,-150.32178,-85.035302,56.490144,129.399997,35.200006,40.300018,43.900026,-81.90002,-0.900002,0
6629.0,-133.181793,231.166229,183.531845,-150.32178,-85.035302,56.490144,129.399997,35.200006,40.300018,43.900026,-81.90002,-0.900002,0
6644.0,-133.181793,231.166229,183.531845,-150.32178,-85.035302,56.490144,129.399997,35.200006,40.300018,43.900026,-81.90002,-0.900002,0
6660.0,-133.181793,231.166229,183.531845,-150.32178,-85.035302,56.490144,129.399997,35.200006,40.300018,43.900026,-81.90002,-0.900002,0
6675.0,-133.181793,231.166229,183.531845,-150.32178,-85.035302,56.490144,129.399997,35.200006,40.300018,43.900026,-81.90002,-0.900002,0
6691.0,-133.181793,231.166229,183.531845,-150.32178,-85.035302,56.490144,129.399997,35.200006,40.300018,43.900026,-81.90002,-0.900002,0
6707.0,-133.181793,231.166229,183.531845,-150.32178,-85.035302,56.490144,129.399997,35.200006,40.300018,43.900026,-81.90002,-0.900002,0
6722.0,-133.181793,231.166229,183.531845,-150.32178,-85.035302,56.490144,129.399997,35.200006,40.300018,43.900026,-81.90002,-0.900002,0
6737.0,-133.181793,231.166229,183.531845,-150.32178,-85.035302,56.490144,129.399997,35.200006,40.300018,43.900026,-81.90002,-0.900002,0
6753.0,-133.181793,231.166229,183.531845,-150.32178,-85.035302,56.490144,129.399997,35.200006,40.300018,43.900026,-81.90002,-0.900002,0
6769.0,-133.181793,231.166229,183.531845,-150.32178,-85.035302,56.490144,129.399997,35.200006,40.300018,43.900026,-81.90002,-0.900002,0
6784.0,-133.181793,231.166229,183.531845,-150.32178,-85.035302,56.490144,129.399997,35.200006,40.300018,43.900026,-81.90002,-0.900002,0
6800.0,-133.181793,231.166229,183.531845,-150.32178,-85.035302,56.490144,129.399997,35.200006,40.300018,43.900026,-81.90002,-0.900002,0
6815.0,-133.181793,231.166229,183.531845,-150.32178,-85.035302,56.490144,129.399997,35.200006,40.300018,43.900026,-81.90002,-0.900002,0
6830.0,-133.181793,231.166229,183.531845,-150.32178,-85.035302,56.490144,129.399997,35.200006,40.300018,43.900026,-81.90002,-0.900002,0
6846.0,-133.181793,231.166229,183.531845,-150.32178,-85.035302,56.490144,129.399997,35.200006,40.300018,43.900026,-81.90002,-0.900002,0
6861.0,-133.181793,231.166229,183.531845,-150.32178,-85.035302,56.490144,129.399997,35.200006,40.300018,43.900026,-81.90002,-0.900002,0
6877.0,-133.181793,231.166229,183.531845,-150.32178,-85.035302,56.490144,129.399997,35.200006,40.300018,43.900026,-81.90002,-0.900002,0
6893.0,-133.181793,231.166229,183.531845,-150.32178,-85.035302,56.490144,129.399997,35.200006,40.300018,43.900026,-81.90002,-0.900002,0
6908.0,-133.181793,231.166229,183.531845,-150.32178,-85.035302,56.490144,129.399997,35.200006,40.300018,43.900026,-81.90002,-0.900002,0
6923.0,-133.181793,231.166229,183.531845,-150.32178,-85.035302,56.490144,129.399997,35.200006,40.300018,43.900026,-81.90002,-0.900002,0
6939.0,-133.181793,231.166229,183.531845,-150.32178,-85.035302,56.490144,129.399997,35.200006,40.300018,43.900026,-81.90002,-0.900002,0
6955.0,-133.181793,231.166229,183.531845,-150.32178,-85.035302,56.490144,129.399997,35.200006,40.300018,43.900026,-81.90002,-0.900002,0
6970.0,-133.181793,231.166229,183.531845,-150.32178,-85.035302,56.490144,129.399997,35.200006,40.300018,43.900026,-81.90002,-0.900002,0
6985.0,-133.181793,231.166229,183.531845,-150.32178,-85.035302,56.490144,129.399997,35.200006,40.300018,43.900026,-81.90002,-0.900002,0
7001.0,-133.181793,231.166229,183.531845,-150.32178,-85.035302,56.490144,129.399997,35.200006,40.300018,43.900026,-81.90002,-0.900002,0
7018.0,-133.181793,231.166229,183.531845,-150.32178,-85.035302,56.490144,129.399997,35.200006,40.300018,43.900026,-81.90002,-0.900002,0
7034.0,-133.181793,231.166229,183.531845,-150.32178,-85.035302,56.490144,129.399997,35.200006,40.300018,43.900026,-81.90002,-0.900002,0
7049.0,-133.181793,231.166229,183.531845,-150.32178,-85.035302,56.490144,129.399997,35.200006,40.300018,43.900026,-81.90002,-0.900002,0
7064.0,-133.181793,231.166229,183.531845,-150.32178,-85.035302,56.490144,129.399997,35.200006,40.300018,43.900026,-81.90002,-0.900002,0
7079.0,-133.181793,231.166229,183.531845,-150.32178,-85.035302,56.490144,129.399997,35.200006,40.300018,43.900026,-81.90002,-0.900002,0
7097.0,-133.181793,231.166229,183.531845,-150.32178,-85.035302,56.490144,129.399997,35.200006,40.300018,43.900026,-81.90002,-0.900002,0
7111.0,-133.181793,231.166229,183.531845,-150.32178,-85.035302,56.490144,129.399997,35.200006,40.300018,43.900026,-81.90002,-0.900002,0
7126.0,-133.181793,231.166229,183.531845,-150.32178,-85.035302,56.490144,129.399997,35.200006,40.300018,43.900026,-81.90002,-0.900002,0
7142.0,-133.181793,231.166229,183.531845,-150.32178,-85.035302,56.490144,129.399997,35.200006,40.300018,43.900026,-81.90002,-0.900002,0
7155.0,-133.181793,231.166229,183.531845,-150.32178,-85.035302,56.490144,129.399997,35.200006,40.300018,43.900026,-81.90002,-0.900002,0
7170.0,-133.181793,231.166229,183.531845,-150.32178,-85.035302,56.490144,129.399997,35.200006,40.300018,43.900026,-81.90002,-0.900002,0
7185.0,-133.181793,231.166229,183.531845,-150.32178,-85.035302,56.490144,129.399997,35.200006,40.300018,43.900026,-81.90002,-0.900002,0
7201.0,-133.181793,231.166229,183.531845,-150.32178,-85.035302,56.490144,129.399997,35.200006,40.300018,43.900026,-81.90002,-0.900002,0
7217.0,-133.181793,231.166229,183.531845,-150.32178,-85.035302,56.490144,129.399997,35.200006,40.300018,43.900026,-81.90002,-0.900002,0
7233.0,-133.181793,231.166229,183.531845,-150.32178,-85.035302,56.490144,129.399997,35.200006,40.300018,43.900026,-81.90002,-0.900002,0
7247.0,-133.181793,231.166229,183.531845,-150.32178,-85.035302,56.490144,129.399997,35.200006,40.300018,43.900026,-81.90002,-0.900002,0
7263.0,-133.181793,231.166229,183.531845,-150.32178,-85.035302,56.490144,129.399997,35.200006,40.300018,43.900026,-81.90002,-0.900002,0
7279.0,-133.181793,231.166229,183.531845,-150.32178,-85.035302,56.490144,129.399997,35.200006,40.300018,43.900026,-81.90002,-0.900002,0
7295.0,-133.181793,231.166229,183.531845,-150.32178,-85.035302,56.490144,129.399997,35.200006,40.300018,43.900026,-81.90002,-0.900002,0
7309.0,-133.181793,231.166229,183.531845,-150.32178,-85.035302,56.490144,129.399997,35.200006,40.300018,43.900026,-81.90002,-0.900002,0
7325.0,-133.181793,231.166229,183.531845,-150.32178,-85.035302,56.490144,129.399997,35.200006,40.300018,43.900026,-81.90002,-0.900002,0
7340.0,-133.181793,231.166229,183.531845,-150.32178,-85.035302,56.490144,129.399997,35.200006,40.300018,43.900026,-81.90002,-0.900002,0
7355.0,-133.181793,231.166229,183.531845,-150.32178,-85.035302,56.490144,129.399997,35.200006,40.300018,43.900026,-81.90002,-0.900002,0
7370.0,-133.181793,231.166229,183.531845,-150.32178,-85.035302,56.490144,129.399997,35.200006,40.300018,43.900026,-81.90002,-0.900002,0
7386.0,-133.181793,231.166229,183.531845,-150.32178,-85.035302,56.490144,129.399997,35.200006,40.300018,43.900026,-81.90002,-0.900002,0
7403.0,-133.181793,231.166229,183.531845,-150.32178,-85.035302,56.490144,129.399997,35.200006,40.300018,43.900026,-81.90002,-0.900002,0
7418.0,-133.181793,231.166229,183.531845,-150.32178,-85.035302,56.490144,129.399997,35.200006,40.300018,43.900026,-81.90002,-0.900002,0
7434.0,-133.181793,231.166229,183.531845,-150.32178,-85.035302,56.490144,129.399997,35.200006,40.300018,43.900026,-81.90002,-0.900002,0
7447.0,-133.181793,231.166229,183.531845,-150.32178,-85.035302,56.490144,129.399997,35.200006,40.300018,43.900026,-81.90002,-0.900002,0
7463.0,-133.181793,231.166229,183.531845,-150.32178,-85.035302,56.490144,129.399997,35.200006,40.300018,43.900026,-81.90002,-0.900002,0
7478.0,-133.181793,231.166229,183.531845,-150.32178,-85.035302,56.490144,129.399997,35.200006,40.300018,43.900026,-81.90002,-0.900002,0
7493.0,-133.181793,231.166229,183.531845,-150.32178,-85.035302,56.490144,129.399997,35.200006,40.300018,43.900026,-81.90002,-0.900002,0
7509.0,-133.181793,231.166229,183.531845,-150.32178,-85.035302,56.490144,129.399997,35.200006,40.300018,43.900026,-81.90002,-0.900002,0
7525.0,-133.181793,231.166229,183.531845,-150.32178,-85.035302,56.490144,129.399997,35.200006,40.300018,43.900026,-81.90002,-0.900002,0
7540.0,-133.181793,231.166229,183.531845,-150.32178,-85.035302,56.490144,129.399997,35.200006,40.300018,43.900026,-81.90002,-0.900002,0
7556.0,-133.181793,231.166229,183.531845,-150.32178,-85.035302,56.490144,129.399997,35.200006,40.300018,43.900026,-81.90002,-0.900002,0
7572.0,-133.181793,231.166229,183.531845,-150.32178,-85.035302,56.490144,129.399997,35.200006,40.300018,43.900026,-81.90002,-0.900002,0
7587.0,-133.181793,231.166229,183.531845,-150.32178,-85.035302,56.490144,129.399997,35.200006,40.300018,43.900026,-81.90002,-0.900002,0
7602.0,-133.181793,231.166229,183.531845,-150.32178,-85.035302,56.490144,129.399997,35.200006,40.300018,43.900026,-81.90002,-0.900002,0
7618.0,-133.181793,231.166229,183.531845,-150.32178,-85.035302,56.490144,129.399997,35.200006,40.300018,43.900026,-81.90002,-0.900002,0
7635.0,-133.181793,231.166229,183.531845,-150.32178,-85.035302,56.490144,129.399997,35.200006,40.300018,43.900026,-81.90002,-0.900002,0
7649.0,-133.181793,231.166229,183.531845,-150.32178,-85.035302,56.490144,129.399997,35.200006,40.300018,43.900026,-81.90002,-0.900002,0
7664.0,-133.181793,231.166229,183.531845,-150.32178,-85.035302,56.490144,129.399997,35.200006,40.300018,43.900026,-81.90002,-0.900002,0
7679.0,-133.181793,231.166229,183.531845,-150.32178,-85.035302,56.490144,129.399997,35.200006,40.300018,43.900026,-81.90002,-0.900002,0
7695.0,-133.181793,231.166229,183.531845,-150.32178,-85.035302,56.490144,129.399997,35.200006,40.300018,43.900026,-81.90002,-0.900002,0
7711.0,-133.181793,231.166229,183.531845,-150.32178,-85.035302,56.490144,129.399997,35.200006,40.300018,43.900026,-81.90002,-0.900002,0
7726.0,-133.181793,231.166229,183.531845,-150.32178,-85.035302,56.490144,129.399997,35.200006,40.300018,43.900026,-81.90002,-0.900002,0
7742.0,-133.181793,231.166229,183.531845,-150.32178,-85.035302,56.490144,129.399997,35.200006,40.300018,43.900026,-81.90002,-0.900002,0
7757.0,-133.181793,231.166229,183.531845,-150.32178,-85.035302,56.490144,129.399997,35.200006,40.300018,43.900026,-81.90002,-0.900002,0
7773.0,-133.181793,231.166229,183.531845,-150.32178,-85.035302,56.490144,129.399997,35.200006,40.300018,43.900026,-81.90002,-0.900002,0
