BAEK26/lfd/data/sepisode2/aaaa.csv
timestamp,x,y,z,roll,pitch,yaw,joint1,joint2,joint3,joint4,joint5,joint6,gripper,scale
152.867,-132.195602,230.900864,185.336029,-140.233368,-86.782709,45.742544,129.405956,35.199433,40.200953,44.505643,-83.844008,-1.263429,1,-0.03
154.865,-132.195892,230.900711,185.3311,-140.285164,-86.779156,45.794511,129.405956,35.199433,40.200953,44.505643,-83.839424,-1.263429,1,-0.03
171.864,-132.195892,230.900711,185.3311,-140.285164,-86.779156,45.794511,129.405956,35.199433,40.200953,44.505643,-83.839424,-1.263429,1,-0.03
187.867,-132.195892,230.900711,185.3311,-140.285164,-86.779156,45.794511,129.405956,35.199433,40.200953,44.505643,-83.839424,-1.263429,1,-0.03
201.879,-132.195892,230.900711,185.3311,-140.285164,-86.779156,45.794511,129.405956,35.199433,40.200953,44.505643,-83.839424,-1.263429,1,-0.03
217.363,-132.195892,230.900711,185.3311,-140.285164,-86.779156,45.794511,129.405956,35.199433,40.200953,44.505643,-83.839424,-1.263429,1,-0.01
234.298,-132.195892,230.900711,185.3311,-140.285164,-86.779156,45.794511,129.405956,35.199433,40.200953,44.505643,-83.839424,-1.263429,1,-0.01
248.681,-132.195892,230.900711,185.3311,-140.285164,-86.779156,45.794511,129.405956,35.199433,40.200953,44.505643,-83.839424,-1.263429,1,-0.01
263.81,-132.195892,230.900711,185.3311,-140.285164,-86.779156,45.794511,129.405956,35.199433,40.200953,44.505643,-83.839424,-1.263429,1,-0.01
279.316,-132.195892,230.900711,185.3311,-140.285164,-86.779156,45.794511,129.405956,35.199433,40.200953,44.505643,-83.839424,-1.263429,1,-0.01
295.969,-132.18425,230.89975,185.330505,-140.281898,-86.778297,45.780302,129.405956,35.199433,40.200953,44.516586,-83.839424,-1.263429,1,-0.01
311.462,-132.16098,230.897812,185.329346,-140.275481,-86.776578,45.751998,129.405956,35.199433,40.200953,44.538588,-83.839424,-1.263429,1,-0.01
325.623,-132.149353,230.896851,185.328766,-140.272272,-86.775719,45.737846,129.405956,35.199433,40.200953,44.560532,-83.839424,-1.263429,1,-0.01
341.128,-132.126068,230.894897,185.327591,-140.265855,-86.774,45.709542,129.405956,35.199433,40.200953,44.571533,-83.839424,-1.263429,1,-0.01
358.228,-132.126068,230.894897,185.327591,-140.265855,-86.774,45.709542,129.405956,35.199433,40.200953,44.571533,-83.839424,-1.263429,1,-0.01
373.235,-132.126068,230.894897,185.327591,-140.265855,-86.774,45.709542,129.405956,35.199433,40.200953,44.571533,-83.839424,-1.263429,1,-0.01
388.63,-132.126068,230.894897,185.327591,-140.265855,-86.774,45.709542,129.405956,35.199433,40.200953,44.571533,-83.839424,-1.263429,1,-0.01
404.146,-132.126068,230.894897,185.327591,-140.265855,-86.774,45.709542,129.405956,35.199433,40.200953,44.571533,-83.839424,-1.263429,1,-0.01
419.616,-132.114441,230.893921,185.327011,-140.262647,-86.77314,45.69539,129.405956,35.199433,40.200953,44.582534,-83.839424,-1.263429,1,-0.01
433.739,-132.102798,230.892944,185.326416,-140.259438,-86.772281,45.681237,129.405956,35.199433,40.200953,44.604478,-83.839424,-1.263429,1,-0.01
448.998,-132.091171,230.891953,185.325836,-140.256229,-86.771421,45.667085,129.405956,35.199433,40.200953,44.604478,-83.839424,-1.263429,1,-0.01
464.189,-132.079529,230.890976,185.325256,-140.253078,-86.770562,45.652991,129.405956,35.199433,40.200953,44.615479,-83.839424,-1.263429,1,-0.01
478.698,-132.067902,230.889984,185.324661,-140.24987,-86.769703,45.638839,129.405956,35.199433,40.200953,44.626479,-83.839424,-1.263429,1,-0.01
494.291,-132.067902,230.889984,185.324661,-140.24987,-86.769703,45.638839,129.405956,35.199433,40.200953,44.626479,-83.839424,-1.263429,1,-0.01
509.297,-132.067902,230.889984,185.324661,-140.24987,-86.769703,45.638839,129.405956,35.199433,40.200953,44.626479,-83.839424,-1.263429,1,-0.01
526.802,-132.056259,230.888992,185.324081,-140.246718,-86.768843,45.624687,129.405956,35.199433,40.200953,44.637423,-83.839424,-1.263429,1,-0.01
542.79,-132.056259,230.888992,185.324081,-140.246718,-86.768843,45.624687,129.405956,35.199433,40.200953,44.637423,-83.839424,-1.263429,1,-0.01
557.236,-132.044632,230.888,185.323502,-140.24351,-86.767984,45.610592,129.405956,35.199433,40.200953,44.659425,-83.839424,-1.263429,1,-0.01
572.285,-132.021362,230.886017,185.322327,-140.237207,-86.766265,45.582345,129.405956,35.199433,40.200953,44.670425,-83.839424,-1.263429,1,-0.01
587.817,-132.00972,230.885025,185.321747,-140.234056,-86.765405,45.56825,129.405956,35.199433,40.200953,44.681369,-83.839424,-1.263429,1,-0.01
602.742,-132.00972,230.885025,185.321747,-140.234056,-86.765405,45.56825,129.405956,35.199433,40.200953,44.681369,-83.839424,-1.263429,1,-0.01
618.258,-132.00972,230.885025,185.321747,-140.234056,-86.765405,45.56825,129.405956,35.199433,40.200953,44.681369,-83.839424,-1.263429,1,-0.01
634.769,-131.998093,230.884018,185.321152,-140.230905,-86.764546,45.554155,129.405956,35.199433,40.200953,44.69237,-83.839424,-1.263429,1,-0.01
650.31,-131.98645,230.883011,185.320572,-140.227753,-86.763744,45.540061,129.405956,35.199433,40.200953,44.70337,-83.839424,-1.263429,1,-0.01
665.252,-131.974823,230.882019,185.319977,-140.224602,-86.762827,45.525966,129.405956,35.199433,40.200953,44.714371,-83.839424,-1.263429,1,-0.01
680.251,-131.951553,230.880005,185.318802,-140.2183,-86.761108,45.497776,129.405956,35.199433,40.200953,44.736315,-83.839424,-1.263429,1,-0.03
696.156,-131.939926,230.878983,185.318222,-140.215206,-86.760249,45.483739,129.405956,35.199433,40.200953,44.747316,-83.839424,-1.263429,1,-0.03
711.17,-131.916656,230.876953,185.317047,-140.208903,-86.758587,45.455607,129.405956,35.199433,40.200953,44.769261,-83.839424,-1.263429,1,-0.03
726.635,-131.893387,230.874924,185.315872,-140.202715,-86.756811,45.427474,129.405956,35.199433,40.200953,44.791262,-83.839424,-1.263429,1,-0.03
742.203,-131.85849,230.871841,185.314117,-140.193376,-86.754233,45.385305,129.405956,35.199433,40.200953,44.824207,-83.839424,-1.263429,1,-0.03
758.221,-131.823883,230.868607,185.307419,-140.235488,-86.748159,45.394701,129.405956,35.199433,40.200953,44.868153,-83.834841,-1.263429,1,-0.03
772.977,-131.754395,230.862213,185.298965,-140.268147,-86.73945,45.361928,129.405956,35.199433,40.200953,44.9231,-83.830257,-1.263429,1,-0.03
788.466,-131.62706,230.850266,185.282623,-140.336386,-86.722949,45.310075,129.405956,35.199433,40.200953,45.043937,-83.82109,-1.263429,1,-0.03
802.963,-131.407059,230.829056,185.256607,-140.430638,-86.69602,45.196802,129.405956,35.199433,40.200953,45.252665,-83.807396,-1.263429,1,-0.03
817.962,-131.082291,230.796677,185.230087,-140.448285,-86.664851,44.908375,129.405956,35.199433,40.200953,45.560286,-83.798229,-1.263429,1,-0.03
833.462,-130.710709,230.757874,185.210922,-140.357929,-86.637292,44.467713,129.405956,35.199433,40.200953,45.911853,-83.798229,-1.263429,1,-0.03
848.962,-130.338928,230.717056,185.19162,-140.271928,-86.609675,44.031291,129.405784,35.199433,40.200953,46.373313,-83.798229,-1.263429,1,-0.03
864.463,-129.827881,230.657364,185.164841,-140.160488,-86.571631,43.437993,129.405669,35.199433,40.200953,46.746824,-83.798229,-1.263429,1,-0.03
879.962,-129.190521,230.576309,185.130997,-140.032088,-86.523961,42.707415,129.405555,35.199433,40.200953,47.351066,-83.798229,-1.263429,1,-0.03
895.462,-128.542496,230.486893,185.096024,-139.506285,-86.45406,41.567687,129.40544,35.199433,40.200953,47.966308,-83.798229,-1.230484,1,-0.03
910.976,-127.860458,230.385406,185.058716,-138.87351,-86.374018,40.287699,129.405211,35.199433,40.200953,48.614495,-83.798229,-1.186538,1,-0.03
926.462,-127.282387,230.293945,185.026779,-138.543143,-86.315863,39.408954,129.404753,35.199433,40.200953,49.16379,-83.798229,-1.164537,1,-0.03
941.963,-126.693321,230.19519,184.993912,-138.353838,-86.26401,38.660442,129.404237,35.199433,40.200953,49.724142,-83.798229,-1.153536,1,-0.03
958.463,-126.175018,230.102936,184.964584,-138.058421,-86.20998,37.871422,129.403893,35.199433,40.200953,50.21849,-83.798229,-1.131592,1,-0.03
973.962,-125.668579,230.008682,184.935669,-137.777098,-86.156752,37.107382,129.403435,35.199433,40.200953,50.701895,-83.798229,-1.109647,1,-0.03
988.962,-125.300301,229.937729,184.91452,-137.754753,-86.128735,36.734158,129.402919,35.199433,40.200953,51.174298,-83.798229,-1.098647,1,-0.03
1005.466,-124.761055,229.828979,184.883209,-137.608362,-86.080148,36.072449,129.402232,35.199433,40.200953,51.767596,-83.798229,-1.098647,1,-0.03
1020.351,-124.058762,229.682632,184.877655,-137.267911,-86.050239,35.061808,129.401601,35.199204,40.200953,52.24,-83.830257,-1.098647,1,-0.03
1034.678,-123.287956,229.513367,184.886871,-136.304368,-85.9981,33.360238,129.400398,35.199089,40.201068,52.976079,-83.88062,-1.054701,1,-0.03
1050.892,-122.300278,229.28186,184.931931,-134.494509,-85.929517,30.60116,129.39908,35.19886,40.201183,53.920886,-83.976762,-0.966809,1,-0.03
1065.659,-121.295265,229.034546,185.069092,-132.392269,-85.955644,27.535951,129.39696,35.198631,40.201297,54.876694,-84.159822,-0.933864,1,-0.03
1082.708,-120.149948,228.734894,185.250488,-129.964246,-86.015404,24.010369,129.393465,35.198574,40.201412,55.96434,-84.393303,-0.922863,1,-0.03
1098.271,-119.287064,228.502396,185.375626,-128.300835,-86.055854,21.524076,129.384871,35.198344,40.201526,57.041042,-84.617616,-0.922863,1,-0.03
1113.278,-118.039993,228.175293,185.562866,-125.797468,-86.113723,17.853709,129.362468,35.197771,40.201698,58.161633,-84.887708,-0.922863,1,-0.03
1128.882,-116.910889,227.909088,185.774612,-123.012262,-86.184541,14.051561,129.339263,35.197542,40.201698,58.897712,-85.057074,-0.922863,1,-0.03
1143.903,-115.756622,227.712204,185.87915,-121.473298,-86.197948,11.54722,129.278988,35.196912,40.201698,59.798574,-85.208106,-0.922863,1,-0.02
1160.434,-114.61882,227.692413,185.932022,-120.654656,-86.19239,9.931536,129.165142,35.195823,40.201698,60.479706,-85.295081,-0.922863,1,-0.02
1174.961,-113.430672,227.749466,185.927368,-120.529808,-86.163685,9.04666,129.020355,35.19548,40.201813,61.094948,-85.327167,-0.922863,1,-0.02
1190.145,-112.49707,227.886002,185.933716,-120.353738,-86.15045,8.355272,128.830878,35.19525,40.201813,61.589353,-85.368362,-0.922863,1,-0.02
1205.315,-111.189507,228.114029,185.959534,-119.932901,-86.141569,7.250208,128.668273,35.194792,40.201813,61.94092,-85.404974,-0.922863,1,-0.02
1220.329,-109.863075,228.471878,185.993881,-119.490463,-86.140251,6.226103,128.417317,35.193703,40.201813,62.270486,-85.450754,-0.922863,1,-0.02
1235.36,-108.530533,228.871689,186.037811,-118.91338,-86.147585,5.107117,128.151866,35.193589,40.201813,62.545162,-85.5057,-0.922863,1,-0.02
1249.916,-107.019829,229.364853,186.149414,-117.532609,-86.183968,3.155508,127.837999,35.193188,40.201813,62.797836,-85.62012,-0.922863,1,-0.02
1264.933,-105.95195,229.707596,186.286194,-115.685622,-86.211355,0.905674,127.616551,35.1925,40.202042,62.973619,-85.752874,-0.900862,1,-0.02
1279.937,-104.352753,230.347198,186.58551,-111.856259,-86.288991,-3.411792,127.249457,35.188891,40.202271,63.083513,-86.018383,-0.878917,1,-0.02
1295.59,-102.871307,231.01889,186.889267,-107.96576,-86.375508,-7.676489,126.886145,35.184937,40.2025,63.083513,-86.279308,-0.878917,1,-0.02
1310.971,-101.200516,231.863739,187.07402,-105.475743,-86.426615,-10.499681,126.44978,35.18425,40.2025,62.973619,-86.434923,-0.878917,1,-0.02
1326.475,-99.356285,232.6819,187.163437,-104.331432,-86.419052,-12.100811,125.995711,35.181499,40.203245,62.973619,-86.499037,-0.856916,1,-0.02
1341.08,-97.893219,233.313889,187.259094,-102.969282,-86.331103,-13.834123,125.473002,35.173191,40.204563,63.017565,-86.599706,-0.725078,1,-0.02
1357.987,-95.099609,234.393982,187.613541,-98.567133,-86.206485,-19.02197,124.98444,35.158237,40.205136,63.105457,-86.814909,-0.604241,1,-0.02
1373.546,-93.448936,235.000946,187.821991,-95.901676,-86.176462,-22.153986,124.417499,35.151877,40.20548,63.226294,-87.07125,-0.549295,1,-0.02
1388.34,-90.676758,235.916321,188.240906,-91.072959,-86.071324,-27.836009,123.980504,35.136121,40.205881,63.402077,-87.313841,-0.461403,1,-0.02
1405.385,-88.072411,236.79245,188.769669,-86.01781,-85.83687,-33.6615,123.200021,35.092404,40.206339,63.566917,-87.785328,-0.23073,1,-0.02
1420.52,-85.565292,237.746613,189.323792,-81.394155,-85.586717,-38.901428,122.783079,35.063642,40.206339,63.566917,-88.023391,-0.098893,1,-0.02
1434.217,-82.947586,238.719986,189.933121,-76.989428,-85.373576,-43.948097,122.152711,35.013852,40.206683,63.566917,-88.380459,0.0,1,-0.02
1450.788,-80.028961,239.81102,190.95285,-71.809774,-84.940363,-49.847385,121.446827,34.90138,40.207199,63.566917,-88.865639,0.197728,1,-0.02
1466.454,-78.454842,240.529602,191.409622,-70.013208,-84.681157,-51.889121,120.886761,34.831479,40.207542,63.325186,-89.108287,0.384512,1,-0.02
1481.573,-75.760162,241.640213,192.125519,-68.312096,-84.45312,-54.133224,120.17383,34.694829,40.208287,63.248295,-89.259319,0.406514,1,-0.02
1496.459,-73.05481,242.667648,192.896317,-67.653539,-84.27006,-55.432062,119.686128,34.569695,40.209548,63.226294,-89.282237,0.406514,1,-0.02
1512.447,-70.829613,243.641418,193.53302,-67.727737,-84.135758,-55.756299,119.109159,34.41832,40.209605,63.05051,-89.241041,0.406514,1,-0.02
1527.938,-68.242279,244.583542,194.253738,-67.663909,-83.973668,-56.415888,118.478562,34.252047,40.209949,63.017565,-89.22729,0.406514,1,-0.02
1543.538,-65.406166,245.480789,195.187683,-67.57596,-83.755601,-57.272918,117.817483,34.037532,40.210407,63.127459,-89.22729,0.406514,1,-0.02
1559.464,-63.375134,246.180115,195.929413,-67.475062,-83.575348,-57.861232,117.328521,33.869082,40.211152,63.127459,-89.22729,0.417457,1,-0.02
1575.553,-60.611279,247.083832,196.879288,-67.3073,-83.357968,-58.688124,116.667557,33.653192,40.211267,63.127459,-89.22729,0.417457,1,-0.02
1590.568,-58.852665,247.678955,197.680374,-67.175864,-83.174278,-59.241143,116.125367,33.410544,40.212241,63.127459,-89.22729,0.417457,1,-0.02
1605.9,-56.932159,248.513824,198.586548,-66.84922,-82.977409,-59.831805,115.60684,33.199581,40.213043,62.808837,-89.218123,0.417457,1,-0.01
1619.893,-54.705818,249.380066,199.788986,-66.566237,-82.709552,-60.522563,115.172653,32.999733,40.213673,62.731946,-89.218123,0.417457,1,-0.01
1635.195,-52.094288,250.190521,201.012436,-66.398417,-82.428573,-61.309005,114.551567,32.724656,40.218314,62.731946,-89.218123,0.417457,1,-0.01
1649.957,-50.266056,250.928726,202.420853,-66.419961,-82.118603,-61.636107,114.087872,32.397383,40.220491,62.622052,-89.172344,0.417457,1,-0.01
1666.952,-47.90881,251.689468,203.651443,-66.819713,-81.855444,-61.742963,113.518352,32.09721,40.22158,62.567163,-89.076259,0.417457,1,-0.01
1681.913,-46.283764,252.225784,204.924713,-66.902506,-81.571715,-62.044683,113.00481,31.712355,40.223585,62.600108,-89.007561,0.417457,1,-0.01
1697.381,-44.228386,252.827301,206.227905,-67.862668,-81.298643,-61.604766,112.493731,31.367491,40.224044,62.622052,-88.746636,0.417457,1,-0.01
1712.533,-42.049225,253.542358,207.573303,-69.971268,-81.041557,-59.988567,112.12658,31.056375,40.224445,62.622052,-88.449099,0.417457,1,-0.01
1728.328,-39.806061,254.243698,208.573212,-72.922745,-80.8597,-57.530406,111.591094,30.696787,40.226335,62.622052,-87.890637,0.417457,1,-0.01
1743.596,-37.305218,255.025787,209.5457,-77.079267,-80.660655,-53.910172,110.991894,30.286778,40.228398,62.622052,-87.094111,0.417457,1,-0.01
1759.448,-35.145569,255.690277,210.196213,-81.914802,-80.468141,-49.557984,110.47629,29.918939,40.232695,62.665998,-86.169415,0.417457,1,-0.01
1775.486,-32.600868,256.358154,210.984299,-86.872606,-80.227155,-45.22522,109.883164,29.500623,40.237336,62.786835,-85.171494,0.351567,1,-0.01
1790.102,-30.528204,256.688416,211.592072,-90.030233,-80.090848,-42.716124,109.288032,29.094338,40.239972,63.127459,-84.329246,0.153782,1,-0.01
1805.732,-27.844524,257.181793,212.615936,-93.863493,-79.899652,-39.641575,108.709059,28.667829,40.24106,63.336187,-83.468606,-0.131838,1,-0.01
1821.258,-25.58989,257.634888,213.354828,-97.47519,-79.942051,-36.587824,108.316181,28.400544,40.242035,63.43508,-82.891867,-0.483404,1,-0.01
1835.917,-22.573898,258.047119,214.484024,-100.405812,-80.06793,-34.480314,107.649889,27.983488,40.242722,63.687754,-82.246373,-1.087646,1,-0.01
1851.028,-19.948168,258.452179,215.51683,-102.979366,-80.120413,-32.540851,107.054185,27.60757,40.243467,63.819592,-81.660466,-1.582051,1,-0.01
1866.389,-17.507938,258.93338,216.431091,-106.243736,-80.168369,-29.741322,106.473893,27.232913,40.244154,63.819592,-80.941748,-2.109401,1,-0.01
1882.921,-15.531517,259.301178,217.200424,-108.38104,-80.480975,-27.939256,105.840316,26.881575,40.245128,63.753644,-80.442816,-2.966317,1,-0.01
1895.81,-12.720579,259.830933,218.32756,-110.781218,-81.064475,-25.934591,105.330212,26.64185,40.245472,63.577861,-80.177307,-3.702396,1,-0.01
1910.812,-10.832748,260.540863,219.675568,-112.752651,-82.147881,-23.846332,104.812545,26.338641,40.246446,63.006564,-80.044553,-5.020772,1,-0.01
1926.853,-8.066338,261.034393,221.084229,-114.901816,-83.490321,-21.98674,104.149747,26.064824,40.246675,62.665998,-80.136112,-6.55882,1,-0.01
1942.353,-5.301688,261.251038,222.837128,-115.501989,-84.69147,-21.947779,103.539662,25.747864,40.247306,62.611109,-80.429065,-7.943143,1,-0.01
1958.358,-2.863106,261.379822,224.409698,-113.032197,-85.273767,-24.959187,103.008014,25.471354,40.24828,62.589107,-80.731186,-8.624275,1,-0.01
1974.873,-0.060352,261.358063,226.10231,-108.965916,-85.397984,-29.800222,102.421362,25.14156,40.248509,62.75389,-80.964666,-8.931896,1,-0.01
1990.531,2.274415,261.138947,227.268356,-105.318123,-85.271246,-34.261215,101.781311,24.841273,40.248853,63.160404,-81.253036,-8.964841,1,-0.01
2006.831,4.993231,260.979523,228.943939,-99.868091,-85.062575,-40.533384,101.27241,24.534568,40.248967,63.358131,-81.578075,-8.964841,1,-0.01
2009.832,5.640319,260.929474,229.331039,-98.547194,-85.012269,-42.054587,101.132895,24.463464,40.248967,63.413078,-81.660466,-8.964841,1,-0.01
2021.119,7.862969,260.716583,230.482162,-94.929825,-84.880088,-46.381048,100.82218,24.327158,40.248967,63.577861,-81.839,-9.008787,1,-0.01
2036.392,11.485509,260.326355,232.269974,-89.583899,-84.701783,-52.871571,100.084268,24.008078,40.248967,63.918427,-82.260124,-9.140625,1,-0.01
2051.741,14.178888,260.108978,233.825485,-84.490133,-84.500331,-58.696719,99.514289,23.750132,40.248967,64.006319,-82.66297,-9.206515,1,-0.01
2067.828,17.283691,259.653564,235.405151,-80.190314,-83.880907,-63.998183,98.881343,23.492817,40.248967,64.291995,-83.143625,-8.920896,1,-0.06
2081.355,19.849566,259.013763,236.411148,-79.724556,-82.746336,-65.526547,98.244787,23.256414,40.248967,64.995129,-83.541887,-7.646466,1,-0.06
2096.36,22.800428,258.203217,237.449982,-80.793867,-80.469115,-65.703992,97.833689,23.10819,40.249196,65.500478,-83.77531,-6.053471,1,-0.06
2112.014,25.575285,257.024506,238.225464,-82.113962,-78.054843,-65.940968,97.358192,22.942548,40.249196,66.577123,-84.104933,-3.922125,1,-0.06
2127.298,28.995548,255.614319,238.776703,-83.071776,-76.089196,-66.821375,96.746273,22.814091,40.249196,67.796606,-84.420805,-2.219237,1,-0.06
2142.779,31.618025,254.519089,239.314285,-83.194847,-74.686137,-68.070595,96.263842,22.715313,40.249196,68.664523,-84.759537,-1.021756,1,-0.06
2157.786,33.975948,253.877472,239.595139,-83.091886,-73.626738,-69.027606,95.776943,22.686321,40.249196,69.01609,-85.002128,-0.043946,1,-0.06
2174.08,36.474819,253.167526,239.764969,-83.034877,-72.770854,-70.002379,95.258703,22.676352,40.249196,69.400659,-85.226441,0.74708,1,-0.06
2190.225,38.331638,252.795792,240.011337,-82.422271,-72.428798,-71.106068,94.74178,22.676237,40.249311,69.455548,-85.55148,1.098647,1,-0.06
2206.696,40.104275,252.595642,240.369186,-81.369002,-72.345089,-72.444898,94.331714,22.676237,40.249311,69.224875,-85.816931,1.109647,1,-0.06
2221.615,42.137802,252.437454,240.564346,-80.787164,-72.341594,-73.304048,93.836965,22.676237,40.249311,69.01609,-85.885629,1.109647,1,-0.06
2237.56,44.080769,252.386017,240.661774,-80.493867,-72.362507,-73.761727,93.366223,22.676008,40.249311,68.664523,-85.885629,1.109647,1,-0.06
2252.659,46.074497,252.408707,240.810135,-80.042261,-72.389665,-74.282259,92.987383,22.675893,40.249311,68.334957,-85.89938,1.109647,1,-0.06
2267.669,47.815845,252.441406,240.949341,-79.611282,-72.41562,-74.744579,92.551477,22.675893,40.249311,67.928444,-85.913073,1.109647,1,-0.06
2283.266,49.858887,252.335297,241.050156,-79.325434,-72.404619,-75.206669,92.055868,22.675893,40.24954,67.609879,-85.913073,1.142592,1,-0.06
2298.766,51.871964,252.311432,241.251404,-78.715749,-72.413386,-75.874681,91.554588,22.675664,40.249712,67.15942,-85.972604,1.153536,1,-0.06
2313.786,53.380585,252.402954,241.590714,-77.670101,-72.414073,-76.808831,90.986443,22.67532,40.249712,66.401339,-86.21061,1.153536,1,-0.06
2328.839,55.553265,252.646088,242.102661,-75.955411,-72.570949,-78.23034,90.578325,22.67532,40.249712,65.720207,-86.379977,0.999754,1,-0.06
2344.369,57.987816,252.824432,242.376495,-74.930332,-72.779448,-79.047549,89.938675,22.675149,40.249712,64.863291,-86.398311,0.834971,1,-0.06
2359.752,61.225475,252.893372,242.77948,-73.814439,-72.962451,-80.027021,89.104047,22.649537,40.249827,63.885482,-86.398311,0.681132,1,-0.06
2375.213,63.913795,253.126587,243.133316,-72.400494,-73.345129,-81.10229,88.382808,22.640427,40.249827,62.808837,-86.398311,0.340566,1,-0.06
2390.675,67.385597,252.735733,243.25,-71.867586,-73.509225,-81.909932,87.536664,22.640427,40.250171,62.23754,-86.343365,0.219729,1,-0.06
2405.849,69.864609,252.35434,243.226822,-71.883342,-73.610867,-82.189191,86.766494,22.640083,40.253895,61.907975,-86.196917,0.120837,1,-0.06
2420.994,73.186836,251.635437,243.169006,-72.00733,-73.902102,-82.731611,85.98836,22.640083,40.293142,61.864029,-86.018383,-0.153782,1,-0.06
2436.095,76.751022,250.783646,243.024521,-72.980843,-74.06402,-82.669731,85.384978,22.639625,40.338177,62.017811,-85.762042,-0.263675,1,-0.06
2451.669,80.37355,249.797241,242.815887,-74.08224,-74.622367,-82.703536,84.596474,22.639109,40.431798,62.402323,-85.363779,-0.856916,1,-0.06
2467.575,83.847488,249.032166,242.988129,-74.429796,-75.157051,-83.386043,83.834554,22.639109,40.584491,62.688,-85.130298,-1.527104,1,-0.06
2483.363,87.494965,248.287674,243.107925,-74.496545,-75.916335,-84.162802,83.006,22.639109,40.710714,62.720945,-84.85568,-2.373019,1,-0.06
2498.829,90.78656,247.972412,243.78714,-73.450783,-76.524129,-85.871477,82.257373,22.639109,40.929985,62.622052,-84.800733,-3.207991,1,-0.06
2513.836,94.306313,247.774918,244.58287,-71.657883,-77.100639,-88.042013,81.42372,22.63888,41.132697,62.138648,-84.796149,-3.988015,1,-0.06
2528.857,96.589958,248.069702,245.429413,-70.040653,-77.388263,-89.701871,80.686037,22.63888,41.417228,61.435571,-84.796149,-4.658204,1,-0.03
2545.566,100.068123,248.244705,246.492477,-67.846797,-77.759884,-92.00012,79.85181,22.63888,41.674773,60.644546,-84.718342,-5.284447,1,-0.03
2561.578,103.026115,248.872314,247.53537,-65.668698,-78.293766,-93.984674,79.139337,22.63888,41.989212,59.699681,-84.521473,-6.020526,1,-0.03
2576.338,106.370392,249.332779,248.553406,-64.034852,-78.642296,-95.519284,78.513381,22.63888,42.217077,59.040551,-84.301744,-6.437983,1,-0.03
2592.33,109.320015,250.108109,249.405182,-62.61512,-79.218864,-96.572667,77.790251,22.63888,42.526761,57.996851,-83.816506,-7.141117,1,-0.03
2607.377,112.452919,250.724686,250.210358,-62.590311,-79.510385,-96.408572,77.049187,22.63888,42.863374,57.150878,-83.244351,-7.514628,1,-0.03
2622.368,115.540787,251.350159,250.791763,-63.819019,-79.832788,-94.967296,76.324567,22.63888,43.199471,56.348852,-82.456992,-7.811306,1,-0.03
2637.878,118.63942,251.905914,251.086823,-67.064595,-80.0834,-91.572292,75.611006,22.638995,43.538146,55.689722,-81.413292,-7.932142,1,-0.03
2653.192,120.936478,252.322723,251.256226,-70.401043,-80.206586,-88.194018,74.912054,22.638995,43.889369,55.173315,-80.200226,-7.987032,1,-0.03
2668.271,124.312698,252.506592,250.993805,-76.584232,-80.400073,-82.017361,74.326893,22.638995,44.118552,54.85475,-79.101579,-7.998032,1,-0.03
2683.564,127.116577,253.029358,251.183304,-81.436669,-80.399615,-77.102759,73.703744,22.639281,44.48175,54.426292,-77.911374,-8.030978,1,-0.03
2699.07,130.116318,253.198914,250.900711,-87.710614,-80.409527,-70.803374,73.018887,22.639625,44.771037,54.019779,-76.510607,-8.074923,1,-0.03
2714.449,133.25412,253.414597,251.052536,-92.256633,-80.266517,-66.209284,72.307388,22.639625,45.104384,53.51443,-75.338736,-8.074923,1,-0.03
2731.325,136.02623,253.731033,251.515549,-94.797013,-80.140581,-63.505725,71.675473,22.639854,45.423406,52.899188,-74.478154,-8.074923,1,-0.03
2746.839,139.439514,253.651932,252.161713,-96.329561,-80.030974,-61.955588,70.902381,22.640943,45.742544,52.251001,-73.77777,-8.074923,1,-0.03
2761.383,141.398132,253.962738,252.938431,-95.974384,-80.02639,-62.054882,70.310974,22.641287,46.063916,51.405029,-73.416119,-8.074923,1,-0.03
2776.882,144.296234,253.966873,254.163116,-94.490309,-80.090447,-63.491,69.812272,22.641401,46.298599,50.921624,-73.32456,-8.173816,1,-0.03
2793.104,147.188934,253.975952,255.643646,-92.105028,-80.356643,-65.867056,69.187633,22.64186,46.641457,50.273437,-73.32456,-8.492438,1,-0.03
2808.716,149.779114,254.074265,257.220184,-89.134815,-80.714054,-68.825868,68.640287,22.642375,46.988498,49.680196,-73.411535,-8.931896,1,-0.03
2823.015,152.422745,254.115387,258.811859,-86.367142,-80.965296,-71.692948,68.098097,22.643693,47.361608,49.218736,-73.452731,-9.338353,1,-0.03
2839.121,155.264679,253.816406,260.165466,-83.914826,-81.253838,-74.309188,67.498783,22.643808,47.67937,48.768334,-73.452731,-9.755867,1,-0.03
2855.079,157.32695,254.173157,261.679565,-81.15867,-81.302711,-76.918839,67.072617,22.644896,48.031109,48.175036,-73.439037,-9.93165,1,-0.03
2869.576,159.153946,254.00322,262.450775,-80.337678,-81.237107,-77.812653,66.562856,22.65521,48.309509,47.790524,-73.287948,-9.942651,1,-0.03
2885.569,161.516312,253.834213,263.413208,-79.694132,-81.154602,-78.499802,66.072977,22.658533,48.588139,47.340065,-73.045358,-9.953595,1,-0.03
2900.322,163.58728,253.834305,264.125397,-79.881088,-81.242436,-78.150641,65.731437,22.658991,48.769537,46.911607,-72.711209,-10.019542,1,-0.03
2915.842,165.376877,254.079102,264.643036,-81.189781,-81.322593,-76.518284,65.327788,22.661741,49.011096,46.296365,-72.116078,-10.030543,1,-0.03
2931.344,167.453018,253.918365,264.624146,-85.117865,-81.392952,-72.451716,64.858421,22.663059,49.2106,45.889909,-71.209716,-10.030543,1,-0.03
2946.337,169.212311,253.931274,264.463593,-90.182698,-81.381092,-67.235509,64.46669,22.663174,49.419042,45.593288,-70.156849,-10.030543,1,-0.03
2961.567,170.55043,253.862274,264.129547,-94.954577,-81.167493,-62.386338,64.078855,22.664549,49.606915,45.384503,-68.943782,-9.854759,1,-0.03
2977.088,172.057648,253.884064,263.808807,-99.980276,-80.771064,-57.232124,63.826811,22.668731,49.753879,45.230721,-68.133563,-9.667975,1,0.01
2994.167,173.554382,253.841476,263.498535,-104.14757,-80.398068,-52.920101,63.402192,22.68317,49.968108,44.901098,-66.947941,-9.448246,1,0.01
3009.234,174.980484,253.840652,263.592102,-106.42714,-80.178281,-50.537399,63.16917,22.69228,50.116676,44.70337,-66.462703,-9.393299,1,0.01
3023.874,176.433807,253.736145,263.911469,-107.421221,-80.122361,-49.467285,62.852439,22.70414,50.293891,44.395749,-66.046163,-9.393299,1,0.01
3038.871,177.766739,253.71402,264.650879,-106.688867,-80.215982,-50.13587,62.57845,22.712276,50.487207,44.066184,-65.950021,-9.448246,1,0.01
3053.868,178.719193,253.700012,265.249878,-105.929354,-80.445681,-50.804855,62.314546,22.718178,50.664767,43.65967,-65.950021,-9.656974,1,0.01
3068.363,180.002914,253.753159,266.186493,-104.755077,-80.782637,-51.854457,62.114813,22.719094,50.821013,43.352049,-65.950021,-9.854759,1,0.01
3083.862,181.161057,253.884064,267.129303,-103.449478,-81.101947,-53.001117,61.878869,22.719381,51.02172,42.934592,-65.950021,-10.085432,1,0.01
3099.863,182.563736,253.753693,268.026123,-102.241568,-81.379144,-54.205875,61.597031,22.720584,51.220593,42.637915,-65.950021,-10.327163,1,0.01
3114.863,183.895721,253.563385,268.825287,-101.150771,-81.623969,-55.339358,61.331408,22.723105,51.401648,42.407242,-65.950021,-10.557836,1,0.01
3130.4,185.284714,253.359802,269.531036,-100.622791,-81.857392,-55.927785,61.056102,22.732903,51.593131,42.209457,-65.863046,-10.810568,1,0.01
3145.862,186.549072,253.205124,269.985809,-100.769812,-81.959149,-55.755898,60.792942,22.750378,51.757569,41.956783,-65.661594,-10.909403,1,0.01
3161.362,187.556,253.119003,270.314301,-100.933792,-82.009741,-55.516917,60.518954,22.778166,51.929743,41.605216,-65.423587,-10.942405,1,0.01
3176.862,188.647202,253.258347,270.725067,-100.689254,-82.144329,-55.547456,60.34615,22.821597,52.0688,41.253649,-65.295416,-10.96435,1,0.01
3192.362,189.882858,253.267059,270.92746,-100.148496,-82.251128,-55.999921,60.098288,22.932177,52.255814,40.902082,-65.222192,-10.96435,1,0.01
3208.362,191.09819,253.388947,271.146149,-99.179281,-82.334665,-56.938941,59.879017,23.080287,52.484195,40.627463,-65.222192,-10.96435,1,0.01
3224.865,192.293152,253.392273,270.96228,-98.900537,-82.386919,-57.305864,59.672695,23.277041,52.690631,40.495626,-65.222192,-10.96435,1,0.01
3240.365,193.436157,253.509781,270.742188,-98.693642,-82.407889,-57.630673,59.494677,23.499005,52.92732,40.429678,-65.222192,-10.96435,1,0.01
3254.865,194.569107,253.541122,270.171753,-99.032489,-82.42949,-57.468698,59.320326,23.763654,53.141721,40.429678,-65.222192,-10.96435,1,0.01
3271.906,195.73259,253.645874,269.665131,-99.268548,-82.441006,-57.404584,59.148439,24.03621,53.384311,40.429678,-65.217609,-10.96435,1,0.01
3287.428,196.751053,253.925842,268.972015,-99.793778,-82.458252,-56.914362,58.997464,24.334492,53.619969,40.308841,-65.167246,-10.909403,1,0.01
3302.482,197.761536,254.407944,268.139496,-100.184306,-82.473951,-56.511114,58.862418,24.694825,53.898025,40.144059,-65.139801,-10.821511,1,0.01
3317.019,198.492493,254.704071,267.536133,-100.419219,-82.47928,-56.307255,58.741696,25.040261,54.159638,40.056167,-65.139801,-10.74462,1,0.01
3332.738,199.436127,255.196945,266.51712,-100.887325,-82.44072,-55.932541,58.666123,25.353039,54.383435,40.045166,-65.158078,-10.667729,1,0.01
3347.7,200.49202,255.475769,265.560638,-101.302491,-82.310028,-55.661589,58.531077,25.718127,54.646537,40.045166,-65.162662,-10.491946,1,0.01
3364.883,201.478165,255.883682,264.4263,-101.852759,-82.155788,-55.23359,58.419121,26.1255,54.927229,40.045166,-65.162662,-10.283217,1,0.01
3379.886,202.371567,256.277863,263.454712,-102.278925,-82.033748,-54.914567,58.320457,26.490245,55.191019,40.045166,-65.162662,-10.118435,1,0.01
3395.248,203.328156,256.690186,262.313416,-102.956448,-81.984875,-54.352152,58.214575,26.895498,55.470966,40.045166,-65.162662,-10.019542,1,0.01
3410.976,204.250122,257.051025,261.404327,-103.247625,-81.845703,-54.174076,58.109551,27.248154,55.736704,40.045166,-65.162662,-9.843759,1,0.01
3426.935,205.052017,257.582458,260.428558,-103.507404,-81.676165,-53.994282,58.038791,27.62602,56.022896,40.045166,-65.162662,-9.63503,1,0.01
3442.14,205.637863,257.9534,259.87265,-103.650586,-81.652215,-53.882441,57.962129,27.945157,56.293161,40.00122,-65.162662,-9.580084,1,-0.0
3457.231,206.424835,258.45343,259.18457,-103.875243,-81.697536,-53.681046,57.885296,28.254554,56.590125,39.913329,-65.162662,-9.580084,1,-0.0
3473.032,207.135727,259.144165,258.957062,-103.473714,-81.755462,-54.011872,57.841178,28.451709,56.799082,39.803493,-65.162662,-9.591084,1,-0.0
3490.627,207.805511,259.857635,258.739838,-103.15704,-81.903114,-54.223121,57.784684,28.708509,57.093984,39.627709,-65.162662,-9.678976,1,-0.0
3494.065,207.95549,260.036896,258.689484,-103.052991,-81.934569,-54.289986,57.759532,28.828543,57.232811,39.517816,-65.162662,-9.70092,1,-0.0
3503.101,208.37822,260.610016,258.649231,-102.589755,-82.026357,-54.624937,57.739077,28.934025,57.3729,39.396979,-65.162662,-9.722922,1,-0.0
3518.344,208.922226,261.238953,258.513092,-102.236526,-82.125708,-54.903738,57.700975,29.146592,57.630788,39.276142,-65.162662,-9.788812,1,-0.0
3533.529,209.327209,261.664429,258.577454,-101.84342,-82.162606,-55.294896,57.670437,29.311547,57.880941,39.254141,-65.162662,-9.865703,1,-0.0
3548.095,209.805969,262.083405,258.494476,-101.691242,-82.251128,-55.473774,57.645799,29.436967,58.034494,39.254141,-65.162662,-9.953595,1,-0.0
3563.1,210.332169,262.495209,258.62439,-101.315382,-82.371908,-55.872438,57.605062,29.570352,58.253822,39.24314,-65.162662,-10.107434,1,-0.0
3579.929,210.819,262.814606,258.755859,-100.947772,-82.565109,-56.191461,57.548912,29.674401,58.425079,39.133304,-65.162662,-10.283217,1,-0.0
3595.379,211.275238,263.168854,258.850494,-100.626057,-82.867402,-56.390392,57.489153,29.781086,58.585049,38.935576,-65.162662,-10.524891,1,-0.0
3610.904,211.835861,263.370728,258.972809,-100.181842,-83.046394,-56.783727,57.407621,29.873905,58.735966,38.792738,-65.162662,-10.667729,1,-0.0
3626.394,212.422012,263.554413,259.141327,-99.726799,-83.238392,-57.217284,57.32523,29.962026,58.893759,38.682844,-65.162662,-10.843513,1,-0.0
3640.842,212.972687,263.533752,259.225037,-99.438544,-83.347254,-57.5335,57.235275,30.023103,58.995688,38.616954,-65.162662,-10.942405,1,-0.0
3657.163,213.736862,263.548615,259.232086,-99.142955,-83.504473,-57.815051,57.073415,30.15305,59.170497,38.397225,-65.148911,-11.074243,1,-0.0
3671.448,214.525177,263.635925,259.323059,-98.362415,-83.637514,-58.50621,56.967818,30.231946,59.290246,38.210441,-65.148911,-11.096187,1,-0.0
3687.193,215.329575,263.761108,259.403168,-97.582677,-83.780009,-59.211407,56.834147,30.349746,59.460643,37.979711,-65.148911,-11.162135,1,-0.0
3701.856,216.245773,263.782349,259.291351,-97.243256,-83.885834,-59.479551,56.670912,30.487256,59.620613,37.727036,-65.112299,-11.173078,1,-0.0
3717.174,216.766479,264.022064,259.273743,-96.768675,-83.953558,-59.850083,56.568581,30.629235,59.808142,37.474362,-65.084854,-11.173078,1,-0.0
3732.678,217.424774,264.335602,259.290588,-96.096023,-84.007817,-60.378063,56.491576,30.729445,59.948345,37.265633,-65.052826,-11.140133,1,-0.0
3747.846,218.201736,264.582306,258.925995,-96.92091,-84.044314,-59.469352,56.373833,30.910787,60.142807,37.078849,-64.906321,-11.118189,1,-0.0
3763.597,218.820724,264.934052,258.911682,-97.060025,-84.051935,-59.268244,56.298432,31.043713,60.348098,36.958012,-64.796427,-11.118189,1,-0.0
3778.597,219.36972,265.284393,258.710144,-97.618085,-84.048038,-58.680217,56.240105,31.197781,60.543705,36.892065,-64.682008,-11.118189,1,-0.0
3793.481,220.00502,265.575684,258.657806,-97.639915,-84.10923,-58.671566,56.169688,31.342682,60.74997,36.848119,-64.622477,-11.19508,1,-0.0
3809.447,220.46637,265.831512,258.725891,-97.187794,-84.255736,-59.11091,56.105517,31.479676,60.978752,36.749284,-64.622477,-11.403808,1,-0.0
3827.466,221.264145,266.40564,258.875031,-96.089606,-84.547371,-60.111466,56.036304,31.639761,61.20954,36.584501,-64.622477,-11.590592,1,-0.0
3842.123,221.798965,266.731415,258.977478,-95.239508,-84.678636,-60.894699,55.953912,31.786495,61.474876,36.397717,-64.622477,-11.733374,1,-0.0
3857.231,222.494019,267.190613,259.270905,-93.770903,-84.837345,-62.271116,55.895127,31.893295,61.645732,36.254879,-64.622477,-11.821265,1,-0.0
3872.556,223.18187,267.582184,259.224579,-92.862937,-84.940649,-63.084888,55.810215,32.065812,61.871478,36.057151,-64.613367,-11.865211,1,-0.0
3887.942,223.864914,267.865326,259.454315,-91.552926,-84.998805,-64.351354,55.723641,32.179831,62.08055,35.914312,-64.613367,-11.909157,1,-0.0
3902.592,224.601471,268.057709,259.136627,-91.714214,-85.129439,-64.119707,55.613461,32.355156,62.260516,35.727528,-64.549253,-11.964104,1,-0.05
3917.732,225.134109,268.288391,259.179688,-91.198895,-85.151498,-64.586094,55.521043,32.493181,62.466494,35.573746,-64.512641,-11.964104,1,-0.05
3933.389,225.888977,268.354706,258.974854,-90.934647,-85.190172,-64.860255,55.43275,32.61058,62.588248,35.496855,-64.494307,-11.964104,1,-0.05
3947.355,226.679718,268.400208,258.582428,-91.372387,-85.255318,-64.405957,55.308246,32.781666,62.748103,35.354017,-64.43025,-11.964104,1,-0.05
3962.861,227.35463,268.471954,258.363403,-91.35961,-85.23091,-64.335024,55.193769,32.91018,62.882806,35.145288,-64.37072,-11.854268,1,-0.05
3977.826,227.919434,268.667511,257.90097,-92.393971,-85.114198,-63.203261,55.107654,33.071697,63.025701,34.969505,-64.247133,-11.656483,1,-0.05
3993.68,228.627762,268.678894,257.630157,-92.518704,-85.016967,-63.098811,55.00011,33.212988,63.170373,34.881613,-64.205937,-11.524645,1,-0.05
4009.18,229.105362,268.738373,257.453857,-92.310892,-85.033125,-63.315618,54.912963,33.36253,63.312982,34.782721,-64.205937,-11.513644,1,-0.05
4024.486,229.628799,268.912354,257.111359,-92.103596,-85.060283,-63.470603,54.860365,33.480617,63.422073,34.672827,-64.205937,-11.469698,1,-0.05
4040.868,230.248367,269.006256,257.056183,-91.563984,-85.032781,-64.041555,54.778948,33.60025,63.579178,34.617938,-64.205937,-11.436753,1,-0.05
4056.565,230.831406,269.045441,256.756012,-91.521872,-85.0612,-64.116899,54.697645,33.742,63.7105,34.562991,-64.205937,-11.436753,1,-0.05
4072.186,231.438995,269.266388,256.722046,-90.789746,-85.075237,-64.841347,54.625796,33.878307,63.895279,34.4751,-64.205937,-11.436753,1,-0.05
4087.13,232.00383,269.399994,256.583557,-90.28944,-85.112995,-65.321027,54.548848,34.006879,64.042701,34.365206,-64.205937,-11.436753,1,-0.05
4101.344,232.514923,269.731659,256.422607,-89.641596,-85.156081,-65.905674,54.494933,34.165703,64.228053,34.233426,-64.205937,-11.436753,1,-0.05
4116.845,232.777084,269.970703,256.380066,-89.202653,-85.165478,-66.314651,54.475395,34.254511,64.344192,34.178479,-64.205937,-11.436753,1,-0.05
4131.965,233.106354,270.27475,256.245789,-88.879734,-85.161295,-66.634992,54.457347,34.381708,64.497,34.156478,-64.205937,-11.436753,1,-0.05
4147.464,233.334717,270.577301,256.187561,-88.547018,-85.154821,-66.968109,54.455399,34.482376,64.630499,34.156478,-64.205937,-11.447754,1,-0.05
4163.023,233.513092,270.830597,256.214813,-88.138155,-85.177854,-67.375253,54.455399,34.552965,64.740335,34.156478,-64.205937,-11.4917,1,-0.05
4178.528,233.62384,271.06488,256.337524,-87.501656,-85.232743,-67.961847,54.455399,34.591869,64.822841,34.101589,-64.205937,-11.546647,1,-0.05
4195.551,233.666183,271.194824,256.440399,-87.248695,-85.268782,-68.170805,54.455399,34.600864,64.862088,34.057643,-64.187602,-11.579592,1,-0.05
4210.551,233.673767,271.209717,256.45343,-87.268863,-85.321151,-68.148345,54.455399,34.601093,64.867646,34.057643,-64.178492,-11.634538,1,-0.05
4226.973,233.676117,271.213104,256.460022,-87.233626,-85.353236,-68.183582,54.455399,34.601093,64.869193,34.057643,-64.178492,-11.667483,1,-0.05
4242.085,233.676956,271.214294,256.462402,-87.221422,-85.363893,-68.195786,54.455399,34.601093,64.86988,34.057643,-64.178492,-11.678484,1,-0.05
4256.75,233.677292,271.214783,256.463348,-87.212542,-85.374779,-68.204667,54.455399,34.601093,64.869995,34.057643,-64.178492,-11.689428,1,-0.05
4271.849,233.695267,271.176697,256.451294,-87.313783,-85.432935,-68.142329,54.455169,34.601208,64.869995,34.101589,-64.178492,-11.766376,1,-0.05
4286.911,233.70372,271.158112,256.445709,-87.342488,-85.500429,-68.13299,54.455169,34.601208,64.869995,34.123533,-64.178492,-11.843267,1,-0.05
4300.897,233.708099,271.149048,256.443359,-87.359219,-85.528619,-68.125942,54.455169,34.601208,64.87011,34.134534,-64.178492,-11.876212,1,-0.05
4315.903,233.708267,271.149292,256.443878,-87.345067,-85.550506,-68.140152,54.455169,34.601208,64.870224,34.134534,-64.178492,-11.898213,1,-0.05
4331.844,233.708267,271.149292,256.444,-87.318711,-85.594394,-68.166565,54.455169,34.601208,64.870224,34.134534,-64.178492,-11.942159,1,-0.05
4346.781,233.708267,271.149292,256.444092,-87.298657,-85.627339,-68.186676,54.455169,34.601208,64.870224,34.134534,-64.178492,-11.975104,1,-0.05
4363.174,233.708267,271.149292,256.444092,-87.298657,-85.627339,-68.186676,54.455169,34.601208,64.870224,34.134534,-64.178492,-11.975104,1,0.02
4378.209,233.708267,271.149292,256.444092,-87.298657,-85.627339,-68.186676,54.455169,34.601208,64.870339,34.134534,-64.178492,-11.975104,1,0.02
4394.272,233.708771,271.150024,256.445496,-87.29499,-85.627167,-68.190286,54.455169,34.601208,64.870625,34.134534,-64.178492,-11.975104,1,0.02
4409.867,233.709106,271.150513,256.446411,-87.292584,-85.627053,-68.192692,54.455169,34.601208,64.87074,34.134534,-64.178492,-11.975104,1,0.02
4425.954,233.709274,271.150726,256.446899,-87.291381,-85.626995,-68.193952,54.455169,34.601208,64.870855,34.134534,-64.178492,-11.975104,1,0.02
4441.547,233.709442,271.15097,256.447357,-87.290177,-85.626938,-68.195156,54.455169,34.601208,64.870969,34.134534,-64.178492,-11.975104,1,0.02
4455.411,233.709442,271.15097,256.447357,-87.290177,-85.626938,-68.195156,54.455169,34.601208,64.870969,34.134534,-64.178492,-11.975104,1,0.02
4471.878,233.709442,271.15097,256.447357,-87.290177,-85.626938,-68.195156,54.455169,34.601208,64.870969,34.134534,-64.178492,-11.975104,1,0.02
4486.216,233.70961,271.151215,256.447815,-87.288974,-85.626824,-68.196359,54.455169,34.601208,64.871084,34.134534,-64.178492,-11.975104,0,0.02
4503.891,233.70961,271.151215,256.447784,-87.295735,-85.61588,-68.189541,54.455169,34.601208,64.871084,34.134534,-64.178492,-11.964104,0,0.02
4516.896,233.70961,271.151215,256.447784,-87.295735,-85.61588,-68.189541,54.455169,34.601208,64.871084,34.134534,-64.178492,-11.964104,0,0.02
4533.132,233.70961,271.151215,256.447784,-87.295735,-85.61588,-68.189541,54.455169,34.601208,64.871084,34.134534,-64.178492,-11.964104,0,0.02
4550.022,233.70961,271.151215,256.447784,-87.295735,-85.61588,-68.189541,54.455169,34.601208,64.871084,34.134534,-64.178492,-11.964104,0,0.02
4554.521,233.70961,271.151215,256.447784,-87.295735,-85.61588,-68.189541,54.455169,34.601208,64.871084,34.134534,-64.178492,-11.964104,0,0.02
4567.526,233.70961,271.151215,256.447784,-87.295735,-85.61588,-68.189541,54.455169,34.601208,64.871084,34.134534,-64.178492,-11.964104,0,0.02
4580.823,233.70961,271.151215,256.447784,-87.295735,-85.61588,-68.189541,54.455169,34.601208,64.871084,34.134534,-64.178492,-11.964104,0,0.02
4596.62,233.70961,271.151215,256.447784,-87.295735,-85.61588,-68.189541,54.455169,34.601208,64.871084,34.134534,-64.178492,-11.964104,0,0.02
4608.625,233.70961,271.151215,256.447784,-87.295735,-85.61588,-68.189541,54.455169,34.601208,64.871084,34.134534,-64.178492,-11.964104,0,0.02
4624.292,233.70961,271.151215,256.447784,-87.295735,-85.61588,-68.189541,54.455169,34.601208,64.871084,34.134534,-64.178492,-11.964104,0,0.02
4640.342,233.70961,271.151215,256.447784,-87.295735,-85.61588,-68.189541,54.455169,34.601208,64.871084,34.134534,-64.178492,-11.964104,0,0.02
4655.041,233.70961,271.151215,256.447784,-87.295735,-85.61588,-68.189541,54.455169,34.601208,64.871084,34.134534,-64.178492,-11.964104,0,0.02
4670.056,233.710129,271.150787,256.447784,-87.295735,-85.61588,-68.189655,54.455055,34.601208,64.871084,34.134534,-64.178492,-11.964104,0,0.02
4684.778,233.710663,271.15033,256.447784,-87.295735,-85.61588,-68.18977,54.45494,34.601208,64.871084,34.134534,-64.178492,-11.964104,0,0.02
4701.365,233.719101,271.131714,256.441986,-87.371881,-85.606541,-68.132818,54.45494,34.601208,64.871198,34.156478,-64.178492,-11.964104,0,0.02
4716.869,233.723999,271.122223,256.439545,-87.408665,-85.601785,-68.105774,54.454826,34.601208,64.871198,34.167479,-64.178492,-11.964104,0,0.02
4731.616,233.724167,271.122467,256.440002,-87.407462,-85.601728,-68.106977,54.454826,34.601208,64.871313,34.167479,-64.178492,-11.964104,0,0.02
4748.09,233.724167,271.122467,256.440002,-87.407462,-85.601728,-68.106977,54.454826,34.601208,64.871313,34.167479,-64.178492,-11.964104,0,0.02
4761.522,233.724167,271.122467,256.440002,-87.407462,-85.601728,-68.106977,54.454826,34.601208,64.871313,34.167479,-64.178492,-11.964104,0,0.02
4776.262,233.724167,271.122467,256.440002,-87.407462,-85.601728,-68.106977,54.454826,34.601208,64.871313,34.167479,-64.178492,-11.964104,0,0.02
4792.098,233.724167,271.122467,256.440002,-87.407462,-85.601728,-68.106977,54.454826,34.601208,64.871313,34.167479,-64.178492,-11.964104,0,0.02
4807.103,233.724335,271.122681,256.44046,-87.406259,-85.601671,-68.108181,54.454826,34.601208,64.871427,34.167479,-64.178492,-11.964104,0,0.02
4823.512,233.724335,271.122681,256.44046,-87.406259,-85.601671,-68.108181,54.454826,34.601208,64.871427,34.167479,-64.178492,-11.964104,0,-0.03
4837.957,233.724335,271.122681,256.44046,-87.406259,-85.601671,-68.108181,54.454826,34.601208,64.871427,34.167479,-64.178492,-11.964104,0,-0.03
4853.965,233.724335,271.122681,256.44046,-87.406259,-85.601671,-68.108181,54.454826,34.601208,64.871427,34.167479,-64.178492,-11.964104,0,-0.03
4869.842,233.724335,271.122681,256.44046,-87.406259,-85.601671,-68.108181,54.454826,34.601208,64.871427,34.167479,-64.178492,-11.964104,0,-0.03
4885.131,233.724335,271.122681,256.44046,-87.406259,-85.601671,-68.108181,54.454826,34.601208,64.871427,34.167479,-64.178492,-11.964104,0,-0.03
4900.634,233.724335,271.122681,256.44046,-87.406259,-85.601671,-68.108181,54.454826,34.601208,64.871427,34.167479,-64.178492,-11.964104,0,-0.03
4915.672,233.724335,271.122681,256.44046,-87.406259,-85.601671,-68.108181,54.454826,34.601208,64.871427,34.167479,-64.178492,-11.964104,0,-0.03
4930.97,233.724335,271.122681,256.44046,-87.406259,-85.601671,-68.108181,54.454826,34.601208,64.871427,34.167479,-64.178492,-11.964104,0,-0.03
4946.445,233.724335,271.122681,256.44046,-87.406259,-85.601671,-68.108181,54.454826,34.601208,64.871427,34.167479,-64.178492,-11.964104,0,-0.03
4961.72,233.724335,271.122681,256.44046,-87.406259,-85.601671,-68.108181,54.454826,34.601208,64.871427,34.167479,-64.178492,-11.964104,0,-0.03
4976.717,233.728561,271.113373,256.437561,-87.444188,-85.596973,-68.079877,54.454826,34.601208,64.871427,34.178479,-64.178492,-11.964104,0,-0.03
4992.799,233.736984,271.094757,256.431732,-87.519819,-85.587633,-68.023497,54.454826,34.601208,64.871427,34.200424,-64.178492,-11.964104,0,-0.03
5007.807,233.741364,271.085693,256.429291,-87.556374,-85.582878,-67.996568,54.454826,34.601208,64.871542,34.211425,-64.178492,-11.964104,0,-0.03
5023.902,233.741364,271.085693,256.429291,-87.556374,-85.582878,-67.996568,54.454826,34.601208,64.871542,34.211425,-64.178492,-11.964104,0,-0.03
5039.041,233.741364,271.085693,256.429291,-87.556374,-85.582878,-67.996568,54.454826,34.601208,64.871542,34.211425,-64.178492,-11.964104,0,-0.03
5055.129,233.741364,271.085693,256.429291,-87.556374,-85.582878,-67.996568,54.454826,34.601208,64.871542,34.211425,-64.178492,-11.964104,0,-0.03
5069.736,233.741364,271.085693,256.429291,-87.556374,-85.582878,-67.996568,54.454826,34.601208,64.871542,34.211425,-64.178492,-11.964104,0,-0.03
5084.737,233.741364,271.085693,256.429291,-87.556374,-85.582878,-67.996568,54.454826,34.601208,64.871542,34.211425,-64.178492,-11.964104,0,-0.03
5099.71,233.741364,271.085693,256.429291,-87.556374,-85.582878,-67.996568,54.454826,34.601208,64.871542,34.211425,-64.178492,-11.964104,0,-0.03
5115.656,233.741364,271.085693,256.429291,-87.556374,-85.582878,-67.996568,54.454826,34.601208,64.871542,34.211425,-64.178492,-11.964104,0,-0.03
5130.661,233.745575,271.076385,256.426392,-87.59396,-85.578237,-67.968551,54.454826,34.601208,64.871542,34.222425,-64.178492,-11.964104,0,-0.03
5147.465,233.749771,271.067078,256.423462,-87.631546,-85.573539,-67.940591,54.454826,34.601208,64.871542,34.233426,-64.178492,-11.964104,0,-0.03
5163.111,233.749771,271.067078,256.423462,-87.631546,-85.573539,-67.940591,54.454826,34.601208,64.871542,34.233426,-64.178492,-11.964104,0,-0.03
5178.212,233.753983,271.05777,256.420563,-87.669074,-85.56884,-67.912687,54.454826,34.601208,64.871542,34.24437,-64.178492,-11.964104,0,-0.03
5194.212,233.76239,271.039154,256.414734,-87.743845,-85.559501,-67.857111,54.454826,34.601208,64.871542,34.266371,-64.178492,-11.964104,0,-0.03
5209.901,233.76239,271.039154,256.414734,-87.743845,-85.559501,-67.857111,54.454826,34.601208,64.871542,34.266371,-64.178492,-11.964104,0,-0.03
5224.903,233.76239,271.039154,256.414734,-87.743845,-85.559501,-67.857111,54.454826,34.601208,64.871542,34.266371,-64.178492,-11.964104,0,-0.03
5240.574,233.76239,271.039154,256.414734,-87.743845,-85.559501,-67.857111,54.454826,34.601208,64.871542,34.266371,-64.178492,-11.964104,0,-0.03
5255.272,233.76239,271.039154,256.414734,-87.743845,-85.559501,-67.857111,54.454826,34.601208,64.871542,34.266371,-64.178492,-11.964104,0,-0.03
5270.91,233.76239,271.039154,256.414734,-87.743845,-85.559501,-67.857111,54.454826,34.601208,64.871542,34.266371,-64.178492,-11.964104,0,-0.03
5285.518,233.76239,271.039154,256.414734,-87.743845,-85.559501,-67.857111,54.454826,34.601208,64.871542,34.266371,-64.178492,-11.964104,0,-0.01
5301.038,233.76239,271.039154,256.414734,-87.743845,-85.559501,-67.857111,54.454826,34.601208,64.871542,34.266371,-64.178492,-11.964104,0,-0.01
5316.552,233.774979,271.0112,256.405975,-87.855572,-85.545406,-67.774318,54.454826,34.601208,64.871542,34.299316,-64.178492,-11.964104,0,-0.01
5332.175,233.787567,270.983276,256.397217,-87.966611,-85.531312,-67.692099,54.454826,34.601208,64.871542,34.332261,-64.178492,-11.964104,0,-0.01
5346.819,233.800125,270.955322,256.388428,-88.077078,-85.517217,-67.610452,54.454826,34.601208,64.871542,34.365206,-64.178492,-11.964104,0,-0.01
5361.928,233.816849,270.91806,256.37674,-88.223468,-85.498424,-67.502564,54.454826,34.601208,64.871542,34.409152,-64.178492,-11.964104,0,-0.01
5377.779,233.829376,270.890076,256.36795,-88.33256,-85.484272,-67.42235,54.454826,34.601208,64.871542,34.442155,-64.178492,-11.964104,0,-0.01
5392.705,233.833542,270.880768,256.365021,-88.36877,-85.479573,-67.395765,54.454826,34.601208,64.871542,34.453098,-64.178492,-11.964104,0,-0.01
5408.208,233.841888,270.862122,256.359161,-88.44102,-85.47012,-67.342709,54.454826,34.601208,64.871542,34.4751,-64.178492,-11.964104,0,-0.01
5424.304,233.85022,270.843475,256.353302,-88.513041,-85.460723,-67.289997,54.454826,34.601208,64.871542,34.497044,-64.178492,-11.964104,0,-0.01
5439.809,233.871017,270.796844,256.338623,-88.691861,-85.437117,-67.159191,54.454826,34.601208,64.871542,34.551991,-64.178492,-11.964104,0,-0.01
5454.859,233.883469,270.76889,256.329803,-88.798431,-85.422908,-67.081498,54.454826,34.601208,64.871542,34.584936,-64.178492,-11.964104,0,-0.01
5471.449,233.887619,270.759552,256.326843,-88.83384,-85.41821,-67.055714,54.454826,34.601208,64.871542,34.595937,-64.178492,-11.964104,0,-0.01
5486.068,233.887619,270.759552,256.326843,-88.83384,-85.41821,-67.055714,54.454826,34.601208,64.871542,34.595937,-64.178492,-11.964104,0,-0.01
5501.274,233.887619,270.759552,256.326843,-88.83384,-85.41821,-67.055714,54.454826,34.601208,64.871542,34.595937,-64.178492,-11.964104,0,-0.01
5517.926,233.887619,270.759552,256.326843,-88.83384,-85.41821,-67.055714,54.454826,34.601208,64.871542,34.595937,-64.178492,-11.964104,0,-0.01
5534.241,233.887619,270.759552,256.326904,-88.828283,-85.440154,-67.061329,54.454826,34.601208,64.871542,34.595937,-64.178492,-11.986105,0,-0.01
5548.408,233.887619,270.759552,256.326965,-88.822668,-85.462156,-67.066944,54.454826,34.601208,64.871542,34.595937,-64.178492,-12.008049,0,-0.01
