BAEK26/lfd/data/sepisode2/bbbb.csv
timestamp,x,y,z,roll,pitch,yaw,joint1,joint2,joint3,joint4,joint5,joint6,gripper,scale
147.431,233.998993,270.291321,256.109283,-90.957279,-85.476078,-65.449656,54.475509,34.599775,64.858249,35.211179,-64.173909,-12.282725,0,0.01
148.434,233.998474,270.291779,256.109283,-90.957279,-85.476078,-65.449542,54.475509,34.599775,64.858249,35.211179,-64.173909,-12.282725,0,0.01
154.932,233.998474,270.291779,256.109283,-90.957279,-85.476078,-65.449542,54.475509,34.599775,64.858249,35.211179,-64.173909,-12.282725,0,0.01
170.938,233.997955,270.292206,256.109283,-90.957279,-85.476078,-65.449427,54.475624,34.599775,64.858249,35.211179,-64.173909,-12.282725,0,0.01
186.934,233.997955,270.292206,256.109283,-90.957279,-85.476078,-65.449427,54.475624,34.599775,64.858249,35.211179,-64.173909,-12.282725,0,0.01
202.247,233.997437,270.292664,256.109283,-90.957279,-85.476078,-65.449313,54.475681,34.599775,64.858249,35.211179,-64.173909,-12.282725,0,0.01
217.556,233.996918,270.293091,256.109283,-90.957279,-85.476078,-65.449198,54.475796,34.599775,64.858249,35.211179,-64.173909,-12.282725,0,0.01
231.837,233.996918,270.293091,256.109283,-90.957279,-85.476078,-65.449198,54.475796,34.599775,64.858249,35.211179,-64.173909,-12.282725,0,1.0
249.028,233.996399,270.293549,256.109283,-90.957279,-85.476078,-65.449084,54.47591,34.599775,64.858249,35.211179,-64.173909,-12.282725,0,1.0
264.526,233.99588,270.294006,256.109283,-90.957279,-85.476078,-65.448969,54.476025,34.599775,64.858249,35.211179,-64.173909,-12.282725,0,1.0
279.533,233.995361,270.294434,256.109283,-90.957279,-85.476078,-65.448854,54.47614,34.599775,64.858249,35.211179,-64.173909,-12.282725,0,1.0
295.033,233.994843,270.294891,256.109283,-90.957279,-85.476078,-65.44874,54.476254,34.599775,64.858249,35.211179,-64.173909,-12.282725,0,1.0
310.703,233.994843,270.294891,256.109314,-90.959628,-85.487079,-65.446391,54.476254,34.599775,64.858249,35.211179,-64.173909,-12.293726,0,1.0
326.225,233.994843,270.294891,256.109344,-90.961977,-85.498023,-65.444042,54.476254,34.599775,64.858249,35.211179,-64.173909,-12.30467,0,1.0
341.401,233.994843,270.294891,256.109375,-90.964384,-85.509023,-65.441635,54.476254,34.599775,64.858249,35.211179,-64.173909,-12.315671,0,1.0
356.919,233.994843,270.294891,256.109375,-90.964384,-85.509023,-65.441635,54.476254,34.599775,64.858249,35.211179,-64.173909,-12.315671,0,1.0
373.385,233.994324,270.295319,256.109375,-90.964384,-85.509023,-65.44152,54.476369,34.599775,64.858249,35.211179,-64.173909,-12.315671,0,1.0
388.113,233.993805,270.295776,256.109375,-90.964384,-85.509023,-65.441406,54.476483,34.599775,64.858249,35.211179,-64.173909,-12.315671,0,1.0
403.157,233.993805,270.295776,256.109375,-90.964384,-85.509023,-65.441406,54.476483,34.599775,64.858249,35.211179,-64.173909,-12.315671,0,1.0
418.643,233.993805,270.295776,256.109375,-90.964384,-85.509023,-65.441406,54.476483,34.599775,64.858249,35.211179,-64.173909,-12.315671,0,1.0
434.405,233.993805,270.295776,256.109375,-90.964384,-85.509023,-65.441406,54.476483,34.599775,64.858249,35.211179,-64.173909,-12.315671,0,1.0
448.735,233.993805,270.295776,256.109375,-90.964384,-85.509023,-65.441406,54.476483,34.599775,64.858249,35.211179,-64.173909,-12.315671,0,1.0
464.714,233.993286,270.296204,256.109344,-90.964384,-85.509023,-65.441291,54.476598,34.599775,64.858249,35.211179,-64.173909,-12.315671,0,1.0
479.711,233.993286,270.296204,256.109344,-90.964384,-85.509023,-65.441291,54.476598,34.599775,64.858249,35.211179,-64.173909,-12.315671,0,1.0
494.858,233.992767,270.296661,256.109344,-90.964384,-85.509023,-65.441177,54.476713,34.599775,64.858249,35.211179,-64.173909,-12.315671,0,1.0
510.151,233.992767,270.296661,256.109344,-90.964384,-85.509023,-65.441177,54.476713,34.599775,64.858249,35.211179,-64.173909,-12.315671,0,1.0
525.174,233.992249,270.297119,256.109344,-90.964384,-85.509023,-65.441062,54.476827,34.599775,64.858249,35.211179,-64.173909,-12.315671,0,1.0
540.957,233.992249,270.297119,256.109344,-90.964384,-85.509023,-65.441062,54.476827,34.599775,64.858249,35.211179,-64.173909,-12.315671,0,1.0
556.707,233.99173,270.297546,256.109344,-90.964384,-85.509023,-65.440948,54.476942,34.599775,64.858249,35.211179,-64.173909,-12.315671,0,1.0
572.857,233.99173,270.297546,256.109344,-90.964384,-85.509023,-65.440948,54.476942,34.599775,64.858249,35.211179,-64.173909,-12.315671,0,1.0
587.802,233.99173,270.297546,256.109344,-90.964384,-85.509023,-65.440948,54.476942,34.599775,64.858249,35.211179,-64.173909,-12.315671,0,1.0
602.444,233.99173,270.297546,256.109344,-90.964384,-85.509023,-65.440948,54.476942,34.599775,64.858249,35.211179,-64.173909,-12.315671,0,1.0
617.745,233.99173,270.297546,256.109344,-90.964384,-85.509023,-65.440948,54.476942,34.599775,64.858249,35.211179,-64.173909,-12.315671,0,1.0
633.032,233.991211,270.298004,256.109344,-90.964384,-85.509023,-65.440833,54.476999,34.599775,64.858249,35.211179,-64.173909,-12.315671,0,1.0
648.58,233.991211,270.298004,256.109344,-90.964384,-85.509023,-65.440833,54.476999,34.599775,64.858249,35.211179,-64.173909,-12.315671,0,1.0
664.016,233.990692,270.298431,256.109344,-90.964384,-85.509023,-65.440718,54.477114,34.599775,64.858249,35.211179,-64.173909,-12.315671,0,1.0
679.879,233.990692,270.298431,256.109344,-90.964384,-85.509023,-65.440718,54.477114,34.599775,64.858249,35.211179,-64.173909,-12.315671,0,0.0
695.034,233.990692,270.298431,256.109344,-90.964384,-85.509023,-65.440718,54.477114,34.599775,64.858249,35.211179,-64.173909,-12.315671,0,0.0
710.187,233.990692,270.298431,256.109344,-90.964384,-85.509023,-65.440718,54.477114,34.599775,64.858249,35.211179,-64.173909,-12.315671,0,0.0
725.718,233.990692,270.298431,256.109344,-90.964384,-85.509023,-65.440718,54.477114,34.599775,64.858249,35.211179,-64.173909,-12.315671,0,0.0
741.719,233.990173,270.298889,256.109344,-90.964384,-85.509023,-65.440604,54.477228,34.599775,64.858249,35.211179,-64.173909,-12.315671,0,0.0
756.737,233.990173,270.298889,256.109344,-90.964384,-85.509023,-65.440604,54.477228,34.599775,64.858249,35.211179,-64.173909,-12.315671,0,0.0
772.038,233.990173,270.298889,256.109344,-90.964384,-85.509023,-65.440604,54.477228,34.599775,64.858249,35.211179,-64.173909,-12.315671,0,0.0
786.778,233.990173,270.298889,256.109344,-90.964384,-85.509023,-65.440604,54.477228,34.599775,64.858249,35.211179,-64.173909,-12.315671,0,0.0
802.527,233.989655,270.299316,256.109344,-90.964384,-85.509023,-65.440546,54.477343,34.599775,64.858249,35.211179,-64.173909,-12.315671,0,0.0
817.066,233.989136,270.299774,256.109344,-90.964384,-85.509023,-65.440432,54.477457,34.599775,64.858249,35.211179,-64.173909,-12.315671,0,0.0
832.374,233.98912,270.298889,256.114746,-90.907145,-85.509081,-65.498644,54.477572,34.599661,64.858249,35.211179,-64.178492,-12.315671,0,0.0
848.81,233.99173,270.292297,256.139099,-90.62588,-85.509367,-65.785582,54.477572,34.599489,64.858249,35.211179,-64.210521,-12.315671,0,0.0
863.835,233.994827,270.284393,256.168823,-90.287377,-85.509539,-66.130961,54.477572,34.599374,64.858249,35.211179,-64.233382,-12.315671,0,0.0
879.723,233.996384,270.280426,256.183014,-90.119271,-85.509596,-66.302447,54.477572,34.599374,64.858249,35.211179,-64.242549,-12.315671,0,0.0
894.066,233.991791,270.290222,256.186676,-90.082774,-85.514295,-66.329261,54.477687,34.59926,64.858249,35.200178,-64.242549,-12.315671,0,0.0
908.604,233.991745,270.290161,256.188721,-90.079164,-85.514123,-66.332871,54.477687,34.598916,64.858249,35.200178,-64.242549,-12.315671,0,0.0
924.104,233.984604,270.306183,256.206879,-89.891062,-85.523462,-66.503956,54.477687,34.598458,64.858249,35.178234,-64.251716,-12.315671,0,0.0
939.604,233.981567,270.312042,256.224731,-89.685427,-85.528103,-66.703288,54.477801,34.598171,64.858249,35.156232,-64.269994,-12.315671,0,0.0
955.107,233.979507,270.316071,256.24939,-89.41946,-85.532515,-66.964156,54.477801,34.597942,64.858249,35.156232,-64.283745,-12.315671,0,0.0
971.511,233.979492,270.31604,256.250061,-89.418257,-85.532457,-66.965359,54.477801,34.597827,64.858249,35.156232,-64.283745,-12.315671,0,0.0
986.97,233.981003,270.312073,256.265594,-89.246886,-85.532228,-67.140111,54.477801,34.597598,64.858249,35.156232,-64.297496,-12.315671,0,0.0
1002.578,233.974854,270.32547,256.293213,-88.943504,-85.541166,-67.428767,54.477801,34.59714,64.858249,35.134288,-64.315773,-12.315671,0,0.0
1019.397,233.965057,270.346802,256.33197,-88.539225,-85.554287,-67.809899,54.477801,34.596166,64.858249,35.101343,-64.338691,-12.315671,0,0.0
1034.081,233.955276,270.368225,256.368713,-88.126982,-85.589352,-68.198937,54.477801,34.595535,64.858249,35.06834,-64.361552,-12.337672,0,0.0
1048.944,233.956757,270.364227,256.384979,-87.947245,-85.599723,-68.382112,54.477801,34.595192,64.858249,35.06834,-64.375303,-12.348616,0,0.0
1064.498,233.957214,270.362854,256.391754,-87.886512,-85.599379,-68.443991,54.477916,34.594733,64.858249,35.06834,-64.379887,-12.348616,0,0.0
1078.815,233.959106,270.356567,256.420197,-87.586454,-85.609119,-68.74955,54.477916,34.594103,64.858249,35.06834,-64.402748,-12.359616,0,0.0
1094.554,233.963882,270.343109,256.478455,-86.980035,-85.628084,-69.36737,54.477916,34.592327,64.858249,35.06834,-64.448527,-12.381618,0,0.0
1109.066,233.971588,270.321716,256.565094,-86.03242,-85.633814,-70.333205,54.477916,34.590551,64.858249,35.06834,-64.521809,-12.392561,0,0.0
1124.124,233.980286,270.297729,256.657043,-84.987174,-85.627053,-71.398849,54.477916,34.589462,64.858249,35.06834,-64.6042,-12.392561,0,0.0
1139.328,233.992691,270.263092,256.786865,-83.489061,-85.614963,-72.926527,54.477916,34.588373,64.858249,35.06834,-64.723203,-12.392561,0,-0.0
1155.327,234.015488,270.197632,257.027771,-80.511686,-85.671113,-75.960281,54.477916,34.586941,64.858249,35.06834,-64.947516,-12.480453,0,-0.0
1170.462,234.046616,270.103516,257.368103,-76.163394,-85.725945,-80.389531,54.477916,34.585509,64.858249,35.06834,-65.267914,-12.60129,0,-0.0
1185.507,234.082535,269.987,257.781952,-70.886969,-85.722278,-85.76588,54.477916,34.58442,64.858249,35.06834,-65.661594,-12.711183,0,-0.0
1202.267,234.114517,269.87326,258.186157,-66.057336,-85.646705,-90.692057,54.477916,34.582529,64.858249,35.06834,-66.041579,-12.777073,0,-0.0
1216.139,234.146286,269.748688,258.62619,-60.807151,-85.56397,-96.048181,54.477916,34.580237,64.858249,35.06834,-66.453536,-12.886967,0,-0.0
1231.493,234.231857,269.512024,258.878387,-57.883863,-85.51567,-99.199334,54.477916,34.577487,64.858249,35.244124,-66.728212,-13.040749,0,-0.0
1246.5,234.422287,268.992188,259.271881,-53.623693,-85.400677,-103.965426,54.477916,34.57319,64.858249,35.672582,-67.199699,-13.326425,0,-0.0
1261.886,234.616898,268.441498,259.6604,-49.975671,-85.206387,-108.146586,54.477916,34.572101,64.858249,36.123041,-67.694104,-13.557155,0,-0.0
1277.513,234.758667,267.979187,260.186127,-45.93712,-84.86691,-112.618178,54.477916,34.571758,64.858249,36.430662,-68.289178,-13.677992,0,-0.0
1293.017,234.811447,267.735565,260.684021,-42.376188,-84.542215,-116.39374,54.477916,34.571586,64.858249,36.518554,-68.797277,-13.732882,0,-0.0
1309.266,234.825485,267.591644,261.144653,-39.395719,-84.242386,-119.491036,54.477916,34.569237,64.858249,36.518554,-69.232152,-13.765884,0,-0.0
1324.069,234.829391,267.529419,261.370544,-38.001197,-84.125101,-120.935978,54.477916,34.560127,64.858249,36.496609,-69.456465,-13.820773,0,-0.0
1340.669,234.753326,267.686951,261.573608,-36.468993,-84.069868,-122.303399,54.477916,34.552965,64.858249,36.309825,-69.493077,-13.820773,0,-0.0
1355.387,234.69249,267.83313,261.630981,-35.668972,-84.073478,-122.956571,54.477916,34.551475,64.858249,36.145043,-69.493077,-13.820773,0,-0.0
1370.287,234.578278,268.106323,261.72229,-35.041526,-84.017672,-123.305273,54.477916,34.551017,64.858249,35.837421,-69.493077,-13.710937,0,-0.0
1385.891,234.454285,268.39859,261.819885,-34.321146,-83.962267,-123.727199,54.477916,34.550444,64.858249,35.507799,-69.493077,-13.601101,0,-0.0
1403.471,234.306824,268.739227,261.937683,-33.268107,-83.912878,-124.432911,54.47803,34.549011,64.858249,35.123287,-69.493077,-13.502209,0,-0.0
1418.431,234.160553,269.070618,262.045685,-32.884454,-83.822007,-124.475253,54.478317,34.548496,64.858249,34.749776,-69.493077,-13.326425,0,-0.0
1432.942,234.02037,269.382507,262.144592,-32.444079,-83.743855,-124.594485,54.479004,34.548037,64.858249,34.299316,-69.493077,-13.12864,0,-0.0
1448.547,233.856384,269.735931,262.258698,-31.898566,-83.660375,-124.778004,54.480551,34.546834,64.858249,33.925805,-69.493077,-12.985859,0,-0.0
1455.539,233.789795,269.874084,262.316345,-31.452346,-83.642212,-125.084479,54.480952,34.544886,64.858249,33.848857,-69.493077,-12.974858,0,-0.0
1463.738,233.734039,269.982697,262.399567,-30.988938,-83.629378,-125.438395,54.482098,34.53675,64.858249,33.72802,-69.493077,-12.963858,0,-0.0
1469.241,233.690964,270.055115,262.496552,-30.725664,-83.611846,-125.63045,54.484046,34.524431,64.858249,33.651129,-69.493077,-12.952857,0,-0.0
1481.844,233.638809,270.120697,262.628143,-30.814587,-83.570765,-125.484862,54.489547,34.505524,64.858249,33.596182,-69.493077,-12.908911,0,-0.0
1493.843,233.589081,270.162201,262.729309,-31.346464,-83.515245,-124.930468,54.498428,34.489596,64.858249,33.585182,-69.493077,-12.83202,0,-0.0
1509.418,233.486862,270.239624,262.871216,-32.481321,-83.410909,-123.767421,54.519111,34.466505,64.858249,33.585182,-69.493077,-12.678238,0,-0.0
1523.927,233.399078,270.305603,262.998413,-33.031934,-83.348686,-123.195208,54.543405,34.43717,64.858249,33.585182,-69.493077,-12.590346,0,-0.0
1540.365,233.230072,270.429749,263.323425,-33.150593,-83.299125,-123.039077,54.570105,34.390932,64.858249,33.585182,-69.479383,-12.590346,0,-0.0
1555.888,233.153442,270.478943,263.575317,-33.174887,-83.264404,-122.997996,54.587866,34.326131,64.858249,33.585182,-69.456465,-12.590346,0,-0.0
1570.231,233.084595,270.511749,264.025909,-33.284207,-83.212437,-122.869481,54.595258,34.270439,64.858249,33.585182,-69.438188,-12.590346,0,-0.0
1585.355,233.047394,270.511078,264.52475,-33.350269,-83.146718,-122.793393,54.599096,34.185928,64.858249,33.585182,-69.415269,-12.590346,0,-0.0
1601.378,232.977814,270.562073,265.198853,-32.874141,-83.061233,-123.196354,54.601961,34.078842,64.858249,33.508291,-69.406102,-12.612291,0,-0.01
1617.485,232.894699,270.630066,265.977509,-31.088002,-83.041237,-124.891736,54.603909,33.957833,64.858249,33.398455,-69.406102,-12.799075,0,-0.01
1631.435,232.809296,270.701752,266.776855,-29.421154,-83.000843,-126.458203,54.604998,33.834017,64.858249,33.277561,-69.406102,-12.963858,0,-0.01
1636.93,232.761154,270.741089,267.224792,-28.236105,-82.997578,-127.589794,54.605685,33.76383,64.858249,33.21167,-69.401576,-13.095695,0,-0.01
1646.568,232.724762,270.760773,267.627045,-27.600695,-82.964747,-128.189223,54.606144,33.700805,64.858249,33.167725,-69.401576,-13.161643,0,-0.01
1662.419,232.64267,270.757172,268.837006,-26.863585,-82.806038,-128.871214,54.607003,33.508062,64.858249,33.101834,-69.401576,-13.238534,0,-0.01
1678.204,232.571503,270.715424,270.044403,-25.798399,-82.679872,-129.924024,54.608837,33.313829,64.858249,33.079833,-69.401576,-13.392316,0,-0.01
1692.702,232.456116,270.678253,271.75296,-23.968773,-82.511251,-131.709017,54.610727,33.040528,64.858249,33.013943,-69.401576,-13.645047,0,-0.01
1708.704,232.354858,270.609436,273.389587,-22.198734,-82.359131,-133.465419,54.61216,32.776509,64.858249,32.98094,-69.396992,-13.919666,0,-0.01
1724.206,232.204559,270.552643,275.467438,-20.618517,-82.122556,-134.981122,54.613134,32.441959,64.858249,32.893049,-69.383241,-14.161397,0,-0.01
1739.203,232.107193,270.480865,276.907623,-18.870651,-81.988312,-136.719991,54.614051,32.210369,64.858249,32.860104,-69.383241,-14.447016,0,-0.01
1755.203,231.932312,270.378082,279.235809,-16.319156,-81.751738,-139.233614,54.615426,31.835426,64.858249,32.783213,-69.374074,-14.875474,0,-0.01
1771.204,231.758514,270.279327,281.413635,-13.183702,-81.566386,-142.335608,54.616457,31.480765,64.85802,32.706322,-69.342045,-15.413825,0,-0.01
1787.202,231.566406,270.137421,283.876892,-11.368915,-81.335771,-144.113324,54.616743,31.068694,64.857676,32.651375,-69.250487,-15.809338,0,-0.01
1802.074,231.399384,269.960419,286.141052,-10.082625,-81.152367,-145.399041,54.617087,30.680744,64.857333,32.651375,-69.1269,-16.160905,0,-0.01
1817.053,231.204941,269.778503,288.542816,-8.97378,-80.972917,-146.486343,54.61766,30.263803,64.856817,32.640374,-68.962117,-16.501471,0,-0.01
1832.099,231.010452,269.626556,290.721039,-7.745358,-80.84847,-147.674543,54.61852,29.878317,64.856359,32.61843,-68.765249,-16.853038,0,-0.01
1847.591,230.862366,269.503082,292.346191,-7.408459,-80.786018,-147.975002,54.619494,29.448197,64.854812,32.61843,-68.472295,-17.083768,0,-0.01
1863.338,230.637573,269.331451,294.647888,-7.517378,-80.725857,-147.791255,54.62064,29.151004,64.853494,32.61843,-68.238815,-17.215548,0,-0.01
1879.105,230.408691,269.120392,296.9617,-7.407313,-80.585769,-147.85766,54.622129,28.73561,64.852062,32.61843,-68.009976,-17.413333,0,-0.01
1893.922,230.143402,268.903534,299.407349,-6.503357,-80.379562,-148.709305,54.62402,28.311449,64.850973,32.574484,-67.845136,-17.720954,0,-0.01
1909.502,229.840424,268.701111,301.906006,-5.128946,-80.080535,-150.008086,54.626312,27.896685,64.849999,32.464591,-67.771912,-18.072521,0,-0.01
1925.241,229.47937,268.490326,304.599762,-4.21038,-79.752173,-150.820998,54.631812,27.446913,64.847764,32.332753,-67.680353,-18.358141,0,-0.01
1940.745,229.09523,268.334198,307.049561,-3.592159,-79.487867,-151.316836,54.645792,27.029972,64.846561,32.211916,-67.547599,-18.588871,0,-0.01
1956.214,0.471762,1.131786,0.562204,-67.547599,-18.588871,0.0,54.68653,26.593263,64.845071,32.167971,-67.34162,-18.819601,0,-0.01
1971.73,228.194168,268.186676,311.137024,-2.921283,-79.210269,-151.808949,54.746633,26.195459,64.843926,32.167971,-67.103556,-19.083276,0,-0.01
1988.33,227.620865,268.072662,313.455841,-2.90799,-79.139624,-151.781046,54.826045,25.767688,64.841863,32.321752,-66.778575,-19.32495,0,-0.01
2003.821,226.991455,268.066589,315.30072,-3.704917,-79.293692,-150.954555,54.920526,25.369712,64.839342,32.563483,-66.270476,-19.456787,0,-0.01
2019.398,226.381958,268.044403,317.08606,-4.981238,-79.684277,-149.611599,54.988536,25.038714,64.83579,32.794213,-65.679928,-19.55568,0,-0.01
2033.252,225.641022,268.25119,318.487274,-5.425051,-80.226525,-149.007759,55.109602,24.650993,64.83155,33.057889,-64.828513,-19.819355,0,-0.01
2048.691,224.822739,268.472229,319.958527,-5.942145,-80.919574,-148.307318,55.242127,24.218238,64.827997,33.387454,-63.793923,-20.14892,0,-0.01
2063.854,223.981934,268.752808,321.210602,-6.393006,-81.592341,-147.638447,55.37746,23.829544,64.821637,33.673073,-62.809753,-20.456541,0,-0.01
2079.062,223.346741,268.845001,322.385651,-7.552959,-81.933194,-146.38917,55.479217,23.522037,64.816595,33.925805,-62.228373,-20.59938,0,-0.01
2094.436,222.396515,269.095917,323.77005,-8.62926,-82.127083,-145.245202,55.650932,23.205994,64.815163,34.222425,-61.807249,-20.786107,0,-0.01
2109.715,221.398529,269.299133,325.683746,-8.000267,-81.976853,-145.733076,55.805058,22.860443,64.808689,34.266371,-61.679079,-21.038838,0,-0.01
2125.236,220.283737,269.641418,327.718811,-4.971727,-81.660237,-148.494446,55.963939,22.530419,64.798776,34.068586,-61.701997,-21.478297,0,-0.01
2141.06,219.333115,269.866211,329.955658,-1.640894,-81.178895,-151.489067,56.067072,22.191629,64.79001,33.673073,-61.802666,-21.884753,0,-0.01
2156.065,218.610306,270.090515,331.459595,0.459971,-80.86967,-153.311531,56.175647,21.875987,64.782103,33.266617,-61.821,-22.23632,0,-0.01
2171.636,217.610168,270.403046,333.40979,2.59441,-80.473469,-155.064152,56.291843,21.55026,64.768238,32.893049,-61.821,-22.478051,0,-0.01
2187.836,216.659607,270.595917,335.192902,4.178008,-80.129465,-156.362703,56.398871,21.26997,64.735407,32.695321,-61.821,-22.76367,0,-0.01
2203.036,215.867889,270.537201,336.747925,5.334695,-79.864243,-157.379761,56.465907,21.045542,64.689914,32.61843,-61.821,-22.961398,0,-0.01
2218.991,214.849167,270.626801,338.283234,5.923696,-79.636435,-157.73763,56.594078,20.735171,64.621389,32.475592,-61.775221,-23.115237,0,-0.01
2233.213,213.94342,270.592194,339.580933,6.06281,-79.451255,-157.671912,56.697554,20.443249,64.525762,32.343754,-61.738609,-23.170184,0,-0.01
2248.233,213.071152,270.385498,340.826691,6.512639,-79.228146,-157.907512,56.773815,20.129726,64.380746,32.145969,-61.738609,-23.236074,0,-0.01
2263.737,212.416306,270.289825,341.665863,7.233879,-79.037981,-158.385932,56.836554,19.836716,64.221235,31.772458,-61.729442,-23.291021,0,-0.01
2279.349,211.454422,270.139069,342.702148,8.674753,-78.74921,-159.382821,56.871619,19.59699,64.058744,31.365944,-61.720274,-23.323966,0,-0.01
2294.649,210.622467,269.870422,343.394958,9.991525,-78.52633,-160.298064,56.897517,19.312517,63.821253,30.88254,-61.701997,-23.334967,0,-0.01
2310.618,209.660187,269.503082,343.971497,11.343648,-78.324362,-161.228204,56.931149,18.994811,63.520107,30.388192,-61.679079,-23.334967,0,-0.01
2325.351,208.595978,269.213684,344.234741,11.550199,-78.224553,-161.010652,56.996294,18.710796,63.198734,29.959734,-61.669911,-23.104237,0,-0.01
2341.424,207.452454,268.792389,344.464813,11.498747,-78.137807,-160.515444,57.058174,18.389367,62.822702,29.509275,-61.669911,-22.796616,0,-0.01
2356.631,206.298706,268.470825,344.491425,11.328865,-78.108414,-159.83139,57.121428,18.096815,62.446269,29.003926,-61.628716,-22.401103,0,-0.01
2371.748,205.307358,268.278107,344.429718,11.617923,-78.070255,-159.616015,57.189668,17.798819,62.033109,28.322736,-61.569243,-21.983646,0,-0.01
2387.579,203.955597,268.112762,344.331635,11.482303,-78.027455,-158.856388,57.289649,17.515492,61.633414,27.740496,-61.555492,-21.533186,0,-0.01
2404.489,202.494537,267.85199,344.091461,11.487976,-78.009464,-158.282456,57.408595,17.220648,61.190002,27.23509,-61.555492,-21.104728,0,-0.01
2419.58,200.910522,267.731659,343.727844,10.537152,-78.088762,-156.803537,57.580883,16.952904,60.76968,26.87258,-61.550908,-20.577378,0,-0.01
2433.593,199.209213,267.578979,343.384705,9.882605,-78.158834,-155.63711,57.72292,16.73031,60.429629,26.608905,-61.550908,-20.258814,0,-0.01
2448.87,197.45462,267.582367,342.997101,9.077428,-78.255722,-154.363539,57.944654,16.474084,60.026783,26.356173,-61.550908,-19.8523,0,-0.01
2465.57,195.673386,267.475739,342.633423,8.459665,-78.362865,-153.348945,58.174468,16.192876,59.604799,26.191391,-61.550908,-19.544679,0,-0.01
2470.617,195.243698,267.455658,342.546722,8.310867,-78.393804,-153.124231,58.234915,16.127616,59.508084,26.180447,-61.550908,-19.489732,0,-0.01
2479.575,194.301468,267.499359,342.363464,8.118869,-78.452819,-152.762351,58.43883,15.943353,59.229054,26.158445,-61.550908,-19.379896,0,-0.01
2495.128,192.569946,267.388947,341.845703,8.265776,-78.593824,-152.647989,58.625213,15.753933,58.915187,26.158445,-61.550908,-19.346951,0,-0.01
2510.365,190.758652,267.37738,341.658203,8.458003,-78.672205,-152.564222,58.896738,15.484471,58.555714,26.158445,-61.550908,-19.33595,0,-0.01
2525.894,188.952179,267.364258,341.256195,8.904108,-78.778374,-152.700758,59.162247,15.234318,58.174582,26.1145,-61.541741,-19.32495,0,0.0
2541.936,186.938065,267.492828,341.320709,9.400232,-78.775337,-152.800109,59.462076,14.939875,57.833157,25.993663,-61.541741,-19.32495,0,0.0
2557.314,185.013062,267.492218,341.159637,9.847884,-78.825986,-152.907195,59.747065,14.656318,57.461479,25.927715,-61.541741,-19.32495,0,0.0
2572.319,182.941956,267.632019,341.265594,10.145707,-78.830513,-152.830533,60.068494,14.358609,57.130137,25.861825,-61.541741,-19.32495,0,0.0
2588.06,181.517868,267.701874,341.191559,10.454016,-78.865463,-152.913383,60.375714,14.097455,56.782524,25.861825,-61.541741,-19.401841,0,0.0
2604.224,179.480942,267.748291,341.2883,11.430393,-78.858416,-153.584603,60.725734,13.792469,56.475533,25.861825,-61.541741,-19.610569,0,0.0
2619.712,177.326767,267.95575,341.322296,12.598196,-78.854061,-154.412928,61.057076,13.507365,56.150781,25.861825,-61.532573,-19.775409,0,0.0
2634.327,175.201752,267.936584,341.404755,13.372033,-78.857041,-154.86333,61.305797,13.251253,55.870547,25.861825,-61.52799,-19.874244,0,0.0
2648.909,172.991318,268.051392,341.509033,13.964471,-78.865807,-155.099847,61.666359,12.939908,55.534908,25.861825,-61.514296,-19.973137,0,0.0
2664.5,170.834366,268.001617,341.422791,15.040944,-78.91279,-155.835754,62.005722,12.614296,55.150683,25.861825,-61.468517,-20.13792,0,0.0
2680.343,168.710709,267.978363,341.273956,15.881359,-78.983836,-156.42103,62.363992,12.317103,54.78949,25.982662,-61.445598,-20.324704,0,0.0
2695.349,167.184341,267.730164,340.994507,16.088483,-79.147187,-156.508177,62.701293,11.99023,54.367621,26.224393,-61.372374,-20.401595,0,0.0
2710.631,165.06485,267.590179,340.722656,15.958937,-79.353566,-156.13776,62.978375,11.751192,54.075356,26.356173,-61.312844,-20.401595,0,0.0
2725.929,162.991913,267.288971,340.177612,16.274923,-79.638555,-156.173112,63.309258,11.420481,53.623693,26.488011,-61.161812,-20.401595,0,0.0
2741.43,160.928009,267.08194,339.762878,16.401375,-79.890657,-156.032107,63.653147,11.107589,53.217466,26.64185,-61.033642,-20.401595,0,0.0
2757.43,159.03067,266.634613,339.151215,16.339897,-80.24738,-155.812778,63.969764,10.782206,52.771418,26.916526,-60.868859,-20.401595,0,0.0
2772.93,157.035736,266.332611,338.488708,16.187605,-80.648966,-155.49112,64.322305,10.481174,52.353045,27.23509,-60.671991,-20.401595,0,0.0
2788.93,155.09375,265.907257,337.76181,15.319344,-81.235904,-154.426335,64.654448,10.138603,51.913013,27.575657,-60.305813,-20.258814,0,0.0
2804.431,152.983353,265.773071,336.873932,14.590542,-81.959321,-153.354904,65.022173,9.829034,51.51114,27.850333,-59.765629,-20.072029,0,0.0
2820.932,151.072708,265.397614,336.143494,14.101752,-82.693222,-152.620773,65.347899,9.471737,51.104684,28.201899,-59.179665,-19.995138,0,0.0
2834.932,149.601532,265.167694,335.525757,13.783187,-83.206077,-152.170486,65.617361,9.23608,50.81047,28.531522,-58.813487,-19.995138,0,0.0
2850.43,147.784195,264.714661,334.694336,13.049458,-83.82659,-151.334368,65.949849,8.926969,50.4043,28.992925,-58.419808,-19.995138,0,0.0
2865.43,145.872192,264.31073,334.083893,11.681062,-84.322141,-149.881233,66.311843,8.61677,50.020304,29.465329,-58.145132,-19.995138,0,0.0
2880.93,144.02417,263.960815,333.511047,11.024396,-84.577165,-149.079035,66.650003,8.354871,49.64049,29.740005,-58.085602,-19.995138,0,0.0
2896.441,142.152512,263.735779,333.336823,9.872464,-84.710378,-147.770514,67.003403,8.0877,49.326108,29.992679,-58.085602,-19.995138,0,0.0
2911.968,140.969879,263.532196,333.206116,8.680769,-84.808869,-146.531664,67.307529,7.853361,49.028228,30.333245,-58.103936,-19.995138,0,0.0
2927.473,139.641907,263.04068,333.013062,5.409638,-84.99531,-143.4138,67.616468,7.622631,48.784778,30.904541,-58.149716,-19.995138,0,0.0
2942.43,138.255508,262.750702,332.828705,2.117308,-85.155852,-140.226321,67.831442,7.475781,48.614266,31.289053,-58.16805,-19.995138,0,0.0
2957.93,136.967224,262.420288,332.628906,-1.091141,-85.323156,-137.119916,68.115973,7.276163,48.386973,31.783459,-58.16805,-20.006082,0,0.0
2973.337,135.627853,262.301056,332.437408,-2.786408,-85.457171,-135.441952,68.411103,7.11774,48.200647,32.178971,-58.16805,-20.093974,0,0.0
2988.341,134.378296,262.283264,332.230347,-4.150965,-85.562538,-134.024855,68.679706,6.993007,48.040162,32.45359,-58.16805,-20.13792,0,0.01
3004.779,133.041794,262.440826,332.228302,-4.932594,-85.579096,-133.086236,68.958737,6.877671,47.919039,32.596428,-58.195495,-20.159921,0,0.01
3019.98,132.111496,262.586975,332.250549,-4.508777,-85.578008,-133.348765,69.205624,6.782732,47.815333,32.61843,-58.209246,-20.225811,0,0.01
3035.225,130.756958,262.938934,332.245483,-2.978464,-85.587862,-134.619872,69.419624,6.724405,47.755459,32.629373,-58.218356,-20.324704,0,0.01
3049.958,129.534821,263.27652,332.400879,-1.965589,-85.577263,-135.449629,69.682096,6.649061,47.710769,32.717265,-58.232107,-20.467542,0,0.01
3065.26,128.130676,263.773315,332.599335,-1.544981,-85.54787,-135.586967,69.976653,6.582254,47.682522,32.728266,-58.232107,-20.522489,0,0.01
3080.923,126.930016,264.177521,332.900818,-0.400326,-85.467369,-136.401942,70.205722,6.500263,47.65015,32.596428,-58.232107,-20.555434,0,0.01
3096.392,125.534416,264.778076,333.180725,1.732796,-85.342808,-138.037737,70.455417,6.44016,47.624538,32.277807,-58.232107,-20.555434,0,0.01
3111.894,124.069748,265.452698,333.452972,4.449304,-85.163759,-140.202314,70.712847,6.396902,47.602766,31.882351,-58.268719,-20.566435,0,0.01
3127.394,122.974922,265.921692,333.548553,5.64753,-85.08005,-141.0963,70.928508,6.378453,47.587525,31.750514,-58.305331,-20.59938,0,0.01
3142.893,121.669907,266.441956,333.464569,6.045793,-85.088071,-141.204646,71.201522,6.368999,47.559049,31.728512,-58.305331,-20.610381,0,0.01
3158.393,120.075676,267.081268,333.325531,6.542147,-85.100104,-141.335052,71.532635,6.364243,47.522781,31.684566,-58.305331,-20.610381,0,0.01
3174.522,118.329842,267.818634,333.184784,8.880903,-85.032666,-143.115747,71.859163,6.35943,47.469725,31.387946,-58.305331,-20.621324,0,0.01
3189.27,116.266251,268.675659,332.975769,13.042353,-84.860607,-146.477004,72.208725,6.351638,47.378224,30.805649,-58.319082,-20.632325,0,0.01
3205.225,114.234741,269.437866,332.771149,17.526206,-84.604667,-150.094488,72.526373,6.325282,47.256127,30.091572,-58.35111,-20.632325,0,0.01
3222.458,112.089111,270.182739,332.497345,19.805776,-84.421721,-151.519033,72.873757,6.297379,47.124002,29.443384,-58.378612,-20.467542,0,0.01
3236.955,110.126099,270.732544,332.224213,21.196631,-84.217519,-152.127972,73.181779,6.255496,46.965121,28.817141,-58.470171,-20.247813,0,0.01
3251.956,108.642639,271.045349,332.135925,22.10368,-84.012973,-152.493347,73.527101,6.173678,46.786588,28.267847,-58.625786,-20.08303,0,0.01
3266.426,106.500763,271.417633,332.005798,22.62914,-83.823439,-152.34879,73.783328,6.098505,46.647932,27.960226,-58.721929,-19.962136,0,0.01
3282.322,104.445038,271.663147,331.674713,23.308439,-83.715895,-152.433359,74.140223,6.000931,46.433588,27.630603,-58.822655,-19.830298,0,0.01
3297.537,102.384727,271.906006,331.52301,22.550129,-83.659745,-151.216683,74.533673,5.898887,46.258722,27.509766,-58.950825,-19.676517,0,0.01
3312.682,100.476997,271.96402,331.284088,21.464546,-83.658427,-149.787153,74.909419,5.782634,46.055895,27.509766,-59.08358,-19.533678,0,0.01
3327.687,98.874496,272.075562,331.146271,20.920694,-83.62743,-148.952984,75.326991,5.668157,45.861433,27.509766,-59.234611,-19.456787,0,0.01
3342.928,96.725883,272.172089,331.136353,21.240233,-83.444657,-148.801952,75.632549,5.550643,45.706505,27.355985,-59.376533,-19.456787,0,0.01
3358.184,94.371948,272.388306,331.250458,22.13674,-83.204186,-149.083962,76.057569,5.396403,45.518346,27.059307,-59.527565,-19.456787,0,0.01
3373.91,92.192459,272.522827,331.309814,23.451736,-82.974831,-149.758906,76.430794,5.235287,45.318269,26.685796,-59.628291,-19.456787,0,0.01
3389.755,89.963562,272.609314,331.515839,24.272956,-82.735965,-149.970672,76.822009,5.049305,45.123578,26.367174,-59.74271,-19.456787,0,0.01
3405.502,87.729408,272.700012,331.677521,25.689881,-82.48902,-150.692656,77.194546,4.859599,44.92224,25.938716,-59.802241,-19.467788,0,0.01
3420.871,85.206764,272.937225,332.024567,27.104857,-82.223683,-151.303429,77.619165,4.657517,44.756426,25.455312,-59.811408,-19.478789,0,0.01
3436.024,83.494514,273.042542,332.114441,28.787233,-82.019252,-152.467736,78.012043,4.470331,44.587117,25.0818,-59.820575,-19.643572,0,0.01
3451.607,81.15126,273.178375,332.599243,30.292508,-81.751795,-153.377708,78.340233,4.314544,44.49023,24.927961,-59.820575,-19.808354,0,-0.07
3465.999,79.115952,273.210571,332.863312,31.719115,-81.552062,-154.348069,78.726177,4.131942,44.350142,24.818125,-59.820575,-20.039084,0,-0.07
3481.491,76.65416,273.367828,333.479004,32.272306,-81.312451,-154.252844,79.176178,3.909348,44.23578,24.55445,-59.820575,-20.115975,0,-0.07
3497.068,74.264153,273.556213,333.801819,33.175288,-81.081893,-154.459166,79.59925,3.736544,44.107494,24.202883,-59.820575,-20.159921,0,-0.07
3512.073,71.78344,273.669128,334.349823,33.825079,-80.83598,-154.450056,80.051772,3.51968,43.985397,23.928207,-59.820575,-20.247813,0,-0.07
3529.069,69.590836,273.66568,334.599274,34.776476,-80.641862,-154.864705,80.461208,3.333812,43.837631,23.752424,-59.820575,-20.390651,0,-0.07
3544.077,67.668167,273.620544,334.926361,35.285892,-80.4741,-154.888884,80.92221,3.101764,43.666718,23.51075,-59.820575,-20.489486,0,-0.07
3559.461,65.223465,273.627075,335.158691,36.000428,-80.273794,-154.908307,81.252119,2.954801,43.542443,23.247075,-59.815992,-20.489486,0,-0.07
3575.567,62.453674,273.596283,335.394806,36.701843,-80.065638,-154.818697,81.74641,2.732436,43.348784,22.873507,-59.806824,-20.489486,0,-0.07
3590.867,60.057472,273.519958,335.577576,36.630452,-79.993101,-154.129486,82.19452,2.539807,43.180907,22.664778,-59.806824,-20.401595,0,-0.07
3606.357,57.32877,273.413574,335.727173,36.09932,-80.019687,-152.863421,82.701874,2.320307,42.986216,22.412104,-59.765629,-20.159921,0,-0.07
3621.013,54.421883,273.455109,335.873901,35.141679,-80.076238,-151.018955,83.223438,2.133007,42.819772,22.00559,-59.715266,-19.742407,0,-0.07
3636.443,52.226734,273.468048,335.973785,34.26746,-80.124939,-149.514081,83.805448,1.966907,42.661234,21.70897,-59.701515,-19.368896,0,-0.07
3650.619,49.316696,273.490112,336.008606,33.663219,-80.167682,-148.223551,84.205602,1.851857,42.551054,21.632079,-59.701515,-19.248059,0,-0.07
3666.337,46.596066,273.360229,336.019592,33.746527,-80.163213,-147.733099,84.759881,1.683121,42.384496,21.610135,-59.692405,-19.248059,0,-0.07
3682.953,43.297588,273.366272,335.852783,34.940972,-80.115714,-148.244063,85.440039,1.547444,42.225729,21.610135,-59.637458,-19.434843,0,-0.07
3698.602,40.694241,273.109772,335.508484,35.954076,-80.182235,-148.938316,86.03603,1.409877,42.039747,21.950701,-59.596262,-19.731463,0,-0.07
3713.809,37.966183,272.90097,334.830627,36.775067,-80.456567,-149.369524,86.656658,1.307146,41.842191,22.291267,-59.449757,-19.8523,0,-0.07
3729.008,35.212399,272.663818,334.072083,37.393689,-80.76075,-149.520613,87.266629,1.209571,41.628535,22.53294,-59.303309,-19.8523,0,-0.07
3744.557,32.904137,272.497864,333.496063,37.778373,-80.968562,-149.514425,87.925588,1.121794,41.408806,22.796616,-59.193416,-19.8523,0,-0.07
3759.682,30.405394,272.069244,332.369751,38.823677,-81.39639,-150.186677,88.353243,1.052581,41.198186,23.060291,-59.028633,-19.8523,0,-0.07
3776.337,27.470221,271.743164,331.227417,40.467665,-81.753858,-151.363417,89.183688,0.977237,40.892112,23.477805,-58.799736,-19.984138,0,-0.07
3790.53,24.763004,271.334839,329.851776,42.308693,-82.128572,-152.847263,89.65953,0.95747,40.681149,23.80737,-58.694484,-20.050028,0,-0.07
3805.552,21.965534,270.96344,328.386139,44.219106,-82.548207,-154.310655,90.302789,0.947042,40.415182,24.136936,-58.520534,-20.050028,0,-0.07
3821.218,19.265665,270.499176,326.774597,45.766322,-83.010068,-155.392113,90.918375,0.946698,40.11438,24.400611,-58.392306,-19.907247,0,-0.07
3836.93,16.227898,270.009277,325.301056,46.836951,-83.399393,-155.965185,91.616868,0.946698,39.820739,24.686288,-58.369445,-19.775409,0,-0.07
3851.723,14.246931,269.52243,324.052521,47.908382,-83.727583,-156.776379,92.095231,0.946698,39.572304,24.982908,-58.355694,-19.698461,0,-0.07
3866.235,11.403271,268.770325,322.298798,49.462587,-84.224338,-158.059976,92.813949,0.946698,39.226696,25.565205,-58.355694,-19.643572,0,-0.07
3881.268,8.878597,268.018127,320.673584,50.931021,-84.743552,-159.36632,93.479153,0.946698,38.912257,26.213392,-58.35111,-19.588625,0,-0.07
3896.785,6.166124,267.186127,318.9151,53.45914,-85.222029,-161.644572,94.176786,0.946698,38.568138,26.795632,-58.332833,-19.544679,0,-0.07
3912.38,3.666292,266.401642,317.351135,56.247152,-85.604994,-164.186156,94.818499,0.946698,38.257137,27.301038,-58.332833,-19.522677,0,-0.03
3927.52,1.822384,265.729401,316.051208,59.125119,-85.867867,-166.857972,95.494704,0.945266,37.912846,27.729496,-58.332833,-19.478789,0,-0.03
3942.807,-0.944193,264.941498,314.557556,62.654883,-86.152283,-169.948793,95.958227,0.945151,37.683893,27.938224,-58.332833,-19.412841,0,-0.03
3958.841,-3.419115,264.09964,313.038116,67.206288,-86.389029,-174.15671,96.577308,0.945151,37.37186,28.289791,-58.332833,-19.390897,0,-0.03
3974.549,-6.04863,263.275177,311.620087,72.125646,-86.552265,-178.670758,97.224521,0.944922,37.078735,28.597412,-58.332833,-19.390897,0,-0.03
3989.701,-8.422291,262.380646,310.121521,77.940767,-86.620103,175.874208,97.819709,0.944693,36.765097,28.894032,-58.337417,-19.445786,0,-0.03
4005.348,-10.909108,261.447296,308.649933,83.885548,-86.726444,170.26753,98.457583,0.944693,36.459997,29.267601,-58.346584,-19.467788,0,-0.03
4020.853,-12.922185,260.391144,306.959412,91.155809,-86.805455,163.22817,99.003497,0.944693,36.108201,29.663056,-58.346584,-19.467788,0,-0.03
4036.853,-15.30748,259.375946,305.439117,97.794843,-86.922167,156.953308,99.617536,0.944693,35.785454,29.970677,-58.360278,-19.346951,0,-0.03
4051.01,-16.993017,258.568848,304.266602,103.334027,-87.003928,151.637578,100.067766,0.944693,35.535931,30.245353,-58.378612,-19.248059,0,-0.03
4067.976,-19.308315,257.497772,302.753937,111.329939,-87.06512,143.949343,100.825045,0.943948,35.14271,30.717757,-58.38778,-19.09422,0,-0.03
4082.037,-21.360788,256.413849,301.350464,118.467389,-87.172664,137.062276,101.253273,0.942286,34.902584,30.981432,-58.470171,-18.918436,0,-0.03
4097.934,-23.884752,255.372162,300.136383,125.463662,-87.289031,130.451432,101.914696,0.942286,34.624069,31.278053,-58.57084,-18.665762,0,-0.03
4113.433,-25.912718,254.260712,298.727936,133.658105,-87.257519,122.502616,102.484216,0.942172,34.317307,31.651621,-58.616619,-18.489978,0,-0.03
4128.437,-28.266617,253.223419,297.487427,141.650751,-87.199707,114.898493,103.104156,0.940854,34.051913,31.92624,-58.616619,-18.259305,0,-0.03
4143.914,-30.079939,252.432495,296.560455,147.191024,-87.12889,109.695004,103.726331,0.940854,33.78967,32.167971,-58.616619,-18.006574,0,-0.03
4158.571,-32.503963,251.350143,295.349548,153.826219,-86.979863,103.468386,104.215981,0.940854,33.592344,32.354755,-58.616619,-17.852792,0,-0.03
4173.575,-34.732517,250.324249,294.231598,157.32533,-86.783052,100.383753,104.802403,0.940625,33.347003,32.552483,-58.625786,-17.742899,0,-0.03
4189.033,-37.335732,249.265686,293.272614,159.846287,-86.629328,98.324313,105.486744,0.940625,33.128706,32.794213,-58.685317,-17.677008,0,-0.03
4205.209,-39.517467,248.228851,292.256683,162.127805,-86.396764,96.368579,106.091558,0.940625,32.914592,33.123779,-58.6899,-17.677008,0,-0.03
4220.418,-41.983429,247.164597,291.309387,163.910276,-86.171993,95.0007,106.756762,0.940338,32.714859,33.420399,-58.6899,-17.677008,0,-0.03
4235.813,-43.841614,246.453629,290.767181,164.746967,-86.047948,94.508357,107.401225,0.940338,32.564457,33.640128,-58.69901,-17.688009,0,-0.03
4251.663,-46.131153,245.491974,290.010284,164.871184,-85.836813,94.774038,107.862227,0.940338,32.440985,33.859858,-58.69901,-17.775901,0,-0.03
4265.849,-48.718914,244.506287,289.345764,163.837224,-85.626881,96.291287,108.543818,0.940338,32.303017,34.101589,-58.69901,-17.951684,0,-0.03
4280.856,-51.206921,243.590515,288.818176,162.653894,-85.432362,97.912528,109.205297,0.940338,32.198624,34.376207,-58.69901,-18.171414,0,-0.03
4296.658,-53.839508,242.671143,288.339294,162.310578,-85.253599,98.759303,109.889753,0.940338,32.109643,34.606937,-58.671566,-18.314195,0,-0.03
4311.99,-56.33017,241.821945,287.971985,162.513176,-85.116433,99.021889,110.538513,0.940338,32.045472,34.837667,-58.648705,-18.413087,0,-0.03
4327.444,-58.430443,241.172195,287.83551,162.863482,-85.04636,99.016733,111.253622,0.940625,32.026565,35.189234,-58.648705,-18.51198,0,-0.03
4344.512,-60.746609,240.364807,287.53299,165.752851,-84.887536,96.412009,111.896079,0.940625,32.01373,35.661638,-58.534228,-18.51198,0,-0.03
4358.177,-63.333084,239.495239,287.366119,168.406219,-84.792884,94.083795,112.446634,0.940625,32.013616,36.024148,-58.52506,-18.51198,0,-0.03
4374.181,-65.608437,238.663864,287.21698,171.129659,-84.704476,91.579397,113.098316,0.940625,32.013501,36.540555,-58.52506,-18.51198,0,0.01
4388.823,-68.23114,237.75058,287.078949,173.289366,-84.610855,89.804431,113.809242,0.940625,32.013272,36.936011,-58.506783,-18.500979,0,0.01
4405.16,-70.577225,236.840988,286.922638,175.923597,-84.498784,87.410384,114.482697,0.941656,32.013272,37.452418,-58.506783,-18.489978,0,0.01
4420.612,-73.008415,235.844116,286.704193,178.640792,-84.321339,84.924664,115.190758,0.941656,32.011324,38.034657,-58.470171,-18.489978,0,0.01
4435.378,-74.706963,235.137131,286.496918,-179.601012,-84.138337,83.350004,115.679892,0.941656,32.010178,38.43017,-58.38778,-18.489978,0,0.01
4450.549,-76.945618,234.137054,286.295258,-179.002558,-83.963069,82.916275,116.356957,0.943719,32.010121,39.056413,-58.383196,-18.698707,0,0.01
4465.419,-78.923569,233.229858,286.049377,-177.990198,-83.746032,82.074199,116.949681,0.943833,32.007256,39.594707,-58.314498,-18.819601,0,0.01
4481.245,-81.136177,232.277893,285.873352,-177.537676,-83.591105,81.927693,117.575982,0.944922,32.006683,40.00122,-58.273303,-18.940438,0,0.01
4496.042,-83.01033,231.406998,285.710785,-177.062924,-83.458751,81.640985,118.133699,0.950079,32.006568,40.45168,-58.273303,-19.072275,0,0.01
4511.227,-84.24971,230.736359,285.537994,-175.402549,-83.294828,79.997513,118.539983,0.950079,32.00462,40.924083,-58.255025,-19.072275,0,0.01
4526.533,-86.134445,229.801804,285.371918,-173.74905,-83.130045,78.505245,119.113342,0.950652,32.003933,41.418431,-58.250442,-19.072275,0,0.01
4542.424,-87.841805,228.943573,285.219879,-172.448665,-82.981879,77.357152,119.632843,0.953402,32.003933,41.85789,-58.250442,-19.083276,0,0.01
4557.494,-89.552391,228.086929,285.089783,-171.453896,-82.8509,76.552776,120.143864,0.95386,32.003073,42.242459,-58.250442,-19.10522,0,0.01
4573.079,-91.045059,227.358459,284.99411,-171.367437,-82.76616,76.684098,120.575416,0.954032,32.002271,42.506077,-58.245858,-19.193112,0,0.01
4588.511,-92.946213,226.528381,284.911285,-172.062091,-82.722329,77.809216,121.073602,0.958902,32.00187,42.60497,-58.22294,-19.313949,0,0.01
4604.541,-94.500984,225.729614,284.753479,-173.161769,-82.64349,79.140712,121.529791,0.968986,31.996885,42.890647,-58.22294,-19.55568,0,0.01
4620.093,-95.627678,225.07814,284.61264,-174.557207,-82.569005,80.667129,121.987585,0.969788,31.983535,43.253157,-58.22294,-19.91819,0,0.01
4635.654,-97.055916,224.28656,284.478241,-175.806255,-82.482202,82.103248,122.430195,0.972596,31.980327,43.549777,-58.218356,-20.192866,0,0.01
4650.866,-98.80616,223.379364,284.287781,-176.988439,-82.366006,83.595688,122.818374,0.983081,31.977233,43.758563,-58.186328,-20.37965,0,0.01
4665.309,-100.103981,222.524323,283.935181,-177.741478,-82.188217,84.412726,123.259265,1.010296,31.958554,44.230967,-58.181744,-20.643326,0,0.01
4680.919,-101.327057,221.591278,283.570038,-178.38382,-82.001089,85.091452,123.701187,1.017115,31.917817,44.736315,-58.181744,-20.907001,0,0.01
4696.535,-102.412262,220.687073,283.136353,-178.439684,-81.818488,85.202892,124.099163,1.024907,31.854964,45.15383,-58.181744,-21.038838,0,0.01
4712.305,-103.70369,219.686905,282.625061,-178.298736,-81.662185,85.280585,124.524012,1.039059,31.766499,45.395503,-58.181744,-21.049782,0,0.01
4727.313,-104.378731,218.945877,282.113403,-178.065714,-81.502731,85.102796,124.795708,1.04731,31.672133,45.648178,-58.181744,-21.049782,0,0.01
4742.448,-105.016449,217.938263,281.372467,-177.413402,-81.25527,84.362019,125.136561,1.049831,31.529982,46.142583,-58.204662,-21.049782,0,0.01
4757.981,-105.525322,216.944229,280.531555,-177.137122,-80.994746,84.035319,125.43616,1.050747,31.360157,46.549097,-58.204662,-21.049782,0,0.01
4773.605,-106.019203,215.982864,279.688171,-177.128986,-80.757083,84.029589,125.716108,1.05493,31.185577,46.867661,-58.204662,-21.049782,0,0.01
4789.11,-106.293983,215.078018,278.755524,-177.507367,-80.532312,84.43404,125.930107,1.057737,30.978453,47.07639,-58.204662,-21.049782,0,0.01
4806.63,-106.448059,214.213699,277.824341,-176.47335,-80.302728,83.374297,126.116777,1.05917,30.767433,47.285176,-58.21383,-20.808108,0,0.01
4820.266,-106.396019,213.439377,276.877716,-174.999932,-80.062143,81.829145,126.247526,1.059514,30.549995,47.471902,-58.218356,-20.467542,0,0.01
4835.838,-106.236191,212.95816,276.224396,-174.032206,-79.881489,80.756797,126.335188,1.060602,30.355648,47.680688,-58.218356,-20.192866,0,-0.03
4851.351,-106.079018,212.364349,275.415344,-173.417308,-79.685767,80.082196,126.385838,1.062264,30.216133,47.757579,-58.218356,-20.039084,0,-0.03
4865.625,-105.924713,211.781876,274.599335,-173.097254,-79.509582,79.748277,126.449665,1.065472,30.022473,47.812526,-58.218356,-19.8523,0,-0.03
4880.764,-105.820007,211.250427,273.878082,-172.988563,-79.368921,79.67024,126.507706,1.065701,29.84434,47.812526,-58.218356,-19.698461,0,-0.03
4896.047,-105.647713,210.689285,273.083679,-173.414787,-79.225911,80.124996,126.557095,1.065873,29.647587,47.812526,-58.218356,-19.632571,0,-0.03
4911.553,-105.581543,210.294159,272.54245,-173.989062,-79.1469,80.77198,126.605682,1.066103,29.459828,47.724634,-58.218356,-19.62157,0,-0.03
4927.28,-105.45005,209.681061,271.672028,-175.098251,-79.033111,82.029795,126.638512,1.066103,29.28118,47.614741,-58.218356,-19.62157,0,-0.03
4942.168,-105.335503,209.101868,270.881683,-175.976023,-78.911758,83.010526,126.690938,1.066103,29.077952,47.53785,-58.218356,-19.62157,0,-0.03
4957.791,-105.088554,208.454193,269.957886,-176.377437,-78.741017,83.442422,126.737863,1.066103,28.845789,47.526849,-58.218356,-19.533678,0,-0.03
4973.293,-104.870529,207.879211,269.152557,-175.888704,-78.581906,82.956955,126.781924,1.066103,28.642561,47.526849,-58.22294,-19.292005,0,-0.03
4989.095,-104.692383,207.321564,268.384003,-175.315116,-78.42864,82.406514,126.827588,1.066332,28.447756,47.504905,-58.22294,-19.028329,0,-0.03
5005.099,-104.574913,206.863937,267.778198,-174.785646,-78.301214,81.888904,126.873769,1.067019,28.29575,47.504905,-58.22294,-18.8086,0,-0.03
5020.418,-104.414635,206.415176,267.163422,-175.061926,-78.186222,82.183634,126.910209,1.067077,28.140364,47.504905,-58.22294,-18.753653,0,-0.03
5035.086,-104.307907,206.142654,266.787476,-175.359978,-78.123827,82.499906,126.929346,1.067077,28.043133,47.493904,-58.227523,-18.742653,0,-0.03
5051.887,-104.126312,205.786942,266.247467,-175.780529,-78.04791,82.983597,126.934388,1.067191,27.898461,47.406012,-58.232107,-18.698707,0,-0.03
5067.159,-104.015656,205.488068,265.790527,-176.400011,-78.00448,83.723114,126.934617,1.068223,27.770691,47.252173,-58.236691,-18.687763,0,-0.03
5082.428,-103.878586,205.158722,265.292053,-177.103775,-77.95532,84.545538,126.934617,1.068738,27.630603,47.098391,-58.245858,-18.687763,0,-0.03
5097.833,-103.783882,204.842712,264.841736,-177.883858,-77.942887,85.484787,126.934617,1.068967,27.49252,46.889663,-58.277886,-18.687763,0,-0.03
5112.833,-103.71109,204.61142,264.532928,-178.484948,-77.958929,86.20425,126.934617,1.06954,27.339942,46.669933,-58.346584,-18.687763,0,-0.03
5128.145,-103.57032,204.235001,264.034912,-179.364953,-77.980129,87.251789,126.934617,1.069712,27.185129,46.417259,-58.442669,-18.676763,0,-0.03
5142.214,-103.465111,203.921143,263.673065,179.788713,-78.06126,88.263002,126.934617,1.069712,27.077584,46.230475,-58.547979,-18.665762,0,-0.03
5159.163,-103.325996,203.552094,263.215637,178.825227,-78.109159,89.396084,126.934617,1.0704,26.912229,45.9778,-58.666982,-18.665762,0,-0.03
5175.835,-103.245331,203.236725,262.793304,178.375742,-78.10744,90.012357,126.934617,1.070858,26.774891,45.74707,-58.717345,-18.588871,0,-0.03
5190.819,-103.159996,202.884995,262.300232,178.253931,-78.073979,90.310639,126.934617,1.07103,26.625463,45.505397,-58.740206,-18.435032,0,-0.03
5206.313,-103.124619,202.599594,261.943207,178.562641,-78.105034,90.177598,126.934617,1.071488,26.499126,45.241722,-58.80432,-18.193358,0,-0.03
5220.812,-103.074226,202.266556,261.515381,178.212449,-78.117868,90.735831,126.934617,1.072061,26.354225,44.956045,-58.86385,-18.072521,0,-0.03
5236.312,-103.057831,202.056122,261.248657,177.653414,-78.125889,91.44882,126.934617,1.072577,26.231956,44.70337,-58.905046,-18.06152,0,-0.03
5251.811,-102.986382,201.720551,260.778442,176.870983,-78.074037,92.420441,126.934617,1.072806,26.09055,44.47264,-58.90963,-18.06152,0,-0.03
5266.31,-102.928741,201.411041,260.342896,176.148941,-78.021439,93.324512,126.934617,1.073608,25.995382,44.307858,-58.914213,-18.06152,0,-0.03
5282.308,-102.758827,201.034897,259.795441,175.509291,-77.926214,94.079212,126.934617,1.074009,25.84435,44.165019,-58.914213,-18.06152,0,-0.03
5297.059,-102.598503,200.661667,259.260834,175.575239,-77.849666,94.120465,126.934617,1.074239,25.694407,44.011237,-58.91874,-17.907739,0,0.01
5312.461,-102.442711,200.26712,258.696991,175.689888,-77.767905,94.130778,126.934617,1.074582,25.5365,43.835454,-58.91874,-17.731955,0,0.01
5327.961,-102.276939,199.883026,258.149384,175.202816,-77.674227,94.739259,126.934617,1.074697,25.383806,43.681615,-58.91874,-17.698953,0,0.01
5343.462,-102.12207,199.569168,257.71109,174.704973,-77.603753,95.321384,126.934617,1.074812,25.258673,43.571779,-58.932491,-17.698953,0,0.01
5359.069,-101.918694,199.17421,257.151001,174.131041,-77.499589,95.990255,126.934617,1.074812,25.103114,43.450942,-58.937074,-17.698953,0,0.01
5374.537,-101.708107,198.741516,256.551666,173.760681,-77.406541,96.472456,126.934617,1.075213,24.931685,43.297103,-58.955409,-17.633063,0,0.01
5390.476,-101.570778,198.361938,256.033447,173.499642,-77.33114,96.876105,126.934617,1.075327,24.781399,43.110376,-58.964519,-17.545171,0,0.01
5405.981,-101.449242,197.946838,255.481079,173.117135,-77.260723,97.446198,126.934617,1.075671,24.616272,42.868645,-58.982854,-17.457279,0,0.01
5421.181,-101.342697,197.565033,255.015289,172.901302,-77.248404,97.842513,126.934617,1.075671,24.4606,42.615971,-59.04691,-17.325442,0,0.01
5436.678,-101.097557,197.115417,254.459122,172.93906,-77.228236,97.894022,126.934617,1.075671,24.279029,42.451188,-59.138469,-17.149658,0,0.01
5452.213,-100.869888,196.71492,253.975189,173.581174,-77.238779,97.308688,126.934617,1.0759,24.116653,42.30835,-59.234611,-16.853038,0,0.01
5467.883,-100.661942,196.385681,253.534393,174.181519,-77.190708,96.725474,126.934617,1.076129,23.930327,42.220458,-59.271223,-16.534416,0,0.01
5483.217,-100.334618,195.912872,252.890823,175.340383,-77.106597,95.553146,126.934617,1.076129,23.807027,42.187513,-59.289558,-16.237796,0,0.01
5498.145,-99.961235,195.44165,252.244232,176.804978,-77.011315,94.019452,126.934617,1.076129,23.627519,42.187513,-59.317003,-15.798337,0,0.01
5513.354,-99.572548,194.95575,251.586777,178.038499,-76.910073,92.718322,126.934617,1.076359,23.442282,42.187513,-59.353615,-15.402824,0,0.01
5527.336,-99.300087,194.602783,251.097168,178.881262,-76.813243,91.83316,126.934617,1.076359,23.310043,42.187513,-59.358198,-15.128148,0,0.01
5554.838,-99.036919,194.261932,250.626251,179.583308,-76.717215,91.092497,126.934617,1.076416,23.18256,42.187513,-59.362782,-14.886475,0,0.01
5556.335,-99.036919,194.261932,250.626251,179.583308,-76.717215,91.092497,126.934617,1.076416,23.18256,42.187513,-59.362782,-14.886475,0,0.01
5573.437,-99.040588,194.266754,250.62207,179.584396,-76.71796,91.090664,126.934846,1.079739,23.184222,42.187685,-59.364959,-14.8851,0,0.01
5589.463,-99.081001,194.320007,250.576004,179.5966,-76.726153,91.070381,126.937482,1.116179,23.202384,42.189518,-59.389024,-14.870203,0,0.01
5604.964,-99.177925,194.447632,250.465302,179.625936,-76.745749,91.021794,126.943784,1.203555,23.245986,42.193873,-59.446778,-14.834393,0,0.01
5620.515,-99.287926,194.592331,250.339249,179.659339,-76.767979,90.966561,126.953811,1.342211,23.315142,42.200863,-59.538336,-14.777556,0,0.01
5635.692,-99.484322,194.850327,250.113098,179.719156,-76.8078,90.867898,126.967562,1.532089,23.409795,42.210374,-59.663757,-14.699691,0,0.01
5651.388,-99.732903,195.176224,249.824814,179.795245,-76.858335,90.742764,126.979938,1.703976,23.495567,42.218968,-59.77726,-14.629274,0,0.01
5666.492,-99.999214,195.524551,249.513458,179.87735,-76.912537,90.608405,126.997299,1.94416,23.615315,42.231058,-59.935912,-14.530783,0,0.01
5682.655,-100.265671,195.872208,249.19931,179.960085,-76.96691,90.473703,127.014659,2.184516,23.735178,42.24309,-60.094621,-14.432291,0,0.01
5697.148,-100.532066,196.218964,248.882614,-179.956647,-77.021399,90.338657,127.03202,2.424872,23.855041,42.255179,-60.253388,-14.3338,0,0.01
5712.569,-100.731827,196.478409,248.643417,-179.893736,-77.062365,90.237243,127.04938,2.665228,23.974903,42.267211,-60.412154,-14.235251,0,0.01
5727.689,-100.998108,196.823532,248.322266,-179.809454,-77.117025,90.101681,127.062444,2.845538,24.0648,42.276264,-60.531215,-14.161397,0,0.01
5742.842,-101.264313,197.167709,247.99855,-179.724542,-77.171857,89.965776,127.079804,3.085893,24.184663,42.288353,-60.689924,-14.062848,0,0.01
5757.86,-101.530426,197.510925,247.672287,-179.638999,-77.226804,89.829584,127.097165,3.326249,24.304526,42.300385,-60.848691,-13.964357,0,0.01
5772.827,-101.796455,197.85318,247.34346,-179.552826,-77.281865,89.69299,127.114526,3.566605,24.424389,42.312475,-61.0074,-13.865808,0,0.01
5788.539,-101.995911,198.109222,247.095184,-179.487796,-77.323233,89.590316,127.131886,3.806961,24.544251,42.324507,-61.166167,-13.767316,0,0.01
5804.379,-102.261749,198.449768,246.761917,-179.400477,-77.378466,89.45315,127.149247,4.047317,24.664172,42.336596,-61.324933,-13.668768,0,0.01
5818.672,-102.527481,198.789307,246.426117,-179.312528,-77.433814,89.315583,127.162253,4.227569,24.754069,42.345649,-61.443994,-13.594913,0,0.01
5834.0,-102.793091,199.127853,246.087769,-179.223949,-77.489333,89.177615,127.179614,4.467925,24.873931,42.357681,-61.602703,-13.496365,0,0.01
5849.31,-103.058571,199.465378,245.746872,-179.134624,-77.54491,89.039246,127.196974,4.708281,24.993794,42.369771,-61.76147,-13.397873,0,0.01
5864.586,-103.323914,199.801895,245.403442,-179.044613,-77.600602,88.900475,127.214335,4.948636,25.113657,42.381803,-61.920236,-13.299324,0,0.01
5879.591,-103.589111,200.137375,245.057495,-178.953914,-77.656408,88.761304,127.231753,5.188992,25.23352,42.393892,-62.078946,-13.200833,0,0.01
5895.144,-103.78791,200.388306,244.796371,-178.885445,-77.698348,88.656624,127.244759,5.369245,25.323417,42.402945,-62.198006,-13.126921,0,0.01
5910.297,-104.052841,200.721954,244.445984,-178.793428,-77.754384,88.516651,127.26212,5.609601,25.44328,42.414977,-62.356773,-13.02843,0,0.01
5925.51,-104.317596,201.054535,244.093063,-178.700723,-77.810476,88.376219,127.27948,5.849956,25.563142,42.427066,-62.51554,-12.929939,0,0.01
5940.698,-104.582184,201.386063,243.737625,-178.607274,-77.866683,88.235271,127.296841,6.090312,25.683005,42.439098,-62.674249,-12.83139,0,0.01
5956.247,-104.780502,201.634003,243.469391,-178.536628,-77.908968,88.129274,127.314201,6.330668,25.802868,42.451188,-62.833016,-12.732898,0,0.01
5972.331,-105.110802,202.045868,243.019196,-178.417969,-77.979499,87.952001,127.331562,6.571024,25.922731,42.46322,-62.991782,-12.63435,0,0.01
5987.835,-105.30883,202.29216,242.747177,-178.34612,-78.021897,87.845259,127.348923,6.81138,26.042593,42.475309,-63.150491,-12.535858,0,0.01
6002.737,-105.572701,202.619583,242.382309,-178.249691,-78.078506,87.702421,127.361986,6.991689,26.13249,42.484362,-63.269552,-12.461947,0,0.01
6019.052,-105.836349,202.945908,242.014908,-178.152403,-78.135229,87.559066,127.379347,7.232045,26.252353,42.496394,-63.428319,-12.363455,0,0.01
6034.336,-106.099785,203.271088,241.645004,-178.054255,-78.192066,87.415197,127.396707,7.472401,26.372216,42.508484,-63.587028,-12.264906,0,0.01
6049.854,-106.362991,203.595154,241.272598,-177.955248,-78.249018,87.270697,127.414068,7.712757,26.492079,42.520516,-63.745795,-12.166415,0,0.01
6065.421,-106.625961,203.91806,240.89769,-177.855382,-78.306027,87.125624,127.431429,7.953113,26.611942,42.532605,-63.904561,-12.067866,0,0.01
6081.057,-106.888695,204.239822,240.520279,-177.754598,-78.363208,86.979978,127.448789,8.193468,26.731862,42.544695,-64.063271,-11.969375,0,0.01
6097.122,-107.151169,204.56041,240.140366,-177.652898,-78.420447,86.833702,127.46615,8.433824,26.851724,42.556727,-64.222037,-11.870883,0,0.01
6112.121,-107.347862,204.800095,239.85379,-177.576007,-78.463419,86.723579,127.479213,8.614077,26.941621,42.565779,-64.341098,-11.796972,0,0.01
6127.296,-107.609886,205.118637,239.469528,-177.472703,-78.520829,86.576157,127.496574,8.854432,27.061484,42.577869,-64.499864,-11.698423,0,0.01
6142.931,-107.871635,205.435974,239.082764,-177.368425,-78.578354,86.428048,127.513935,9.094788,27.181347,42.589901,-64.658574,-11.599932,0,0.01
6158.181,-108.133102,205.752136,238.693512,-177.263172,-78.635936,86.279308,127.531295,9.335144,27.30121,42.60199,-64.81734,-11.50144,0,0.01
6173.973,-108.394287,206.067078,238.301773,-177.156889,-78.693633,86.129823,127.548656,9.5755,27.421073,42.614022,-64.97605,-11.402891,0,0.01
6189.647,-108.655174,206.380798,237.907562,-177.049631,-78.751445,85.979651,127.566016,9.815856,27.540935,42.626112,-65.134816,-11.3044,0,0.01
6203.788,-108.850639,206.61528,237.610291,-176.968443,-78.794875,85.866492,127.583377,10.056211,27.660798,42.638144,-65.293583,-11.205851,0,0.01
6219.643,-109.110992,206.926865,237.211746,-176.859352,-78.852801,85.715002,127.59644,10.236464,27.750695,42.647197,-65.412643,-11.131997,0,0.02
6233.995,-109.371025,207.237183,236.81073,-176.749172,-78.910842,85.56271,127.613801,10.47682,27.870558,42.659286,-65.571353,-11.033448,0,0.02
6248.926,-109.63073,207.546265,236.407257,-176.637904,-78.968997,85.409673,127.631162,10.717176,27.990421,42.671318,-65.730119,-10.934957,0,0.02
6264.957,-109.890106,207.854065,236.001312,-176.525546,-79.027267,85.255776,127.648522,10.957531,28.110283,42.683408,-65.888886,-10.836408,0,0.02
6282.948,-110.084412,208.084091,235.695251,-176.44052,-79.070983,85.139809,127.665883,11.197887,28.230146,42.69544,-66.047595,-10.737917,0,0.02
6285.947,-110.213837,208.237045,235.490433,-176.383453,-79.100147,85.062288,127.670237,11.25799,28.260112,42.698476,-66.087301,-10.713279,0,0.02
6294.817,-110.343185,208.389679,235.285004,-176.3261,-79.129368,84.984481,127.678889,11.378197,28.320043,42.704493,-66.166656,-10.664005,0,0.02
6310.337,-110.601601,208.69397,234.872314,-176.210592,-79.187867,84.828235,127.69625,11.618553,28.439906,42.716582,-66.325422,-10.565514,0,0.02
6325.602,-110.85965,208.996964,234.457169,-176.093823,-79.246423,84.67113,127.71361,11.858909,28.559769,42.728614,-66.484132,-10.466965,0,0.02
6340.456,-111.052948,209.223343,234.144211,-176.005473,-79.290369,84.552642,127.730971,12.099264,28.679632,42.740703,-66.642898,-10.368473,0,0.02
6355.963,-111.374634,209.599014,233.619553,-175.856618,-79.363765,84.354055,127.748389,12.33962,28.799552,42.752736,-66.801665,-10.269982,0,0.02
6373.995,-111.631554,209.898071,233.197083,-175.736125,-79.422607,84.194143,127.765749,12.579976,28.919414,42.764825,-66.960374,-10.171433,0,0.02
6389.277,-111.823982,210.121475,232.878632,-175.644968,-79.466725,84.073535,127.78311,12.820332,29.039277,42.776857,-67.119141,-10.072942,0,0.02
6403.184,-112.0802,210.418182,232.45192,-175.522183,-79.525683,83.911789,127.796116,13.000584,29.129174,42.78591,-67.238202,-9.99903,0,0.02
6418.66,-112.336014,210.713531,232.022766,-175.39808,-79.584697,83.749069,127.813477,13.24094,29.249037,42.797999,-67.396968,-9.900539,0,0.02
6434.396,-112.591408,211.007523,231.591187,-175.272602,-79.643826,83.58526,127.830838,13.481296,29.3689,42.810031,-67.555677,-9.80199,0,0.02
6450.745,-112.846375,211.30014,231.157211,-175.14575,-79.703013,83.420363,127.848198,13.721652,29.488763,42.822121,-67.714444,-9.703499,0,0.02
6465.821,-113.100914,211.591385,230.720795,-175.017522,-79.762257,83.254377,127.865559,13.962007,29.608625,42.834153,-67.873211,-9.60495,0,0.02
6480.886,-113.355003,211.881256,230.281982,-174.887804,-79.821615,83.087245,127.882919,14.202363,29.728488,42.846242,-68.03192,-9.506458,0,0.02
6496.644,-113.54528,212.097733,229.951294,-174.789542,-79.866134,82.961137,127.90028,14.442719,29.848351,42.858274,-68.190687,-9.40791,0,0.02
6511.892,-113.798592,212.385132,229.508286,-174.657188,-79.925607,82.791886,127.913343,14.623029,29.938248,42.867327,-68.309747,-9.334055,0,0.02
6525.646,-114.05143,212.671127,229.062866,-174.523345,-79.985137,82.621488,127.930704,14.863385,30.058111,42.879417,-68.468514,-9.235507,0,0.02
6541.05,-114.303802,212.955704,228.615051,-174.387898,-80.044725,82.449773,127.948065,15.10374,30.177974,42.891449,-68.627223,-9.137015,0,0.02
6556.553,-114.492767,213.168198,228.277634,-174.285339,-80.089473,82.32017,127.965425,15.344096,30.297836,42.903538,-68.78599,-9.038524,0,0.02
6573.065,-114.807098,213.520554,227.712265,-174.112306,-80.164072,82.102503,127.982786,15.584452,30.417699,42.91557,-68.944699,-8.939975,0,0.02
6588.475,-115.058006,213.800812,227.257309,-173.971988,-80.223889,81.926891,128.000147,15.824808,30.537562,42.92766,-69.103466,-8.841484,0,0.02
6604.037,-115.245857,214.01004,226.914536,-173.865647,-80.268751,81.794252,128.013153,16.00506,30.627459,42.936712,-69.222526,-8.767572,0,0.02
6620.264,-115.495888,214.28775,226.455414,-173.722408,-80.328626,81.616176,128.034868,16.305519,30.777287,42.951781,-69.420942,-8.644443,0,0.02
6635.803,-115.745392,214.563965,225.993927,-173.577392,-80.388614,81.436669,128.052228,16.545875,30.89715,42.963813,-69.579708,-8.545895,0,0.02
6650.228,-115.994377,214.838715,225.53009,-173.430543,-80.448603,81.255614,128.065292,16.726128,30.987105,42.972866,-69.698769,-8.47204,0,0.02
6664.849,-116.242821,215.111969,225.063889,-173.281918,-80.508649,81.073127,128.082652,16.966484,31.106967,42.984955,-69.857535,-8.373492,0,-0.0
6680.062,-116.49073,215.383728,224.595337,-173.131402,-80.568809,80.889036,128.100013,17.206839,31.22683,42.996987,-70.016245,-8.275,0,-0.0
6696.962,-116.738091,215.653976,224.124435,-172.978995,-80.62897,80.703397,128.117374,17.447195,31.346693,43.009077,-70.175011,-8.176452,0,-0.0
6712.493,-116.923248,215.855652,223.76973,-172.863372,-80.674119,80.563023,128.13038,17.627448,31.43659,43.01813,-70.294072,-8.102597,0,-0.0
6726.401,-117.169624,216.123245,223.294739,-172.707528,-80.734394,80.37452,128.14774,17.867803,31.556453,43.030162,-70.452781,-8.004049,0,-0.0
6741.905,-117.415436,216.389297,222.817413,-172.54962,-80.794669,80.18424,128.165101,18.108159,31.676315,43.042251,-70.611548,-7.905557,0,-0.0
6757.15,-117.66066,216.653809,222.337753,-172.389708,-80.855059,79.992242,128.182519,18.348515,31.796178,43.054283,-70.770314,-7.807008,0,-0.0
6774.745,-117.905304,216.916779,221.855789,-172.227675,-80.915449,79.79841,128.19988,18.588871,31.916041,43.066373,-70.929024,-7.708517,0,-0.0
6790.066,-118.149353,217.178177,221.37149,-172.063466,-80.975839,79.602803,128.21724,18.829227,32.035904,43.078405,-71.08779,-7.610025,0,-0.0
6805.307,-118.392792,217.438019,220.884888,-171.897079,-81.036343,79.405247,128.234601,19.069582,32.155767,43.090494,-71.246557,-7.511477,0,-0.0
6820.565,-118.574974,217.631851,220.518417,-171.770799,-81.081721,79.255877,128.247607,19.249892,32.245664,43.099547,-71.365618,-7.437622,0,-0.0
6835.721,-118.817345,217.888931,220.027786,-171.600459,-81.142226,79.05494,128.264968,19.490248,32.365526,43.111579,-71.524327,-7.339074,0,-0.0
6849.817,-119.05909,218.144409,219.534851,-171.427769,-81.202787,78.851941,128.282328,19.730604,32.485389,43.123668,-71.683094,-7.240582,0,-0.0
6864.838,-119.300201,218.3983,219.039612,-171.252673,-81.263406,78.646937,128.299689,19.97096,32.605252,43.135701,-71.84186,-7.142034,0,-0.0
6881.727,-119.480614,218.587646,218.666702,-171.119747,-81.308899,78.49178,128.317107,20.211315,32.725115,43.14779,-72.000569,-7.043542,0,-0.0
6896.957,-119.780487,218.90123,218.042313,-170.895148,-81.384701,78.230511,128.334467,20.451671,32.844977,43.159822,-72.159336,-6.944993,0,-0.0
6912.207,-119.959923,219.08815,217.66597,-170.75844,-81.430194,78.072031,128.351828,20.692027,32.96484,43.171911,-72.318045,-6.846502,0,-0.0
6926.919,-120.198586,219.335968,217.162201,-170.573947,-81.490928,77.858776,128.364834,20.87228,33.054737,43.180964,-72.437106,-6.77259,0,-0.0
6941.429,-120.436577,219.582138,216.656174,-170.386762,-81.551604,77.64323,128.382195,21.112635,33.174657,43.192996,-72.595873,-6.674099,0,-0.0
6956.968,-120.673889,219.82666,216.147873,-170.196941,-81.612338,77.425219,128.399555,21.352991,33.29452,43.205086,-72.754639,-6.57555,0,-0.0
6972.948,-120.910515,220.069534,215.637329,-170.004255,-81.673128,77.204802,128.416916,21.593347,33.414383,43.217175,-72.913349,-6.477059,0,-0.0
6988.953,-121.146439,220.31073,215.124542,-169.80882,-81.733862,76.981865,128.434277,21.833703,33.534246,43.229207,-73.072115,-6.378567,0,-0.0
7004.196,-121.381668,220.550262,214.609512,-169.610462,-81.794653,76.756348,128.451637,22.074058,33.654108,43.241297,-73.230882,-6.280019,0,-0.0
7019.799,-121.557617,220.728806,214.221756,-169.459716,-81.840203,76.585492,128.469055,22.314414,33.773971,43.253329,-73.389591,-6.181527,0,-0.0
7036.232,-121.791595,220.965378,213.70282,-169.256087,-81.900994,76.355278,128.482061,22.494667,33.863868,43.262382,-73.508652,-6.107616,0,-0.0
7051.102,-122.024841,221.200272,213.181656,-169.049421,-81.961784,76.122371,128.499422,22.735023,33.983731,43.274471,-73.667418,-6.009124,0,-0.0
7066.987,-122.257362,221.433456,212.658264,-168.839547,-82.022518,75.886541,128.516783,22.975378,34.103594,43.286503,-73.826128,-5.910575,0,-0.0
7082.715,-122.489136,221.664917,212.132675,-168.626464,-82.083309,75.647847,128.534143,23.215734,34.223457,43.298592,-73.984894,-5.812084,0,-0.0
7097.678,-122.720161,221.894669,211.604874,-168.410058,-82.1441,75.406173,128.551504,23.45609,34.343319,43.310625,-74.143661,-5.713535,0,-0.0
7112.923,-122.950424,222.122696,211.074875,-168.190271,-82.204833,75.161406,128.568864,23.696503,34.463182,43.322714,-74.30237,-5.615044,0,-0.0
7126.933,-123.122627,222.292572,210.675934,-168.023139,-82.250383,74.975767,128.581928,23.876756,34.553079,43.331709,-74.421431,-5.541132,0,-0.01
7142.39,-123.351547,222.517548,210.14209,-167.797222,-82.311117,74.725499,128.599288,24.117111,34.672942,43.343799,-74.580197,-5.442641,0,-0.01
7158.104,-123.579689,222.740784,209.606079,-167.567695,-82.37185,74.471851,128.616649,24.357467,34.792805,43.355888,-74.738964,-5.344092,0,-0.01
7173.229,-123.807045,222.96225,209.067871,-167.334444,-82.432527,74.214879,128.63401,24.597823,34.912668,43.36792,-74.897673,-5.245601,0,-0.01
7189.425,-124.033607,223.181946,208.527512,-167.097411,-82.493146,73.95447,128.65137,24.838179,35.03253,43.38001,-75.05644,-5.147052,0,-0.01
7204.711,-124.202995,223.345566,208.120819,-166.917102,-82.538638,73.7568,128.668731,25.078535,35.15245,43.392042,-75.215206,-5.04856,0,-0.01
7219.388,-124.428146,223.562164,207.576675,-166.673193,-82.5992,73.490031,128.686092,25.31889,35.272313,43.404131,-75.373916,-4.950069,0,-0.01
7235.461,-124.652473,223.776962,207.03038,-166.425275,-82.659762,73.219594,128.703452,25.559246,35.392176,43.416163,-75.532682,-4.85152,0,-0.01
7250.317,-124.875977,223.989975,206.481949,-166.173116,-82.720323,72.945262,128.716458,25.739499,35.482073,43.425216,-75.651743,-4.777666,0,-0.01
7265.004,-125.098648,224.201172,205.931366,-165.916775,-82.78077,72.667034,128.733876,25.979854,35.601936,43.437306,-75.81051,-4.679117,0,-0.01
7280.17,-125.32048,224.410568,205.378662,-165.656021,-82.84116,72.384795,128.751237,26.22021,35.721799,43.449338,-75.969219,-4.580626,0,-0.01
7295.699,-125.541458,224.618149,204.823822,-165.390857,-82.90155,72.098373,128.768598,26.460566,35.841661,43.461427,-76.127986,-4.482077,0,-0.01
7312.27,-125.706635,224.772629,204.406311,-165.188946,-82.946814,71.880821,128.781604,26.640819,35.931558,43.47048,-76.247046,-4.408223,0,-0.01
7326.444,-125.926109,224.97699,203.847778,-164.915645,-83.007031,71.586894,128.798964,26.881232,36.051421,43.482512,-76.405755,-4.309674,0,-0.01
7341.449,-126.144714,225.17952,203.287155,-164.637532,-83.067249,71.288497,128.816325,27.121587,36.171284,43.494601,-76.564522,-4.211182,0,-0.01
7356.945,-126.362434,225.380203,202.724411,-164.354548,-83.127353,70.985517,128.833686,27.361943,36.291147,43.506633,-76.723289,-4.112634,0,-0.01
7372.818,-126.579269,225.579041,202.159592,-164.066522,-83.187399,70.677839,128.851046,27.602299,36.41101,43.518723,-76.881998,-4.014142,0,-0.01
7388.873,-126.795212,225.776001,201.592682,-163.773282,-83.24733,70.365348,128.868407,27.842655,36.530872,43.530755,-77.040765,-3.915594,0,-0.01
7404.879,-127.010254,225.971085,201.023697,-163.474771,-83.307204,70.047872,128.885825,28.083011,36.650735,43.542844,-77.199531,-3.817102,0,-0.01
7421.162,-127.170937,226.11618,200.595596,-163.247364,-83.352009,69.806428,128.903185,28.323366,36.770598,43.554876,-77.35824,-3.718611,0,-0.01
7434.42,-127.384377,226.307968,200.022995,-162.939227,-83.411711,69.479956,128.916191,28.503619,36.860495,43.563929,-77.477301,-3.644699,0,-0.01
7450.481,-127.596893,226.497879,199.448349,-162.625476,-83.471299,69.148099,128.933552,28.743975,36.980358,43.576019,-77.636068,-3.546208,0,-0.01
7465.15,-127.808472,226.685883,198.871643,-162.305823,-83.530829,68.810742,128.950913,28.984331,37.10022,43.588051,-77.794777,-3.447659,0,-0.01
7481.513,-127.966545,226.825638,198.437775,-162.062201,-83.575348,68.554056,128.968273,29.224686,37.220083,43.60014,-77.953544,-3.349167,0,-0.01
7495.592,-128.176468,227.010315,197.857498,-161.732005,-83.634592,68.206729,128.985634,29.465042,37.340003,43.612172,-78.11231,-3.250619,0,-0.01
7511.096,-128.385452,227.193054,197.275192,-161.395507,-83.693779,67.853444,128.998697,29.645295,37.4299,43.621225,-78.231371,-3.176764,0,-0.01
7526.643,-128.59346,227.373871,196.690872,-161.052592,-83.752736,67.494084,129.016058,29.88565,37.549763,43.633314,-78.39008,-3.078216,0,-0.01
7541.638,-128.800507,227.552765,196.104523,-160.703088,-83.811636,67.12848,129.033419,30.126006,37.669626,43.645347,-78.548847,-2.979724,0,-0.01
7557.138,-129.006577,227.729706,195.51619,-160.346823,-83.870364,66.756401,129.050779,30.366362,37.789489,43.657436,-78.707613,-2.881176,0,-0.01
7573.139,-129.211655,227.904709,194.925842,-159.983625,-83.92892,66.377676,129.06814,30.606718,37.909351,43.669468,-78.866323,-2.782684,0,-0.01
7589.211,-129.415741,228.077744,194.333511,-159.613265,-83.987305,65.99219,129.0855,30.847074,38.029214,43.681557,-79.025089,-2.684135,0,-0.02
7605.184,-129.618835,228.248825,193.739197,-159.235571,-84.045517,65.599714,129.102861,31.087429,38.149077,43.69359,-79.183856,-2.585644,0,-0.02
7620.181,-129.770493,228.375839,193.29216,-158.947373,-84.089062,65.300687,129.120222,31.327785,38.26894,43.705679,-79.342565,-2.487152,0,-0.02
7636.18,-129.971802,228.543457,192.694397,-158.55633,-84.146988,64.895492,129.137582,31.568141,38.388803,43.717711,-79.501332,-2.388604,0,-0.02
7651.181,-130.172089,228.709106,192.094666,-158.157494,-84.204685,64.482733,129.150646,31.748451,38.4787,43.726764,-79.620392,-2.314692,0,-0.02
7665.899,-130.371353,228.872757,191.492981,-157.750522,-84.262153,64.062239,129.168006,31.988807,38.598562,43.738853,-79.779102,-2.216201,0,-0.02
7682.117,-130.56958,229.034409,190.889359,-157.335185,-84.319449,63.633781,129.185367,32.229162,38.718425,43.750885,-79.937868,-2.117709,0,-0.02
7696.388,-130.766754,229.194061,190.283798,-156.911368,-84.376515,63.19713,129.202728,32.469518,38.838288,43.762975,-80.096635,-2.019161,0,-0.02
7713.185,-130.962875,229.3517,189.6763,-156.478785,-84.433295,62.751999,129.220088,32.709874,38.958151,43.775007,-80.255344,-1.920669,0,-0.02
7728.364,-131.109268,229.468613,189.219421,-156.148474,-84.475751,62.412522,129.237449,32.95023,39.078013,43.787096,-80.414111,-1.82212,0,-0.02
7742.307,-131.303528,229.622726,188.608582,-155.699963,-84.53213,61.952093,129.250455,33.130482,39.167911,43.796149,-80.533172,-1.748266,0,-0.02
7757.705,-131.496719,229.774796,187.995819,-155.242055,-84.58828,61.482611,129.267873,33.370838,39.287773,43.808181,-80.691938,-1.649717,0,-0.02
7773.21,-131.688812,229.924835,187.381165,-154.774464,-84.644086,61.00379,129.285234,33.611194,39.407636,43.820271,-80.850647,-1.551226,0,-0.02
7788.742,-131.879822,230.072845,186.764618,-154.296904,-84.699663,60.515401,129.302594,33.85155,39.527556,43.832303,-81.009414,-1.452677,0,-0.02
7805.302,-132.069733,230.218781,186.146194,-153.809202,-84.754896,60.0171,129.319955,34.091906,39.647419,43.844392,-81.168123,-1.354186,0,-0.02
7822.366,-132.258545,230.362686,185.525894,-153.310958,-84.809843,59.508714,129.337315,34.332261,39.767282,43.856481,-81.32689,-1.255637,0,-0.02
7837.201,-132.446091,230.50441,184.90416,-152.802401,-84.864389,58.990245,129.354676,34.572445,39.88703,43.868514,-81.485542,-1.157203,0,-0.02
7852.412,-132.579636,230.604568,184.458099,-152.431697,-84.903235,58.612723,129.370833,34.796644,39.998814,43.879744,-81.633594,-1.065358,0,-0.02
7867.493,-132.726486,230.713989,183.964203,-152.015501,-84.945978,58.189135,129.380803,34.934211,40.067454,43.886676,-81.724465,-1.008921,0,-0.02
7882.652,-132.833267,230.793045,183.602875,-151.707135,-84.976975,57.875556,129.39083,35.072867,40.13661,43.893609,-81.816024,-0.952084,0,-0.02
7896.636,-132.90036,230.842529,183.374832,-151.510725,-84.996455,57.675937,129.397132,35.160243,40.180155,43.898021,-81.873778,-0.916274,0,-0.02
7911.839,-132.924835,230.860535,183.291489,-151.438704,-85.003617,57.602656,129.399424,35.192156,40.196083,43.899625,-81.894806,-0.903211,0,-0.02
7926.843,-132.930832,230.864944,183.271027,-151.420942,-85.005336,57.584665,129.399997,35.200006,40.199979,43.900026,-81.90002,-0.900002,0,-0.02
7942.16,-132.930832,230.864944,183.271027,-151.420942,-85.005336,57.584665,129.399997,35.200006,40.199979,43.900026,-81.90002,-0.900002,0,-0.02
7957.648,-132.930832,230.864944,183.271027,-151.420942,-85.005336,57.584665,129.399997,35.200006,40.199979,43.900026,-81.90002,-0.900002,0,-0.02
7973.32,-132.930832,230.864944,183.271027,-151.420942,-85.005336,57.584665,129.399997,35.200006,40.199979,43.900026,-81.90002,-0.900002,0,-0.02
7989.303,-132.930832,230.864944,183.271027,-151.420942,-85.005336,57.584665,129.399997,35.200006,40.199979,43.900026,-81.90002,-0.900002,0,-0.02
8005.574,-132.930832,230.864944,183.271027,-151.420942,-85.005336,57.584665,129.399997,35.200006,40.199979,43.900026,-81.90002,-0.900002,0,-0.02
8020.703,-132.930832,230.864944,183.271027,-151.420942,-85.005336,57.584665,129.399997,35.200006,40.199979,43.900026,-81.90002,-0.900002,0,-0.02
8036.067,-132.930832,230.864944,183.271027,-151.420942,-85.005336,57.584665,129.399997,35.200006,40.199979,43.900026,-81.90002,-0.900002,0,-0.02
8051.461,-132.930832,230.864944,183.271027,-151.420942,-85.005336,57.584665,129.399997,35.200006,40.199979,43.900026,-81.90002,-0.900002,0,0.03
8066.486,-132.930832,230.864944,183.271027,-151.420942,-85.005336,57.584665,129.399997,35.200006,40.199979,43.900026,-81.90002,-0.900002,0,0.03
8081.451,-132.930832,230.864944,183.271027,-151.420942,-85.005336,57.584665,129.399997,35.200006,40.199979,43.900026,-81.90002,-0.900002,0,0.03
8097.066,-132.930832,230.864944,183.271027,-151.420942,-85.005336,57.584665,129.399997,35.200006,40.199979,43.900026,-81.90002,-0.900002,0,0.03
8112.071,-132.930832,230.864944,183.271027,-151.420942,-85.005336,57.584665,129.399997,35.200006,40.199979,43.900026,-81.90002,-0.900002,0,0.03
8127.239,-132.930832,230.864944,183.271027,-151.420942,-85.005336,57.584665,129.399997,35.200006,40.199979,43.900026,-81.90002,-0.900002,0,0.03
8142.801,-132.930832,230.864944,183.271027,-151.420942,-85.005336,57.584665,129.399997,35.200006,40.199979,43.900026,-81.90002,-0.900002,0,0.03
8158.501,-132.930832,230.864944,183.271027,-151.420942,-85.005336,57.584665,129.399997,35.200006,40.199979,43.900026,-81.90002,-0.900002,0,0.03
8173.505,-132.930832,230.864944,183.271027,-151.420942,-85.005336,57.584665,129.399997,35.200006,40.199979,43.900026,-81.90002,-0.900002,0,0.03
8190.802,-132.930832,230.864944,183.271027,-151.420942,-85.005336,57.584665,129.399997,35.200006,40.199979,43.900026,-81.90002,-0.900002,0,0.03
8206.502,-132.930832,230.864944,183.271027,-151.420942,-85.005336,57.584665,129.399997,35.200006,40.199979,43.900026,-81.90002,-0.900002,0,0.03
8222.522,-132.930832,230.864944,183.271027,-151.420942,-85.005336,57.584665,129.399997,35.200006,40.199979,43.900026,-81.90002,-0.900002,0,0.03
8237.299,-132.930832,230.864944,183.271027,-151.420942,-85.005336,57.584665,129.399997,35.200006,40.199979,43.900026,-81.90002,-0.900002,0,0.03
8252.698,-132.930832,230.864944,183.271027,-151.420942,-85.005336,57.584665,129.399997,35.200006,40.199979,43.900026,-81.90002,-0.900002,0,0.03
8267.742,-132.930832,230.864944,183.271027,-151.420942,-85.005336,57.584665,129.399997,35.200006,40.199979,43.900026,-81.90002,-0.900002,0,0.03
8282.939,-132.930832,230.864944,183.271027,-151.420942,-85.005336,57.584665,129.399997,35.200006,40.199979,43.900026,-81.90002,-0.900002,0,0.03
8297.797,-132.930832,230.864944,183.271027,-151.420942,-85.005336,57.584665,129.399997,35.200006,40.199979,43.900026,-81.90002,-0.900002,0,0.03
8312.306,-132.930832,230.864944,183.271027,-151.420942,-85.005336,57.584665,129.399997,35.200006,40.199979,43.900026,-81.90002,-0.900002,0,0.03
8327.487,-132.930832,230.864944,183.271027,-151.420942,-85.005336,57.584665,129.399997,35.200006,40.199979,43.900026,-81.90002,-0.900002,0,0.03
8342.975,-132.930832,230.864944,183.271027,-151.420942,-85.005336,57.584665,129.399997,35.200006,40.199979,43.900026,-81.90002,-0.900002,0,0.03
8358.39,-132.930832,230.864944,183.271027,-151.420942,-85.005336,57.584665,129.399997,35.200006,40.199979,43.900026,-81.90002,-0.900002,0,0.03
8373.964,-132.930832,230.864944,183.271027,-151.420942,-85.005336,57.584665,129.399997,35.200006,40.199979,43.900026,-81.90002,-0.900002,0,0.03
8388.969,-132.930832,230.864944,183.271027,-151.420942,-85.005336,57.584665,129.399997,35.200006,40.199979,43.900026,-81.90002,-0.900002,0,0.03
8405.282,-132.930832,230.864944,183.271027,-151.420942,-85.005336,57.584665,129.399997,35.200006,40.199979,43.900026,-81.90002,-0.900002,0,0.03
8420.819,-132.930832,230.864944,183.271027,-151.420942,-85.005336,57.584665,129.399997,35.200006,40.199979,43.900026,-81.90002,-0.900002,0,0.03
8435.568,-132.930832,230.864944,183.271027,-151.420942,-85.005336,57.584665,129.399997,35.200006,40.199979,43.900026,-81.90002,-0.900002,0,0.03
8451.068,-132.930832,230.864944,183.271027,-151.420942,-85.005336,57.584665,129.399997,35.200006,40.199979,43.900026,-81.90002,-0.900002,0,0.03
8465.517,-132.930832,230.864944,183.271027,-151.420942,-85.005336,57.584665,129.399997,35.200006,40.199979,43.900026,-81.90002,-0.900002,0,0.03
8480.949,-132.930832,230.864944,183.271027,-151.420942,-85.005336,57.584665,129.399997,35.200006,40.199979,43.900026,-81.90002,-0.900002,0,0.03
8496.817,-132.930832,230.864944,183.271027,-151.420942,-85.005336,57.584665,129.399997,35.200006,40.199979,43.900026,-81.90002,-0.900002,0,0.03
8511.819,-132.930832,230.864944,183.271027,-151.420942,-85.005336,57.584665,129.399997,35.200006,40.199979,43.900026,-81.90002,-0.900002,0,0.02
8527.286,-132.930832,230.864944,183.271027,-151.420942,-85.005336,57.584665,129.399997,35.200006,40.199979,43.900026,-81.90002,-0.900002,0,0.02
8544.283,-132.930832,230.864944,183.271027,-151.420942,-85.005336,57.584665,129.399997,35.200006,40.199979,43.900026,-81.90002,-0.900002,0,0.02
8559.601,-132.930832,230.864944,183.271027,-151.420942,-85.005336,57.584665,129.399997,35.200006,40.199979,43.900026,-81.90002,-0.900002,0,0.02
8575.433,-132.930832,230.864944,183.271027,-151.420942,-85.005336,57.584665,129.399997,35.200006,40.199979,43.900026,-81.90002,-0.900002,0,0.02
8591.001,-132.930832,230.864944,183.271027,-151.420942,-85.005336,57.584665,129.399997,35.200006,40.199979,43.900026,-81.90002,-0.900002,0,0.02
8605.999,-132.930832,230.864944,183.271027,-151.420942,-85.005336,57.584665,129.399997,35.200006,40.199979,43.900026,-81.90002,-0.900002,0,0.02
8621.016,-132.930832,230.864944,183.271027,-151.420942,-85.005336,57.584665,129.399997,35.200006,40.199979,43.900026,-81.90002,-0.900002,0,0.02
8636.292,-132.930832,230.864944,183.271027,-151.420942,-85.005336,57.584665,129.399997,35.200006,40.199979,43.900026,-81.90002,-0.900002,0,0.02
8651.818,-132.930832,230.864944,183.271027,-151.420942,-85.005336,57.584665,129.399997,35.200006,40.199979,43.900026,-81.90002,-0.900002,0,0.02
8666.043,-132.930832,230.864944,183.271027,-151.420942,-85.005336,57.584665,129.399997,35.200006,40.199979,43.900026,-81.90002,-0.900002,0,0.02
8681.541,-132.930832,230.864944,183.271027,-151.420942,-85.005336,57.584665,129.399997,35.200006,40.199979,43.900026,-81.90002,-0.900002,0,0.02
8697.026,-132.930832,230.864944,183.271027,-151.420942,-85.005336,57.584665,129.399997,35.200006,40.199979,43.900026,-81.90002,-0.900002,0,0.02
8712.597,-132.930832,230.864944,183.271027,-151.420942,-85.005336,57.584665,129.399997,35.200006,40.199979,43.900026,-81.90002,-0.900002,0,0.02
8727.51,-132.930832,230.864944,183.271027,-151.420942,-85.005336,57.584665,129.399997,35.200006,40.199979,43.900026,-81.90002,-0.900002,0,0.02
8743.201,-132.930832,230.864944,183.271027,-151.420942,-85.005336,57.584665,129.399997,35.200006,40.199979,43.900026,-81.90002,-0.900002,0,0.02
8758.2,-132.930832,230.864944,183.271027,-151.420942,-85.005336,57.584665,129.399997,35.200006,40.199979,43.900026,-81.90002,-0.900002,0,0.02
8775.324,-132.930832,230.864944,183.271027,-151.420942,-85.005336,57.584665,129.399997,35.200006,40.199979,43.900026,-81.90002,-0.900002,0,0.02
8790.572,-132.930832,230.864944,183.271027,-151.420942,-85.005336,57.584665,129.399997,35.200006,40.199979,43.900026,-81.90002,-0.900002,0,0.02
8806.095,-132.930832,230.864944,183.271027,-151.420942,-85.005336,57.584665,129.399997,35.200006,40.199979,43.900026,-81.90002,-0.900002,0,0.02
8809.248,-132.930832,230.864944,183.271027,-151.420942,-85.005336,57.584665,129.399997,35.200006,40.199979,43.900026,-81.90002,-0.900002,0,0.02
8820.249,-132.930832,230.864944,183.271027,-151.420942,-85.005336,57.584665,129.399997,35.200006,40.199979,43.900026,-81.90002,-0.900002,0,0.02
8835.254,-132.930832,230.864944,183.271027,-151.420942,-85.005336,57.584665,129.399997,35.200006,40.199979,43.900026,-81.90002,-0.900002,0,0.02
8851.201,-132.930832,230.864944,183.271027,-151.420942,-85.005336,57.584665,129.399997,35.200006,40.199979,43.900026,-81.90002,-0.900002,0,0.02
8864.939,-132.930832,230.864944,183.271027,-151.420942,-85.005336,57.584665,129.399997,35.200006,40.199979,43.900026,-81.90002,-0.900002,0,0.02
8881.442,-132.930832,230.864944,183.271027,-151.420942,-85.005336,57.584665,129.399997,35.200006,40.199979,43.900026,-81.90002,-0.900002,0,0.02
8896.938,-132.930832,230.864944,183.271027,-151.420942,-85.005336,57.584665,129.399997,35.200006,40.199979,43.900026,-81.90002,-0.900002,0,0.02
8912.938,-132.930832,230.864944,183.271027,-151.420942,-85.005336,57.584665,129.399997,35.200006,40.199979,43.900026,-81.90002,-0.900002,0,0.02
8927.396,-132.930832,230.864944,183.271027,-151.420942,-85.005336,57.584665,129.399997,35.200006,40.199979,43.900026,-81.90002,-0.900002,0,0.02
8942.993,-132.930832,230.864944,183.271027,-151.420942,-85.005336,57.584665,129.399997,35.200006,40.199979,43.900026,-81.90002,-0.900002,0,0.02
8958.424,-132.930832,230.864944,183.271027,-151.420942,-85.005336,57.584665,129.399997,35.200006,40.199979,43.900026,-81.90002,-0.900002,0,0.02
8973.923,-132.930832,230.864944,183.271027,-151.420942,-85.005336,57.584665,129.399997,35.200006,40.199979,43.900026,-81.90002,-0.900002,0,-0.02
8989.378,-132.930832,230.864944,183.271027,-151.420942,-85.005336,57.584665,129.399997,35.200006,40.199979,43.900026,-81.90002,-0.900002,0,-0.02
9005.88,-132.930832,230.864944,183.271027,-151.420942,-85.005336,57.584665,129.399997,35.200006,40.199979,43.900026,-81.90002,-0.900002,0,-0.02
9021.484,-132.930832,230.864944,183.271027,-151.420942,-85.005336,57.584665,129.399997,35.200006,40.199979,43.900026,-81.90002,-0.900002,0,-0.02
9037.0,-132.930832,230.864944,183.271027,-151.420942,-85.005336,57.584665,129.399997,35.200006,40.199979,43.900026,-81.90002,-0.900002,0,-0.02
9052.076,-132.930832,230.864944,183.271027,-151.420942,-85.005336,57.584665,129.399997,35.200006,40.199979,43.900026,-81.90002,-0.900002,0,-0.02
9067.757,-132.930832,230.864944,183.271027,-151.420942,-85.005336,57.584665,129.399997,35.200006,40.199979,43.900026,-81.90002,-0.900002,0,-0.02
9083.805,-132.930832,230.864944,183.271027,-151.420942,-85.005336,57.584665,129.399997,35.200006,40.199979,43.900026,-81.90002,-0.900002,0,-0.02
9099.4,-132.930832,230.864944,183.271027,-151.420942,-85.005336,57.584665,129.399997,35.200006,40.199979,43.900026,-81.90002,-0.900002,0,-0.02
9114.208,-132.930832,230.864944,183.271027,-151.420942,-85.005336,57.584665,129.399997,35.200006,40.199979,43.900026,-81.90002,-0.900002,0,-0.02
9128.824,-132.930832,230.864944,183.271027,-151.420942,-85.005336,57.584665,129.399997,35.200006,40.199979,43.900026,-81.90002,-0.900002,0,-0.02
9144.521,-132.930832,230.864944,183.271027,-151.420942,-85.005336,57.584665,129.399997,35.200006,40.199979,43.900026,-81.90002,-0.900002,0,-0.02
9159.456,-132.930832,230.864944,183.271027,-151.420942,-85.005336,57.584665,129.399997,35.200006,40.199979,43.900026,-81.90002,-0.900002,0,-0.02
9174.843,-132.930832,230.864944,183.271027,-151.420942,-85.005336,57.584665,129.399997,35.200006,40.199979,43.900026,-81.90002,-0.900002,0,-0.02
9190.348,-132.930832,230.864944,183.271027,-151.420942,-85.005336,57.584665,129.399997,35.200006,40.199979,43.900026,-81.90002,-0.900002,0,-0.02
9206.45,-132.930832,230.864944,183.271027,-151.420942,-85.005336,57.584665,129.399997,35.200006,40.199979,43.900026,-81.90002,-0.900002,0,-0.02
9222.196,-132.930832,230.864944,183.271027,-151.420942,-85.005336,57.584665,129.399997,35.200006,40.199979,43.900026,-81.90002,-0.900002,0,-0.02
9237.537,-132.930832,230.864944,183.271027,-151.420942,-85.005336,57.584665,129.399997,35.200006,40.199979,43.900026,-81.90002,-0.900002,0,-0.02
9253.113,-132.930832,230.864944,183.271027,-151.420942,-85.005336,57.584665,129.399997,35.200006,40.199979,43.900026,-81.90002,-0.900002,0,-0.02
9269.225,-132.930832,230.864944,183.271027,-151.420942,-85.005336,57.584665,129.399997,35.200006,40.199979,43.900026,-81.90002,-0.900002,0,-0.02
9283.245,-132.930832,230.864944,183.271027,-151.420942,-85.005336,57.584665,129.399997,35.200006,40.199979,43.900026,-81.90002,-0.900002,0,-0.02
9298.41,-132.930832,230.864944,183.271027,-151.420942,-85.005336,57.584665,129.399997,35.200006,40.199979,43.900026,-81.90002,-0.900002,0,-0.02
9313.799,-132.930832,230.864944,183.271027,-151.420942,-85.005336,57.584665,129.399997,35.200006,40.199979,43.900026,-81.90002,-0.900002,0,-0.02
9330.783,-132.930832,230.864944,183.271027,-151.420942,-85.005336,57.584665,129.399997,35.200006,40.199979,43.900026,-81.90002,-0.900002,0,-0.02
9345.793,-132.930832,230.864944,183.271027,-151.420942,-85.005336,57.584665,129.399997,35.200006,40.199979,43.900026,-81.90002,-0.900002,0,-0.02
9361.292,-132.930832,230.864944,183.271027,-151.420942,-85.005336,57.584665,129.399997,35.200006,40.199979,43.900026,-81.90002,-0.900002,0,-0.02
9376.222,-132.930832,230.864944,183.271027,-151.420942,-85.005336,57.584665,129.399997,35.200006,40.199979,43.900026,-81.90002,-0.900002,0,-0.02
9390.78,-132.930832,230.864944,183.271027,-151.420942,-85.005336,57.584665,129.399997,35.200006,40.199979,43.900026,-81.90002,-0.900002,0,-0.02
9405.786,-132.930832,230.864944,183.271027,-151.420942,-85.005336,57.584665,129.399997,35.200006,40.199979,43.900026,-81.90002,-0.900002,0,-0.02
9422.028,-132.930832,230.864944,183.271027,-151.420942,-85.005336,57.584665,129.399997,35.200006,40.199979,43.900026,-81.90002,-0.900002,0,-0.02
9438.504,-132.930832,230.864944,183.271027,-151.420942,-85.005336,57.584665,129.399997,35.200006,40.199979,43.900026,-81.90002,-0.900002,0,0.01
9454.004,-132.930832,230.864944,183.271027,-151.420942,-85.005336,57.584665,129.399997,35.200006,40.199979,43.900026,-81.90002,-0.900002,0,0.01
9469.588,-132.930832,230.864944,183.271027,-151.420942,-85.005336,57.584665,129.399997,35.200006,40.199979,43.900026,-81.90002,-0.900002,0,0.01
9484.299,-132.930832,230.864944,183.271027,-151.420942,-85.005336,57.584665,129.399997,35.200006,40.199979,43.900026,-81.90002,-0.900002,0,0.01
9499.175,-132.930832,230.864944,183.271027,-151.420942,-85.005336,57.584665,129.399997,35.200006,40.199979,43.900026,-81.90002,-0.900002,0,0.01
