BAEK26/lfd/data/sepisode2/dddd.csv
timestamp,x,y,z,roll,pitch,yaw,joint1,joint2,joint3,joint4,joint5,joint6,gripper,scale
127.614,-133.77066,230.903793,183.558701,-157.249986,-85.542026,64.266212,129.398507,35.195823,40.186114,43.055429,-82.14112,-1.505103,0,0.04
129.616,-133.77066,230.903793,183.558701,-157.249986,-85.542026,64.266212,129.398507,35.195823,40.186114,43.055429,-82.14112,-1.505103,0,0.04
141.105,-133.77066,230.903809,183.558731,-157.380047,-85.546208,64.396675,129.398507,35.195823,40.186114,43.055429,-82.14112,-1.516104,0,0.04
155.656,-133.77066,230.903809,183.558731,-157.380047,-85.546208,64.396675,129.398507,35.195823,40.186114,43.055429,-82.14112,-1.516104,0,0.04
170.66,-133.77066,230.903809,183.558731,-157.380047,-85.546208,64.396675,129.398507,35.195823,40.186114,43.055429,-82.14112,-1.516104,0,0.04
186.02,-133.77066,230.903809,183.558731,-157.380047,-85.546208,64.396675,129.398507,35.195823,40.186114,43.055429,-82.14112,-1.516104,0,0.04
201.892,-133.77066,230.903809,183.558731,-157.380047,-85.546208,64.396675,129.398507,35.195823,40.186114,43.055429,-82.14112,-1.516104,0,0.04
216.896,-133.77066,230.903809,183.558731,-157.380047,-85.546208,64.396675,129.398507,35.195823,40.186114,43.055429,-82.14112,-1.516104,0,0.02
235.268,-133.77066,230.903809,183.558731,-157.380047,-85.546208,64.396675,129.398507,35.195823,40.186114,43.055429,-82.14112,-1.516104,0,0.02
250.382,-133.77066,230.903809,183.558731,-157.380047,-85.546208,64.396675,129.398507,35.195823,40.186114,43.055429,-82.14112,-1.516104,0,0.02
265.376,-133.77066,230.903809,183.558731,-157.380047,-85.546208,64.396675,129.398507,35.195823,40.186114,43.055429,-82.14112,-1.516104,0,0.02
280.947,-133.77066,230.903809,183.558731,-157.380047,-85.546208,64.396675,129.398507,35.195823,40.186114,43.055429,-82.14112,-1.516104,0,0.02
296.562,-133.77066,230.903809,183.558731,-157.380047,-85.546208,64.396675,129.398507,35.195823,40.186114,43.055429,-82.14112,-1.516104,0,0.02
312.04,-133.77066,230.903809,183.558731,-157.380047,-85.546208,64.396675,129.398507,35.195823,40.186114,43.055429,-82.14112,-1.516104,0,0.02
326.32,-133.77066,230.903809,183.558731,-157.380047,-85.546208,64.396675,129.398507,35.195823,40.186114,43.055429,-82.14112,-1.516104,0,0.02
340.78,-133.77066,230.903809,183.558731,-157.380047,-85.546208,64.396675,129.398507,35.195823,40.186114,43.055429,-82.14112,-1.516104,0,0.02
356.285,-133.77066,230.903809,183.558731,-157.380047,-85.546208,64.396675,129.398507,35.195823,40.186114,43.055429,-82.14112,-1.516104,0,0.02
372.816,-133.77066,230.903809,183.558731,-157.380047,-85.546208,64.396675,129.398507,35.195823,40.186114,43.055429,-82.14112,-1.516104,0,0.02
388.421,-133.77066,230.903809,183.558731,-157.380047,-85.546208,64.396675,129.398507,35.195823,40.186114,43.055429,-82.14112,-1.516104,0,0.02
403.91,-133.77066,230.903809,183.558731,-157.380047,-85.546208,64.396675,129.398507,35.195823,40.186114,43.055429,-82.14112,-1.516104,0,0.02
418.875,-133.77066,230.903809,183.558731,-157.380047,-85.546208,64.396675,129.398507,35.195823,40.186114,43.055429,-82.14112,-1.516104,0,0.02
433.153,-133.77066,230.903809,183.558731,-157.380047,-85.546208,64.396675,129.398507,35.195823,40.186114,43.055429,-82.14112,-1.516104,0,0.02
448.672,-133.77066,230.903809,183.558731,-157.380047,-85.546208,64.396675,129.398507,35.195823,40.186114,43.055429,-82.14112,-1.516104,0,0.02
465.774,-133.77066,230.903809,183.558731,-157.380047,-85.546208,64.396675,129.398507,35.195823,40.186114,43.055429,-82.14112,-1.516104,0,0.02
480.711,-133.77066,230.903809,183.558731,-157.380047,-85.546208,64.396675,129.398507,35.195823,40.186114,43.055429,-82.14112,-1.516104,0,0.02
494.71,-133.77066,230.903809,183.558731,-157.380047,-85.546208,64.396675,129.398507,35.195823,40.186114,43.055429,-82.14112,-1.516104,0,0.02
510.714,-133.77066,230.903809,183.558731,-157.380047,-85.546208,64.396675,129.398507,35.195823,40.186114,43.055429,-82.14112,-1.516104,0,0.02
525.711,-133.77066,230.903809,183.558731,-157.380047,-85.546208,64.396675,129.398507,35.195823,40.186114,43.055429,-82.14112,-1.516104,0,0.02
541.209,-133.77066,230.903809,183.558731,-157.380047,-85.546208,64.396675,129.398507,35.195823,40.186114,43.055429,-82.14112,-1.516104,0,0.02
556.923,-133.77066,230.903809,183.558731,-157.380047,-85.546208,64.396675,129.398507,35.195823,40.186114,43.055429,-82.14112,-1.516104,0,0.02
571.928,-133.77066,230.903809,183.558762,-157.510395,-85.550448,64.527424,129.398507,35.195823,40.186114,43.055429,-82.14112,-1.527104,0,0.02
589.38,-133.77066,230.903809,183.558792,-157.640972,-85.554631,64.658402,129.398507,35.195823,40.186114,43.055429,-82.14112,-1.538105,0,0.02
604.388,-133.77066,230.903809,183.558823,-157.771778,-85.558814,64.789609,129.398507,35.195823,40.186114,43.055429,-82.14112,-1.549049,0,0.02
619.626,-133.77066,230.903809,183.558823,-157.771778,-85.558814,64.789609,129.398507,35.195823,40.186114,43.055429,-82.14112,-1.549049,0,0.02
635.652,-133.77066,230.903809,183.558823,-157.771778,-85.558814,64.789609,129.398507,35.195823,40.186114,43.055429,-82.14112,-1.549049,0,0.02
650.709,-133.77066,230.903809,183.558823,-157.771778,-85.558814,64.789609,129.398507,35.195823,40.186114,43.055429,-82.14112,-1.549049,0,0.02
667.026,-133.77066,230.903809,183.558823,-157.771778,-85.558814,64.789609,129.398507,35.195823,40.186114,43.055429,-82.14112,-1.549049,0,0.02
680.968,-133.724182,230.901123,183.55658,-157.748574,-85.555777,64.72263,129.398507,35.195823,40.186114,43.143321,-82.14112,-1.549049,0,0.01
695.645,-133.573151,230.892151,183.549255,-157.673516,-85.546037,64.505422,129.398507,35.195823,40.186114,43.242213,-82.14112,-1.549049,0,0.01
710.786,-133.445358,230.884277,183.543045,-157.610491,-85.537729,64.322133,129.398507,35.195823,40.186114,43.36305,-82.14112,-1.549049,0,0.01
726.823,-133.329208,230.876877,183.537384,-157.553596,-85.530166,64.155918,129.398507,35.195823,40.186114,43.472886,-82.14112,-1.549049,0,0.01
742.6,-133.271133,230.873093,183.534546,-157.525292,-85.526384,64.072953,129.398507,35.195823,40.186114,43.527833,-82.14112,-1.549049,0,0.01
757.6,-133.259521,230.87233,183.533981,-157.51962,-85.525639,64.056338,129.398507,35.195823,40.186114,43.538834,-82.14112,-1.549049,0,0.01
772.424,-133.259521,230.87233,183.533981,-157.51962,-85.525639,64.056338,129.398507,35.195823,40.186114,43.538834,-82.14112,-1.549049,0,0.01
788.378,-133.258667,230.873199,183.548752,-157.453042,-85.538359,63.989187,129.398507,35.195823,40.186114,43.538834,-82.154871,-1.549049,0,0.01
802.308,-133.258102,230.873779,183.558594,-157.408409,-85.546781,63.944267,129.398507,35.195823,40.186114,43.538834,-82.163981,-1.549049,0,0.01
817.812,-133.234024,230.873108,183.57222,-157.329856,-85.557954,63.843312,129.398507,35.195823,40.186114,43.560778,-82.177732,-1.549049,0,0.01
833.457,-133.13913,230.868896,183.602112,-157.126284,-85.581445,63.550989,129.398507,35.195823,40.186114,43.64867,-82.209761,-1.549049,0,0.01
848.966,-132.996124,230.863052,183.659744,-156.757414,-85.627167,63.048562,129.398507,35.195709,40.186114,43.824453,-82.301319,-1.538105,0,0.01
866.542,-132.743942,230.853378,183.790222,-155.007887,-85.700792,61.061602,129.398507,35.195709,40.186114,44.011237,-82.402045,-1.472158,0,0.01
881.237,-132.552155,230.84494,183.884735,-153.708075,-85.75127,59.581308,129.398507,35.195594,40.186114,44.252911,-82.548551,-1.406268,0,0.01
896.324,-132.237991,230.831497,184.071854,-151.744549,-85.872451,57.32437,129.398393,35.19548,40.186114,44.47264,-82.685831,-1.362322,0,0.01
911.57,-131.795319,230.805222,184.272049,-148.947484,-85.972718,54.111796,129.398393,35.195365,40.186114,44.879154,-82.891867,-1.263429,0,0.01
926.989,-131.339508,230.774872,184.495621,-145.962717,-86.087138,50.70029,129.398393,35.195365,40.186114,45.296611,-83.120706,-1.175538,0,0.01
941.67,-130.851212,230.73526,184.658585,-143.029574,-86.130568,47.308839,129.398049,35.19525,40.186114,45.74707,-83.294656,-1.065701,0,0.01
957.487,-130.542465,230.707581,184.757034,-140.974432,-86.137329,44.96292,129.397934,35.195021,40.186114,46.120581,-83.422827,-0.944807,0,0.01
972.452,-130.177338,230.670349,184.816833,-138.974294,-86.096133,42.617804,129.397762,35.195021,40.186114,46.373313,-83.47319,-0.867916,0,0.01
988.045,-129.743652,230.621964,184.868103,-137.762373,-86.086336,40.99725,129.397648,35.195021,40.186114,46.779769,-83.541887,-0.823971,0,0.01
1002.208,-129.247208,230.565567,184.985092,-136.023676,-86.124323,38.793082,129.397304,35.195021,40.186114,47.24123,-83.674642,-0.791026,0,0.01
1019.04,-128.56308,230.487137,185.315231,-132.204625,-86.303028,34.337475,129.396731,35.194792,40.186114,47.867415,-84.013374,-0.780025,0,0.01
1035.205,-127.813713,230.392731,185.75415,-126.782726,-86.532154,28.220406,129.395986,35.194792,40.186114,48.548605,-84.457417,-0.780025,0,0.01
1050.492,-126.900505,230.260284,186.203827,-120.438479,-86.723465,21.026061,129.394669,35.194677,40.186114,49.383519,-84.919736,-0.780025,0,0.01
1064.619,-126.208153,230.149796,186.454895,-116.543168,-86.801387,16.48411,129.392147,35.193933,40.186228,50.251435,-85.267636,-0.780025,0,0.01
1078.769,-125.116524,229.958359,186.708435,-112.302822,-86.845218,11.221321,129.389054,35.19336,40.186228,51.031517,-85.473615,-0.780025,0,0.01
1094.841,-124.083992,229.781921,186.845734,-109.83515,-86.841666,7.803742,129.377308,35.193073,40.186343,51.965324,-85.652148,-0.780025,0,0.01
1110.674,-123.075562,229.649902,186.92659,-107.566409,-86.69688,4.65511,129.347228,35.193073,40.186343,52.811296,-85.775735,-0.648187,0,0.01
1126.46,-122.22921,229.633575,187.004318,-105.320185,-86.497146,1.763679,129.288442,35.192959,40.186343,53.393536,-85.881045,-0.450459,0,0.01
1141.79,-121.425461,229.699326,187.220978,-101.984539,-86.499839,-2.101838,129.205019,35.192615,40.186458,53.832994,-86.105358,-0.428458,0,0.03
1157.479,-120.842491,229.864899,187.484467,-98.035886,-86.533529,-6.322303,129.073296,35.192271,40.186458,54.03078,-86.457842,-0.428458,0,0.03
1172.481,-120.195267,230.139313,187.981659,-90.426205,-86.565271,-14.142088,128.966956,35.192042,40.186458,54.052724,-86.819435,-0.428458,0,0.03
1187.974,-119.636581,230.520187,188.547455,-81.767093,-86.537769,-22.843541,128.799537,35.191526,40.186458,53.909885,-87.332175,-0.428458,0,0.03
1203.261,-119.446388,230.964569,188.940765,-76.60801,-86.29919,-27.720214,128.641974,35.190724,40.186458,53.459483,-87.666324,-0.23073,0,0.03
1218.946,-119.361465,231.355774,189.097626,-75.409668,-86.020789,-28.612596,128.510251,35.190724,40.186458,53.020025,-87.785328,0.043946,0,0.03
1235.238,-119.2286,231.699234,189.120682,-75.059075,-86.033566,-28.742829,128.390273,35.190724,40.186458,52.679459,-87.785328,0.043946,0,0.03
1249.714,-119.024292,231.981766,189.142166,-73.601815,-86.31529,-30.089853,128.283703,35.190609,40.186458,52.459729,-87.789911,-0.241674,0,0.03
1266.605,-118.857666,232.10878,189.207581,-70.762236,-86.666398,-32.934359,128.209677,35.190208,40.186458,52.404783,-87.867719,-0.802026,0,0.03
1280.702,-118.509865,232.253754,189.390869,-61.267809,-87.383971,-42.552143,128.132213,35.187917,40.186458,52.514619,-88.073754,-1.735833,0,0.03
1295.882,-117.828728,232.281601,189.749405,-38.027266,-87.989873,-66.263486,128.08609,35.187573,40.186458,52.811296,-88.352957,-2.559804,0,0.03
1311.102,-117.030022,232.248352,190.307251,-14.438078,-87.833456,-90.451873,128.022377,35.187573,40.186458,53.305644,-88.897725,-3.284939,0,0.03
1326.803,-116.21769,232.190948,190.802643,-2.411637,-87.441839,-103.104042,127.962274,35.187573,40.186458,53.832994,-89.387489,-3.746342,0,0.03
1342.201,-115.393127,232.051941,191.279541,2.738108,-87.002266,-108.955602,127.923141,35.186656,40.186458,54.459237,-89.86356,-4.031961,0,0.03
1357.203,-114.796349,231.93457,191.580582,6.444916,-86.711032,-113.185807,127.891514,35.185166,40.186458,55.096424,-90.261823,-4.361584,0,0.03
1372.591,-113.878448,231.719406,191.922134,10.055123,-86.361413,-117.627147,127.862064,35.184937,40.186458,55.876448,-90.591446,-4.658204,0,0.03
1387.1,-112.998695,231.52121,192.093887,11.98897,-86.177665,-120.347264,127.838916,35.18425,40.186458,56.436744,-90.728784,-4.790042,0,0.03
1402.31,-112.124374,231.312317,192.150009,11.101974,-86.155664,-120.249059,127.812216,35.179208,40.186572,57.194824,-90.806591,-4.779041,0,0.03
1417.677,-111.313995,231.157852,192.180923,5.221594,-86.240691,-115.062702,127.776292,35.16305,40.186687,57.865013,-90.811175,-4.427474,0,0.03
1433.182,-110.39373,231.020447,192.199112,-0.870437,-86.292486,-109.717121,127.720658,35.148039,40.186687,58.56809,-90.811175,-4.075907,0,0.03
1448.846,-109.721062,231.025055,192.251816,-5.823314,-86.289392,-105.221866,127.623427,35.124375,40.186916,59.084496,-90.811175,-3.702396,0,0.03
1466.266,-108.599617,231.078659,192.331696,-13.473733,-86.228658,-98.285581,127.513591,35.102546,40.186916,59.5569,-90.811175,-3.339828,0,0.03
1481.403,-107.856064,231.191696,192.466339,-18.735491,-86.129709,-93.443458,127.363304,35.0531,40.186916,59.974357,-90.811175,-2.90037,0,0.03
1496.329,-106.829422,231.376175,192.711258,-26.307758,-85.910839,-86.434293,127.241665,35.00308,40.186916,60.292979,-90.806591,-2.526858,0,0.03
1511.84,-105.917557,231.603546,193.017441,-36.701098,-85.48347,-76.509747,127.085649,34.91049,40.186916,60.633545,-90.737894,-1.735833,0,0.03
1527.114,-104.838013,231.804855,193.286346,-42.542747,-85.178427,-71.271653,126.914964,34.821166,40.186916,61.084005,-90.655502,-1.27443,0,0.03
1542.252,-103.633087,231.947571,193.719788,-43.798097,-85.062517,-70.770716,126.742791,34.71196,40.186916,61.666244,-90.655502,-1.241428,0,0.03
1557.923,-102.640541,231.967331,193.983994,-44.690937,-84.997659,-70.55895,126.576862,34.612781,40.186916,62.39138,-90.655502,-1.230484,0,0.03
1572.92,-101.349159,232.103638,194.472977,-45.727246,-84.890516,-70.336127,126.375868,34.493549,40.186916,62.995621,-90.655502,-1.230484,0,0.03
1586.725,-100.164352,232.343796,194.858368,-46.451579,-84.805431,-70.236203,126.229936,34.421471,40.186916,63.27024,-90.655502,-1.230484,0,0.03
1602.229,-99.249527,232.761963,195.401505,-46.947474,-84.684996,-70.066837,126.014504,34.294675,40.186916,63.380133,-90.655502,-1.230484,0,-0.01
1617.752,-98.264023,233.290024,195.888687,-48.272324,-84.470996,-68.994374,125.758621,34.183063,40.186916,63.380133,-90.655502,-1.087646,0,-0.01
1634.399,-97.416939,233.849182,196.432755,-49.175822,-84.265132,-68.234976,125.513395,34.061596,40.186916,63.28124,-90.660086,-0.97781,0,-0.01
1650.428,-96.583595,234.523254,196.930908,-49.86847,-84.071129,-67.561923,125.238433,33.953021,40.186916,63.028566,-90.660086,-0.867916,0,-0.01
1666.131,-95.779869,235.210236,197.493362,-50.383789,-83.879016,-67.043396,124.96496,33.830408,40.186916,62.75389,-90.660086,-0.780025,0,-0.01
1682.124,-94.695503,235.863281,197.905182,-51.112935,-83.693836,-66.474563,124.65837,33.73988,40.186916,62.611109,-90.660086,-0.659188,0,-0.01
1696.184,-94.02224,236.29541,198.241028,-51.855087,-83.503786,-65.814802,124.462018,33.668031,40.186916,62.501216,-90.669253,-0.51635,0,-0.01
1711.466,-92.907257,236.898422,198.762482,-53.122298,-83.18969,-64.771676,124.164824,33.554127,40.186916,62.435326,-90.683004,-0.274676,0,-0.01
1727.371,-91.773056,237.448318,199.277466,-54.117296,-82.931229,-64.057484,123.878403,33.4369,40.186916,62.435326,-90.683004,-0.098893,0,-0.01
1742.512,-90.597702,238.006546,199.792816,-54.992375,-82.679758,-63.472322,123.582986,33.319673,40.186916,62.435326,-90.683004,0.06589,0,-0.01
1758.251,-89.440521,238.564636,200.399551,-55.750398,-82.413504,-63.001522,123.290892,33.182679,40.186916,62.435326,-90.687588,0.219729,0,-0.01
1773.588,-88.367767,239.064392,200.897888,-56.156396,-82.236289,-62.861721,122.940528,33.03921,40.186916,62.435326,-90.687588,0.318622,0,-0.01
1788.809,-87.058167,239.660126,201.522461,-56.509108,-82.004584,-62.83313,122.610619,32.891101,40.186916,62.435326,-90.728784,0.428458,0,-0.01
1804.332,-85.511971,240.36171,202.390732,-56.783211,-81.678457,-62.942966,122.310275,32.750153,40.186916,62.435326,-90.769979,0.52735,0,-0.01
1819.993,-84.057289,241.015884,203.149597,-57.178323,-81.430423,-62.906984,121.948337,32.578839,40.186916,62.435326,-90.774563,0.615242,0,-0.01
1835.484,-82.541092,241.710617,204.11171,-57.28243,-81.19935,-63.18252,121.569326,32.362432,40.186916,62.435326,-90.783673,0.626243,0,-0.01
1849.941,-81.088966,242.344864,204.909546,-57.374676,-81.017722,-63.450091,121.210081,32.181378,40.186916,62.435326,-90.783673,0.626243,0,-0.01
1865.626,-79.419868,243.07666,205.95694,-57.466521,-80.777996,-63.772666,120.79652,31.944746,40.186916,62.435326,-90.788257,0.626243,0,-0.01
1880.819,-78.282921,243.551682,206.577774,-57.53264,-80.636762,-63.985921,120.426733,31.748279,40.186916,62.435326,-90.788257,0.626243,0,-0.01
1895.949,-76.797241,244.202972,207.684265,-57.623741,-80.383801,-64.264264,120.14925,31.553932,40.186916,62.435326,-90.79284,0.626243,0,-0.01
1911.451,-75.187027,244.863464,208.678574,-57.72143,-80.15777,-64.561171,119.755284,31.328587,40.186916,62.435326,-90.79284,0.626243,0,-0.01
1925.611,-73.738747,245.467804,209.747086,-57.822328,-79.915007,-64.816767,119.399534,31.086341,40.186916,62.435326,-90.79284,0.626243,0,-0.01
1941.149,-72.003067,246.139771,210.780594,-57.914631,-79.680324,-65.145588,118.979098,30.852459,40.186916,62.435326,-90.79284,0.626243,0,-0.01
1956.678,-70.790215,246.613327,211.616714,-57.986767,-79.490503,-65.368468,118.585189,30.608437,40.186916,62.435326,-90.79284,0.626243,0,-0.01
1973.058,-68.986496,247.262787,212.56633,-58.186958,-79.237714,-65.598568,118.153924,30.397073,40.186916,62.435326,-90.79284,0.692133,0,-0.01
1988.569,-67.422897,247.863022,213.521301,-58.399182,-78.966304,-65.723244,117.869107,30.234238,40.186916,62.39138,-90.79284,0.736079,0,-0.01
2003.18,-65.731956,248.532242,214.436356,-58.42336,-78.74371,-66.012416,117.445061,30.031697,40.186916,62.281486,-90.79284,0.75808,0,-0.01
2018.352,-64.076889,249.150299,215.446442,-58.431153,-78.517048,-66.345648,117.038433,29.806124,40.186916,62.215596,-90.79284,0.75808,0,-0.01
2033.54,-62.281837,249.777878,216.363892,-58.513086,-78.283395,-66.632299,116.602526,29.601864,40.186916,62.149649,-90.79284,0.791026,0,-0.01
2049.133,-60.803333,250.454605,217.366104,-58.451665,-78.059312,-66.856841,116.207014,29.38139,40.186916,61.918919,-90.779089,0.802026,0,-0.01
2065.505,-59.1605,251.211029,218.319748,-58.596909,-77.833509,-66.861482,115.764346,29.163666,40.186916,61.633299,-90.719616,0.845972,0,0.0
2080.51,-57.955307,251.782074,219.011093,-58.69288,-77.67268,-66.847559,115.317898,28.956141,40.186916,61.336679,-90.660086,0.878917,0,0.0
2095.218,-55.924553,252.528854,220.047073,-58.750749,-77.43834,-67.097999,114.924161,28.772623,40.186916,61.193841,-90.632641,0.900862,0,0.0
2111.866,-54.107975,253.25296,220.970474,-58.807414,-77.237747,-67.243415,114.452273,28.563493,40.186916,60.930165,-90.577695,0.922863,0,0.0
2126.94,-52.3116,254.037872,222.050949,-58.919084,-76.960493,-67.2535,113.968639,28.321877,40.186916,60.578598,-90.518164,0.999754,0,0.0
2142.517,-50.405251,254.803253,222.854797,-59.222465,-76.814675,-67.117537,113.46902,28.122373,40.186916,60.260034,-90.3763,1.021756,0,0.0
2157.451,-48.914764,255.383392,223.512054,-59.79972,-76.699454,-66.697387,112.912506,27.895252,40.186916,59.963356,-90.106208,1.054701,0,0.0
2172.851,-47.017387,256.370148,224.162384,-60.673595,-76.628464,-65.755272,112.414835,27.681253,40.186916,59.271223,-89.730806,1.142592,0,0.0
2188.188,-45.539352,257.486084,224.701935,-62.030244,-76.544698,-64.014512,112.034276,27.53681,40.186916,58.634037,-89.337184,1.263429,0,0.0
2202.229,-43.496727,258.614807,225.230576,-63.154273,-76.419621,-62.67803,111.419951,27.355412,40.186916,57.854012,-88.916002,1.439213,0,0.0
2218.055,-41.419636,259.591248,225.837509,-63.812601,-76.343704,-61.940004,110.82906,27.173784,40.186916,57.216769,-88.591021,1.505103,0,0.0
2233.559,-39.563782,260.597717,226.394379,-63.986437,-76.339808,-61.517218,110.262061,27.024299,40.186916,56.4258,-88.325512,1.505103,0,0.0
2250.794,-37.250771,261.435852,226.822906,-64.437527,-76.343704,-61.147087,109.650887,26.890571,40.186916,55.920394,-88.05542,1.505103,0,0.0
2266.327,-34.580898,262.276672,227.381775,-64.586954,-76.314884,-61.168057,108.967233,26.745326,40.186916,55.426046,-87.858609,1.494159,0,0.0
2282.408,-32.734665,263.217712,227.907684,-64.259509,-76.308868,-61.191205,108.399375,26.633256,40.186916,54.569073,-87.70752,1.494159,0,0.0
2296.592,-30.800856,263.950653,228.24295,-63.889779,-76.309384,-61.466683,107.679224,26.546166,40.186973,53.756104,-87.625129,1.505103,0,0.0
2311.987,-28.187346,264.888947,228.899658,-63.185213,-76.17852,-62.052189,107.135831,26.46366,40.187432,53.107916,-87.625129,1.57105,0,0.0
2326.61,-26.015274,265.888733,229.3871,-62.421746,-76.079628,-62.417793,106.468966,26.398916,40.188291,52.053216,-87.60221,1.680886,0,0.0
2342.108,-23.705301,266.873901,229.92868,-61.386584,-76.066049,-63.080992,105.772192,26.325635,40.188635,50.987571,-87.5931,1.680886,0,0.0
2356.901,-21.393465,267.5625,230.42514,-60.732094,-76.026744,-63.683686,104.987411,26.227773,40.188749,50.064708,-87.565598,1.680886,0,0.0
2371.981,-19.476799,268.466492,230.781479,-59.791985,-76.062439,-64.14612,104.536551,26.205886,40.189953,49.229737,-87.542737,1.680886,0,0.0
2387.017,-16.532816,269.191956,231.243027,-59.014252,-76.031499,-64.951871,103.770907,26.141543,40.193047,48.493658,-87.547321,1.680886,0,0.0
2402.18,-13.731938,269.710968,231.879288,-57.962187,-75.973401,-66.178172,103.078029,26.049985,40.19339,47.966308,-87.643406,1.614996,0,0.0
2417.794,-10.962204,270.033722,232.401199,-57.156723,-75.956671,-67.366888,102.441588,25.968052,40.194594,47.702633,-87.716687,1.505103,0,0.0
2435.68,-7.733056,270.202789,233.137878,-56.880729,-75.810223,-68.319545,101.753924,25.820286,40.194823,47.691632,-87.748716,1.483159,0,0.0
2450.566,-4.835289,270.358124,233.820816,-56.819136,-75.633867,-68.944871,101.128598,25.678536,40.195338,47.636742,-87.748716,1.527104,0,0.0
2466.115,-2.204968,270.618866,234.559692,-56.47347,-75.492804,-69.619414,100.520518,25.534552,40.197115,47.362066,-87.748716,1.538105,0,0.0
2482.217,0.380243,270.786285,235.373688,-56.18871,-75.336903,-70.303984,99.784439,25.316255,40.197115,47.109392,-87.748716,1.538105,0,0.0
2496.881,2.691992,271.100952,236.346481,-55.62492,-75.172406,-70.983455,99.233597,25.146144,40.197745,46.625988,-87.748716,1.538105,0,0.0
2511.708,5.208554,271.289398,237.31279,-55.219839,-74.994446,-71.681833,98.786003,24.989268,40.198203,46.450204,-87.748716,1.538105,0,0.0
2526.839,8.40793,271.274017,238.388672,-55.206604,-74.783597,-72.36245,98.108766,24.751548,40.198203,46.450204,-87.702936,1.538105,0,-0.01
2541.85,10.785685,271.144196,238.98642,-55.801105,-74.694388,-72.426735,97.64066,24.580692,40.199406,46.658933,-87.538154,1.538105,0,-0.01
2557.379,12.935593,270.975586,239.683563,-56.013844,-74.509724,-72.814513,97.067072,24.375057,40.20038,46.977554,-87.515235,1.582051,0,-0.01
2571.889,16.171709,270.563843,240.547913,-56.45124,-74.228802,-73.423911,96.610711,24.218353,40.20038,47.296119,-87.515235,1.63694,0,-0.01
2588.703,18.764248,270.272797,241.410461,-56.824579,-73.911498,-73.794042,95.989739,23.989743,40.201641,47.614741,-87.515235,1.80178,0,-0.01
2604.347,21.364386,269.963593,242.301651,-57.1644,-73.595283,-74.201014,95.594685,23.826507,40.204678,47.801525,-87.515235,1.889672,0,-0.01
2619.528,24.778498,269.424316,243.234604,-57.686823,-73.251336,-74.762971,94.944263,23.607064,40.205021,48.251927,-87.510652,2.010509,0,-0.01
2635.545,27.345022,269.114807,244.156021,-58.113734,-72.967092,-75.008311,94.42608,23.387793,40.206969,48.427711,-87.437428,2.120345,0,-0.01
2650.357,30.045321,268.890533,245.00116,-58.048188,-72.782886,-75.593702,93.841721,23.205994,40.207084,48.372821,-87.414567,2.142346,0,-0.01
2665.323,32.23056,268.67392,245.742447,-57.901109,-72.639188,-76.174968,93.214504,22.972972,40.207084,48.339819,-87.414567,2.076399,0,-0.01
2680.857,35.183739,268.323608,246.725616,-57.309932,-72.675628,-77.412385,92.615534,22.795527,40.207199,48.339819,-87.396232,1.735833,0,-0.01
2695.426,37.52396,268.024048,247.63829,-56.440697,-72.88705,-78.812637,92.239902,22.639396,40.207199,48.339819,-87.377955,1.373265,0,-0.01
2709.637,40.749844,267.381561,248.459427,-55.917644,-73.066443,-80.313958,91.597846,22.44333,40.207428,48.64744,-87.345869,0.922863,0,-0.01
2725.136,43.690552,266.719788,249.334473,-55.834737,-73.104774,-81.335542,91.021049,22.224345,40.207542,48.999007,-87.277229,0.637186,0,-0.01
2740.422,45.759781,266.362091,249.986053,-55.537372,-73.147803,-82.124562,90.447347,22.022206,40.208115,49.042953,-87.217698,0.362568,0,-0.01
2755.933,48.486992,265.880981,250.927933,-55.131833,-73.169862,-83.147062,89.998434,21.862121,40.20823,49.064954,-87.18567,0.175783,0,-0.01
2771.669,51.851528,265.189362,251.911636,-54.674039,-73.213464,-84.441202,89.288769,21.639756,40.208975,49.17479,-87.149058,-0.131838,0,-0.01
2787.683,54.408215,264.671997,252.86351,-53.595905,-73.440527,-86.112921,88.735463,21.435096,40.208975,49.17479,-87.139891,-0.659188,0,-0.01
2802.188,57.319843,264.048828,253.91423,-52.115955,-73.77926,-88.280993,88.103949,21.209637,40.209204,49.17479,-87.130723,-1.362322,0,-0.01
2817.679,60.227871,263.390686,254.84317,-51.005792,-74.04557,-90.083117,87.474784,20.999935,40.209319,49.196792,-87.08036,-1.933618,0,-0.01
2833.488,62.79052,262.803955,255.843201,-49.940434,-74.321049,-91.74269,86.915692,20.76548,40.210522,49.196792,-86.979692,-2.515858,0,-0.01
2850.754,65.335342,262.206635,256.767609,-48.551985,-74.644884,-93.70593,86.354652,20.556064,40.211381,49.16379,-86.910994,-3.164045,0,-0.01
2866.068,68.22583,261.475189,257.818939,-47.955765,-74.747902,-94.950795,85.720846,20.306885,40.211496,49.16379,-86.796574,-3.537613,0,-0.01
2881.258,70.146179,261.004211,258.536865,-47.499576,-74.774373,-95.783818,85.171838,20.094088,40.212183,49.032009,-86.741628,-3.812232,0,-0.01
2897.255,72.344109,260.452362,259.607147,-46.759143,-74.730713,-96.918332,84.644831,19.870978,40.21247,48.966062,-86.741628,-4.031961,0,-0.01
2910.575,75.219009,259.601776,260.647552,-46.264279,-74.658062,-98.067628,84.151744,19.70419,40.213272,48.966062,-86.741628,-4.196801,0,-0.01
2925.875,77.476105,258.914429,261.631775,-45.577418,-74.649926,-99.28184,83.651666,19.498957,40.219746,48.966062,-86.741628,-4.482421,0,-0.01
2941.431,79.498917,258.432129,262.659393,-44.911068,-74.539059,-100.198859,83.167574,19.299453,40.225132,48.713387,-86.746211,-4.625259,0,-0.01
2956.436,81.216499,257.875519,263.363678,-44.84724,-74.374792,-100.632015,82.653574,19.078406,40.227653,48.691386,-86.782823,-4.625259,0,-0.01
2973.336,83.551735,257.067474,264.446472,-44.865403,-74.134837,-101.139484,82.156189,18.887496,40.229429,48.691386,-86.787407,-4.625259,0,-0.01
2988.836,85.167442,256.624329,265.404266,-44.72669,-73.95321,-101.468247,81.870799,18.732912,40.231378,48.493658,-86.755379,-4.625259,0,-0.01
3004.864,87.129349,256.091949,266.111176,-44.955071,-73.896888,-101.499703,81.407276,18.554035,40.231378,48.317875,-86.576845,-4.625259,0,-0.01
3019.825,88.961067,255.498947,266.590485,-45.492562,-73.897518,-101.335722,80.99595,18.405524,40.231607,48.317875,-86.361699,-4.625259,0,-0.01
3035.736,90.811913,254.815872,266.860168,-46.407863,-73.882678,-100.901248,80.597114,18.291678,40.231607,48.449712,-86.137386,-4.548368,0,-0.01
3051.209,92.504196,254.128098,266.919891,-48.343543,-73.665012,-99.465645,80.247552,18.207739,40.231607,48.691386,-85.876461,-4.130854,0,-0.01
3066.871,94.416565,253.260132,266.888336,-50.413754,-73.182696,-98.021276,79.856967,18.178003,40.233497,49.010008,-85.789486,-3.471666,0,-0.01
3082.008,96.264061,252.274658,266.813019,-52.425237,-72.55886,-96.759222,79.496977,18.175367,40.236649,49.471411,-85.821515,-2.724586,0,-0.01
3096.914,97.925804,251.322922,266.715363,-53.801883,-72.14083,-96.129828,79.082213,18.175367,40.236992,50.108654,-85.858127,-2.0874,0,-0.01
3112.136,99.934296,250.099472,266.521912,-55.305439,-71.789091,-95.628833,78.799974,18.175367,40.237222,50.614003,-85.858127,-1.85667,0,-0.01
3128.181,101.928635,249.058884,266.417938,-55.765123,-71.761417,-95.95032,78.386814,18.175367,40.237623,50.987571,-85.858127,-1.845726,0,-0.01
3142.509,103.672256,248.287537,266.394836,-55.882063,-71.755401,-96.320852,77.996974,18.175367,40.237737,51.086407,-85.858127,-1.845726,0,-0.01
3157.976,105.658401,247.468414,266.402222,-55.882636,-71.753739,-96.778817,77.538436,18.175367,40.237737,51.086407,-85.858127,-1.845726,0,-0.01
3173.494,107.490074,246.743469,266.430603,-55.805516,-71.754656,-97.222515,77.106769,18.175367,40.238196,51.020517,-85.858127,-1.845726,0,-0.01
3188.262,108.717392,246.378418,266.506714,-55.439454,-71.808629,-97.676642,76.795882,18.175367,40.238654,50.789786,-85.858127,-1.900616,0,-0.01
3203.767,110.33947,245.999207,266.656952,-54.394092,-72.051391,-98.711346,76.365305,18.175367,40.238941,50.317383,-85.858127,-2.175292,0,-0.01
3220.866,111.912605,245.652588,266.810822,-53.55786,-72.17853,-99.484152,75.791258,18.175367,40.239399,49.713141,-85.8536,-2.31813,0,-0.01
3236.421,113.867027,245.015579,266.926056,-53.113302,-72.197667,-100.078825,75.445879,18.175367,40.240258,49.460467,-85.8536,-2.31813,0,-0.01
3252.328,115.542542,244.557297,267.069977,-52.56882,-72.211361,-100.621874,75.002983,18.175367,40.241576,49.010008,-85.8536,-2.31813,0,-0.01
3267.823,117.213089,244.16806,267.242096,-51.547466,-72.370356,-101.552587,74.546507,18.175367,40.242378,48.438711,-85.849017,-2.493913,0,-0.01
3282.318,118.788803,243.875107,267.391724,-50.667918,-72.494975,-102.239162,74.102866,18.175367,40.242894,47.790524,-85.803237,-2.592749,0,-0.01
3297.727,120.555077,243.424561,267.525421,-49.928803,-72.586763,-102.895772,73.622441,18.175367,40.244212,47.219228,-85.762042,-2.658696,0,-0.01
3313.695,121.983543,243.188385,267.728027,-48.990928,-72.640907,-103.57232,73.205729,18.175367,40.245644,46.527095,-85.757458,-2.702642,0,-0.01
3330.245,123.427414,242.995575,267.943756,-48.04062,-72.670243,-104.174728,72.772458,18.175367,40.246332,45.73607,-85.743707,-2.702642,0,-0.01
3345.239,124.413254,242.967377,268.117371,-47.229083,-72.706052,-104.605592,72.344974,18.175367,40.247993,44.835208,-85.697928,-2.702642,0,-0.01
3358.875,126.207817,242.627151,268.282257,-46.742355,-72.682618,-104.801143,71.940867,18.175253,40.256874,44.241967,-85.624704,-2.570804,0,-0.01
3373.946,127.924141,242.487396,268.537262,-46.206754,-72.682389,-104.939397,71.439243,18.175023,40.299731,43.36305,-85.482782,-2.460911,0,-0.01
3391.152,129.68457,242.450912,268.806946,-45.665939,-72.802596,-105.090716,70.936644,18.175023,40.377711,42.495134,-85.235608,-2.460911,0,-0.01
3406.663,131.457306,242.540939,268.943146,-46.008282,-73.05401,-104.493694,70.474783,18.175023,40.51184,41.846947,-84.713758,-2.460911,0,-0.01
3421.941,133.172928,242.272354,268.984344,-46.91768,-73.185561,-103.723581,69.96147,18.175023,40.673701,41.616216,-84.136961,-2.351075,0,-0.01
3436.906,135.245026,242.197479,269.259735,-48.294383,-73.27053,-102.513551,69.515881,18.175023,40.904947,41.429432,-83.477774,-2.252183,0,-0.01
3450.992,137.430237,242.173691,269.480499,-49.749983,-73.516673,-101.233793,69.151881,18.175023,41.095226,41.286594,-82.965091,-2.252183,0,0.07
3466.712,139.608337,242.380432,269.896637,-51.454876,-73.722479,-99.706345,68.705088,18.175023,41.416999,41.143813,-82.154871,-2.252183,0,0.07
3482.425,142.122986,242.39978,270.118988,-53.928163,-74.01698,-97.574082,68.200943,18.175023,41.751549,41.143813,-81.138616,-2.263183,0,0.07
3498.863,144.55246,242.628036,270.61319,-56.175819,-74.266904,-95.637256,67.73106,18.175023,42.147635,41.143813,-80.154446,-2.351075,0,0.07
3514.397,147.055389,242.860092,271.052216,-58.62613,-74.579223,-93.459157,67.239978,18.175023,42.549393,41.099867,-79.074077,-2.482913,0,0.07
3518.887,147.652893,242.94986,271.201538,-59.105123,-74.679835,-93.034939,67.123839,18.175023,42.655275,41.077865,-78.817736,-2.559804,0,0.07
3529.726,149.574997,243.308014,271.888306,-60.518782,-74.875672,-91.79586,66.759323,18.175023,43.029073,41.011975,-78.067047,-2.746588,0,0.07
3543.915,151.520828,243.567734,272.338501,-62.31214,-75.203461,-90.181265,66.382604,18.175023,43.372905,40.957029,-77.192713,-2.999262,0,0.07
3559.575,154.143204,243.930923,273.156494,-63.886227,-75.710815,-88.757236,65.860926,18.175023,43.839637,40.7483,-76.158123,-3.482667,0,0.07
3574.538,156.356216,244.834259,274.256378,-65.03495,-76.212325,-87.407978,65.418087,18.175023,44.354668,40.264896,-75.12359,-3.95507,0,0.07
3589.583,158.708313,245.467606,275.434021,-65.691731,-76.607207,-86.588705,64.93239,18.175367,44.835093,39.748546,-74.272175,-4.350583,0,0.07
3605.295,161.04332,246.189362,276.854156,-65.962855,-76.926058,-86.111832,64.457007,18.175654,45.349037,39.188251,-73.49851,-4.713151,0,0.07
3620.586,162.793747,246.5616,277.927246,-65.484435,-77.237404,-86.450049,63.987468,18.175654,45.814221,38.573008,-72.921771,-5.185555,0,0.07
3637.386,164.739227,247.483307,279.668884,-64.360636,-77.540899,-87.20389,63.596997,18.176112,46.324096,37.891819,-72.418198,-5.581067,0,0.07
3653.084,166.867645,247.939789,281.24765,-63.24566,-77.806809,-88.190065,63.165675,18.17657,46.779769,37.430416,-72.001658,-5.954578,0,0.07
3668.548,168.893951,248.401779,282.822388,-62.713783,-77.920599,-88.679657,62.881545,18.176742,47.137811,37.177742,-71.653758,-6.163307,0,0.07
3684.105,170.93985,248.585114,284.232513,-62.012082,-78.114316,-89.465412,62.493194,18.176857,47.556528,36.936011,-71.269246,-6.536875,0,0.07
3698.526,172.836533,248.888626,285.676605,-61.274685,-78.321096,-90.23667,62.141226,18.177086,47.984872,36.683336,-70.866399,-6.921387,0,0.07
3713.95,174.781311,248.952896,286.903381,-60.797296,-78.52398,-90.808998,61.769663,18.178117,48.361591,36.474608,-70.468137,-7.261954,0,0.07
3730.904,176.599976,249.127884,288.077759,-60.930738,-78.640234,-90.707641,61.426748,18.179492,48.742837,36.254879,-69.992066,-7.459739,0,0.07
3744.402,178.085617,248.998474,288.735931,-61.250563,-78.760956,-90.462129,61.039486,18.180638,49.051089,36.035149,-69.506828,-7.635522,0,0.07
3759.902,179.795029,249.062073,289.661255,-61.386698,-78.935421,-90.255406,60.779134,18.181039,49.288293,35.760473,-69.145177,-7.745358,0,0.07
3775.273,181.484543,248.992523,290.35144,-61.79029,-79.096766,-89.718716,60.408545,18.182816,49.541426,35.332015,-68.650829,-7.789304,0,0.07
3790.368,182.921967,249.085464,290.997803,-62.154977,-79.244876,-89.124846,60.087975,18.190608,49.784303,34.848611,-68.170175,-7.789304,0,0.07
3805.872,184.426163,248.970261,291.403595,-63.144705,-79.379349,-87.985748,59.748898,18.200405,49.987989,34.442155,-67.648325,-7.734357,0,0.07
3822.486,185.77095,248.949417,291.86142,-63.918026,-79.484945,-87.01172,59.442538,18.208656,50.188639,34.002696,-67.172254,-7.657466,0,0.07
3837.667,187.132324,248.78743,292.216644,-64.432083,-79.671615,-86.325316,59.123114,18.216849,50.355313,33.563237,-66.737379,-7.657466,0,0.07
3853.189,187.994629,248.722595,292.487732,-64.636515,-79.796119,-85.961316,58.844943,18.220803,50.49689,33.068832,-66.375728,-7.646466,0,0.07
3869.113,189.076859,248.616806,292.821564,-64.909816,-79.906986,-85.449379,58.559209,18.222121,50.625118,32.629373,-66.041579,-7.514628,0,0.07
3884.205,190.199493,248.384338,293.106964,-65.571926,-79.879369,-84.633716,58.371107,18.223553,50.709171,32.343754,-65.812683,-7.349845,0,0.07
3900.704,191.202988,248.241425,293.356445,-66.427409,-79.833304,-83.610471,58.12823,18.229512,50.827143,31.970186,-65.487644,-7.119115,0,-0.01
3916.134,192.282822,247.895035,293.527893,-67.140054,-79.80964,-82.848494,57.872118,18.236559,50.919447,31.695567,-65.226719,-6.954333,0,-0.01
3930.693,193.24147,247.616745,293.619812,-67.654799,-79.829809,-82.233939,57.636575,18.254435,50.997999,31.376945,-64.993296,-6.811551,0,-0.01
3945.692,194.225128,247.236115,293.650208,-68.196932,-79.752173,-81.58793,57.384645,18.273801,51.050482,31.025378,-64.810178,-6.547876,0,-0.01
3960.738,194.861298,247.017975,293.614929,-68.570787,-79.738708,-81.056454,57.144175,18.295001,51.08125,30.563975,-64.6042,-6.284201,0,-0.01
3977.316,195.809326,246.621323,293.481781,-69.189295,-79.666745,-80.225665,56.878322,18.321815,51.09798,30.06957,-64.411915,-5.899632,0,-0.01
3992.635,196.53331,246.367661,293.276459,-69.69069,-79.5804,-79.446901,56.711764,18.351552,51.101017,29.663056,-64.302079,-5.614012,0,-0.01
4007.635,197.320572,246.009567,292.997345,-69.970465,-79.469361,-78.990024,56.484987,18.4124,51.101934,29.223655,-64.242549,-5.251445,0,-0.01
4023.261,198.109009,245.602829,292.736359,-69.927665,-79.505629,-78.925738,56.26606,18.470097,51.102163,28.861087,-64.205937,-5.086662,0,-0.01
4038.806,198.896439,245.18573,292.375122,-70.166589,-79.469132,-78.636624,56.058592,18.546014,51.104684,28.575468,-64.178492,-4.866933,0,-0.01
4053.276,199.602661,244.85997,292.03598,-70.289832,-79.418138,-78.436146,55.872094,18.628519,51.114768,28.27879,-64.173909,-4.636203,0,-0.01
4068.289,200.195007,244.59407,291.653564,-70.44963,-79.407252,-78.242429,55.722896,18.716297,51.12554,28.070062,-64.173909,-4.482421,0,-0.01
4085.11,200.970352,244.294479,291.243225,-70.502686,-79.379521,-78.073063,55.470393,18.850025,51.150922,27.608659,-64.173909,-4.1748,0,-0.01
4101.227,201.737,244.035797,290.66095,-70.574764,-79.390235,-77.816893,55.253873,18.999223,51.167308,27.125254,-64.173909,-3.911125,0,-0.01
4116.547,202.40921,244.015244,290.103882,-70.390902,-79.415274,-77.632229,55.10181,19.117424,51.196701,26.608905,-64.173909,-3.647449,0,-0.01
4131.277,203.249039,243.896072,289.414429,-70.483033,-79.406908,-77.270864,54.87595,19.305526,51.247179,26.048609,-64.173909,-3.306883,0,-0.01
4147.224,203.963593,243.99585,288.563599,-70.75622,-79.422951,-76.744202,54.703776,19.542788,51.328768,25.565205,-64.169325,-3.010263,0,-0.01
4161.072,204.590393,243.977921,287.759857,-71.358112,-79.396882,-76.129303,54.530513,19.823824,51.428978,25.36742,-64.169325,-2.735587,0,-0.01
4175.985,205.528397,244.029694,286.81601,-72.147419,-79.296843,-75.338335,54.422339,20.041491,51.544773,25.224582,-64.160158,-2.537859,0,-0.01
4191.171,206.423004,244.168793,285.545044,-73.132677,-79.268654,-74.365338,54.281162,20.391625,51.692883,25.0708,-64.15099,-2.307129,0,-0.01
4208.002,207.414963,244.368332,284.562866,-73.486134,-79.373104,-73.984379,54.122281,20.726233,51.88362,24.85107,-64.15099,-2.230238,0,-0.01
4223.022,208.304337,244.876511,283.591339,-73.660314,-79.523849,-73.743965,54.013419,21.104385,52.13257,24.642342,-64.160158,-2.219237,0,-0.01
4237.136,209.328506,245.298004,282.912781,-73.485447,-79.612944,-73.928572,53.888056,21.454634,52.407877,24.499503,-64.210521,-2.219237,0,-0.01
4252.212,210.183945,245.683243,282.506744,-73.355156,-79.646405,-74.097251,53.795007,21.728107,52.658546,24.433613,-64.233382,-2.219237,0,-0.01
4267.217,211.299149,246.197601,281.901215,-73.334129,-79.685595,-74.188466,53.680187,22.097149,52.98983,24.378667,-64.251716,-2.219237,0,-0.01
4283.387,212.463608,246.796494,281.608765,-73.081741,-79.691325,-74.493795,53.565366,22.439663,53.364544,24.312719,-64.251716,-2.219237,0,-0.01
4300.245,213.691116,247.345016,281.232117,-72.740946,-79.754751,-74.838258,53.423559,22.791803,53.729862,24.158937,-64.251716,-2.230238,0,-0.01
4316.423,214.793884,248.19455,281.250732,-71.884717,-79.79715,-75.569867,53.316129,23.118331,54.150069,23.906263,-64.251716,-2.230238,0,-0.01
4330.556,216.08136,248.835968,280.91214,-71.351007,-79.871176,-76.046568,53.165499,23.488978,54.548332,23.675533,-64.251716,-2.230238,0,-0.01
4346.497,217.319031,249.560028,280.811249,-70.618022,-79.909392,-76.710684,53.033088,23.832752,54.968138,23.455804,-64.251716,-2.230238,0,-0.01
4361.49,218.183716,250.088928,280.434204,-70.426482,-79.946291,-76.894488,52.927091,24.213196,55.355057,23.334967,-64.237965,-2.230238,0,0.01
4376.244,219.367203,250.731369,280.12088,-70.335611,-79.960787,-77.017904,52.841147,24.47097,55.658266,23.28002,-64.201353,-2.230238,0,0.01
4391.507,220.573746,251.25769,279.630951,-70.118403,-80.013155,-77.282209,52.715669,24.834397,56.024902,23.192128,-64.201353,-2.252183,0,0.01
4406.513,221.533066,251.984344,279.323639,-69.66611,-80.079446,-77.716855,52.643935,25.167916,56.394918,23.093236,-64.201353,-2.307129,0,0.01
4422.249,222.496323,252.532791,278.685181,-69.772795,-80.100875,-77.678123,52.567388,25.520113,56.719097,23.082292,-64.201353,-2.307129,0,0.01
4437.342,223.311584,253.193695,278.292938,-69.699514,-80.088671,-77.792199,52.524531,25.833693,57.050038,23.082292,-64.201353,-2.307129,0,0.01
4452.846,224.070343,253.85524,277.681366,-69.808891,-80.103224,-77.718459,52.48981,26.169847,57.362357,23.082292,-64.201353,-2.307129,0,0.01
4467.337,224.687119,254.378159,277.456818,-69.663704,-80.088327,-77.882726,52.458411,26.400234,57.621449,23.071292,-64.201353,-2.307129,0,0.01
4483.3,225.457382,255.071701,276.887878,-69.51548,-80.146998,-77.975316,52.407533,26.733237,57.936404,22.950455,-64.201353,-2.307129,0,0.01
4499.052,226.233887,255.790115,276.495361,-69.155719,-80.197304,-78.251023,52.35356,27.044926,58.262932,22.796616,-64.201353,-2.307129,0,0.01
4514.346,226.937943,256.431122,275.795654,-69.098252,-80.295394,-78.267696,52.310187,27.376955,58.550213,22.69778,-64.201353,-2.340074,0,0.01
4529.511,227.45491,256.853363,275.362823,-68.950601,-80.402938,-78.436776,52.275695,27.675752,58.846203,22.68678,-64.201353,-2.482913,0,0.01
4544.536,228.118637,257.450439,274.727325,-68.813434,-80.545433,-78.606658,52.24911,27.98303,59.099966,22.68678,-64.201353,-2.592749,0,0.01
4559.777,228.700302,257.96817,274.115631,-68.792464,-80.650399,-78.656391,52.231004,28.193763,59.28211,22.68678,-64.201353,-2.658696,0,0.01
4575.583,229.277496,258.503326,273.566772,-68.730356,-80.742244,-78.752075,52.210664,28.467465,59.533065,22.69778,-64.201353,-2.746588,0,0.01
4590.58,229.893326,258.830414,273.031403,-68.490401,-80.944097,-79.088229,52.170787,28.708566,59.744773,22.75267,-64.201353,-2.966317,0,0.01
4605.673,230.52121,259.161285,272.472595,-68.395691,-81.079659,-79.253642,52.12495,28.954594,59.957111,22.774671,-64.201353,-3.098155,0,0.01
4622.199,231.185165,259.316986,271.930481,-68.491489,-81.170071,-79.232271,52.05333,29.169167,60.131691,22.774671,-64.192186,-3.164045,0,0.01
4637.841,231.931793,259.426178,271.520111,-68.687899,-81.197058,-79.120659,51.965782,29.36615,60.317158,22.774671,-64.164741,-3.175046,0,0.01
4652.777,232.491592,259.406036,270.939484,-69.023882,-81.251661,-78.846441,51.88723,29.536318,60.421207,22.75267,-64.155574,-3.175046,0,0.01
4669.055,233.285492,259.409515,270.654694,-68.892846,-81.277845,-79.031793,51.74187,29.751292,60.619164,22.68678,-64.15099,-3.175046,0,0.01
4684.086,234.173233,259.193024,269.941345,-69.526423,-81.311707,-78.527762,51.634555,29.910173,60.71628,22.675779,-64.123546,-3.142101,0,0.01
4698.642,234.931671,259.163147,269.720764,-69.928926,-81.125266,-78.21189,51.531366,30.060345,60.875792,22.664778,-64.118962,-2.944316,0,0.01
4715.258,235.762222,258.997009,268.999176,-70.877744,-81.04064,-77.383794,51.406117,30.264891,61.005567,22.664778,-64.077766,-2.790534,0,0.01
4730.15,236.595871,258.863342,268.742096,-71.235041,-80.907026,-77.142121,51.284593,30.41323,61.157286,22.664778,-64.064015,-2.647695,0,0.01
4745.565,237.101852,258.870636,268.218567,-71.762334,-80.962202,-76.643819,51.190341,30.600645,61.297088,22.598888,-63.990791,-2.636694,0,0.01
4760.69,237.80806,258.849701,267.960266,-71.977479,-80.963635,-76.491642,51.087209,30.738555,61.433337,22.587887,-63.949596,-2.61475,0,0.01
4776.085,238.477509,258.735931,267.401306,-72.628359,-81.012393,-75.934612,51.014329,30.863575,61.519452,22.587887,-63.890065,-2.61475,0,0.01
4791.168,239.086884,258.676239,267.11499,-72.879544,-81.026087,-75.764157,50.929416,30.989224,61.639258,22.587887,-63.853453,-2.61475,0,0.01
4806.626,239.524475,258.657349,266.899414,-72.782714,-81.115526,-75.920517,50.871662,31.089435,61.731733,22.587887,-63.84887,-2.702642,0,0.01
4821.769,239.818024,258.59259,266.59726,-73.001928,-81.160503,-75.746625,50.827372,31.16856,61.776882,22.587887,-63.835119,-2.724586,0,0.02
4837.433,239.885803,258.577667,266.499725,-73.070339,-81.168238,-75.6891,50.817059,31.19314,61.788227,22.587887,-63.835119,-2.724586,0,0.02
4852.839,239.913101,258.545837,266.473724,-73.167742,-81.151622,-75.631059,50.816945,31.196005,61.788628,22.642834,-63.830535,-2.735587,0,0.02
4869.033,239.916428,258.545776,266.426758,-73.381111,-81.190583,-75.423305,50.816945,31.19612,61.788743,22.642834,-63.789397,-2.768532,0,0.02
4883.287,239.915558,258.549744,266.407898,-73.472784,-81.206225,-75.329683,50.816945,31.19612,61.788857,22.642834,-63.775646,-2.768532,0,0.02
4899.187,239.914398,258.554688,266.384186,-73.613045,-81.212585,-75.186673,50.816945,31.19612,61.788972,22.642834,-63.752727,-2.768532,0,0.02
4914.628,239.899048,258.58847,266.305237,-74.013084,-81.26438,-74.758444,50.816945,31.196234,61.788972,22.620832,-63.67492,-2.790534,0,0.02
4928.796,239.892731,258.609955,266.194092,-74.573494,-81.345511,-74.186633,50.816945,31.196234,61.788972,22.620832,-63.528472,-2.867425,0,0.02
4944.298,239.881302,258.647125,266.00061,-75.640456,-81.445206,-73.098815,50.816945,31.196234,61.788972,22.620832,-63.340771,-2.90037,0,0.02
4959.796,239.878586,258.670898,265.778168,-77.004496,-81.48411,-71.729446,50.816945,31.196349,61.788972,22.642834,-63.180514,-2.90037,0,0.02
4974.886,239.891861,258.666016,265.56015,-78.377475,-81.501871,-70.381276,50.816945,31.196349,61.788972,22.69778,-62.983703,-2.90037,0,0.02
4990.386,239.907013,258.659271,265.300995,-79.92406,-81.591883,-68.865688,50.816945,31.196463,61.788972,22.76367,-62.750223,-2.977318,0,0.02
5006.21,239.923965,258.64502,265.081421,-81.176259,-81.746123,-67.649241,50.816945,31.196463,61.788972,22.829618,-62.553412,-3.1311,0,0.02
5021.905,239.927628,258.652618,264.841278,-82.686519,-81.810982,-66.151186,50.816945,31.196463,61.788972,22.873507,-62.333683,-3.186046,0,0.02
5036.913,239.923599,258.67218,264.582275,-84.361217,-81.83327,-64.476087,50.816945,31.196693,61.788972,22.906509,-62.095619,-3.197047,0,0.02
5052.051,239.913712,258.696655,264.39566,-85.569585,-81.854011,-63.255916,50.816945,31.19675,61.788972,22.917452,-61.921669,-3.207991,0,0.02
5067.602,239.904358,258.720673,264.159576,-87.079558,-81.966998,-61.73838,50.816945,31.19675,61.788972,22.939454,-61.701997,-3.317884,0,0.02
5083.108,239.894608,258.741943,263.988495,-88.18869,-82.09981,-60.619164,50.816945,31.19675,61.788972,22.950455,-61.541741,-3.449722,0,0.02
5099.234,239.892838,258.748413,263.847656,-89.131263,-82.10319,-59.679685,50.816945,31.196979,61.788972,22.972399,-61.41357,-3.460665,0,0.02
5115.333,239.893692,258.74826,263.795227,-89.473891,-82.098492,-59.340895,50.816945,31.197323,61.788972,22.9834,-61.367791,-3.460665,0,0.02
5130.751,239.893692,258.74826,263.795227,-89.473891,-82.098492,-59.340895,50.816945,31.197323,61.788972,22.9834,-61.367791,-3.460665,0,0.02
5145.198,239.893204,258.748718,263.795258,-89.473147,-82.109493,-59.341525,50.817059,31.197323,61.788972,22.9834,-61.367791,-3.471666,0,0.02
5162.153,239.893204,258.748718,263.795319,-89.471714,-82.131437,-59.342958,50.817059,31.197323,61.788972,22.9834,-61.367791,-3.493667,0,0.02
5177.149,239.893219,258.748749,263.794647,-89.472459,-82.131495,-59.342213,50.817059,31.197552,61.788972,22.9834,-61.367791,-3.493667,0,0.02
5192.727,239.893478,258.749023,263.787933,-89.480022,-82.131896,-59.334764,50.817059,31.198526,61.788972,22.9834,-61.367791,-3.493667,0,0.02
5207.761,239.892487,258.751953,263.763977,-89.588999,-82.132469,-59.224126,50.817059,31.200073,61.788972,22.9834,-61.35404,-3.493667,0,0.02
5223.286,239.89183,258.753906,263.748291,-89.660446,-82.154814,-59.15159,50.817059,31.201047,61.788972,22.9834,-61.34493,-3.515612,0,0.02
5238.797,239.891129,258.755829,263.733337,-89.731264,-82.188103,-59.079741,50.817059,31.201964,61.788972,22.9834,-61.335762,-3.548557,0,0.02
5254.338,239.890854,258.756866,263.723938,-89.768048,-82.243336,-59.042384,50.817059,31.202709,61.788972,22.9834,-61.331179,-3.603503,0,0.02
5270.136,239.890762,258.758087,263.709747,-89.811593,-82.265853,-58.998438,50.817059,31.204256,61.788972,22.9834,-61.326595,-3.625505,0,0.02
5285.152,239.890244,258.760223,263.689972,-89.889801,-82.266369,-58.919084,50.817059,31.207006,61.788972,22.9834,-61.317428,-3.625505,0,0.04
5301.018,239.854294,258.822083,263.68277,-89.818927,-82.304356,-58.923037,50.817059,31.2101,61.788972,22.895508,-61.317428,-3.625505,0,0.04
5316.129,239.83403,258.857758,263.67038,-89.787758,-82.326472,-58.91599,50.817059,31.212621,61.788972,22.862563,-61.317428,-3.625505,0,0.04
5331.158,239.829651,258.867462,263.648773,-89.80128,-82.333004,-58.893129,50.817059,31.21646,61.788972,22.851562,-61.317428,-3.625505,0,0.04
5346.546,239.820175,258.886017,263.625092,-89.80592,-82.345036,-58.869637,50.817059,31.220929,61.788972,22.829618,-61.317428,-3.625505,0,0.04
5362.537,239.789795,258.939606,263.60376,-89.762261,-82.378382,-58.856058,50.817059,31.226314,61.788972,22.76367,-61.317428,-3.625505,0,0.04
5376.726,239.769424,258.97522,263.59198,-89.730233,-82.400498,-58.84987,50.817059,31.230039,61.788972,22.708724,-61.317428,-3.625505,0,0.04
5391.348,239.76503,258.984894,263.570435,-89.743239,-82.429032,-58.827525,50.817059,31.233362,61.788972,22.708724,-61.317428,-3.647449,0,0.04
5408.381,239.766983,258.98703,263.518646,-89.803457,-82.44284,-58.76788,50.817059,31.241842,61.788972,22.708724,-61.317428,-3.65845,0,0.04
5423.873,239.772018,258.992615,263.384064,-89.96102,-82.450174,-58.611749,50.817059,31.263786,61.788972,22.708724,-61.317428,-3.65845,0,0.04
5438.218,239.778168,258.99939,263.218536,-90.155253,-82.459112,-58.419292,50.817059,31.290829,61.788972,22.708724,-61.317428,-3.65845,0,0.04
5453.331,239.774445,259.024353,263.036682,-90.347022,-82.479566,-58.210277,50.817059,31.321139,61.788972,22.68678,-61.317428,-3.65845,0,0.04
5468.518,239.773819,259.038177,262.911407,-90.483901,-82.491599,-58.065147,50.817059,31.347839,61.788972,22.664778,-61.317428,-3.65845,0,0.04
5484.552,239.773132,259.051941,262.786804,-90.620437,-82.503516,-57.920361,50.817059,31.366976,61.788972,22.664778,-61.312844,-3.65845,0,0.04
5499.892,239.774246,259.059784,262.668365,-90.904452,-82.508042,-57.634455,50.817059,31.377919,61.788972,22.664778,-61.294567,-3.65845,0,0.04
5516.991,239.76741,259.074707,262.608215,-91.137646,-82.51446,-57.388541,50.817059,31.383763,61.788972,22.653834,-61.262538,-3.65845,0,0.04
5532.351,239.766235,259.077423,262.587616,-91.248342,-82.51446,-57.276242,50.817059,31.384336,61.788972,22.653834,-61.253371,-3.65845,0,0.04
5538.406,239.76535,259.079071,262.577271,-91.318071,-82.514288,-57.205309,50.817059,31.384393,61.788972,22.653834,-61.244204,-3.65845,1,0.04
5547.912,239.763962,259.081543,262.562714,-91.421547,-82.513944,-57.100114,50.817059,31.384393,61.788972,22.653834,-61.230453,-3.65845,1,0.04
5564.993,239.761185,259.086426,262.533783,-91.640474,-82.568031,-56.877635,50.817059,31.384393,61.788972,22.653834,-61.189257,-3.746342,1,0.04
5570.77,239.758881,259.090546,262.509033,-91.828404,-82.622233,-56.686725,50.817059,31.384508,61.788972,22.653834,-61.18009,-3.768286,1,0.04
5575.767,239.757019,259.093811,262.489716,-91.974165,-82.643547,-56.538558,50.817059,31.384508,61.788972,22.653834,-61.161812,-3.790288,1,0.04
5583.266,239.769592,259.073486,262.449554,-92.277431,-82.692306,-56.259872,50.817059,31.384623,61.788972,22.68678,-61.129784,-3.856178,1,0.04
5594.422,239.800812,259.022491,262.377594,-92.827413,-82.762321,-55.769649,50.817059,31.384737,61.788972,22.76367,-61.074837,-3.966071,1,0.04
5608.834,239.831375,258.97229,262.300842,-93.434691,-82.853307,-55.221329,50.817059,31.384852,61.788972,22.862563,-61.001613,-4.141855,1,0.04
5624.147,239.85849,258.927551,262.245422,-93.912309,-82.972081,-54.795105,50.817059,31.384966,61.788972,22.906509,-60.974111,-4.251691,1,0.04
5639.146,239.883698,258.885742,262.225861,-94.140747,-83.109132,-54.612733,50.817059,31.385081,61.788972,22.961398,-60.964944,-4.416531,1,0.04
5653.655,239.909805,258.842285,262.216248,-94.219357,-83.115263,-54.581793,50.817059,31.385081,61.788972,23.016345,-60.964944,-4.449476,1,0.04
5669.172,239.941071,258.790131,262.20459,-94.289602,-83.08312,-54.569073,50.817059,31.385081,61.788972,23.082292,-60.964944,-4.449476,1,0.04
5685.686,239.956696,258.764038,262.19873,-94.324552,-83.067077,-54.562828,50.817059,31.385081,61.788972,23.126238,-60.964944,-4.449476,1,0.04
5702.24,239.967102,258.746613,262.194946,-94.368498,-83.089251,-54.537904,50.817059,31.385196,61.788972,23.137182,-60.964944,-4.493422,1,0.04
5717.317,239.966446,258.747253,262.189026,-94.428487,-83.121795,-54.477114,50.817059,31.385196,61.788857,23.137182,-60.96036,-4.515366,1,0.04
5733.149,239.965958,258.748077,262.184204,-94.465844,-83.121451,-54.439127,50.817059,31.385196,61.788857,23.137182,-60.955834,-4.515366,1,0.04
5748.435,239.971161,258.739349,262.182251,-94.477475,-83.116065,-54.437064,50.817059,31.385196,61.788857,23.148182,-60.955834,-4.515366,1,0.01
5763.608,240.017868,258.661011,262.164642,-94.581696,-83.06788,-54.419073,50.817059,31.385196,61.788857,23.247075,-60.955834,-4.515366,1,0.01
5769.111,240.028229,258.643616,262.160675,-94.597452,-83.046222,-54.422511,50.817059,31.385196,61.788857,23.302022,-60.955834,-4.482421,1,0.01
5777.986,240.069626,258.573914,262.144897,-94.674515,-82.981535,-54.422167,50.817059,31.385196,61.788857,23.356911,-60.955834,-4.482421,1,0.01
5792.142,240.079987,258.556488,262.140259,-94.698121,-82.97082,-54.417698,50.817059,31.38531,61.788857,23.378913,-60.955834,-4.482421,1,0.01
5808.802,240.079514,258.557343,262.134766,-94.735535,-82.970477,-54.379711,50.817059,31.385425,61.788857,23.378913,-60.95125,-4.482421,1,0.01
5824.603,240.079514,258.557343,262.134766,-94.735535,-82.970477,-54.379711,50.817059,31.385425,61.788857,23.378913,-60.95125,-4.482421,1,0.01
5839.565,240.07901,258.558197,262.129913,-94.772089,-82.970076,-54.342526,50.817059,31.385425,61.788857,23.378913,-60.946667,-4.482421,1,0.01
5855.053,240.07901,258.558197,262.129822,-94.749916,-82.937245,-54.364871,50.817059,31.385425,61.788857,23.378913,-60.946667,-4.449476,1,0.01
5870.746,240.078003,258.559845,262.120117,-94.815176,-82.925499,-54.298408,50.817059,31.385425,61.788857,23.378913,-60.937499,-4.438475,1,0.01
5886.134,240.076019,258.563171,262.100708,-94.952686,-82.912952,-54.158435,50.817059,31.385425,61.788857,23.378913,-60.919165,-4.427474,1,0.01
5902.127,240.075531,258.564026,262.095215,-94.989813,-82.912608,-54.120734,50.817059,31.385539,61.788857,23.378913,-60.914638,-4.427474,1,0.01
5916.648,240.075043,258.56485,262.090363,-95.026024,-82.912207,-54.083893,50.817059,31.385539,61.788857,23.378913,-60.910055,-4.427474,1,0.01
5932.359,240.075043,258.56485,262.090363,-95.026024,-82.912207,-54.083893,50.817059,31.385539,61.788857,23.378913,-60.910055,-4.427474,1,0.01
5947.931,240.074539,258.565674,262.08551,-95.062235,-82.911806,-54.047052,50.817059,31.385539,61.788857,23.378913,-60.905471,-4.427474,1,0.01
5962.604,240.074539,258.565674,262.08551,-95.062235,-82.911806,-54.047052,50.817059,31.385539,61.788857,23.378913,-60.905471,-4.427474,1,0.01
5978.101,240.074036,258.566498,262.080688,-95.098446,-82.911347,-54.01021,50.817059,31.385539,61.788857,23.378913,-60.900887,-4.427474,1,0.01
5992.537,240.074036,258.566498,262.080688,-95.098446,-82.911347,-54.01021,50.817059,31.385539,61.788857,23.378913,-60.896304,-4.427474,1,0.01
6009.31,240.073532,258.567322,262.075775,-95.118901,-82.889059,-53.989297,50.817059,31.385539,61.788857,23.378913,-60.896304,-4.394529,1,0.01
6024.943,240.073532,258.567322,262.075714,-95.103202,-82.867172,-54.005111,50.817059,31.385539,61.788857,23.378913,-60.896304,-4.383528,1,0.01
6040.078,240.073532,258.567352,262.075684,-95.095352,-82.856229,-54.013018,50.817059,31.385539,61.788857,23.378913,-60.896304,-4.372585,1,0.01
6055.101,240.073029,258.568176,262.070831,-95.131334,-82.855828,-53.976463,50.817059,31.385539,61.788857,23.378913,-60.89172,-4.372585,1,0.01
6070.632,240.073029,258.568176,262.070801,-95.123484,-82.844884,-53.98437,50.817059,31.385539,61.788857,23.378913,-60.89172,-4.361584,1,0.01
6085.767,240.073029,258.568176,262.07077,-95.115635,-82.833941,-53.992219,50.817059,31.385539,61.788857,23.378913,-60.89172,-4.350583,1,0.01
6100.782,240.073029,258.568176,262.07077,-95.115635,-82.833941,-53.992219,50.817059,31.385539,61.788857,23.378913,-60.89172,-4.350583,1,0.01
6116.101,240.073029,258.568176,262.07077,-95.115635,-82.833941,-53.992219,50.817059,31.385539,61.788857,23.378913,-60.89172,-4.350583,1,0.01
6131.108,240.073029,258.568176,262.07074,-95.107843,-82.822997,-54.000069,50.817059,31.385539,61.788857,23.378913,-60.89172,-4.339582,1,0.01
6145.922,240.072525,258.569,262.065887,-95.143653,-82.822596,-53.963686,50.817059,31.385539,61.788857,23.378913,-60.887136,-4.339582,1,0.01
6163.525,240.072525,258.569,262.065857,-95.135803,-82.811653,-53.971593,50.817059,31.385539,61.788857,23.378913,-60.887136,-4.328639,1,0.01
6179.025,240.072525,258.569,262.065857,-95.135803,-82.811653,-53.971593,50.817059,31.385539,61.788857,23.378913,-60.887136,-4.328639,1,0.01
6194.081,240.072525,258.569,262.065826,-95.128011,-82.800709,-53.979442,50.817059,31.385539,61.788857,23.378913,-60.887136,-4.317638,1,0.01
6209.324,240.072525,258.569,262.065826,-95.128011,-82.800709,-53.979442,50.817059,31.385539,61.788857,23.378913,-60.887136,-4.317638,1,0.02
6224.54,240.072525,258.569,262.065826,-95.128011,-82.800709,-53.979442,50.817059,31.385539,61.788857,23.378913,-60.887136,-4.317638,1,0.02
6240.07,240.072525,258.569,262.065826,-95.128011,-82.800709,-53.979442,50.817059,31.385539,61.788857,23.378913,-60.887136,-4.317638,1,0.02
6255.339,240.072525,258.569,262.065826,-95.128011,-82.800709,-53.979442,50.817059,31.385539,61.788857,23.378913,-60.887136,-4.317638,1,0.02
6271.369,240.072525,258.569,262.065826,-95.128011,-82.800709,-53.979442,50.817059,31.385539,61.788857,23.378913,-60.887136,-4.317638,1,0.02
6286.315,240.072525,258.569,262.065796,-95.120219,-82.789766,-53.987292,50.817059,31.385539,61.788857,23.378913,-60.887136,-4.306637,1,0.02
6300.269,240.072525,258.569,262.065765,-95.112484,-82.778822,-53.995084,50.817059,31.385539,61.788857,23.378913,-60.887136,-4.295636,1,0.02
6316.433,240.072525,258.569,262.065704,-95.097014,-82.756935,-54.010669,50.817059,31.385539,61.788857,23.378913,-60.887136,-4.273692,1,0.02
6332.754,240.072525,258.569,262.065674,-95.089336,-82.745992,-54.018404,50.817059,31.385539,61.788857,23.378913,-60.887136,-4.262691,1,0.02
6349.243,240.072525,258.569,262.065674,-95.089336,-82.745992,-54.018404,50.817059,31.385539,61.788857,23.378913,-60.887136,-4.262691,1,0.02
6363.741,240.072021,258.569824,262.060822,-95.11701,-82.734647,-53.990157,50.817059,31.385539,61.788857,23.378913,-60.882553,-4.251691,1,0.02
6378.383,240.072021,258.569824,262.060822,-95.11701,-82.734647,-53.990157,50.817059,31.385539,61.788857,23.378913,-60.882553,-4.251691,1,0.02
6393.414,240.072021,258.569824,262.060822,-95.11701,-82.734647,-53.990157,50.817059,31.385539,61.788857,23.378913,-60.882553,-4.251691,1,0.02
6409.031,240.072021,258.569824,262.060822,-95.11701,-82.734647,-53.990157,50.817059,31.385539,61.788857,23.378913,-60.882553,-4.251691,1,0.02
6423.989,240.072021,258.569824,262.060822,-95.11701,-82.734647,-53.990157,50.817059,31.385539,61.788857,23.378913,-60.882553,-4.251691,1,0.02
6439.634,240.072037,258.569855,262.06015,-95.117869,-82.734647,-53.989355,50.817059,31.385654,61.788857,23.378913,-60.882553,-4.251691,1,0.02
6454.639,240.071533,258.570679,262.055298,-95.153221,-82.734246,-53.953373,50.817059,31.385654,61.788857,23.378913,-60.877969,-4.251691,1,0.02
6469.81,240.071533,258.570679,262.055298,-95.153221,-82.734246,-53.953373,50.817059,31.385654,61.788857,23.378913,-60.877969,-4.251691,1,0.02
6485.129,240.07103,258.571503,262.050446,-95.188515,-82.733788,-53.917448,50.817059,31.385654,61.788857,23.378913,-60.873385,-4.251691,1,0.02
6500.818,240.07103,258.571503,262.050446,-95.188515,-82.733788,-53.917448,50.817059,31.385654,61.788857,23.378913,-60.873385,-4.251691,1,0.02
6516.545,240.060715,258.588928,262.054382,-95.167258,-82.744559,-53.919568,50.817059,31.385654,61.788857,23.356911,-60.873385,-4.251691,1,0.02
6532.999,240.055542,258.597626,262.056366,-95.156601,-82.749888,-53.920657,50.817059,31.385654,61.788857,23.345968,-60.873385,-4.251691,1,0.02
6548.457,240.055542,258.597626,262.056366,-95.156601,-82.749888,-53.920657,50.817059,31.385654,61.788857,23.345968,-60.873385,-4.251691,1,0.02
6562.962,240.055542,258.597626,262.056366,-95.156601,-82.749888,-53.920657,50.817059,31.385654,61.788857,23.345968,-60.873385,-4.251691,1,0.02
6578.504,240.049881,258.607178,262.053497,-95.181411,-82.754873,-53.885649,50.817059,31.385654,61.788857,23.334967,-60.868859,-4.251691,1,0.02
6594.495,240.044708,258.615875,262.05545,-95.170753,-82.760201,-53.886738,50.817059,31.385654,61.788857,23.323966,-60.868859,-4.251691,1,0.02
6610.732,240.044205,258.616699,262.050598,-95.20622,-82.7598,-53.850642,50.817059,31.385654,61.788857,23.323966,-60.864275,-4.251691,1,0.02
6626.132,240.043701,258.617523,262.045776,-95.241686,-82.759399,-53.814603,50.817059,31.385654,61.788857,23.323966,-60.859692,-4.251691,1,0.02
6640.866,240.043198,258.618347,262.040924,-95.277094,-82.758941,-53.778506,50.817059,31.385654,61.788857,23.323966,-60.855108,-4.251691,1,0.02
6655.871,240.043198,258.618347,262.040924,-95.277094,-82.758941,-53.778506,50.817059,31.385654,61.788857,23.323966,-60.855108,-4.251691,1,0.02
6671.437,240.037537,258.627869,262.038055,-95.302018,-82.763868,-53.743441,50.817059,31.385654,61.788857,23.312965,-60.850524,-4.251691,1,0.02
6686.888,240.032364,258.636566,262.040009,-95.291476,-82.769254,-53.744415,50.817059,31.385654,61.788857,23.302022,-60.850524,-4.251691,1,0.02
6701.876,240.022018,258.653992,262.043945,-95.270334,-82.779968,-53.746363,50.817059,31.385654,61.788857,23.28002,-60.850524,-4.251691,1,0.02
6716.258,240.022018,258.653992,262.043945,-95.270334,-82.779968,-53.746363,50.817059,31.385654,61.788857,23.28002,-60.850524,-4.251691,1,0.02
