BAEK26/lfd/data/sepisode1/aaaaa.csv
timestamp,x,y,z,roll,pitch,yaw,joint1,joint2,joint3,joint4,joint5,joint6,gripper,scale
123.374,-135.483932,231.091827,186.335617,119.710249,-86.880283,148.982262,129.40332,35.199662,40.194364,41.341541,-84.626783,-5.822741,1,-0.01
124.832,-135.483932,231.091827,186.335617,119.710249,-86.880283,148.982262,129.40332,35.199662,40.194364,41.341541,-84.626783,-5.822741,1,-0.01
140.891,-135.483932,231.091827,186.335617,119.710249,-86.880283,148.982262,129.40332,35.199662,40.194364,41.341541,-84.626783,-5.822741,1,-0.01
155.836,-135.483932,231.091827,186.335617,119.710249,-86.880283,148.982262,129.40332,35.199662,40.194364,41.341541,-84.626783,-5.822741,1,-0.01
171.832,-135.483932,231.091827,186.335617,119.710249,-86.880283,148.982262,129.40332,35.199662,40.194364,41.341541,-84.626783,-5.822741,1,-0.01
186.831,-135.483932,231.091827,186.335617,119.710249,-86.880283,148.982262,129.40332,35.199662,40.194364,41.341541,-84.626783,-5.822741,1,-0.01
202.348,-135.483932,231.091827,186.335617,119.710249,-86.880283,148.982262,129.40332,35.199662,40.194364,41.341541,-84.626783,-5.822741,1,-0.01
217.857,-135.483932,231.091827,186.335617,119.710249,-86.880283,148.982262,129.40332,35.199662,40.194364,41.341541,-84.626783,-5.822741,1,-0.01
232.553,-135.483932,231.091827,186.335617,119.710249,-86.880283,148.982262,129.40332,35.199662,40.194364,41.341541,-84.626783,-5.822741,1,0.03
248.952,-135.483932,231.091827,186.335617,119.710249,-86.880283,148.982262,129.40332,35.199662,40.194364,41.341541,-84.626783,-5.822741,1,0.03
264.625,-135.483932,231.091827,186.335617,119.710249,-86.880283,148.982262,129.40332,35.199662,40.194364,41.341541,-84.626783,-5.822741,1,0.03
279.133,-135.483932,231.091827,186.335617,119.710249,-86.880283,148.982262,129.40332,35.199662,40.194364,41.341541,-84.626783,-5.822741,1,0.03
293.419,-135.483932,231.091827,186.335617,119.710249,-86.880283,148.982262,129.40332,35.199662,40.194364,41.341541,-84.626783,-5.822741,1,0.03
308.92,-135.483932,231.091827,186.335617,119.710249,-86.880283,148.982262,129.40332,35.199662,40.194364,41.341541,-84.626783,-5.822741,1,0.03
324.014,-135.483932,231.091827,186.335617,119.710249,-86.880283,148.982262,129.40332,35.199662,40.194364,41.341541,-84.626783,-5.822741,1,0.03
339.457,-135.483932,231.091827,186.335617,119.710249,-86.880283,148.982262,129.40332,35.199662,40.194364,41.341541,-84.626783,-5.822741,1,0.03
354.889,-135.483932,231.091827,186.335617,119.710249,-86.880283,148.982262,129.40332,35.199662,40.194364,41.341541,-84.626783,-5.822741,1,0.03
370.393,-135.483932,231.091827,186.335617,119.710249,-86.880283,148.982262,129.40332,35.199662,40.194364,41.341541,-84.626783,-5.822741,1,0.03
386.345,-135.483932,231.091827,186.335617,119.710249,-86.880283,148.982262,129.40332,35.199662,40.194364,41.341541,-84.626783,-5.822741,1,0.03
402.071,-135.483932,231.091827,186.335617,119.710249,-86.880283,148.982262,129.40332,35.199662,40.194364,41.341541,-84.626783,-5.822741,1,0.03
417.588,-135.483932,231.091827,186.335587,119.810402,-86.889852,148.881937,129.40332,35.199662,40.194364,41.341541,-84.626783,-5.81174,1,0.03
432.408,-135.483932,231.091827,186.335587,119.810402,-86.889852,148.881937,129.40332,35.199662,40.194364,41.341541,-84.626783,-5.81174,1,0.03
448.488,-135.483932,231.091827,186.335587,119.810402,-86.889852,148.881937,129.40332,35.199662,40.194364,41.341541,-84.626783,-5.81174,1,0.03
463.391,-135.483932,231.091827,186.335587,119.810402,-86.889852,148.881937,129.40332,35.199662,40.194364,41.341541,-84.626783,-5.81174,1,0.03
479.203,-135.483932,231.091827,186.335587,119.810402,-86.889852,148.881937,129.40332,35.199662,40.194364,41.341541,-84.626783,-5.81174,1,0.03
495.032,-135.483932,231.091827,186.335587,119.810402,-86.889852,148.881937,129.40332,35.199662,40.194364,41.341541,-84.626783,-5.81174,1,0.03
509.598,-135.483932,231.091827,186.335587,119.810402,-86.889852,148.881937,129.40332,35.199662,40.194364,41.341541,-84.626783,-5.81174,1,0.03
525.162,-135.483932,231.091827,186.335587,119.810402,-86.889852,148.881937,129.40332,35.199662,40.194364,41.341541,-84.626783,-5.81174,1,0.03
541.027,-135.483917,231.091827,186.335556,119.911243,-86.899363,148.780982,129.40332,35.199662,40.194364,41.341541,-84.626783,-5.800797,1,0.03
556.034,-135.483917,231.091827,186.335556,119.911243,-86.899363,148.780982,129.40332,35.199662,40.194364,41.341541,-84.626783,-5.800797,1,0.03
571.248,-135.483917,231.091827,186.335556,119.911243,-86.899363,148.780982,129.40332,35.199662,40.194364,41.341541,-84.626783,-5.800797,1,0.03
586.983,-135.483917,231.091827,186.335556,119.911243,-86.899363,148.780982,129.40332,35.199662,40.194364,41.341541,-84.626783,-5.800797,1,0.03
602.211,-135.483917,231.091827,186.335556,119.911243,-86.899363,148.780982,129.40332,35.199662,40.194364,41.341541,-84.626783,-5.800797,1,0.03
618.223,-135.460541,231.091171,186.334473,119.940636,-86.900108,148.72976,129.40332,35.199662,40.194364,41.363542,-84.626783,-5.800797,1,0.03
633.624,-135.425476,231.090179,186.33284,119.984696,-86.901196,148.652811,129.40332,35.199662,40.194364,41.396487,-84.626783,-5.800797,1,0.03
650.406,-135.355347,231.08815,186.329559,120.17509,-86.912885,148.396699,129.40332,35.199662,40.194364,41.462377,-84.626783,-5.789796,1,0.03
665.364,-135.191711,231.083084,186.321899,120.486263,-86.927438,147.932431,129.40332,35.199662,40.194364,41.616216,-84.626783,-5.778795,1,0.03
680.353,-134.957962,231.075073,186.310852,121.103454,-86.962789,147.096142,129.40332,35.199662,40.194364,41.835946,-84.626783,-5.74585,1,0.03
696.602,-134.677521,231.064301,186.297546,121.797535,-86.999058,146.139303,129.40332,35.199662,40.194364,42.099621,-84.626783,-5.712905,1,-0.05
711.64,-134.49057,231.056396,186.288605,122.383097,-87.032232,145.378415,129.40332,35.199662,40.194364,42.341295,-84.626783,-5.67996,1,-0.05
726.665,-134.15184,231.040604,186.2724,123.073454,-87.059791,144.370754,129.40332,35.199662,40.194364,42.593969,-84.626783,-5.657958,1,-0.05
742.206,-133.696396,231.016403,186.250061,125.444182,-87.19816,141.571626,129.40332,35.199662,40.194364,43.022484,-84.626783,-5.504176,1,-0.05
756.934,-133.007812,230.973312,186.215912,129.319783,-87.386721,137.047895,129.40332,35.199662,40.194364,43.670671,-84.626783,-5.284447,1,-0.05
771.942,-132.26152,230.917786,186.178436,133.346702,-87.537581,132.318587,129.40332,35.199662,40.194364,44.373805,-84.626783,-5.097663,1,-0.05
786.91,-131.655746,230.865952,186.147842,135.309197,-87.582615,129.786744,129.40332,35.199662,40.194364,45.208719,-84.626783,-5.031715,1,-0.05
803.159,-130.736572,230.775665,186.10083,137.330191,-87.603242,126.901729,129.40332,35.199662,40.194364,46.010745,-84.626783,-5.020772,1,-0.05
818.341,-129.876953,230.678482,186.056061,138.880443,-87.605361,124.542461,129.40332,35.199662,40.194364,46.625988,-84.626783,-5.020772,1,-0.05
833.812,-128.861725,230.551056,186.066559,139.781763,-87.649938,122.685046,129.40269,35.199662,40.194364,47.581796,-84.686256,-5.020772,1,-0.05
848.8,-127.796021,230.401627,186.142487,139.771966,-87.741496,121.689876,129.401487,35.199662,40.194364,48.58155,-84.8099,-5.020772,1,-0.05
864.808,-126.5196,230.198547,186.290497,138.37349,-87.875282,121.880785,129.400054,35.199433,40.194364,49.779032,-85.011295,-5.042716,1,-0.05
879.826,-125.296471,229.98288,186.49054,135.743728,-88.038804,123.352771,129.397304,35.198975,40.194364,50.921624,-85.258469,-5.064718,1,-0.05
895.375,-124.032112,229.737152,186.780869,129.938749,-88.228052,127.959409,129.393236,35.198574,40.194364,52.097162,-85.592675,-5.119607,1,-0.05
910.185,-123.119423,229.553177,187.035324,123.828727,-88.379084,133.210682,129.386762,35.198459,40.194364,52.932133,-85.876461,-5.152609,1,-0.05
925.189,-121.738678,229.266113,187.486633,110.308184,-88.599386,145.4423,129.370833,35.198115,40.194594,54.173561,-86.366283,-5.185555,1,-0.05
940.41,-120.413887,229.018341,188.00235,90.576148,-88.679314,163.982985,129.336742,35.196912,40.194708,55.294209,-86.90641,-5.251445,1,-0.05
955.498,-118.917862,228.756332,188.610321,67.271147,-88.601105,-174.019716,129.281624,35.194506,40.19488,56.502691,-87.53357,-5.284447,1,-0.05
972.53,-117.435555,228.585419,189.236008,49.430616,-88.284947,-157.373573,129.188862,35.19336,40.19488,57.557392,-88.174423,-5.350337,1,-0.05
988.736,-115.799965,228.406113,189.996933,36.754097,-87.731011,-145.983687,129.071234,35.192959,40.19488,58.666982,-88.948031,-5.46023,1,-0.05
1002.46,-114.581703,228.299438,190.498505,32.864458,-87.285307,-143.018172,128.969075,35.1925,40.19488,59.447007,-89.460771,-5.614012,1,-0.05
1017.552,-112.784393,228.123077,191.022644,30.978854,-86.777552,-142.498041,128.81644,35.192042,40.19488,60.611544,-90.019233,-5.855686,1,-0.05
1034.033,-111.070061,227.939285,191.438095,29.261413,-86.401921,-142.079438,128.666267,35.189979,40.19488,61.721191,-90.467859,-6.009525,1,-0.05
1050.177,-109.285095,227.674179,191.572495,27.752815,-86.323025,-141.967425,128.524861,35.187802,40.19488,62.962619,-90.66467,-6.020526,1,-0.05
1066.076,-107.506714,227.421066,191.498047,27.565229,-86.415958,-143.146687,128.374345,35.186255,40.19488,64.182102,-90.669253,-6.020526,1,-0.05
1079.198,-106.182663,227.232361,191.437012,27.477337,-86.486833,-144.064623,128.225835,35.185682,40.19488,65.456532,-90.669253,-6.020526,1,-0.05
1095.811,-104.525322,226.876389,191.348618,27.395289,-86.584064,-145.324385,128.093367,35.185682,40.19488,66.588124,-90.669253,-6.020526,1,-0.05
1111.747,-102.838478,226.574188,191.26828,27.664064,-86.665997,-146.89681,127.94732,35.184364,40.19488,67.807607,-90.669253,-6.04247,1,-0.05
1126.727,-101.337769,226.154007,191.18634,27.806845,-86.754118,-148.307776,127.869455,35.183734,40.19488,68.609633,-90.669253,-6.053471,1,-0.05
1141.864,-99.806297,225.745468,191.026962,30.700053,-86.836108,-152.469742,127.747701,35.183619,40.19488,69.763169,-90.600613,-6.196309,1,-0.05
1156.484,-98.110588,225.163239,190.755386,37.578812,-86.889966,-160.845296,127.634313,35.18339,40.19488,71.158436,-90.44494,-6.525875,1,-0.02
1172.089,-96.427834,224.496521,190.452377,44.095348,-86.963248,-168.898619,127.530493,35.18339,40.19488,72.60865,-90.266407,-6.78955,1,-0.02
1186.788,-94.913979,223.818832,190.145599,49.602389,-87.078584,-175.833356,127.408682,35.183046,40.19488,74.377428,-90.032984,-6.987278,1,-0.02
1202.426,-92.980812,223.127869,189.880569,54.52868,-87.176216,177.567757,127.279824,35.181499,40.19488,75.498076,-89.936841,-7.064226,1,-0.02
1218.779,-91.443672,222.619537,189.779953,56.208363,-87.232137,174.600981,127.129423,35.180525,40.19488,76.640611,-89.92309,-7.097171,1,-0.02
1233.57,-90.16539,222.604233,189.73938,56.739151,-87.266514,173.319275,126.914506,35.180525,40.19488,77.178962,-89.92309,-7.097171,1,-0.02
1248.466,-89.160202,222.854446,189.742233,56.844976,-87.279234,172.825041,126.69025,35.177317,40.19488,77.343745,-89.92309,-7.097171,1,-0.02
1264.494,-88.107162,223.283691,189.790421,56.227385,-87.26342,173.169217,126.420101,35.17491,40.19488,77.343745,-89.955119,-7.097171,1,-0.02
1280.824,-86.934204,223.657913,189.839233,55.744496,-87.258436,173.270344,126.139638,35.169238,40.19488,77.442637,-89.982621,-7.097171,1,-0.02
1296.089,-85.946632,223.909149,189.849625,55.802651,-87.270811,172.846012,125.846398,35.163738,40.19488,77.629421,-89.982621,-7.097171,1,-0.02
1311.035,-84.613396,224.166214,189.868591,56.375151,-87.238153,171.721238,125.628216,35.159326,40.19488,77.849151,-89.996314,-7.152118,1,-0.02
1326.534,-83.152679,224.427704,189.92215,58.498418,-87.084543,168.974708,125.315553,35.14483,40.19488,78.156714,-90.010065,-7.360846,1,-0.02
1341.54,-81.495445,224.663727,189.951645,60.42516,-86.967545,166.306157,124.969945,35.13085,40.19488,78.552227,-90.010065,-7.53663,1,-0.02
1356.747,-79.665237,224.848923,189.984909,60.998978,-86.965253,164.867517,124.598897,35.116354,40.194995,79.046633,-90.019233,-7.580575,1,-0.02
1371.181,-78.062325,225.002136,190.160172,59.791526,-86.976598,165.302392,124.175309,35.072408,40.195453,79.606928,-90.129069,-7.580575,1,-0.02
1386.41,-76.225334,225.297348,190.547791,57.122001,-86.978889,167.163244,123.87296,35.019696,40.195568,79.881604,-90.234378,-7.580575,1,-0.02
1402.164,-74.434052,225.945847,191.153061,54.038228,-87.021919,169.702822,123.417114,34.893989,40.195568,79.958495,-90.325937,-7.580575,1,-0.02
1417.635,-72.909508,226.774261,191.664795,51.751152,-87.06787,171.754126,122.978458,34.780715,40.195568,79.749766,-90.353382,-7.580575,1,-0.02
1434.097,-71.252037,228.01445,192.432205,48.580576,-87.088897,174.915879,122.440966,34.61387,40.195911,79.211415,-90.38541,-7.61352,1,-0.02
1449.262,-69.644562,229.328522,193.21553,45.863381,-87.101732,177.721768,121.900037,34.437857,40.196255,78.574229,-90.38541,-7.668467,1,-0.02
1464.542,-68.426956,230.373291,193.954071,43.039845,-87.125452,-179.36249,121.363691,34.216065,40.196542,77.90404,-90.38541,-7.723414,1,-0.02
1479.761,-66.912231,231.572083,194.822067,41.088179,-87.08334,-177.351064,120.84293,34.02974,40.196542,77.420636,-90.38541,-7.888196,1,-0.02
1493.808,-64.682259,232.556335,195.846924,39.681281,-87.009657,-176.425909,120.381068,33.839231,40.197,77.354745,-90.422079,-8.052979,1,-0.02
1509.307,-62.562565,233.329895,196.836868,39.607541,-86.841551,-176.916533,119.838019,33.621564,40.197229,77.354745,-90.504471,-8.371601,1,-0.02
1525.04,-60.423653,234.108032,197.915421,39.953608,-86.675279,-177.831604,119.28987,33.376568,40.197458,77.354745,-90.563944,-8.734111,1,-0.02
1540.038,-58.212978,234.880646,198.980011,40.85636,-86.501845,-179.317627,118.726825,33.130368,40.197458,77.354745,-90.605139,-9.129624,1,-0.02
1556.04,-55.807911,235.903,200.194244,41.356953,-86.280053,179.727521,118.079955,32.859645,40.197458,77.135016,-90.66467,-9.558082,1,-0.02
1570.715,-54.534435,236.778076,201.187668,40.737528,-86.181791,-179.659683,117.552834,32.567781,40.197458,76.585721,-90.66467,-9.898705,1,-0.02
1586.31,-52.451313,237.916061,202.342087,44.010493,-85.809139,176.906506,117.078253,32.370683,40.197458,76.256099,-90.66467,-10.459001,1,-0.02
1602.037,-50.168198,238.826828,203.643631,51.943895,-84.941566,168.507289,116.474184,32.067015,40.197859,76.069315,-90.669253,-11.821265,1,-0.02
1617.546,-47.906815,239.608932,204.913361,60.704076,-83.345076,159.197297,115.893376,31.781339,40.198432,75.959479,-90.719616,-13.919666,1,0.0
1632.797,-45.690483,240.157516,206.411392,64.732256,-81.709397,154.442607,115.356744,31.476468,40.198776,76.03637,-90.934762,-15.919174,1,0.0
1649.803,-42.671379,240.438339,208.066833,64.096158,-81.068658,153.834011,114.693775,31.154122,40.199521,76.508773,-91.287246,-16.798091,1,0.0
1664.53,-40.160103,240.638184,210.256897,58.892212,-81.002309,157.954667,114.133307,30.800034,40.200094,76.86034,-92.01049,-16.842037,1,0.0
1680.027,-38.395031,240.747803,212.189133,54.199859,-80.505097,161.856509,113.527576,30.474995,40.20038,77.080069,-93.186944,-17.259494,1,0.0
1694.417,-35.484032,240.896591,214.863251,50.595325,-79.364681,164.178764,113.058553,30.199631,40.20061,77.299799,-94.065862,-18.017575,1,0.0
1708.891,-33.169315,240.991516,217.699112,47.818714,-77.799934,165.85501,112.501008,29.867889,40.201297,77.398691,-95.462045,-19.226057,1,0.0
1725.852,-30.979298,241.117096,220.378815,44.663722,-76.577872,168.042906,111.95538,29.551158,40.201526,77.398691,-96.762086,-19.995138,1,0.0
1740.884,-28.492722,240.948959,223.120667,40.53006,-75.616964,170.897325,111.371364,29.226806,40.202042,77.673367,-98.149103,-20.313703,1,0.0
1755.246,-26.411217,240.757431,225.151093,37.264487,-75.092021,173.107338,110.764602,28.887214,40.203016,78.068823,-99.421699,-20.324704,1,0.0
1770.95,-24.437941,240.416412,227.599701,33.331018,-74.244158,175.899647,110.419968,28.686851,40.203016,78.255607,-100.428787,-20.324704,1,0.0
1788.407,-21.953539,240.045975,229.499634,29.394568,-73.961632,178.596159,109.723194,28.357801,40.203016,78.936797,-101.458736,-19.577624,1,0.0
1803.254,-19.472223,239.528625,230.738861,22.124765,-74.557336,-175.277473,109.220996,28.149073,40.203131,79.617929,-101.815803,-17.545171,1,0.0
1818.518,-17.180548,239.060333,231.551025,14.092986,-75.328595,-168.226196,108.872982,27.977988,40.203131,80.189225,-101.834081,-16.029067,1,0.0
1833.586,-14.782749,238.559219,231.520767,5.289489,-76.316145,-160.417468,108.41685,27.827815,40.20336,81.101087,-101.394622,-13.831774,1,0.0
1849.508,-12.095111,238.313385,231.237778,-4.948064,-77.178561,-151.030529,107.873743,27.67346,40.203474,81.826165,-100.657627,-11.568591,1,0.0
1865.438,-9.758517,238.463669,230.392014,-14.383991,-77.922203,-142.013376,107.377505,27.600637,40.203818,82.155788,-99.613927,-9.68992,1,0.0
1878.972,-8.010221,238.753464,229.866531,-21.32738,-78.160611,-135.227665,106.854795,27.549415,40.203818,82.166731,-98.684704,-8.06398,1,0.0
1893.978,-5.840839,239.222397,228.852448,-28.818688,-78.525871,-127.859199,106.471487,27.548097,40.203818,82.07884,-97.892761,-7.130116,1,0.0
1908.923,-3.507998,239.900482,227.946289,-35.830317,-78.653583,-120.819954,105.896466,27.547753,40.203933,81.727273,-96.936036,-5.97658,1,0.0
1924.421,-1.459254,240.706482,227.099228,-41.42227,-78.795219,-115.02397,105.36923,27.547753,40.204047,81.19998,-96.002173,-5.163553,1,0.0
1939.86,0.510663,241.477982,226.414673,-46.003927,-78.831315,-110.237481,104.854084,27.547753,40.204047,80.639627,-95.219398,-4.504422,1,0.0
1955.266,2.531011,242.215897,225.863022,-49.780693,-78.790348,-106.281436,104.322895,27.547753,40.204047,80.057387,-94.560267,-3.94407,1,0.0
1970.924,4.137683,242.670059,225.711136,-51.078844,-78.714661,-104.938824,103.902745,27.547123,40.204162,79.639873,-94.317619,-3.702396,1,0.0
1985.666,6.114442,243.288483,225.794952,-50.945115,-78.633129,-104.934871,103.369722,27.547009,40.204563,78.980742,-94.248979,-3.625505,1,0.0
2001.414,8.016459,243.705551,225.909042,-50.958293,-78.467028,-104.927308,102.872796,27.547009,40.204563,78.497338,-94.248979,-3.471666,1,0.0
2017.572,10.369235,243.798019,225.944794,-51.473497,-78.292792,-104.802575,102.30362,27.547009,40.204792,78.332498,-94.239812,-3.262937,1,0.0
2032.369,12.364836,243.974136,226.012604,-52.230489,-77.999094,-104.256031,101.808527,27.546779,40.205594,78.068823,-94.239812,-2.922371,1,0.0
2049.312,14.488862,244.133698,226.085052,-53.042599,-77.665632,-103.671155,101.282953,27.546779,40.205594,77.794204,-94.244395,-2.537859,1,0.0
2064.169,16.761612,244.072159,226.025787,-54.21235,-77.420349,-102.961891,100.746607,27.546779,40.205594,77.750258,-94.171171,-2.186292,1,0.0
2080.075,18.717371,243.984024,225.984833,-54.858417,-77.293955,-102.735916,100.153767,27.546779,40.205594,77.684311,-94.111641,-1.933618,1,0.01
2094.516,20.800346,244.075302,225.992661,-55.565905,-77.059157,-102.272737,99.775443,27.546779,40.205594,77.486583,-94.070445,-1.702888,1,0.01
2109.275,23.218788,244.227722,226.047318,-56.232427,-76.749129,-101.817236,99.174697,27.546779,40.205594,77.124015,-94.038417,-1.34032,1,0.01
2124.236,25.678175,244.440887,226.133484,-56.649827,-76.463051,-101.533794,98.555731,27.546779,40.205594,76.662612,-94.015499,-1.021756,1,0.01
2139.742,28.182869,244.749054,226.275528,-56.35441,-76.33912,-101.86015,97.913331,27.546779,40.205594,76.058371,-94.015499,-0.922863,1,0.01
2155.841,30.460552,245.116547,226.390228,-56.288176,-76.178291,-101.844279,97.320205,27.546779,40.205652,75.399183,-93.978887,-0.75808,1,0.01
2170.838,32.771244,245.147385,226.344742,-57.199408,-75.926476,-101.165267,96.579599,27.54655,40.206683,75.00367,-93.818688,-0.29662,1,0.01
2186.461,35.391026,245.303879,226.274734,-58.229987,-75.687725,-100.279532,96.103013,27.545118,40.211725,74.641103,-93.672182,-0.043946,1,0.01
2202.003,38.038563,245.424545,226.153687,-59.359975,-75.524833,-99.359591,95.451331,27.545118,40.229601,74.24559,-93.420425,0.252674,1,0.01
2217.699,40.961773,245.432709,225.585098,-61.918976,-75.536177,-97.140181,94.752265,27.54231,40.237107,73.970971,-92.779514,0.571296,1,0.01
2233.938,43.825802,245.604568,225.061935,-64.577557,-75.568378,-94.697089,94.055147,27.525809,40.261286,73.575459,-92.060853,0.834971,1,0.01
2248.847,46.563751,245.938568,224.158707,-68.74021,-75.573477,-90.672405,93.386964,27.524262,40.308727,73.168945,-90.980541,1.230484,1,0.01
2265.032,49.985348,246.051605,223.243286,-73.398816,-75.399928,-86.430454,92.568035,27.507876,40.369059,72.894269,-89.822364,1.724832,1,0.01
2280.036,51.929405,246.497223,222.707611,-76.438242,-75.327334,-83.429702,91.922828,27.497562,40.490469,72.421865,-88.595604,1.988507,1,0.01
2295.38,54.712482,247.152405,221.890961,-81.109739,-75.264022,-78.967679,91.142917,27.494468,40.675649,72.114244,-87.364204,2.098401,1,0.01
2310.903,57.940228,247.795013,221.431076,-85.068304,-75.171834,-75.344638,90.607546,27.476821,40.847708,71.839626,-86.499037,2.098401,1,0.01
2326.509,60.391125,249.013245,221.293594,-88.614684,-75.016275,-71.899213,89.993392,27.469316,41.182258,71.444113,-85.372946,2.010509,1,0.01
2341.906,63.572544,249.926575,221.339142,-91.560432,-74.879625,-69.325429,89.225113,27.460435,41.52483,71.158436,-84.40247,1.834725,1,0.01
2355.727,66.22097,251.300568,222.083176,-92.919602,-75.05558,-68.082856,88.579046,27.443303,41.951855,70.718977,-83.789061,1.263429,1,0.01
2372.675,69.000244,252.638657,223.157883,-93.079171,-75.433217,-68.022523,87.911493,27.440782,42.390111,70.213629,-83.486941,0.51635,1,0.01
2388.93,71.929985,253.96431,224.683319,-92.393856,-76.139846,-68.917713,87.229043,27.419812,42.877239,69.785171,-83.399966,-0.615242,1,0.01
2403.955,73.967819,255.034058,225.98938,-91.280255,-76.670519,-70.114564,86.623885,27.406176,43.378978,69.301766,-83.47319,-1.724832,1,0.01
2419.446,76.561058,256.330261,227.652985,-89.908365,-77.218725,-71.732654,86.007554,27.399357,43.927815,69.060035,-83.491524,-2.658696,1,0.01
2434.099,79.844383,257.379395,229.449005,-88.496941,-77.686717,-73.649771,85.456139,27.382627,44.298175,68.895253,-83.53272,-3.416777,1,0.01
2450.192,82.281441,258.844208,231.385208,-86.424495,-78.425833,-75.894849,84.923231,27.371684,44.855663,68.532742,-83.619695,-4.658204,1,0.01
2465.205,85.323051,259.697235,232.972458,-85.135398,-78.832518,-77.710896,84.275789,27.369678,45.358376,68.422849,-83.619695,-5.537121,1,0.01
2480.213,88.329346,260.399902,234.445541,-83.854493,-79.148734,-79.480877,83.636712,27.367043,45.816284,68.280011,-83.615111,-6.284201,1,0.01
2495.399,90.404785,261.210754,235.713654,-82.58946,-79.275472,-80.934643,83.057394,27.366642,46.307022,67.97239,-83.605944,-6.877442,1,0.01
2511.05,93.288857,261.890778,237.076965,-81.82777,-79.215139,-82.095341,82.58585,27.366642,46.635957,67.840552,-83.53272,-7.097171,1,0.01
2526.583,96.658562,262.368439,238.459412,-80.80292,-79.182366,-83.558389,81.870971,27.366527,47.06006,67.576877,-83.477774,-7.448738,1,0.01
2541.724,99.137573,263.229187,239.885773,-79.130857,-79.210842,-85.264542,81.338177,27.366527,47.455229,67.071528,-83.468606,-7.822249,1,0.03
2556.916,102.338486,263.602478,241.119385,-78.514698,-78.983034,-86.216684,80.66117,27.366527,47.833897,66.752906,-83.367938,-7.921142,1,0.03
2571.936,105.246918,263.981842,242.228287,-77.66357,-78.806907,-87.196441,80.035157,27.365725,48.149883,66.269502,-83.276379,-7.998032,1,0.03
2587.259,107.077324,264.578674,243.22963,-76.78471,-78.689451,-88.03021,79.463918,27.36561,48.51692,65.709206,-83.171069,-8.118869,1,0.03
2601.898,110.116837,264.959351,244.241196,-76.714351,-78.47419,-88.202555,78.996098,27.36561,48.759396,65.346696,-82.960507,-8.118869,1,0.03
2618.731,113.145752,265.4263,245.076111,-77.274703,-78.413514,-87.625988,78.164106,27.364636,49.165566,64.588616,-82.402045,-8.261708,1,0.03
2634.167,115.758286,266.190765,245.992981,-77.688837,-78.307689,-86.975108,77.782974,27.363662,49.420818,64.072266,-82.044978,-8.283709,1,0.03
2652.27,118.580421,266.743469,246.57692,-80.010691,-78.147719,-84.68087,76.985703,27.363662,49.859589,63.632807,-81.060808,-8.283709,1,0.03
2655.808,119.587288,266.688141,246.650192,-80.746598,-78.116722,-84.037496,76.831463,27.363662,49.939345,63.544916,-80.831912,-8.283709,1,0.03
2665.962,121.665657,267.106049,246.94516,-82.795323,-78.0227,-81.923167,76.548365,27.363433,50.108769,63.292241,-80.383286,-8.283709,1,0.03
2680.748,124.08638,268.041687,247.4487,-85.882936,-77.82268,-78.641437,76.050121,27.36286,50.507032,62.852783,-79.35792,-8.283709,1,0.03
2696.352,127.119781,268.408203,247.895355,-88.809604,-77.578428,-75.829245,75.429378,27.36286,50.878881,62.589107,-78.414889,-8.283709,1,0.03
2711.992,129.352509,268.654938,248.233459,-90.9331,-77.569777,-73.800402,74.838315,27.36286,51.239558,62.336433,-77.522278,-8.569329,1,0.03
2726.444,131.980621,269.128723,248.942688,-92.562592,-77.630224,-72.146903,74.439651,27.362344,51.516125,62.039813,-77.009596,-8.789058,1,0.03
2743.064,134.514603,269.516144,249.699966,-94.119662,-77.542962,-70.688668,73.937682,27.362344,51.887344,61.820083,-76.359575,-8.997787,1,0.03
2757.336,137.548355,269.557068,250.604492,-95.316399,-77.60891,-69.802818,73.341749,27.362344,52.272716,61.699189,-75.828558,-9.393299,1,0.03
2772.344,140.017776,269.754517,251.564987,-95.96705,-77.920083,-69.310361,72.860866,27.362344,52.623538,61.501462,-75.439462,-9.975596,1,0.03
2788.714,142.654022,269.901764,252.81691,-95.836187,-77.922833,-69.706045,72.360788,27.362344,53.01991,61.358623,-75.187704,-10.283217,1,0.03
2803.725,144.648178,269.833466,253.686066,-95.64522,-77.911374,-70.155531,71.85246,27.362344,53.401042,61.270732,-75.022865,-10.612783,1,0.03
2819.952,147.492325,269.690918,255.065353,-94.832708,-78.157058,-71.324135,71.325969,27.362344,53.753812,61.084005,-74.981669,-11.129132,1,0.03
2834.599,149.769302,269.895477,256.548004,-93.40971,-78.422395,-72.868486,71.013993,27.362344,54.030207,60.853274,-74.981669,-11.480699,1,0.03
2849.497,152.210327,270.033325,258.132996,-91.945116,-78.672262,-74.540892,70.563534,27.362344,54.429444,60.622544,-74.981669,-11.997049,1,0.03
2864.812,154.536026,270.044128,259.508148,-90.558615,-79.018901,-76.096473,70.125279,27.362344,54.768806,60.358869,-74.972559,-12.557401,1,0.03
2879.605,156.227112,270.180328,260.653534,-89.228608,-79.240006,-77.482458,69.677684,27.362344,55.126561,59.985358,-74.972559,-13.029805,1,0.03
2895.215,158.376877,270.392059,262.090027,-87.209562,-79.419055,-79.43017,69.301881,27.362344,55.447532,59.447007,-74.945057,-13.34837,1,0.03
2910.235,160.357834,270.84787,263.53891,-85.401708,-79.568998,-81.019727,69.017407,27.362344,55.711322,58.996605,-74.858082,-13.568099,1,0.03
2924.819,162.460663,271.119537,264.777802,-83.945765,-79.669266,-82.247289,68.601727,27.362344,56.010291,58.370362,-74.684132,-13.765884,1,0.03
2940.199,164.443893,271.458221,265.921844,-83.153766,-79.726103,-82.807527,68.215095,27.362344,56.317912,57.810066,-74.400346,-13.930667,1,0.03
2955.203,166.438202,271.762421,266.99823,-82.232908,-79.813938,-83.4183,67.815858,27.362344,56.597745,57.150878,-74.107335,-14.073505,1,0.03
2971.037,167.77002,272.135742,267.830353,-81.619499,-79.931967,-83.75096,67.468244,27.362344,56.886974,56.491691,-73.77777,-14.282234,1,0.03
2986.289,169.556717,272.424286,268.822327,-80.643695,-80.103682,-84.414903,67.19523,27.362344,57.077597,56.030288,-73.571792,-14.447016,1,0.03
3002.295,171.244186,272.748291,269.811157,-79.843044,-80.289607,-84.931138,66.863258,27.362344,57.343564,55.469992,-73.269671,-14.688747,1,0.01
3018.536,173.050003,272.775757,270.582611,-79.666,-80.493523,-84.987689,66.508253,27.362344,57.578362,55.074479,-72.935465,-14.952365,1,0.01
3034.129,174.681747,272.958374,271.298645,-80.094286,-80.657962,-84.384938,66.192324,27.362344,57.825422,54.700911,-72.50059,-15.172094,1,0.01
3049.545,176.34462,272.990021,271.854828,-81.008898,-80.79169,-83.353614,65.867228,27.362344,58.046068,54.39329,-72.033686,-15.347878,1,0.01
3064.042,177.458771,273.087128,272.072693,-82.79349,-80.847553,-81.451451,65.581895,27.362344,58.268719,54.195562,-71.360805,-15.457771,1,0.01
3079.774,178.978363,273.108246,272.249084,-85.999762,-80.836381,-78.203009,65.292609,27.362344,58.473723,54.140616,-70.582556,-15.512718,1,0.01
3094.549,180.345413,273.200745,272.203552,-90.354986,-80.830078,-73.784244,65.100496,27.362344,58.62888,54.140616,-69.877646,-15.633555,1,0.01
3110.598,181.845108,273.229523,272.269623,-94.438513,-80.92433,-69.670178,64.815736,27.362574,58.854225,54.140616,-69.007896,-15.930175,1,0.01
3125.051,183.136658,273.270966,272.182404,-98.820781,-81.013539,-65.21715,64.564208,27.362631,59.042957,54.140616,-68.128979,-16.248797,1,0.01
3139.477,184.470169,273.204529,272.329224,-101.859119,-81.01755,-62.185917,64.3097,27.362631,59.234325,54.140616,-67.474375,-16.49047,1,0.01
3155.235,185.364258,273.227814,272.50827,-103.560059,-81.009815,-60.42877,64.0851,27.363204,59.413432,53.997777,-66.943357,-16.666254,1,0.01
3170.584,186.503403,273.35144,272.944427,-104.794095,-81.134262,-59.012132,63.91327,27.363433,59.548306,53.789049,-66.632069,-16.831036,1,0.01
3185.868,187.49469,273.493622,273.40387,-105.511267,-81.275897,-58.092707,63.71686,27.363662,59.705182,53.481428,-66.307088,-17.00682,1,0.01
3202.087,188.616211,273.29837,273.941437,-105.569422,-81.423491,-58.099926,63.508017,27.363662,59.852546,53.382592,-66.188027,-17.226549,1,0.01
3217.807,189.595764,273.036957,274.488617,-105.223069,-81.575783,-58.606822,63.333895,27.363662,59.983926,53.382592,-66.188027,-17.457279,1,0.01
3232.596,190.646149,272.609528,274.966705,-105.350552,-81.753457,-58.779167,63.151809,27.363662,60.113872,53.536374,-66.188027,-17.786844,1,0.01
3248.188,191.694611,272.047058,275.333313,-105.79362,-81.872002,-58.738946,62.972015,27.363662,60.229266,53.81105,-66.188027,-18.105466,1,0.01
3263.094,192.436554,271.684723,275.635773,-106.019136,-81.953878,-58.781058,62.802362,27.363662,60.342712,54.041723,-66.188027,-18.358141,1,0.01
3278.641,193.365509,271.19574,275.932159,-106.106799,-82.000402,-58.976265,62.676655,27.363662,60.404706,54.129615,-66.188027,-18.489978,1,0.01
3293.568,194.143799,270.910187,276.287781,-105.779067,-82.049963,-59.440303,62.532958,27.363777,60.489847,54.129615,-66.188027,-18.588871,1,0.01
3308.725,194.907883,270.588196,276.532928,-105.278531,-82.069501,-60.006901,62.378832,27.363891,60.538205,54.03078,-66.188027,-18.588871,1,0.01
3323.826,195.361282,270.699829,276.852722,-104.126714,-82.171774,-60.878886,62.271631,27.364063,60.575333,53.591321,-66.165166,-18.51198,1,0.01
3339.239,195.838928,270.735931,277.082306,-102.842315,-82.251243,-61.857612,62.149305,27.364178,60.583125,53.096916,-66.151415,-18.369142,1,0.01
3356.591,196.201813,270.888123,277.307526,-101.531731,-82.407603,-62.774459,62.045199,27.364292,60.584672,52.525619,-66.128554,-18.270249,1,0.01
3370.541,196.444473,271.010406,277.444336,-100.756061,-82.540013,-63.260041,61.97312,27.364407,60.585188,52.119163,-66.091942,-18.226303,1,0.01
3386.252,196.804871,271.198914,277.585571,-99.94206,-82.688925,-63.63424,61.864144,27.364636,60.58576,51.525865,-65.982049,-18.127468,1,0.01
3401.557,197.179535,271.3974,277.618713,-99.807529,-82.774181,-63.3088,61.74875,27.365095,60.58599,50.943626,-65.771487,-17.98463,1,0.01
3416.559,197.310425,271.813599,277.514893,-100.526878,-82.717688,-62.033911,61.679766,27.365209,60.587193,50.361329,-65.419003,-17.720954,1,0.01
3431.738,197.48941,272.055084,277.386475,-101.290057,-82.578917,-60.88599,61.610782,27.365266,60.588281,49.954815,-65.116883,-17.446278,1,0.01
3448.572,197.596573,272.226166,277.260223,-102.201461,-82.580693,-59.710911,61.554861,27.366069,60.58874,49.614249,-64.801011,-17.369387,1,0.01
3463.356,197.692123,272.428802,277.053864,-103.740082,-82.594215,-57.87991,61.510572,27.366527,60.589026,49.372575,-64.480613,-17.325442,1,-0.0
3478.789,197.825226,272.533264,276.791565,-105.680977,-82.587626,-55.738366,61.473559,27.366699,60.589256,49.273683,-64.237965,-17.325442,1,-0.0
3493.872,198.013077,272.480377,276.54834,-107.350805,-82.523971,-54.01869,61.4248,27.367043,60.589485,49.262682,-63.986208,-17.325442,1,-0.0
3509.207,198.175522,272.426514,276.33255,-108.774777,-82.460029,-52.560283,61.383031,27.367959,60.589485,49.262682,-63.771062,-17.325442,1,-0.0
3524.731,198.394714,272.29837,276.229401,-109.490516,-82.449257,-51.858066,61.333356,27.368819,60.589485,49.262682,-63.670336,-17.347386,1,-0.0
3540.863,198.617584,272.084869,276.175171,-110.185972,-82.578344,-51.272389,61.291186,27.370881,60.589485,49.350574,-63.661169,-17.53417,1,-0.0
3555.545,198.793182,271.85968,276.102264,-110.737845,-82.604185,-50.877506,61.249131,27.373517,60.589485,49.570303,-63.661169,-17.666008,1,-0.0
3570.571,199.123642,271.398834,275.964203,-111.62845,-82.55428,-50.324888,61.211774,27.374205,60.589599,49.844979,-63.661169,-17.775901,1,-0.0
3586.002,199.498978,270.932068,275.84613,-112.477574,-82.535258,-49.788084,61.148348,27.37472,60.589828,50.141599,-63.661169,-17.918682,1,-0.0
3601.094,199.987869,270.503876,275.798126,-112.869019,-82.550155,-49.58583,61.05083,27.375866,60.589828,50.251435,-63.661169,-17.99563,1,-0.0
3615.895,200.474655,270.149231,275.787872,-112.947743,-82.570839,-49.609608,60.94787,27.377929,60.589828,50.251435,-63.661169,-18.017575,1,-0.0
3632.591,200.989868,269.903839,275.857452,-112.772017,-82.702791,-49.735773,60.82858,27.379934,60.589943,50.053708,-63.661169,-18.05052,1,-0.0
3647.951,201.407852,269.742035,275.943939,-112.448009,-82.815148,-49.972978,60.694852,27.380564,60.590172,49.746087,-63.661169,-18.05052,1,-0.0
3664.827,201.960938,269.567352,276.08313,-111.911549,-82.994541,-50.346317,60.564103,27.381252,60.590688,49.383519,-63.661169,-18.05052,1,-0.0
3668.868,202.175735,269.546326,276.164276,-111.585192,-83.101054,-50.551894,60.53597,27.381424,60.590802,49.273683,-63.661169,-18.05052,1,-0.0
3675.285,202.288193,269.521088,276.197662,-111.446479,-83.145916,-50.644484,60.477758,27.381997,60.590917,49.097899,-63.661169,-18.05052,1,-0.0
3693.515,202.930054,269.326782,276.327759,-110.971726,-83.349374,-50.914462,60.347582,27.383429,60.591261,48.768334,-63.633724,-18.05052,1,-0.0
3707.283,203.333038,269.258026,276.427338,-110.638379,-83.511922,-51.052488,60.2421,27.384059,60.591605,48.427711,-63.601696,-18.05052,1,-0.0
3723.284,203.751862,269.12265,276.505524,-110.161163,-83.588755,-51.40457,60.137822,27.385492,60.591891,48.164035,-63.583361,-17.99563,1,-0.0
3738.747,204.07457,269.002136,276.57074,-109.741357,-83.652984,-51.74548,60.058754,27.38681,60.591891,47.977309,-63.583361,-17.962628,1,-0.0
3754.747,204.565109,268.765289,276.630524,-109.367502,-83.719562,-52.06456,59.921932,27.388815,60.59212,47.724634,-63.565084,-17.929683,1,-0.0
3769.747,204.826233,268.707611,276.667603,-109.29932,-83.808313,-52.01987,59.874949,27.389331,60.592579,47.581796,-63.537582,-17.929683,1,-0.0
3785.748,205.065704,268.606812,276.681152,-109.251249,-83.834554,-52.023422,59.816851,27.390018,60.59298,47.471902,-63.510137,-17.907739,1,-0.0
3801.799,205.258194,268.498505,276.667267,-109.39592,-83.848305,-51.876172,59.772447,27.390878,60.593209,47.427957,-63.482692,-17.907739,1,-0.0
3816.807,205.362686,268.467773,276.614563,-109.838416,-83.850311,-51.400617,59.745632,27.39231,60.593667,47.384011,-63.418578,-17.907739,1,-0.0
3832.586,205.4375,268.484833,276.530426,-110.57014,-83.849394,-50.599049,59.722428,27.393628,60.59424,47.318121,-63.313269,-17.907739,1,-0.0
3847.655,205.529648,268.480438,276.440735,-111.322949,-83.841888,-49.789001,59.684211,27.395519,60.594527,47.230229,-63.171404,-17.907739,1,-0.0
3862.43,205.650162,268.510773,276.347015,-112.149326,-83.865379,-48.843392,59.658486,27.398154,60.594756,47.131336,-63.079846,-17.907739,1,-0.0
3877.992,205.722168,268.619995,276.2146,-113.322687,-83.891793,-47.490065,59.626973,27.402451,60.595443,46.955553,-62.901312,-17.907739,1,-0.0
3892.751,205.759567,268.83786,276.090179,-114.607831,-83.966678,-45.912827,59.594372,27.407379,60.595845,46.658933,-62.69075,-17.907739,1,-0.0
3910.072,205.731552,269.129486,275.925476,-116.358274,-84.02449,-43.821474,59.571625,27.410244,60.596188,46.340311,-62.420658,-17.907739,1,-0.0
3925.08,205.722122,269.357208,275.75943,-118.037213,-84.051533,-41.865339,59.54928,27.412879,60.596532,46.087636,-62.173484,-17.907739,1,-0.02
3940.588,205.75972,269.502655,275.595062,-119.608549,-84.048497,-40.086075,59.521721,27.415286,60.597392,45.900852,-61.949171,-17.907739,1,-0.02
3956.115,205.857788,269.530334,275.527252,-120.326179,-84.063394,-39.262162,59.478004,27.417348,60.597964,45.73607,-61.821,-17.907739,1,-0.02
3970.708,206.05661,269.492676,275.501068,-120.732291,-84.11559,-38.758246,59.435834,27.420442,60.598194,45.626234,-61.779805,-17.907739,1,-0.02
3987.136,206.35231,269.37149,275.503479,-121.075264,-84.239807,-38.352133,59.363527,27.427604,60.598366,45.472394,-61.766054,-17.962628,1,-0.02
4002.586,206.688187,269.223419,275.520172,-121.558611,-84.414101,-37.808797,59.282568,27.435396,60.598709,45.307612,-61.766054,-18.06152,1,-0.02
4016.583,207.11618,268.963501,275.5336,-122.447383,-84.607589,-36.929479,59.185853,27.43998,60.599397,45.208719,-61.766054,-18.226303,1,-0.02
4032.136,207.491348,268.708984,275.539825,-124.009438,-84.851955,-35.406042,59.103691,27.442616,60.600256,45.164773,-61.766054,-18.489978,1,-0.02
4047.146,207.854858,268.433929,275.533203,-125.07302,-84.987632,-34.415684,59.002621,27.445079,60.600715,45.15383,-61.766054,-18.709708,1,-0.02
4061.869,208.293015,268.128479,275.532104,-126.469776,-85.169317,-33.07164,58.930314,27.447028,60.600887,45.120827,-61.76147,-18.852546,1,-0.02
4077.268,208.755219,267.837341,275.548462,-127.40238,-85.316911,-32.156225,58.825634,27.450121,60.60123,45.021992,-61.756886,-18.973383,1,-0.02
4092.764,209.116119,267.659058,275.571472,-127.590023,-85.389906,-31.920224,58.738487,27.452872,60.60146,44.868153,-61.738609,-18.973383,1,-0.02
4107.768,209.589493,267.39035,275.610138,-127.773083,-85.476709,-31.715678,58.627563,27.454591,60.601803,44.714371,-61.729442,-18.984384,1,-0.02
4123.064,210.052124,267.205902,275.666321,-128.075261,-85.609864,-31.290543,58.510565,27.457455,60.602032,44.439695,-61.701997,-18.984384,1,-0.02
4138.346,210.287186,267.193939,275.690033,-128.500854,-85.734196,-30.700454,58.442841,27.464159,60.602262,44.17602,-61.669911,-18.984384,1,-0.02
4153.884,210.591644,267.236023,275.716766,-128.396232,-85.91548,-30.527822,58.350709,27.484728,60.602548,43.736561,-61.660744,-18.918436,1,-0.02
4168.69,210.929108,267.20813,275.74292,-127.956716,-86.048807,-30.751676,58.255541,27.502948,60.603121,43.36305,-61.660744,-18.830544,1,-0.02
4185.487,211.274994,267.203156,275.729248,-127.902801,-86.180817,-30.55624,58.155331,27.524835,60.604439,42.956537,-61.628716,-18.742653,1,-0.02
4200.486,211.49324,267.28009,275.560333,-129.486972,-86.265099,-28.717619,58.083425,27.552967,60.605184,42.615971,-61.505129,-18.709708,1,-0.02
4215.771,211.716263,267.30777,275.205292,-131.483558,-86.231523,-26.539405,58.016847,27.598002,60.605528,42.38524,-61.335762,-18.643817,1,-0.02
4232.097,211.886246,267.282684,274.830566,-132.713584,-86.065308,-25.234265,57.954853,27.649167,60.605757,42.30835,-61.106866,-18.489978,1,-0.02
4247.111,212.2202,267.128418,274.218018,-134.700258,-85.840881,-23.23573,57.873436,27.720729,60.60696,42.275404,-60.873385,-18.391086,1,-0.02
4262.195,212.572113,266.972992,273.584564,-137.026696,-85.601442,-20.879327,57.809952,27.76817,60.608392,42.253403,-60.662823,-18.325196,1,-0.02
4277.389,212.904465,266.823456,272.90451,-139.691121,-85.312442,-18.179607,57.728191,27.828044,60.609366,42.242459,-60.328674,-18.259305,1,-0.02
4292.249,213.110962,266.800201,271.993103,-142.683221,-84.844221,-15.087182,57.666999,27.897831,60.610684,42.242459,-59.825159,-18.138411,1,-0.02
4308.124,213.377304,266.708374,271.18985,-145.011722,-84.487096,-12.705282,57.597786,27.970424,60.613205,42.242459,-59.44059,-18.072521,1,-0.02
4322.423,213.555099,266.660645,270.52774,-146.203875,-84.192596,-11.475084,57.551662,28.037632,60.615612,42.242459,-59.165971,-17.973629,1,-0.02
4337.698,213.89566,266.531708,269.79187,-146.363673,-83.84842,-11.29655,57.472136,28.127071,60.624664,42.209457,-58.90963,-17.742899,1,-0.02
4353.229,214.218201,266.559021,269.132965,-146.91652,-83.69418,-10.547236,57.384473,28.230662,60.635092,41.923838,-58.726512,-17.53417,1,-0.02
4370.363,214.551971,266.648743,268.493652,-147.252789,-83.634191,-9.996452,57.300077,28.358546,60.658469,41.583271,-58.634954,-17.325442,1,-0.02
4385.775,214.889832,266.824097,268.027618,-146.744404,-83.628691,-10.314157,57.229316,28.493707,60.713301,41.253649,-58.63037,-17.083768,1,0.02
4401.349,215.36937,266.938965,267.611511,-146.345969,-83.621758,-10.615304,57.144748,28.638149,60.799187,41.022976,-58.63037,-16.907985,1,0.02
4418.75,215.919403,267.178864,267.184875,-147.003667,-83.703347,-9.850921,57.061554,28.819032,60.933489,40.792246,-58.63037,-16.885983,1,0.02
4422.214,216.05098,267.243652,267.126801,-147.103075,-83.723802,-9.732605,57.043678,28.857707,60.970387,40.7483,-58.63037,-16.885983,1,0.02
4432.033,216.35939,267.408936,267.116974,-147.009396,-83.759382,-9.813965,56.98644,28.977971,61.11758,40.671409,-58.63037,-16.885983,1,0.02
4447.294,216.948654,267.73587,266.742981,-147.360505,-83.805448,-9.437646,56.927769,29.182631,61.30339,40.561516,-58.63037,-16.885983,1,0.02
4463.355,217.56781,268.104279,266.704193,-147.171658,-83.876781,-9.598304,56.875343,29.30152,61.469261,40.473624,-58.63037,-16.885983,1,0.02
4477.976,218.242203,268.412079,266.462646,-147.324523,-83.938661,-9.424239,56.794384,29.492888,61.671114,40.352787,-58.63037,-16.885983,1,0.02
4493.407,218.908722,268.776093,266.500366,-147.261383,-84.04334,-9.440511,56.717149,29.650451,61.889641,40.209949,-58.63037,-16.907985,1,0.02
4508.933,219.555954,269.069794,266.226532,-147.677981,-84.122695,-8.976071,56.635388,29.838095,62.07717,40.056167,-58.63037,-16.918928,1,0.02
4523.859,220.001953,269.387787,266.168396,-147.738944,-84.202508,-8.844062,56.566633,30.003451,62.281028,39.880384,-58.63037,-16.918928,1,0.02
4538.891,220.710236,269.588623,265.842682,-148.014307,-84.246683,-8.577579,56.493581,30.158149,62.418939,39.814436,-58.63037,-16.918928,1,0.02
4554.903,221.405258,269.897186,265.623383,-148.089995,-84.306557,-8.489859,56.412393,30.350491,62.630188,39.7046,-58.63037,-16.918928,1,0.02
4569.9,222.07782,270.094391,265.12384,-148.518854,-84.317844,-8.097498,56.33109,30.563631,62.809811,39.649653,-58.63037,-16.918928,1,0.02
4585.141,222.650986,270.478851,264.875275,-148.44053,-84.346492,-8.186879,56.281873,30.759869,63.025472,39.605708,-58.63037,-16.918928,1,0.02
4601.852,223.123032,270.747894,264.183655,-149.04735,-84.316813,-7.623032,56.241652,30.987735,63.186301,39.605708,-58.63037,-16.918928,1,0.02
4616.606,223.553558,270.825134,263.63443,-149.163145,-84.199643,-7.755671,56.22177,31.167472,63.332234,39.880384,-58.63037,-16.973875,1,0.02
4631.609,223.833633,270.840179,263.2034,-149.735071,-84.126476,-7.383764,56.207905,31.343542,63.452326,40.166003,-58.63037,-17.083768,1,0.02
4647.388,224.130081,270.904785,262.678741,-150.344813,-84.055773,-6.941842,56.19868,31.440257,63.526008,40.297841,-58.63037,-17.149658,1,0.02
4662.051,224.292053,271.010315,262.065887,-151.667314,-84.040361,-5.663229,56.191461,31.580517,63.585481,40.341786,-58.63037,-17.23755,1,0.02
4676.059,224.391312,271.130096,261.445312,-152.417889,-83.997675,-4.919301,56.189054,31.712584,63.628396,40.341786,-58.63037,-17.23755,1,0.02
4691.544,224.436127,271.171753,260.937012,-153.081145,-83.958714,-4.262004,56.186934,31.804658,63.640714,40.341786,-58.63037,-17.23755,1,0.02
4706.572,224.459747,271.190582,260.360168,-153.763652,-83.90669,-3.585856,56.185616,31.930308,63.641402,40.341786,-58.63037,-17.215548,1,0.02
4722.077,224.48262,271.216095,259.66507,-154.222419,-83.824929,-3.135798,56.185273,32.014361,63.642147,40.341786,-58.63037,-17.171602,1,0.02
4738.138,224.506653,271.237976,259.081024,-154.251125,-83.738183,-3.117062,56.184299,32.111706,63.644324,40.341786,-58.63037,-17.083768,1,0.02
4753.215,224.534409,271.247284,258.498383,-154.460884,-83.660719,-2.918017,56.181663,32.207275,63.644324,40.341786,-58.63037,-17.017821,1,0.02
4769.409,224.60997,271.22403,257.829376,-155.304164,-83.603824,-2.092385,56.169574,32.317684,63.645241,40.341786,-58.63037,-17.017821,1,0.02
4784.916,224.759247,271.125977,257.41449,-155.115374,-83.568301,-2.328386,56.142874,32.393716,63.646787,40.341786,-58.671566,-16.94093,1,0.02
4800.49,224.994507,270.956085,256.970398,-154.788215,-83.483904,-2.712268,56.095548,32.466883,63.647074,40.341786,-58.671566,-16.831036,1,0.02
4815.152,225.240936,270.768738,256.672119,-154.894212,-83.444485,-2.661045,56.045013,32.5161,63.647303,40.341786,-58.671566,-16.798091,1,0.02
4831.226,225.429642,270.635559,256.481384,-154.583669,-83.404492,-2.999033,55.991842,32.553571,63.647532,40.275896,-58.671566,-16.699199,1,0.02
4845.57,225.648712,270.528107,256.459442,-154.163577,-83.409821,-3.376555,55.951048,32.558613,63.647991,40.198948,-58.671566,-16.622308,1,0.0
4860.689,225.886597,270.401031,256.490479,-154.107198,-83.443224,-3.391394,55.893064,32.559759,63.648163,40.078111,-58.671566,-16.578362,1,0.0
4876.697,226.092926,270.285065,256.523376,-154.12897,-83.472846,-3.345501,55.844191,32.559759,63.649652,39.99022,-58.671566,-16.556418,1,0.0
4891.342,226.321579,270.104034,256.549744,-154.06033,-83.486139,-3.465077,55.797266,32.559759,63.652345,39.99022,-58.685317,-16.556418,1,0.0
4906.743,226.467133,269.990417,256.558655,-154.044344,-83.487113,-3.5112,55.756185,32.559759,63.65458,39.99022,-58.685317,-16.556418,1,0.0
4923.703,226.695557,269.803192,256.562286,-154.037755,-83.487456,-3.565975,55.70628,32.559759,63.655095,39.99022,-58.685317,-16.556418,1,0.0
4938.872,226.944016,269.597778,256.564606,-154.033515,-83.487571,-3.622812,55.666173,32.559759,63.655325,39.99022,-58.685317,-16.556418,1,0.0
4955.373,227.158783,269.432465,256.573303,-153.994726,-83.492556,-3.690478,55.619248,32.559759,63.655668,39.968275,-58.685317,-16.545417,1,0.0
4971.965,227.2836,269.348938,256.585876,-153.980746,-83.502525,-3.705662,55.585959,32.559759,63.656241,39.93533,-58.685317,-16.534416,1,0.0
4974.966,227.306335,269.329956,256.585938,-153.980631,-83.502468,-3.710647,55.585959,32.559759,63.656241,39.93533,-58.685317,-16.534416,1,0.0
4984.855,227.359406,269.286469,256.587067,-153.978569,-83.502583,-3.723882,55.574786,32.559759,63.656413,39.93533,-58.685317,-16.534416,1,0.0
4999.58,227.371979,269.276367,256.587585,-153.977652,-83.50264,-3.727434,55.571692,32.559759,63.656528,39.93533,-58.685317,-16.534416,1,0.0
5015.088,227.377304,269.272308,256.588074,-153.976792,-83.502697,-3.729382,55.570947,32.559759,63.656757,39.93533,-58.685317,-16.534416,1,0.0
5031.004,227.379028,269.27124,256.588531,-153.975933,-83.502754,-3.730585,55.570718,32.559759,63.656757,39.93533,-58.685317,-16.534416,1,0.0
5046.009,227.379547,269.270813,256.588531,-153.975933,-83.502754,-3.7307,55.570604,32.559759,63.656757,39.93533,-58.685317,-16.534416,1,0.0
5061.64,227.380402,269.270874,256.589478,-153.974271,-83.502869,-3.732476,55.570489,32.559759,63.656986,39.93533,-58.685317,-16.534416,1,0.0
5077.088,227.381241,269.270966,256.590424,-153.972553,-83.502984,-3.734252,55.570374,32.559759,63.657215,39.93533,-58.685317,-16.534416,1,0.0
5091.613,227.38176,269.270538,256.590424,-153.972553,-83.502984,-3.734367,55.57026,32.559759,63.657215,39.93533,-58.685317,-16.534416,1,0.0
5106.121,227.378448,269.27948,256.593658,-153.998565,-83.507796,-3.69913,55.57026,32.559759,63.657215,39.924329,-58.685317,-16.534416,1,0.0
5123.077,227.365173,269.315338,256.606659,-154.1029,-83.527048,-3.557724,55.57026,32.559759,63.657215,39.880384,-58.685317,-16.534416,1,0.0
5136.977,227.355377,269.342468,256.616852,-154.180823,-83.541544,-3.452013,55.57026,32.559759,63.65733,39.847438,-58.685317,-16.534416,1,0.0
5152.722,227.345551,269.369598,256.627045,-154.171541,-83.551227,-3.43408,55.57026,32.559759,63.657445,39.814436,-58.685317,-16.523415,1,0.0
5168.782,227.335541,269.396454,256.636658,-153.988194,-83.551284,-3.591299,55.57026,32.559759,63.657445,39.781491,-58.685317,-16.49047,1,0.0
5184.04,227.318985,269.441498,256.653198,-153.769095,-83.55604,-3.766338,55.57026,32.559759,63.657559,39.726544,-58.685317,-16.446524,1,0.0
5199.054,227.305573,269.477295,256.666016,-153.524671,-83.555868,-3.975926,55.57026,32.559759,63.657559,39.671655,-58.685317,-16.402578,1,0.0
5214.399,227.297516,269.501495,256.684937,-153.396214,-83.568415,-4.080434,55.57026,32.559759,63.657559,39.649653,-58.694484,-16.380634,1,0.0
5229.055,227.30069,269.497742,256.69928,-153.172703,-83.570421,-4.309273,55.57026,32.559759,63.657616,39.649653,-58.708178,-16.358633,1,0.0
5248.357,227.303711,269.493744,256.713165,-152.949823,-83.572254,-4.537367,55.57026,32.559759,63.657616,39.649653,-58.721929,-16.336688,1,0.0
5251.814,227.303711,269.493744,256.713165,-152.949823,-83.572254,-4.537367,55.57026,32.559759,63.657731,39.649653,-58.721929,-16.336688,1,0.0
5260.773,227.305038,269.49292,256.718719,-152.844914,-83.57128,-4.644224,55.57026,32.559759,63.657846,39.649653,-58.726512,-16.325688,1,0.0
5276.924,227.307037,269.490265,256.727966,-152.638535,-83.569046,-4.8545,55.57026,32.559759,63.657846,39.649653,-58.73568,-16.303686,1,0.0
5291.682,227.308365,269.48941,256.733429,-152.360994,-83.557816,-5.13502,55.57026,32.559759,63.658075,39.649653,-58.740206,-16.270741,1,0.0
5306.691,227.308365,269.48938,256.733246,-151.846192,-83.526991,-5.653088,55.57026,32.559759,63.658075,39.649653,-58.740206,-16.204851,1,-0.02
5321.524,227.309509,269.488281,256.738159,-151.233814,-83.494275,-6.270679,55.57026,32.559759,63.658189,39.649653,-58.74479,-16.127902,1,-0.02
5336.858,227.309509,269.488281,256.738037,-150.897087,-83.473018,-6.609641,55.57026,32.559759,63.658189,39.649653,-58.74479,-16.083957,1,-0.02
5352.799,227.306137,269.497223,256.741211,-150.753045,-83.467288,-6.745432,55.57026,32.559759,63.658189,39.638653,-58.74479,-16.062012,1,-0.02
5368.528,227.306305,269.497498,256.741638,-150.668534,-83.46196,-6.830516,55.57026,32.559759,63.658304,39.638653,-58.74479,-16.051012,1,-0.02
5384.271,227.307465,269.496399,256.746674,-150.48324,-83.455084,-7.018275,55.57026,32.559759,63.658419,39.638653,-58.749373,-16.029067,1,-0.02
5398.961,227.308456,269.495056,256.751282,-150.299148,-83.448037,-7.20483,55.57026,32.559759,63.658419,39.638653,-58.753957,-16.007066,1,-0.02
5415.83,227.308456,269.495056,256.751282,-150.299148,-83.448037,-7.20483,55.57026,32.559759,63.658419,39.638653,-58.753957,-16.007066,1,-0.02
5431.179,227.309464,269.493744,256.75592,-150.281501,-83.451876,-7.223852,55.57026,32.559759,63.658419,39.638653,-58.758541,-16.007066,1,-0.02
5446.264,227.309464,269.493744,256.75592,-150.281501,-83.451876,-7.223852,55.57026,32.559759,63.658419,39.638653,-58.758541,-16.007066,1,-0.02
5461.953,227.310638,269.492645,256.761017,-150.26288,-83.455772,-7.243791,55.57026,32.559759,63.658533,39.638653,-58.763124,-16.007066,1,-0.02
5476.87,227.32959,269.445435,256.754608,-150.111447,-83.438469,-7.444383,55.57026,32.559759,63.658648,39.693599,-58.772292,-16.007066,1,-0.02
5492.918,227.346344,269.400604,256.738403,-149.997429,-83.41343,-7.604812,55.57026,32.559759,63.658648,39.748546,-58.772292,-16.007066,0,-0.02
5507.422,227.359711,269.364746,256.725433,-149.906901,-83.393434,-7.732409,55.57026,32.559759,63.658648,39.792492,-58.772292,-16.007066,0,-0.02
5522.797,227.366547,269.347046,256.719421,-149.861065,-83.383407,-7.79681,55.57026,32.559759,63.658762,39.814436,-58.776875,-16.007066,0,-0.02
5537.945,227.367554,269.345734,256.72406,-149.843303,-83.387246,-7.815889,55.57026,32.559759,63.658762,39.814436,-58.776875,-16.007066,0,-0.02
5553.454,227.367554,269.345734,256.72406,-149.843303,-83.387246,-7.815889,55.57026,32.559759,63.658762,39.814436,-58.776875,-16.007066,0,-0.02
5570.257,227.367722,269.345978,256.724518,-149.842444,-83.387303,-7.816749,55.57026,32.559759,63.658877,39.814436,-58.776875,-16.007066,0,-0.02
5585.845,227.367722,269.345978,256.724518,-149.842444,-83.387303,-7.816749,55.57026,32.559759,63.658877,39.814436,-58.776875,-16.007066,0,-0.02
5599.35,227.368713,269.344635,256.729187,-149.824682,-83.391085,-7.835885,55.57026,32.559759,63.658877,39.814436,-58.781459,-16.007066,0,-0.02
5615.119,227.368881,269.344879,256.729645,-149.823822,-83.391142,-7.836745,55.57026,32.559759,63.659049,39.814436,-58.781459,-16.007066,0,-0.02
5629.9,227.369049,269.345123,256.730103,-149.822963,-83.3912,-7.837604,55.57026,32.559759,63.659049,39.814436,-58.781459,-16.007066,0,-0.02
5644.658,227.376389,269.330811,256.745422,-149.729227,-83.401398,-7.946122,55.57026,32.559759,63.659049,39.825437,-58.799736,-16.007066,0,-0.02
5661.713,227.376556,269.331055,256.745911,-149.728368,-83.401456,-7.946982,55.57026,32.559759,63.659163,39.825437,-58.799736,-16.007066,0,-0.02
5676.682,227.376724,269.331299,256.746368,-149.727508,-83.401513,-7.947841,55.57026,32.559759,63.659278,39.825437,-58.799736,-16.007066,0,-0.02
5692.082,227.376724,269.331299,256.746368,-149.727508,-83.401513,-7.947841,55.57026,32.559759,63.659278,39.825437,-58.799736,-16.007066,0,-0.02
5706.354,227.376724,269.331299,256.746368,-149.727508,-83.401513,-7.947841,55.57026,32.559759,63.659278,39.825437,-58.799736,-16.007066,0,-0.02
5721.288,227.377731,269.329956,256.751007,-149.709632,-83.405352,-7.967093,55.57026,32.559759,63.659278,39.825437,-58.80432,-16.007066,0,-0.02
5737.292,227.377731,269.329956,256.751007,-149.709632,-83.405352,-7.967093,55.57026,32.559759,63.659278,39.825437,-58.80432,-16.007066,0,-0.02
5752.627,227.377731,269.329956,256.751007,-149.709632,-83.405352,-7.967093,55.57026,32.559759,63.659278,39.825437,-58.80432,-16.007066,0,-0.02
5769.817,227.377731,269.329956,256.750977,-149.627642,-83.399794,-8.049656,55.57026,32.559759,63.659278,39.825437,-58.80432,-15.996065,0,-0.01
5784.935,227.377884,269.3302,256.751434,-149.626782,-83.399851,-8.050458,55.57026,32.559759,63.659393,39.825437,-58.80432,-15.996065,0,-0.01
5800.364,227.377884,269.3302,256.751434,-149.626782,-83.399851,-8.050458,55.57026,32.559759,63.659393,39.825437,-58.80432,-15.996065,0,-0.01
5815.752,227.377884,269.3302,256.751434,-149.626782,-83.399851,-8.050458,55.57026,32.559759,63.659393,39.825437,-58.80432,-15.996065,0,-0.01
5830.313,227.378891,269.328857,256.756104,-149.608849,-83.403633,-8.069767,55.57026,32.559759,63.659393,39.825437,-58.808904,-15.996065,0,-0.01
5846.799,227.378891,269.328857,256.756104,-149.608849,-83.403633,-8.069767,55.57026,32.559759,63.659393,39.825437,-58.808904,-15.996065,0,-0.01
5860.779,227.378891,269.328857,256.756104,-149.608849,-83.403633,-8.069767,55.57026,32.559759,63.659393,39.825437,-58.808904,-15.996065,0,-0.01
5876.063,0.0,0.0,0.0,0.0,0.0,0.0,55.57026,32.559759,63.659393,39.825437,-58.808904,-15.996065,0,-0.01
5892.061,227.378891,269.328857,256.756104,-149.608849,-83.403633,-8.069767,55.57026,32.559759,63.659393,39.825437,-58.808904,-15.996065,0,-0.01
5906.522,227.378891,269.328857,256.756104,-149.608849,-83.403633,-8.069767,55.57026,32.559759,63.659393,39.825437,-58.808904,-15.996065,0,-0.01
5921.018,227.379059,269.329132,256.756561,-149.607989,-83.40369,-8.070626,55.57026,32.559759,63.659507,39.825437,-58.808904,-15.996065,0,-0.01
5936.519,227.379059,269.329132,256.756561,-149.607989,-83.40369,-8.070626,55.57026,32.559759,63.659507,39.825437,-58.808904,-15.996065,0,-0.01
5953.101,227.379227,269.329376,256.757019,-149.60713,-83.403747,-8.071486,55.57026,32.559759,63.659622,39.825437,-58.808904,-15.996065,0,-0.01
5969.104,227.379227,269.329376,256.757019,-149.60713,-83.403747,-8.071486,55.57026,32.559759,63.659622,39.825437,-58.808904,-15.996065,0,-0.01
5984.101,227.379227,269.329376,256.757019,-149.60713,-83.403747,-8.071486,55.57026,32.559759,63.659622,39.825437,-58.808904,-15.996065,0,-0.01
5999.599,227.379227,269.329376,256.757019,-149.60713,-83.403747,-8.071486,55.57026,32.559759,63.659622,39.825437,-58.808904,-15.996065,0,-0.01
6016.118,227.379227,269.329376,256.757019,-149.60713,-83.403747,-8.071486,55.57026,32.559759,63.659622,39.825437,-58.808904,-15.996065,0,-0.01
6031.051,227.379395,269.32962,256.757477,-149.60627,-83.403805,-8.072345,55.57026,32.559759,63.659736,39.825437,-58.808904,-15.996065,0,-0.01
6045.577,227.379395,269.32962,256.757477,-149.60627,-83.403805,-8.072345,55.57026,32.559759,63.659736,39.825437,-58.808904,-15.996065,0,-0.01
6060.438,227.379395,269.32962,256.757477,-149.60627,-83.403805,-8.072345,55.57026,32.559759,63.659736,39.825437,-58.808904,-15.996065,0,-0.01
6076.039,227.379395,269.32962,256.757477,-149.60627,-83.403805,-8.072345,55.57026,32.559759,63.659736,39.825437,-58.808904,-15.996065,0,-0.01
6090.763,227.379395,269.32962,256.757477,-149.60627,-83.403805,-8.072345,55.57026,32.559759,63.659736,39.825437,-58.808904,-15.996065,0,-0.01
6107.593,227.379395,269.32962,256.757477,-149.60627,-83.403805,-8.072345,55.57026,32.559759,63.659736,39.825437,-58.808904,-15.996065,0,-0.01
6121.628,227.379395,269.32962,256.757477,-149.60627,-83.403805,-8.072345,55.57026,32.559759,63.659736,39.825437,-58.808904,-15.996065,0,-0.01
6137.252,227.379395,269.32962,256.757477,-149.60627,-83.403805,-8.072345,55.57026,32.559759,63.659736,39.825437,-58.808904,-15.996065,0,-0.01
6155.137,227.379395,269.32962,256.757477,-149.60627,-83.403805,-8.072345,55.57026,32.559759,63.659736,39.825437,-58.808904,-15.996065,0,-0.01
6169.999,227.379395,269.32962,256.757477,-149.60627,-83.403805,-8.072345,55.57026,32.559759,63.659736,39.825437,-58.808904,-15.996065,0,-0.01
6184.774,227.379562,269.329865,256.757965,-149.605411,-83.403805,-8.073205,55.57026,32.559759,63.659851,39.825437,-58.808904,-15.996065,0,-0.01
6200.84,227.379562,269.329865,256.757965,-149.605411,-83.403805,-8.073205,55.57026,32.559759,63.659851,39.825437,-58.808904,-15.996065,0,-0.01
6215.946,227.37973,269.330109,256.758423,-149.604552,-83.403862,-8.074064,55.57026,32.559759,63.659966,39.825437,-58.808904,-15.996065,0,0.0
6231.79,227.37973,269.330109,256.758423,-149.604552,-83.403862,-8.074064,55.57026,32.559759,63.659966,39.825437,-58.808904,-15.996065,0,0.0
6245.789,227.37973,269.330109,256.758423,-149.604552,-83.403862,-8.074064,55.57026,32.559759,63.659966,39.825437,-58.808904,-15.996065,0,0.0
6261.42,227.379898,269.330383,256.758881,-149.603692,-83.403919,-8.074923,55.57026,32.559759,63.66008,39.825437,-58.808904,-15.996065,0,0.0
6277.288,227.379898,269.330383,256.758881,-149.603692,-83.403919,-8.074923,55.57026,32.559759,63.66008,39.825437,-58.808904,-15.996065,0,0.0
6292.376,227.379898,269.330383,256.75885,-149.521816,-83.398362,-8.157315,55.57026,32.559759,63.66008,39.825437,-58.808904,-15.985121,0,0.0
6307.782,227.379898,269.330383,256.75885,-149.521816,-83.398362,-8.157315,55.57026,32.559759,63.66008,39.825437,-58.808904,-15.985121,0,0.0
6322.722,227.379883,269.330353,256.75882,-149.440055,-83.392804,-8.239649,55.57026,32.559759,63.66008,39.825437,-58.808904,-15.974121,0,0.0
6338.155,227.379883,269.330353,256.75882,-149.440055,-83.392804,-8.239649,55.57026,32.559759,63.66008,39.825437,-58.808904,-15.974121,0,0.0
6352.426,227.379868,269.330353,256.759491,-149.439196,-83.392861,-8.240508,55.57026,32.559645,63.66008,39.825437,-58.808904,-15.974121,0,0.0
6368.955,227.379868,269.330353,256.759491,-149.439196,-83.392861,-8.240508,55.57026,32.559645,63.66008,39.825437,-58.808904,-15.974121,0,0.0
6384.931,227.379868,269.330353,256.759491,-149.439196,-83.392861,-8.240508,55.57026,32.559645,63.66008,39.825437,-58.808904,-15.974121,0,0.0
6400.881,227.379868,269.330353,256.759491,-149.439196,-83.392861,-8.240508,55.57026,32.559645,63.66008,39.825437,-58.808904,-15.974121,0,0.0
6415.769,227.380035,269.330597,256.759949,-149.438336,-83.392861,-8.241368,55.57026,32.559645,63.660195,39.825437,-58.808904,-15.974121,0,0.0
6430.545,227.380035,269.330597,256.759949,-149.438336,-83.392861,-8.241368,55.57026,32.559645,63.660195,39.825437,-58.808904,-15.974121,0,0.0
6446.193,227.380035,269.330597,256.759949,-149.438336,-83.392861,-8.241368,55.57026,32.559645,63.660195,39.825437,-58.808904,-15.974121,0,0.0
6461.201,227.380035,269.330597,256.759949,-149.438336,-83.392861,-8.241368,55.57026,32.559645,63.660195,39.825437,-58.808904,-15.974121,0,0.0
6476.714,227.380035,269.330597,256.759949,-149.438336,-83.392861,-8.241368,55.57026,32.559645,63.660195,39.825437,-58.808904,-15.974121,0,0.0
6491.766,227.380035,269.330597,256.759949,-149.438336,-83.392861,-8.241368,55.57026,32.559645,63.660195,39.825437,-58.808904,-15.974121,0,0.0
6505.97,227.380035,269.330597,256.759949,-149.438336,-83.392861,-8.241368,55.57026,32.559645,63.660195,39.825437,-58.808904,-15.974121,0,0.0
6520.974,227.380035,269.330597,256.759949,-149.438336,-83.392861,-8.241368,55.57026,32.559645,63.660195,39.825437,-58.808904,-15.974121,0,0.0
6536.292,227.380035,269.330597,256.759949,-149.438336,-83.392861,-8.241368,55.57026,32.559645,63.660195,39.825437,-58.808904,-15.974121,0,0.0
6552.774,227.380035,269.330597,256.759949,-149.438336,-83.392861,-8.241368,55.57026,32.559645,63.660195,39.825437,-58.808904,-15.974121,0,0.0
6568.493,227.380035,269.330597,256.759949,-149.438336,-83.392861,-8.241368,55.57026,32.559645,63.660195,39.825437,-58.808904,-15.974121,0,0.0
6583.912,227.380035,269.330597,256.759949,-149.438336,-83.392861,-8.241368,55.57026,32.559645,63.660195,39.825437,-58.808904,-15.974121,0,0.0
6598.919,227.380035,269.330597,256.759949,-149.438336,-83.392861,-8.241368,55.57026,32.559645,63.660195,39.825437,-58.808904,-15.974121,0,0.0
6615.166,227.380035,269.330597,256.759949,-149.438336,-83.392861,-8.241368,55.57026,32.559645,63.660195,39.825437,-58.808904,-15.974121,0,0.0
6629.751,227.380035,269.330597,256.759949,-149.438336,-83.392861,-8.241368,55.57026,32.559645,63.660195,39.825437,-58.808904,-15.974121,0,0.0
6644.824,227.380035,269.330597,256.759949,-149.438336,-83.392861,-8.241368,55.57026,32.559645,63.660195,39.825437,-58.808904,-15.974121,0,0.0
6660.381,227.380035,269.330597,256.759949,-149.438336,-83.392861,-8.241368,55.57026,32.559645,63.660195,39.825437,-58.808904,-15.974121,0,0.0
6677.288,227.380203,269.330841,256.760437,-149.437477,-83.392918,-8.24217,55.57026,32.559645,63.660252,39.825437,-58.808904,-15.974121,0,0.0
6692.701,227.380203,269.330841,256.760437,-149.437477,-83.392918,-8.24217,55.57026,32.559645,63.660252,39.825437,-58.808904,-15.974121,0,-0.01
6708.718,227.380203,269.330841,256.760437,-149.437477,-83.392918,-8.24217,55.57026,32.559645,63.660252,39.825437,-58.808904,-15.974121,0,-0.01
6722.474,227.380203,269.330841,256.760437,-149.437477,-83.392918,-8.24217,55.57026,32.559645,63.660252,39.825437,-58.808904,-15.974121,0,-0.01
6737.577,227.380203,269.330841,256.760437,-149.437477,-83.392918,-8.24217,55.57026,32.559645,63.660252,39.825437,-58.808904,-15.974121,0,-0.01
6755.004,227.380203,269.330841,256.760437,-149.437477,-83.392918,-8.24217,55.57026,32.559645,63.660252,39.825437,-58.808904,-15.974121,0,-0.01
6770.612,227.380203,269.330841,256.760437,-149.437477,-83.392918,-8.24217,55.57026,32.559645,63.660252,39.825437,-58.808904,-15.974121,0,-0.01
6786.229,227.380203,269.330841,256.760437,-149.437477,-83.392918,-8.24217,55.57026,32.559645,63.660252,39.825437,-58.808904,-15.974121,0,-0.01
6801.358,227.380203,269.330841,256.760437,-149.437477,-83.392918,-8.24217,55.57026,32.559645,63.660252,39.825437,-58.808904,-15.974121,0,-0.01
6816.901,227.380203,269.330841,256.760437,-149.437477,-83.392918,-8.24217,55.57026,32.559645,63.660252,39.825437,-58.808904,-15.974121,0,-0.01
6831.941,227.380203,269.330841,256.760437,-149.437477,-83.392918,-8.24217,55.57026,32.559645,63.660252,39.825437,-58.808904,-15.974121,0,-0.01
6847.323,227.380203,269.330841,256.760437,-149.437477,-83.392918,-8.24217,55.57026,32.559645,63.660252,39.825437,-58.808904,-15.974121,0,-0.01
6862.72,227.380203,269.330841,256.760437,-149.437477,-83.392918,-8.24217,55.57026,32.559645,63.660252,39.825437,-58.808904,-15.974121,0,-0.01
6876.706,227.380203,269.330841,256.760437,-149.437477,-83.392918,-8.24217,55.57026,32.559645,63.660252,39.825437,-58.808904,-15.974121,0,-0.01
6893.632,227.380203,269.330841,256.760437,-149.437477,-83.392918,-8.24217,55.57026,32.559645,63.660252,39.825437,-58.808904,-15.974121,0,-0.01
6908.802,227.380203,269.330841,256.760437,-149.437477,-83.392918,-8.24217,55.57026,32.559645,63.660252,39.825437,-58.808904,-15.974121,0,-0.01
6923.397,227.380203,269.330841,256.760437,-149.437477,-83.392918,-8.24217,55.57026,32.559645,63.660252,39.825437,-58.808904,-15.974121,0,-0.01
6938.405,227.380203,269.330841,256.760437,-149.437477,-83.392918,-8.24217,55.57026,32.559645,63.660252,39.825437,-58.808904,-15.974121,0,-0.01
6954.105,227.380203,269.330841,256.760437,-149.437477,-83.392918,-8.24217,55.57026,32.559645,63.660252,39.825437,-58.808904,-15.974121,0,-0.01
6969.164,227.380203,269.330841,256.760437,-149.437477,-83.392918,-8.24217,55.57026,32.559645,63.660252,39.825437,-58.808904,-15.974121,0,-0.01
6985.54,227.380203,269.330841,256.760437,-149.437477,-83.392918,-8.24217,55.57026,32.559645,63.660252,39.825437,-58.808904,-15.974121,0,-0.01
7000.626,227.380203,269.330841,256.760437,-149.437477,-83.392918,-8.24217,55.57026,32.559645,63.660252,39.825437,-58.808904,-15.974121,0,-0.01
7015.813,227.380203,269.330841,256.760437,-149.437477,-83.392918,-8.24217,55.57026,32.559645,63.660252,39.825437,-58.808904,-15.974121,0,-0.01
7031.742,227.380371,269.331085,256.760895,-149.436618,-83.392976,-8.243029,55.57026,32.559645,63.660367,39.825437,-58.808904,-15.974121,0,-0.01
7047.444,227.380371,269.331085,256.760895,-149.436618,-83.392976,-8.243029,55.57026,32.559645,63.660367,39.825437,-58.808904,-15.974121,0,-0.01
7063.071,227.380371,269.331085,256.760895,-149.436618,-83.392976,-8.243029,55.57026,32.559645,63.660367,39.825437,-58.808904,-15.974121,0,-0.01
7078.683,227.380371,269.331085,256.760895,-149.436618,-83.392976,-8.243029,55.57026,32.559645,63.660367,39.825437,-58.808904,-15.974121,0,-0.01
7093.681,227.380371,269.331085,256.760895,-149.436618,-83.392976,-8.243029,55.57026,32.559645,63.660367,39.825437,-58.808904,-15.974121,0,-0.01
7109.066,227.380371,269.331085,256.760895,-149.436618,-83.392976,-8.243029,55.57026,32.559645,63.660367,39.825437,-58.808904,-15.974121,0,-0.01
7124.467,227.380371,269.331085,256.760895,-149.436618,-83.392976,-8.243029,55.57026,32.559645,63.660367,39.825437,-58.808904,-15.974121,0,-0.01
7138.403,227.380371,269.331085,256.760895,-149.436618,-83.392976,-8.243029,55.57026,32.559645,63.660367,39.825437,-58.808904,-15.974121,0,0.01
7154.224,227.380371,269.331085,256.760895,-149.436618,-83.392976,-8.243029,55.57026,32.559645,63.660367,39.825437,-58.808904,-15.974121,0,0.01
7169.013,227.380371,269.331085,256.760895,-149.436618,-83.392976,-8.243029,55.57026,32.559645,63.660367,39.825437,-58.808904,-15.974121,0,0.01
7187.369,227.380371,269.331085,256.760895,-149.436618,-83.392976,-8.243029,55.57026,32.559645,63.660367,39.825437,-58.808904,-15.974121,0,0.01
7202.423,227.380371,269.331085,256.760895,-149.436618,-83.392976,-8.243029,55.57026,32.559645,63.660367,39.825437,-58.808904,-15.974121,0,0.01
7217.046,227.380371,269.331085,256.760895,-149.436618,-83.392976,-8.243029,55.57026,32.559645,63.660367,39.825437,-58.808904,-15.974121,0,0.01
7231.541,227.380371,269.331085,256.760895,-149.436618,-83.392976,-8.243029,55.57026,32.559645,63.660367,39.825437,-58.808904,-15.974121,0,0.01
7246.438,227.380371,269.331085,256.760895,-149.436618,-83.392976,-8.243029,55.57026,32.559645,63.660367,39.825437,-58.808904,-15.974121,0,0.01
7263.526,227.380371,269.331085,256.760895,-149.436618,-83.392976,-8.243029,55.57026,32.559645,63.660367,39.825437,-58.808904,-15.974121,0,0.01
7278.527,227.380371,269.331085,256.760895,-149.436618,-83.392976,-8.243029,55.57026,32.559645,63.660367,39.825437,-58.808904,-15.974121,0,0.01
7294.364,227.380371,269.331085,256.760895,-149.436618,-83.392976,-8.243029,55.57026,32.559645,63.660367,39.825437,-58.808904,-15.974121,0,0.01
7309.363,227.380371,269.331085,256.760895,-149.436618,-83.392976,-8.243029,55.57026,32.559645,63.660367,39.825437,-58.808904,-15.974121,0,0.01
7323.406,227.380371,269.331085,256.760895,-149.436618,-83.392976,-8.243029,55.57026,32.559645,63.660367,39.825437,-58.808904,-15.974121,0,0.01
7339.09,227.380371,269.331085,256.760895,-149.436618,-83.392976,-8.243029,55.57026,32.559645,63.660367,39.825437,-58.808904,-15.974121,0,0.01
7354.594,227.380539,269.33136,256.761353,-149.435758,-83.393033,-8.243889,55.57026,32.559645,63.660481,39.825437,-58.808904,-15.974121,0,0.01
7370.834,227.380539,269.33136,256.761353,-149.435758,-83.393033,-8.243889,55.57026,32.559645,63.660481,39.825437,-58.808904,-15.974121,0,0.01
7387.335,227.380539,269.33136,256.761353,-149.435758,-83.393033,-8.243889,55.57026,32.559645,63.660481,39.825437,-58.808904,-15.974121,0,0.01
7402.889,227.380539,269.33136,256.761353,-149.435758,-83.393033,-8.243889,55.57026,32.559645,63.660481,39.825437,-58.808904,-15.974121,0,0.01
7417.263,227.380539,269.33136,256.761353,-149.435758,-83.393033,-8.243889,55.57026,32.559645,63.660481,39.825437,-58.808904,-15.974121,0,0.01
7431.99,227.380539,269.33136,256.761322,-149.354169,-83.387418,-8.326051,55.57026,32.559645,63.660481,39.825437,-58.808904,-15.96312,0,0.01
7447.566,227.380539,269.33136,256.761322,-149.354169,-83.387418,-8.326051,55.57026,32.559645,63.660481,39.825437,-58.808904,-15.96312,0,0.01
7462.478,227.380539,269.33136,256.761322,-149.354169,-83.387418,-8.326051,55.57026,32.559645,63.660481,39.825437,-58.808904,-15.96312,0,0.01
7479.032,227.380539,269.33136,256.761322,-149.354169,-83.387418,-8.326051,55.57026,32.559645,63.660596,39.825437,-58.808904,-15.96312,0,0.01
7494.57,227.380707,269.331604,256.76178,-149.35331,-83.387475,-8.32691,55.57026,32.559645,63.660596,39.825437,-58.808904,-15.96312,0,0.01
7510.298,227.380707,269.331604,256.76178,-149.35331,-83.387475,-8.32691,55.57026,32.559645,63.660596,39.825437,-58.808904,-15.96312,0,0.01
7525.254,227.380707,269.331604,256.761749,-149.271835,-83.38186,-8.4089,55.57026,32.559645,63.660596,39.825437,-58.808904,-15.952176,0,0.01
7539.389,227.380707,269.331604,256.761749,-149.271835,-83.38186,-8.4089,55.57026,32.559645,63.660596,39.825437,-58.808904,-15.952176,0,0.01
7554.728,227.380875,269.331848,256.762238,-149.270975,-83.381918,-8.40976,55.57026,32.559645,63.66071,39.825437,-58.808904,-15.952176,0,0.01
7570.138,227.380875,269.331848,256.762238,-149.270975,-83.381918,-8.40976,55.57026,32.559645,63.66071,39.825437,-58.808904,-15.952176,0,0.01
7586.431,227.380875,269.331848,256.762207,-149.189615,-83.376303,-8.491636,55.57026,32.559645,63.66071,39.825437,-58.808904,-15.941176,0,0.01
