BAEK26/lfd/data/sepisode1/bbbbb.csv
timestamp,x,y,z,roll,pitch,yaw,joint1,joint2,joint3,joint4,joint5,joint6,gripper,scale
150.476,227.350998,269.382202,256.653748,-150.472182,-83.338258,-7.157733,55.570947,32.559415,63.662487,39.814436,-58.6899,-16.051012,0,-0.03
151.474,227.350998,269.382202,256.653748,-150.472182,-83.338258,-7.157733,55.570947,32.559415,63.662487,39.814436,-58.6899,-16.051012,0,-0.03
159.973,227.350998,269.382202,256.653748,-150.472182,-83.338258,-7.157733,55.570947,32.559415,63.662487,39.814436,-58.6899,-16.051012,0,-0.03
171.477,227.350998,269.382202,256.653748,-150.472182,-83.338258,-7.157733,55.570947,32.559415,63.662487,39.814436,-58.6899,-16.051012,0,-0.03
187.976,227.350998,269.382202,256.653748,-150.472182,-83.338258,-7.157733,55.570947,32.559415,63.662487,39.814436,-58.6899,-16.051012,0,-0.03
201.771,227.350998,269.382202,256.653748,-150.472182,-83.338258,-7.157733,55.570947,32.559415,63.662487,39.814436,-58.6899,-16.051012,0,-0.03
217.134,227.350998,269.382202,256.653748,-150.472182,-83.338258,-7.157733,55.570947,32.559415,63.662487,39.814436,-58.6899,-16.051012,0,-0.01
232.452,227.350998,269.382202,256.653748,-150.472182,-83.338258,-7.157733,55.570947,32.559415,63.662487,39.814436,-58.6899,-16.051012,0,-0.01
248.085,227.350998,269.382202,256.653748,-150.472182,-83.338258,-7.157733,55.570947,32.559415,63.662487,39.814436,-58.6899,-16.051012,0,-0.01
263.302,227.350998,269.382202,256.653748,-150.472182,-83.338258,-7.157733,55.570947,32.559415,63.662487,39.814436,-58.6899,-16.051012,0,-0.01
279.017,227.350998,269.382202,256.653748,-150.472182,-83.338258,-7.157733,55.570947,32.559415,63.662487,39.814436,-58.6899,-16.051012,0,-0.01
293.675,227.351013,269.382202,256.653778,-150.554114,-83.343701,-7.075284,55.570947,32.559415,63.662487,39.814436,-58.6899,-16.062012,0,-0.01
309.438,227.351013,269.382202,256.653778,-150.554114,-83.343701,-7.075284,55.570947,32.559415,63.662487,39.814436,-58.6899,-16.062012,0,-0.01
326.243,227.351013,269.382202,256.653778,-150.554114,-83.343701,-7.075284,55.570947,32.559415,63.662487,39.814436,-58.6899,-16.062012,0,-0.01
330.704,227.351013,269.382202,256.653778,-150.554114,-83.343701,-7.075284,55.570947,32.559415,63.662487,39.814436,-58.6899,-16.062012,0,-0.01
340.619,227.351013,269.382202,256.653778,-150.554114,-83.343701,-7.075284,55.570947,32.559415,63.662487,39.814436,-58.6899,-16.062012,0,-0.01
355.773,227.351013,269.382202,256.653778,-150.554114,-83.343701,-7.075284,55.570947,32.559415,63.662487,39.814436,-58.6899,-16.062012,0,-0.01
370.723,227.351013,269.382202,256.653778,-150.554114,-83.343701,-7.075284,55.570947,32.559415,63.662487,39.814436,-58.6899,-16.062012,0,-0.01
387.482,227.351013,269.382202,256.653778,-150.554114,-83.343701,-7.075284,55.570947,32.559415,63.662487,39.814436,-58.6899,-16.062012,0,-0.01
402.688,227.351013,269.382202,256.653778,-150.554114,-83.343701,-7.075284,55.570947,32.559415,63.662487,39.814436,-58.6899,-16.062012,0,-0.01
416.763,227.351013,269.382202,256.653778,-150.554114,-83.343701,-7.075284,55.570947,32.559415,63.662487,39.814436,-58.6899,-16.062012,0,-0.01
433.596,227.351013,269.382202,256.653778,-150.554114,-83.343701,-7.075284,55.570947,32.559415,63.662487,39.814436,-58.6899,-16.062012,0,-0.01
448.551,227.351013,269.382202,256.653778,-150.554114,-83.343701,-7.075284,55.570947,32.559415,63.662487,39.814436,-58.6899,-16.062012,0,-0.01
464.102,227.351013,269.382202,256.653778,-150.554114,-83.343701,-7.075284,55.570947,32.559415,63.662487,39.814436,-58.6899,-16.062012,0,-0.01
479.119,227.351013,269.382202,256.653778,-150.554114,-83.343701,-7.075284,55.570947,32.559415,63.662487,39.814436,-58.6899,-16.062012,0,-0.01
494.077,227.351013,269.382202,256.653778,-150.554114,-83.343701,-7.075284,55.570947,32.559415,63.662487,39.814436,-58.6899,-16.062012,0,-0.01
509.032,227.351013,269.382202,256.653778,-150.554114,-83.343701,-7.075284,55.570947,32.559415,63.662487,39.814436,-58.6899,-16.062012,0,-0.01
524.531,227.351013,269.382202,256.653778,-150.554114,-83.343701,-7.075284,55.570947,32.559415,63.662487,39.814436,-58.6899,-16.062012,0,-0.01
540.773,227.351013,269.382202,256.653778,-150.554114,-83.343701,-7.075284,55.570947,32.559415,63.662487,39.814436,-58.6899,-16.062012,0,-0.01
556.068,227.351013,269.382202,256.653778,-150.554114,-83.343701,-7.075284,55.570947,32.559415,63.662487,39.814436,-58.6899,-16.062012,0,-0.01
570.586,227.351013,269.382202,256.653778,-150.554114,-83.343701,-7.075284,55.570947,32.559415,63.662487,39.814436,-58.6899,-16.062012,0,-0.01
586.593,227.351013,269.382202,256.653778,-150.554114,-83.343701,-7.075284,55.570947,32.559415,63.662487,39.814436,-58.6899,-16.062012,0,-0.01
601.304,227.351013,269.382202,256.653778,-150.554114,-83.343701,-7.075284,55.570947,32.559415,63.662487,39.814436,-58.6899,-16.062012,0,-0.01
616.668,227.351013,269.382202,256.653778,-150.554114,-83.343701,-7.075284,55.570947,32.559415,63.662487,39.814436,-58.6899,-16.062012,0,-0.01
631.492,227.351013,269.382202,256.653778,-150.554114,-83.343701,-7.075284,55.570947,32.559415,63.662487,39.814436,-58.6899,-16.062012,0,-0.01
646.622,227.351013,269.382202,256.653778,-150.554114,-83.343701,-7.075284,55.570947,32.559415,63.662487,39.814436,-58.6899,-16.062012,0,-0.01
662.042,227.351013,269.382202,256.653778,-150.554114,-83.343701,-7.075284,55.570947,32.559415,63.662487,39.814436,-58.6899,-16.062012,0,-0.01
677.328,227.351013,269.382202,256.653778,-150.554114,-83.343701,-7.075284,55.570947,32.559415,63.662487,39.814436,-58.6899,-16.062012,0,-0.02
693.058,227.351013,269.382202,256.653778,-150.554114,-83.343701,-7.075284,55.570947,32.559415,63.662487,39.814436,-58.6899,-16.062012,0,-0.02
708.761,227.351013,269.382202,256.653778,-150.554114,-83.343701,-7.075284,55.570947,32.559415,63.662487,39.814436,-58.6899,-16.062012,0,-0.02
724.116,227.35434,269.37323,256.650513,-150.449435,-83.333274,-7.189818,55.570947,32.559415,63.662487,39.825437,-58.6899,-16.051012,0,-0.02
739.316,227.35434,269.37323,256.650513,-150.449435,-83.333274,-7.189818,55.570947,32.559415,63.662487,39.825437,-58.6899,-16.051012,0,-0.02
754.654,227.354324,269.373199,256.651184,-150.448576,-83.333331,-7.19062,55.570947,32.559301,63.662487,39.825437,-58.6899,-16.051012,0,-0.02
770.654,227.354324,269.373199,256.651184,-150.448576,-83.333331,-7.19062,55.570947,32.559301,63.662487,39.825437,-58.6899,-16.051012,0,-0.02
785.756,227.354324,269.373199,256.651184,-150.448576,-83.333331,-7.19062,55.570947,32.559301,63.662487,39.825437,-58.6899,-16.051012,0,-0.02
800.839,227.370956,269.3284,256.634949,-150.335359,-83.30835,-7.350246,55.570947,32.559301,63.662487,39.880384,-58.6899,-16.051012,0,-0.02
816.514,227.390808,269.274567,256.617462,-150.198308,-83.278499,-7.542875,55.570947,32.558957,63.662487,39.946274,-58.6899,-16.051012,0,-0.02
830.995,227.403931,269.238586,256.60907,-149.942654,-83.247846,-7.836688,55.570947,32.558212,63.662487,39.99022,-58.6899,-16.029067,0,-0.02
846.251,227.413727,269.211548,256.603912,-149.711122,-83.222062,-8.097097,55.570947,32.557123,63.662487,40.034165,-58.6899,-16.007066,0,-0.02
861.22,227.429947,269.166412,256.598297,-149.510415,-83.192097,-8.344672,55.570947,32.555691,63.662487,40.078111,-58.6899,-15.996065,0,-0.02
876.224,227.436234,269.148102,256.604462,-149.293779,-83.171757,-8.580845,55.570947,32.553571,63.662487,40.100113,-58.6899,-15.974121,0,-0.02
891.387,227.439026,269.13855,256.622559,-149.08866,-83.156974,-8.79622,55.570947,32.550076,63.662487,40.111114,-58.6899,-15.952176,0,-0.02
908.757,227.437958,269.137238,256.668793,-149.03125,-83.16024,-8.853172,55.570947,32.542513,63.662487,40.111114,-58.6899,-15.952176,0,-0.02
923.177,227.44574,269.10791,256.763092,-148.838793,-83.152391,-9.0725,55.570947,32.525554,63.662716,40.144059,-58.6899,-15.952176,0,-0.02
938.098,227.474197,269.013,256.921082,-148.396241,-83.114747,-9.605981,55.570947,32.494385,63.66283,40.253895,-58.6899,-15.952176,0,-0.02
955.124,227.497284,268.924622,257.161896,-147.879662,-83.087074,-10.203404,55.570947,32.450095,63.662888,40.352787,-58.6899,-15.952176,0,-0.02
969.766,227.499985,268.889038,257.443298,-147.381533,-83.085183,-10.727145,55.570947,32.40231,63.662888,40.385732,-58.6899,-15.941176,0,-0.02
984.276,227.490631,268.877472,257.829498,-146.89767,-83.110393,-11.207284,55.570947,32.338998,63.663002,40.385732,-58.6899,-15.941176,0,-0.02
999.797,227.476852,268.860413,258.384857,-146.119536,-83.139728,-11.980605,55.570947,32.24807,63.663231,40.385732,-58.6899,-15.930175,0,-0.02
1015.822,227.463303,268.840851,258.954926,-145.378014,-83.178288,-12.718116,55.570947,32.155423,63.663461,40.385732,-58.694484,-15.930175,0,-0.02
1032.242,227.441589,268.795105,259.93631,-143.98183,-83.231172,-14.117508,55.570947,31.995396,63.663461,40.396733,-58.703594,-15.919174,0,-0.02
1047.716,227.428024,268.738647,260.741241,-142.859864,-83.260221,-15.259356,55.570947,31.861782,63.66369,40.429678,-58.703594,-15.919174,0,-0.02
1063.662,227.390533,268.671906,262.218292,-140.771605,-83.358312,-17.343547,55.570947,31.624807,63.663919,40.429678,-58.73568,-15.919174,0,-0.02
1077.187,227.364487,268.632843,263.080078,-139.56106,-83.404836,-18.548649,55.570947,31.484833,63.663919,40.429678,-58.74479,-15.919174,0,-0.02
1092.687,227.301697,268.550995,264.875336,-137.560406,-83.53146,-20.528906,55.570947,31.190103,63.663919,40.429678,-58.74479,-15.996065,0,-0.02
1109.187,227.24263,268.473328,266.4422,-136.241457,-83.688049,-21.827228,55.570947,30.932788,63.663919,40.429678,-58.74479,-16.138903,0,-0.02
1124.386,227.160309,268.372375,268.388428,-134.064332,-83.812725,-23.978055,55.570947,30.610786,63.663919,40.429678,-58.731096,-16.237796,0,-0.02
1138.885,227.074646,268.290344,270.050201,-132.001054,-83.849852,-26.008273,55.571177,30.329292,63.663919,40.429678,-58.680733,-16.270741,0,-0.04
1154.7,226.977692,268.16568,272.085693,-129.326315,-83.935681,-28.658948,55.571177,29.993137,63.663919,40.429678,-58.671566,-16.336688,0,-0.04
1170.674,226.873734,268.044617,274.016541,-127.121401,-84.029245,-30.832177,55.571177,29.670218,63.663919,40.429678,-58.639537,-16.446524,0,-0.04
1185.694,226.77742,267.962067,275.475494,-126.113855,-84.121778,-31.796064,55.571291,29.417315,63.663919,40.429678,-58.56173,-16.600363,0,-0.04
1200.814,226.608795,267.85321,277.618256,-124.477888,-84.137477,-33.3458,55.571921,29.033548,63.663919,40.429678,-58.374029,-16.732201,0,-0.04
1216.814,226.432755,267.755463,279.601746,-123.250899,-84.134956,-34.478022,55.57301,28.671324,63.663919,40.429678,-58.158883,-16.864039,0,-0.04
1231.813,226.243546,267.62796,281.755524,-122.23917,-84.244105,-35.397218,55.574328,28.284749,63.663919,40.429678,-57.966598,-17.116713,0,-0.04
1248.28,226.083099,267.434692,283.904022,-121.210482,-84.498727,-36.393133,55.575646,27.914389,63.663919,40.462623,-57.879624,-17.501225,0,-0.04
1262.347,225.899704,267.205139,286.253815,-119.023502,-84.61435,-38.555304,55.577307,27.508334,63.663919,40.506569,-57.783481,-17.742899,0,-0.04
1277.803,225.763245,267.038635,287.891022,-117.220118,-84.645691,-40.343219,55.580287,27.131156,63.663919,40.550515,-57.69198,-17.885737,0,-0.04
1293.293,225.544373,266.801208,290.244965,-114.252253,-84.65417,-43.290285,55.585959,26.820384,63.663919,40.583517,-57.637033,-17.99563,0,-0.04
1308.918,225.319229,266.593811,292.281708,-112.505935,-84.748365,-45.020789,55.597762,26.463087,63.663919,40.649408,-57.536307,-18.248305,0,-0.04
1324.639,225.078751,266.287323,294.585327,-110.71103,-84.895959,-46.857291,55.611226,26.057605,63.663919,40.792246,-57.440165,-18.621816,0,-0.04
1340.599,224.839645,265.97583,296.56189,-110.599991,-85.069966,-47.045908,55.62916,25.68713,63.663919,41.022976,-57.261631,-19.10522,0,-0.04
1355.845,224.546494,265.627411,298.693604,-111.223427,-85.163587,-46.502458,55.651047,25.267668,63.663919,41.319596,-56.968678,-19.599626,0,-0.04
1371.351,224.265671,265.353058,300.228302,-115.109857,-85.159004,-42.650864,55.668579,24.903897,63.663919,41.671163,-56.433134,-20.115975,0,-0.04
1387.295,223.941879,265.048279,302.011719,-118.525086,-85.05484,-39.243942,55.684622,24.490164,63.663919,42.02273,-55.84717,-20.577378,0,-0.04
1401.541,223.730408,264.825836,303.019043,-122.599561,-84.917903,-35.1764,55.692873,24.117627,63.663919,42.440187,-55.128452,-21.159675,0,-0.04
1416.514,223.423004,264.457733,304.729034,-127.617697,-84.86204,-30.172129,55.697743,23.793963,63.663919,42.758809,-54.62952,-21.65408,0,-0.04
1431.967,223.140564,264.068115,306.119904,-133.525981,-84.701726,-24.319308,55.704103,23.412431,63.663919,43.275158,-53.906276,-22.390159,0,-0.04
1447.643,222.816513,263.691101,307.681091,-136.929407,-84.526917,-20.977475,55.72089,23.031299,63.663919,43.736561,-53.343173,-22.972399,0,-0.04
1462.648,222.445953,263.345734,309.248199,-138.749981,-84.450026,-19.276248,55.761112,22.685462,63.663919,44.187021,-53.00444,-23.499749,0,-0.04
1478.161,222.020905,262.996063,311.177368,-138.989821,-84.61584,-19.185263,55.818981,22.327936,63.663919,44.549589,-52.940384,-24.0271,0,-0.04
1493.685,221.634659,262.796326,312.527405,-139.372557,-84.778388,-18.924395,55.904065,21.995506,63.663919,44.9231,-52.940384,-24.587395,0,-0.04
1508.901,221.06752,262.535278,314.486816,-139.510525,-85.003274,-18.922103,55.972362,21.729081,63.663919,45.186775,-52.940384,-25.00491,0,-0.04
1525.104,220.409775,262.314941,316.483337,-138.953896,-85.17688,-19.606616,56.079734,21.367831,63.663919,45.549343,-52.940384,-25.488257,0,-0.04
1540.612,219.705124,262.167786,318.342773,-140.03736,-85.448519,-18.620154,56.198451,21.030359,63.663919,45.889909,-52.940384,-26.1145,0,-0.04
1556.667,218.775879,262.091095,320.375061,-140.385832,-85.661086,-18.37785,56.363405,20.657134,63.663919,46.307366,-52.940384,-26.718741,0,-0.04
1571.399,217.905991,261.970642,322.244629,-142.451288,-85.922928,-16.448014,56.519479,20.307687,63.663346,46.757825,-52.940384,-27.45482,0,-0.04
1586.967,216.811569,261.942047,324.17569,-143.988305,-86.110515,-15.059737,56.725056,19.940306,63.663117,47.296119,-52.940384,-28.168954,0,-0.04
1601.342,216.065308,261.907013,325.513428,-145.455191,-86.254671,-13.691113,56.907658,19.603579,63.663002,47.76858,-52.940384,-28.839086,0,0.04
1616.755,214.98967,261.899292,327.369934,-146.672154,-86.423579,-12.576825,57.061211,19.334404,63.66283,48.12009,-52.940384,-29.311547,0,0.04
1632.167,214.018372,261.861908,329.044861,-148.91683,-86.600393,-10.438145,57.239515,19.014693,63.662716,48.559548,-52.940384,-29.959734,0,0.04
1647.795,212.841599,262.014191,330.872131,-149.662936,-86.795887,-9.666715,57.451223,18.67831,63.662143,48.856226,-52.940384,-30.465083,0,0.04
1662.935,211.779358,262.149078,332.467987,-149.70522,-86.937407,-9.606783,57.643278,18.382549,63.661684,49.130844,-52.940384,-30.871596,0,0.04
1678.16,210.592239,262.325104,334.165405,-148.065931,-87.037102,-11.213643,57.858711,18.067479,63.661054,49.416521,-52.940384,-31.201162,0,0.04
1693.464,209.772919,262.44339,335.193939,-147.490223,-87.071766,-11.806082,58.013982,17.869064,63.660825,49.680196,-52.940384,-31.464837,0,0.04
1710.269,208.552811,262.669159,336.662567,-146.884492,-87.147454,-12.394338,58.317535,17.525518,63.66008,50.108654,-52.940384,-31.93724,0,0.04
1724.293,207.317978,262.938141,337.83197,-146.672726,-87.146594,-12.63435,58.489251,17.351454,63.659278,50.427219,-52.940384,-32.211916,0,0.04
1740.795,206.154617,263.125641,339.04306,-145.124881,-87.109466,-14.221729,58.715855,17.106171,63.656872,50.833732,-52.940384,-32.508537,0,0.04
1756.795,204.924835,263.43335,340.086945,-142.237231,-86.996193,-17.117286,58.96154,16.892056,63.656012,51.218244,-52.940384,-32.673319,0,0.04
1771.312,203.766998,263.777649,341.126221,-138.37985,-86.894779,-20.901443,59.185681,16.690547,63.65458,51.448974,-52.940384,-32.706322,0,0.04
1787.294,202.448563,264.32312,342.06604,-136.477458,-86.893576,-22.641688,59.44483,16.512586,63.653377,51.602756,-52.940384,-32.827159,0,0.04
1802.117,201.134186,264.896027,342.875946,-136.266438,-86.947148,-22.693197,59.707302,16.356112,63.652288,51.767596,-52.940384,-33.046888,0,0.04
1817.061,199.984024,265.436707,343.363556,-135.939565,-86.915979,-22.909775,59.945824,16.253151,63.6516,51.965324,-52.940384,-33.189669,0,0.04
1832.42,198.60733,266.05423,343.805084,-135.598598,-86.796001,-23.181643,60.23872,16.144862,63.649939,52.30589,-52.940384,-33.354509,0,0.04
1847.424,197.054169,266.8367,344.07312,-135.176729,-86.617181,-23.513615,60.575848,16.064304,63.649309,52.679459,-52.940384,-33.475346,0,0.04
1862.636,195.607635,267.596527,344.194275,-135.155988,-86.443117,-23.450189,60.893038,16.010503,63.647876,53.031025,-52.940384,-33.585182,0,0.04
1877.84,193.932037,268.576935,344.162476,-135.617391,-86.281829,-22.838671,61.261965,15.98409,63.64547,53.360591,-52.940384,-33.695075,0,0.04
1893.346,192.773163,269.252319,344.036865,-135.846116,-86.119682,-22.534315,61.521114,15.979621,63.643579,53.635267,-52.940384,-33.750022,0,0.04
1909.31,191.027328,270.27298,343.809692,-135.785325,-85.845121,-22.478338,61.911012,15.979506,63.640256,54.041723,-52.940384,-33.782967,0,0.04
1924.645,189.439529,271.082489,343.486755,-137.043082,-85.555605,-21.237655,62.273694,15.979506,63.634698,54.613019,-52.940384,-33.969751,0,0.04
1940.943,187.72435,271.919525,343.097595,-140.196298,-85.358622,-18.111081,62.663821,15.979506,63.622723,55.250263,-52.940384,-34.376207,0,0.04
1955.909,186.054077,272.664368,342.672668,-144.742775,-85.186677,-13.661262,63.048562,15.979506,63.615561,55.997343,-52.940384,-34.980448,0,0.04
1970.905,184.097076,273.604187,342.276794,-147.626128,-84.927128,-10.803635,63.491115,15.979506,63.613155,56.722421,-52.940384,-35.441909,0,0.04
1986.946,182.376297,274.298218,341.794159,-149.415017,-84.535511,-9.168184,63.886685,15.979506,63.606451,57.568336,-52.940384,-35.837421,0,0.04
2002.915,180.96315,274.882782,341.389893,-150.754707,-84.257053,-7.895187,64.299787,15.979506,63.581642,58.359361,-52.940384,-36.232934,0,0.04
2018.299,179.260696,275.489838,340.864136,-153.572915,-83.981804,-5.234199,64.690602,15.979277,63.552708,59.128442,-53.022775,-36.79323,0,0.04
2031.782,177.481155,276.175415,340.50058,-155.834207,-83.817881,-3.075981,64.991577,15.978819,63.536035,59.633791,-53.128027,-37.144797,0,0.04
2048.635,175.664978,276.878265,340.194977,-156.91068,-83.601418,-2.119485,65.402731,15.978819,63.526696,60.325924,-53.274533,-37.518308,0,0.04
2062.623,174.065262,277.520782,339.893036,-157.176475,-83.353155,-1.913736,65.758423,15.978819,63.516669,60.89722,-53.35234,-37.738037,0,-0.02
2077.882,172.299408,278.306488,339.606323,-158.147467,-83.163048,-0.896392,66.141847,15.978819,63.504923,61.380625,-53.402703,-38.012713,0,-0.02
2093.306,171.011963,278.921509,339.507782,-159.077492,-83.12867,0.116712,66.419617,15.978819,63.500626,61.622298,-53.475927,-38.221442,0,-0.02
2109.04,168.977585,279.956573,339.445557,-159.63836,-83.105007,0.881496,66.853117,15.978819,63.499022,61.874973,-53.590404,-38.397225,0,-0.02
2124.545,167.001099,280.923065,339.379028,-160.129729,-83.072463,1.54458,67.274871,15.978819,63.497589,62.149649,-53.713991,-38.573008,0,-0.02
2139.684,164.925247,281.863281,339.240906,-160.743768,-82.976264,2.276934,67.719944,15.978819,63.495584,62.545162,-53.837578,-38.803739,0,-0.02
2156.106,162.959549,282.792786,339.066345,-161.891746,-82.867975,3.612384,68.132818,15.978819,63.493063,62.874727,-53.87419,-39.067356,0,-0.02
2171.186,160.625824,283.965576,338.986053,-162.376125,-82.82082,4.409884,68.616222,15.978819,63.49186,63.083513,-53.938304,-39.210195,0,-0.02
2186.422,158.986359,284.784271,339.02182,-162.139321,-82.854338,4.392581,69.069088,15.978819,63.490771,63.193349,-54.103087,-39.221196,0,-0.02
2201.138,156.812775,285.716614,339.154724,-161.23611,-82.964976,3.612613,69.423062,15.978819,63.488651,63.358131,-54.377763,-39.221196,0,-0.02
2216.482,154.939835,286.450562,339.263977,-160.271479,-83.057337,2.695308,69.828544,15.978819,63.483724,63.577861,-54.707328,-39.221196,0,-0.02
2231.974,152.718842,287.365356,339.427124,-159.330567,-83.197483,1.881479,70.302838,15.978819,63.48063,63.753644,-55.064395,-39.221196,0,-0.02
2247.509,150.538269,288.233917,339.645203,-158.309442,-83.3806,0.96784,70.769856,15.978819,63.479656,63.907483,-55.462658,-39.221196,0,-0.02
2262.508,148.371719,288.895721,339.910706,-156.507662,-83.579817,-0.942802,71.251943,15.978819,63.477364,64.226048,-56.048565,-39.221196,0,-0.02
2277.909,146.449219,289.353149,340.096283,-154.70548,-83.699967,-2.966947,71.687964,15.978819,63.473754,64.654563,-56.625362,-39.254141,0,-0.02
2293.297,144.646545,289.93277,340.201172,-154.336896,-83.803958,-3.342636,72.07769,15.978819,63.47152,64.918238,-56.973262,-39.364034,0,-0.02
2308.928,142.423096,290.619141,340.333282,-154.442435,-83.956193,-3.25738,72.558458,15.978819,63.470775,65.258804,-57.408137,-39.572763,0,-0.02
2324.433,140.085831,291.32019,340.342957,-154.057064,-83.964444,-3.658679,73.058994,15.978819,63.468254,65.687262,-57.769787,-39.715601,0,-0.02
2340.243,138.064178,291.819672,340.165924,-154.561381,-83.851858,-3.247811,73.494041,15.978819,63.4588,66.236557,-58.030712,-39.946274,0,-0.02
2356.024,135.578156,292.641693,339.865997,-156.027867,-83.678538,-1.623877,74.003229,15.978819,63.445622,66.70896,-58.103936,-40.22095,0,-0.02
2372.165,133.133743,293.440063,339.548065,-157.478997,-83.451761,-0.015756,74.501817,15.978819,63.440981,67.214366,-58.131381,-40.506569,0,-0.02
2386.445,131.411011,293.938751,339.30069,-157.935301,-83.2467,0.493832,75.006191,15.978933,63.434277,67.785663,-58.190911,-40.704354,0,-0.02
2401.807,129.005005,294.57901,338.837952,-158.532494,-82.882241,1.143968,75.349393,15.979163,63.420641,68.280011,-58.204662,-40.869137,0,-0.02
2416.941,126.511147,295.353363,338.466003,-159.552531,-82.639078,2.374624,75.848611,15.979163,63.402421,68.73047,-58.204662,-41.088866,0,-0.02
2432.496,123.709152,296.221344,338.190979,-160.549879,-82.456648,3.612613,76.410912,15.979163,63.393426,69.169929,-58.268719,-41.33054,0,-0.02
2447.486,121.459419,296.70874,337.932098,-161.575473,-82.31656,4.63775,76.877472,15.979277,63.377497,69.697279,-58.465587,-41.616216,0,-0.02
2463.262,118.961403,297.259521,337.553497,-162.486075,-82.13476,5.618252,77.386602,15.979392,63.340713,70.213629,-58.625786,-41.85789,0,-0.02
2477.319,116.97834,297.814331,337.365021,-163.082983,-82.068698,6.404236,77.918765,15.979392,63.308742,70.52125,-58.749373,-42.02273,0,-0.02
2493.057,114.11628,298.514313,337.082214,-163.482563,-81.958232,6.994783,78.356333,15.979392,63.281699,70.839872,-58.900462,-42.132566,0,-0.02
2508.562,111.839043,298.858673,336.696136,-163.870055,-81.809091,7.368352,78.824497,15.979506,63.228528,71.33422,-59.133885,-42.286405,0,-0.02
2524.503,109.108452,299.379456,336.277313,-164.137855,-81.673587,7.767646,79.37339,15.979506,63.162466,71.751734,-59.339921,-42.38524,0,-0.0
2539.806,106.354591,299.96521,336.083405,-164.19114,-81.676222,8.006054,79.926868,15.979621,63.115484,72.026353,-59.609956,-42.440187,0,-0.0
2555.384,103.828461,300.275421,335.817688,-164.03627,-81.677254,7.833708,80.449348,15.98071,63.049307,72.421865,-60.008219,-42.484133,0,-0.0
2571.173,101.585068,300.502808,335.41745,-164.930714,-81.656341,8.744482,80.908058,15.980824,62.96428,72.784433,-60.305813,-42.648916,0,-0.0
2585.716,99.371582,300.954224,335.23877,-165.432797,-81.695989,9.461539,81.486917,15.980824,62.902687,72.960216,-60.585016,-42.758809,0,-0.0
2600.621,96.64856,301.424591,335.151855,-165.955105,-81.819233,10.151724,81.896467,15.981168,62.868367,73.136,-60.850524,-42.8357,0,-0.0
2615.96,94.224335,301.632935,334.872131,-166.024376,-81.834702,10.210394,82.396373,15.983689,62.798753,73.49851,-61.235036,-42.890647,0,-0.0
2631.466,91.82579,301.827728,334.541718,-165.995728,-81.822728,10.204321,82.886596,15.984033,62.719742,73.839134,-61.573769,-42.912591,0,-0.0
2646.744,88.742226,302.339722,334.409119,-166.067233,-81.959894,10.554685,83.499832,15.984033,62.652935,73.970971,-61.921669,-42.912591,0,-0.0
2662.1,86.262444,302.523193,334.373322,-165.709192,-82.104852,10.184268,84.015093,15.984434,62.604692,74.24559,-62.41149,-42.912591,0,-0.0
2677.588,84.573372,302.542572,334.151794,-165.453653,-82.091617,9.86026,84.536485,15.985351,62.535307,74.652104,-62.796002,-42.912591,0,-0.0
2692.594,81.626663,302.847656,333.89917,-165.234897,-82.056552,9.777181,84.960359,15.985351,62.496689,74.904778,-63.024899,-42.923592,0,-0.0
2708.179,78.583992,303.18573,333.752655,-165.447809,-82.042342,10.14439,85.571992,15.985351,62.467468,75.267346,-63.336187,-43.022484,0,-0.0
2724.494,75.893425,303.153809,333.381836,-166.320481,-81.846505,10.854284,86.13412,15.985981,62.43544,75.992424,-63.693254,-43.286159,0,-0.0
2739.504,73.22773,303.20578,332.802246,-167.958911,-81.580366,12.511622,86.672128,15.986439,62.374878,76.618667,-63.853453,-43.604724,0,-0.0
2754.556,69.870392,303.508453,332.406128,-168.349611,-81.340125,13.113743,87.336014,15.986439,62.343595,77.146017,-63.999959,-43.747562,0,-0.0
2770.146,67.884789,303.526764,332.059937,-168.246192,-81.095873,12.990214,87.857692,15.988616,62.309275,77.816148,-64.160158,-43.846455,0,-0.0
2784.89,65.297653,303.499878,331.38205,-168.713496,-80.687125,13.433798,88.259106,15.995205,62.273236,78.354499,-64.224214,-43.978292,0,-0.0
2799.577,62.345554,303.776001,330.982391,-169.595049,-80.469745,14.591745,88.833898,16.001279,62.246307,78.761013,-64.274577,-44.17602,0,-0.0
2815.083,59.29982,303.977356,330.680969,-169.875053,-80.302671,15.073431,89.436076,16.008384,62.227456,79.189471,-64.439417,-44.285913,0,-0.0
2832.003,57.032661,303.88559,330.172272,-170.366193,-80.06283,15.567492,89.893984,16.012795,62.17251,79.70582,-64.595033,-44.417751,0,-0.0
2845.911,54.868629,303.953674,329.881348,-170.469268,-79.966917,15.835694,90.464306,16.013368,62.115157,80.024442,-64.782734,-44.439695,0,-0.0
2860.909,51.936909,304.060944,329.703217,-170.559165,-79.987372,16.15678,90.903708,16.014228,62.080034,80.189225,-64.988712,-44.450696,0,-0.0
2876.812,49.464954,303.898315,329.407532,-170.667683,-79.992586,16.26398,91.413697,16.019957,62.012655,80.540792,-65.364057,-44.461697,0,-0.0
2892.254,47.249317,303.632477,328.967133,-170.930213,-79.939587,16.483652,91.873725,16.023109,61.921554,80.925304,-65.693679,-44.483641,0,-0.0
2908.258,44.132599,303.703278,328.73584,-171.285103,-80.056127,17.184551,92.489712,16.024541,61.837845,81.013196,-65.977465,-44.47264,0,-0.0
2923.595,41.664074,303.486664,328.435913,-170.619899,-80.139779,16.577961,92.998384,16.02752,61.739125,81.221924,-66.375728,-44.285913,0,-0.0
2940.632,39.344265,303.090912,327.974487,-170.585922,-80.166307,16.49345,93.486487,16.028151,61.615709,81.551489,-66.792268,-44.208965,0,-0.0
2955.701,36.703552,302.798737,327.752991,-170.88323,-80.350856,16.84811,94.036698,16.029698,61.515213,81.749274,-67.28209,-44.187021,0,-0.0
2971.125,33.742748,302.594635,327.444061,-171.004582,-80.507331,17.167019,94.639851,16.038521,61.407668,81.892113,-67.694104,-44.11013,0,-0.0
2986.495,32.135918,302.227203,327.134308,-170.824273,-80.509852,16.882545,95.101941,16.04236,61.303906,82.287626,-68.106061,-44.011237,0,-0.02
3001.107,29.698246,301.836151,326.548492,-170.529944,-80.404485,16.631532,95.488688,16.044079,61.211201,82.551243,-68.289178,-43.923346,0,-0.02
3017.058,26.374987,301.659119,326.109558,-169.932636,-80.330803,16.352731,96.150225,16.046829,61.119356,82.803975,-68.495156,-43.758563,0,-0.02
3031.754,23.73613,301.209656,325.497681,-169.765389,-80.151524,16.208059,96.696082,16.053533,61.018745,83.276379,-68.746971,-43.681615,0,-0.02
3046.281,21.220917,300.563232,324.676361,-169.789625,-79.756413,16.089228,97.225839,16.05485,60.916644,84.023459,-68.943782,-43.670671,0,-0.02
3062.083,18.310848,300.144287,323.967224,-169.927307,-79.410976,16.357372,97.813349,16.056168,60.831502,84.583754,-69.02159,-43.670671,0,-0.02
3076.812,15.899552,299.77597,323.444305,-169.832712,-79.066228,16.305405,98.302827,16.060236,60.795177,85.144049,-69.090288,-43.670671,0,-0.02
3092.813,13.612668,299.124023,322.572083,-169.71898,-78.479462,15.983517,98.78182,16.070779,60.74086,86.044911,-69.154344,-43.670671,0,-0.02
3108.818,10.875419,298.533234,321.731262,-169.639224,-77.892696,15.851508,99.340053,16.076508,60.689007,86.890883,-69.163512,-43.670671,0,-0.02
3123.973,7.878114,298.100861,321.14502,-169.616019,-77.503714,15.949483,99.943263,16.089171,60.659271,87.506125,-69.223042,-43.670671,0,-0.02
3139.972,5.400325,297.355865,320.358856,-169.714912,-77.058698,15.848185,100.468092,16.107734,60.6006,88.330096,-69.410686,-43.670671,0,-0.02
3155.167,3.131411,296.667389,319.754395,-169.905993,-76.779037,15.924331,100.950866,16.112089,60.527834,88.945338,-69.625831,-43.670671,0,-0.02
3169.937,0.717727,296.295197,319.414551,-170.139531,-76.709652,16.353705,101.593209,16.126585,60.459824,89.285904,-69.845561,-43.670671,0,-0.02
3184.438,-1.89484,295.80722,318.992706,-170.432713,-76.664331,16.784799,101.986201,16.145951,60.412727,89.505633,-70.028678,-43.65967,0,-0.02
3199.937,-4.095828,295.166229,318.532867,-170.395929,-76.649148,16.753859,102.461011,16.157582,60.31309,89.813254,-70.34455,-43.538834,0,-0.02
3215.437,-6.56646,294.67804,318.36673,-170.238595,-76.826135,16.797805,102.983549,16.1644,60.2311,89.879144,-70.697033,-43.395995,0,-0.02
3230.941,-9.482155,294.250946,318.247833,-170.214015,-77.055089,17.109723,103.588993,16.185084,60.166527,89.879144,-71.049517,-43.286159,0,-0.02
3246.438,-11.381772,293.55365,318.143066,-170.310788,-77.256369,17.09431,104.022837,16.195798,60.100694,90.109875,-71.571367,-43.220212,0,-0.02
3261.937,-13.722198,292.767944,318.059875,-170.705728,-77.482057,17.448914,104.54801,16.199121,60.027757,90.351548,-72.120661,-43.220212,0,-0.02
3277.437,-15.67612,292.210022,318.158478,-170.993123,-77.800678,17.791944,105.12664,16.204049,59.957971,90.417496,-72.770682,-43.209211,0,-0.02
3293.437,-17.927172,291.38089,318.258331,-171.180251,-78.213953,17.920057,105.502558,16.206283,59.897352,90.505387,-73.306283,-43.143321,0,-0.02
3308.436,-19.906023,290.397125,318.376465,-171.281493,-78.617716,17.767192,105.983212,16.20657,59.820805,90.73606,-74.102809,-43.06643,0,-0.02
3324.937,-22.28418,289.637756,318.509521,-170.902481,-79.004807,17.444158,106.518297,16.209091,59.751763,90.780006,-74.71616,-42.90159,0,-0.02
3340.438,-25.176731,288.887421,318.654999,-169.760462,-79.363364,16.510925,107.149124,16.212643,59.688852,90.780006,-75.279263,-42.60497,0,-0.02
3355.94,-27.179232,288.001129,318.512329,-168.742946,-79.485862,15.384604,107.613048,16.212872,59.610185,91.054682,-75.773611,-42.330351,0,-0.02
3370.938,-29.626881,287.105438,318.454102,-167.868326,-79.557081,14.477784,108.161712,16.213502,59.569161,91.384305,-76.235988,-42.121565,0,-0.02
3386.439,-32.395985,286.385681,318.415131,-167.084921,-79.604178,13.888726,108.754666,16.223644,59.552488,91.603977,-76.556386,-41.945782,0,-0.02
3401.436,-34.332153,285.690277,318.25116,-166.906101,-79.521099,13.696728,109.294736,16.230004,59.533695,92.109383,-76.872258,-41.85789,0,-0.02
3416.937,-36.313919,284.735718,317.971252,-166.851899,-79.305839,13.436605,109.635875,16.230004,59.5247,92.581786,-77.091987,-41.824945,0,-0.02
3432.435,-38.989258,283.720276,317.83075,-166.999951,-79.18758,13.549764,110.229574,16.230405,59.523898,93.120138,-77.43072,-41.824945,0,-0.02
3447.936,-41.515041,282.711823,317.782074,-167.026193,-79.164032,13.526216,110.797662,16.232066,59.521606,93.58154,-77.833566,-41.803001,0,-0.03
3463.437,-43.542095,281.443909,317.601135,-167.31525,-79.037293,13.402228,111.29052,16.232525,59.513355,94.32862,-78.350833,-41.803001,0,-0.03
3478.936,-45.678123,280.322998,317.547729,-167.523176,-79.006697,13.374038,111.793806,16.232983,59.511866,94.888916,-78.826903,-41.803001,0,-0.03
3494.436,-48.408611,279.191101,317.5867,-167.465766,-79.060269,13.301845,112.413632,16.234702,59.510949,95.306373,-79.29839,-41.759055,0,-0.03
3509.936,-50.307667,278.10437,317.562897,-167.313073,-79.052133,12.898942,112.869821,16.235275,59.506881,95.811779,-79.774461,-41.682107,0,-0.03
3525.438,-51.804878,277.262024,317.528778,-167.508623,-79.037924,12.924495,113.34572,16.235504,59.504933,96.350073,-80.245948,-41.682107,0,-0.03
3542.436,-54.715393,276.061859,317.544312,-167.545865,-79.066342,13.028545,113.885274,16.23602,59.504704,96.613748,-80.538958,-41.649162,0,-0.03
3557.936,-56.665405,275.340515,317.515961,-167.291128,-79.043539,12.904671,114.42712,16.236936,59.502068,96.976315,-80.836495,-41.539326,0,-0.03
3586.437,-58.408501,274.283112,317.373352,-167.353352,-78.924077,12.746363,114.736345,16.237051,59.499776,97.371828,-81.074502,-41.517324,0,-0.03
3590.438,-58.408501,274.283112,317.373352,-167.353352,-78.924077,12.746363,114.736345,16.237051,59.499776,97.371828,-81.074502,-41.517324,0,-0.03
3596.936,-58.408669,274.283112,317.373077,-167.353237,-78.924191,12.746363,114.736403,16.237051,59.499719,97.371714,-81.074502,-41.517267,0,-0.03
3603.938,-58.413036,274.283722,317.36557,-167.350544,-78.926311,12.74642,114.737262,16.238197,59.498573,97.368505,-81.074559,-41.514803,0,-0.03
3618.437,-58.463039,274.290558,317.279663,-167.319719,-78.950318,12.747108,114.747232,16.251088,59.485452,97.332122,-81.075132,-41.487186,0,-0.03
3633.936,-58.583061,274.306763,317.073547,-167.245406,-79.007901,12.74854,114.771181,16.282028,59.45394,97.244918,-81.076507,-41.420895,0,-0.03
3649.937,-58.719402,274.32489,316.839539,-167.160609,-79.073046,12.749858,114.798339,16.31715,59.418187,97.145854,-81.077997,-41.345666,0,-0.03
3664.936,-58.960892,274.356262,316.425446,-167.009176,-79.187981,12.751118,114.846353,16.379259,59.35499,96.9707,-81.08069,-41.212625,0,-0.03
3680.436,-59.235592,274.390778,315.954987,-166.834997,-79.317756,12.751004,114.900956,16.449847,59.283141,96.771712,-81.083784,-41.061479,0,-0.03
3695.936,-59.512108,274.424286,315.482025,-166.657666,-79.447474,12.74917,114.955731,16.520722,59.211006,96.571864,-81.086878,-40.909645,0,-0.03
3711.436,-59.789127,274.456573,315.00882,-166.477815,-79.576504,12.745503,115.010563,16.591597,59.13887,96.37196,-81.089972,-40.757811,0,-0.03
3727.439,-60.066639,274.487671,314.535339,-166.295557,-79.704846,12.74006,115.065395,16.662529,59.066735,96.172055,-81.093066,-40.605977,0,-0.03
3742.937,-60.344643,274.517578,314.061584,-166.110663,-79.832444,12.732669,115.120227,16.733404,58.994599,95.97215,-81.09616,-40.454143,0,-0.03
3758.937,-60.623131,274.546234,313.587585,-165.923192,-79.959354,12.723387,115.175002,16.804279,58.922407,95.772302,-81.099197,-40.30231,0,-0.03
3774.438,-60.902107,274.57373,313.113342,-165.733142,-80.08552,12.712043,115.229834,16.875154,58.850271,95.572397,-81.10229,-40.150476,0,-0.03
3789.937,-61.181561,274.599976,312.638824,-165.540284,-80.21094,12.698693,115.284666,16.946029,58.778136,95.372492,-81.105384,-39.998642,0,-0.03
3805.437,-61.39146,274.618866,312.282776,-165.393836,-80.304561,12.687234,115.325747,16.999199,58.723991,95.222549,-81.107676,-39.884738,0,-0.03
3821.436,-61.671745,274.643005,311.8078,-165.196166,-80.428779,12.670102,115.380579,17.070132,58.651856,95.022701,-81.11077,-39.732904,0,-0.03
3835.947,-61.952496,274.665894,311.33255,-164.995573,-80.552194,12.650736,115.435411,17.141006,58.579721,94.822796,-81.113864,-39.58107,0,-0.03
3850.936,-62.233711,274.687561,310.857056,-164.792058,-80.674921,12.629021,115.490243,17.211881,58.507585,94.622891,-81.116958,-39.429237,0,-0.03
3866.437,-62.444923,274.702972,310.500244,-164.637417,-80.76648,12.611202,115.545018,17.282756,58.43545,94.422986,-81.120052,-39.277403,0,-0.03
3881.937,-62.797516,274.727173,309.905243,-164.375862,-80.918142,12.578429,115.59985,17.353688,58.363257,94.223139,-81.123146,-39.125569,0,-0.03
3897.438,-63.009411,274.740753,309.548035,-164.21658,-81.008612,12.556886,115.654682,17.424563,58.291122,94.023234,-81.12624,-38.973735,0,-0.03
3912.937,-63.292332,274.757751,309.071533,-164.001377,-81.128532,12.525889,115.695763,17.477734,58.237035,93.873291,-81.128532,-38.859831,0,-0.03
3928.439,-63.575695,274.773529,308.594757,-163.782908,-81.247707,12.492199,115.750595,17.548609,58.164899,93.673443,-81.131626,-38.707997,0,-0.03
3943.941,-63.859501,274.788025,308.117706,-163.561116,-81.366138,12.455816,115.805427,17.619484,58.092707,93.473538,-81.13472,-38.556163,0,-0.03
3959.438,-64.143738,274.80127,307.640381,-163.335829,-81.483823,12.416626,115.860202,17.690358,58.020571,93.273633,-81.137814,-38.40433,0,-0.03
3975.937,-64.428413,274.813263,307.162781,-163.107047,-81.600706,12.374513,115.915034,17.761291,57.948436,93.073728,-81.140851,-38.252496,0,-0.03
3991.992,-64.713509,274.824005,306.684906,-162.874598,-81.716845,12.329364,115.969866,17.832165,57.8763,92.87388,-81.143945,-38.100662,0,-0.03
4006.938,-64.999031,274.833435,306.206757,-162.638482,-81.832181,12.281178,116.024698,17.90304,57.804165,92.673975,-81.147038,-37.948828,0,-0.03
4023.936,-65.213448,274.839691,305.847961,-162.458917,-81.91824,12.242905,116.079473,17.973915,57.731972,92.47407,-81.150132,-37.796994,0,-0.03
4037.954,-65.499702,274.846924,305.369324,-162.216097,-82.032258,12.189104,116.134305,18.044847,57.659837,92.274165,-81.153226,-37.645161,0,-0.03
4053.937,-65.786362,274.852875,304.890411,-161.969325,-82.145475,12.131866,116.189137,18.115722,57.587702,92.07426,-81.15632,-37.493327,0,-0.03
4067.936,-66.073433,274.857513,304.411224,-161.718484,-82.257946,12.071189,116.230218,18.168893,57.533614,91.924375,-81.158612,-37.379423,0,-0.03
4083.436,-66.360909,274.86087,303.931763,-161.46346,-82.369616,12.006961,116.28505,18.239768,57.461422,91.72447,-81.161706,-37.227589,0,-0.03
4098.936,-66.648773,274.862946,303.451996,-161.204197,-82.480483,11.939065,116.339882,18.310643,57.389286,91.524565,-81.1648,-37.075755,0,-0.03
4114.938,-66.937035,274.863739,302.971954,-160.940521,-82.590548,11.867331,116.394715,18.381575,57.317151,91.324717,-81.167894,-36.923921,0,-0.03
4129.936,-67.153488,274.863464,302.611755,-160.739814,-82.672596,11.811009,116.435796,18.434688,57.263064,91.174774,-81.170186,-36.810017,0,-0.03
4145.436,-67.442429,274.861969,302.131226,-160.468175,-82.781286,11.732399,116.490628,18.50562,57.190871,90.974869,-81.17328,-36.658184,0,-0.03
4160.936,-67.731743,274.859131,301.650421,-160.191838,-82.889117,11.649607,116.545402,18.576495,57.118736,90.774964,-81.176374,-36.50635,0,-0.03
4176.404,-68.021439,274.855011,301.169312,-159.91063,-82.996202,11.562575,116.600234,18.64737,57.0466,90.575116,-81.179468,-36.354516,0,-0.03
4191.905,-68.311501,274.849579,300.687927,-159.624437,-83.102429,11.471131,116.655067,18.718245,56.974465,90.375211,-81.182562,-36.202682,0,-0.03
4208.405,-68.601936,274.842804,300.206268,-159.333146,-83.207853,11.37516,116.709899,18.789177,56.902272,90.175306,-81.185599,-36.050848,0,-0.03
4224.784,-68.892723,274.834717,299.724304,-159.036583,-83.312418,11.274492,116.764673,18.860052,56.830137,89.975401,-81.188693,-35.899014,0,-0.03
4239.291,-69.183876,274.825317,299.242065,-158.734577,-83.416238,11.16901,116.819505,18.930927,56.758001,89.775554,-81.191786,-35.747181,0,-0.03
4254.579,-69.47538,274.814575,298.759552,-158.42707,-83.519141,11.058544,116.874337,19.001802,56.685866,89.575649,-81.19488,-35.595347,0,-0.03
4269.748,-69.694229,274.805634,298.397461,-158.192673,-83.595803,10.972314,116.92917,19.072734,56.613731,89.375744,-81.197974,-35.443513,0,-0.03
4284.59,-69.986336,274.792542,297.914429,-157.875025,-83.697274,10.85268,116.970251,19.125904,56.559586,89.225801,-81.200266,-35.329609,0,-0.03
4299.853,-70.278778,274.778107,297.431091,-157.551304,-83.797885,10.727661,117.025083,19.196779,56.487451,89.025953,-81.20336,-35.177775,0,-0.03
4315.357,-70.571556,274.762329,296.947479,-157.22151,-83.897694,10.596969,117.079915,19.267654,56.415315,88.826048,-81.206454,-35.025941,0,-0.03
4329.924,-70.864662,274.745178,296.463593,-156.885298,-83.996587,10.46049,117.134689,19.338529,56.34318,88.626143,-81.209548,-34.874108,0,-0.03
4346.061,-71.084702,274.731445,296.100464,-156.628842,-84.070212,10.354207,117.189522,19.409404,56.270987,88.426238,-81.212642,-34.722274,0,-0.03
4361.065,-71.378372,274.711945,295.616058,-156.281057,-84.167615,10.207129,117.23066,19.462574,56.2169,88.276352,-81.214934,-34.60837,0,-0.03
4377.151,-71.672356,274.691071,295.131378,-155.926339,-84.264215,10.05369,117.285435,19.533506,56.144765,88.076447,-81.218028,-34.456536,0,-0.03
4392.452,-71.966652,274.668823,294.646362,-155.564573,-84.359842,9.893663,117.340267,19.604381,56.072629,87.876542,-81.221122,-34.304702,0,-0.03
4408.469,-72.261246,274.645203,294.161102,-155.195416,-84.454667,9.726875,117.395099,19.675256,56.000437,87.676695,-81.224216,-34.152868,0,-0.03
4425.716,-72.556145,274.620239,293.675507,-154.818754,-84.548574,9.553155,117.449874,19.746131,55.928301,87.47679,-81.227253,-34.001034,0,-0.03
4440.809,-72.851334,274.593872,293.189667,-154.434357,-84.641565,9.372157,117.504706,19.817063,55.856166,87.276885,-81.230347,-33.849201,0,-0.03
4456.373,-73.072922,274.573181,292.825073,-154.140773,-84.710779,9.231496,117.559538,19.887938,55.78403,87.07698,-81.233441,-33.697367,0,-0.03
4471.375,-73.442589,274.536987,292.217041,-153.641211,-84.824912,8.987473,117.61437,19.958813,55.711838,86.877075,-81.236535,-33.545533,0,-0.03
4484.786,-73.664597,274.514221,291.85202,-153.335137,-84.89275,8.835124,117.655451,20.011983,55.65775,86.727189,-81.238826,-33.431629,0,-0.03
4501.521,-73.960846,274.482666,291.365051,-152.919399,-84.982418,8.624791,117.710283,20.082858,55.585615,86.527284,-81.24192,-33.279795,0,-0.03
4517.276,-74.257362,274.449677,290.877777,-152.494665,-85.071112,8.405978,117.765115,20.15379,55.51348,86.327379,-81.245014,-33.127961,0,-0.03
4532.228,-74.554153,274.415314,290.390228,-152.06065,-85.158889,8.178457,117.81989,20.224665,55.441287,86.127531,-81.248108,-32.976128,0,-0.03
4547.462,-74.851196,274.379547,289.902405,-151.617123,-85.245807,7.941883,117.874722,20.29554,55.369152,85.927626,-81.251202,-32.824294,0,-0.03
4562.715,-75.07415,274.351776,289.536316,-151.277989,-85.310322,7.758364,117.929554,20.366415,55.297016,85.727721,-81.254296,-32.67246,0,-0.03
4577.733,-75.371635,274.313538,289.047974,-150.816988,-85.395521,7.505289,117.984386,20.43729,55.224881,85.527817,-81.25739,-32.520626,0,-0.03
4593.204,-75.669365,274.273865,288.559326,-150.345615,-85.479803,7.242244,118.025467,20.49046,55.170736,85.377931,-81.259682,-32.406722,0,-0.03
4607.874,-75.967331,274.232788,288.070374,-149.863471,-85.563168,6.969058,118.080299,20.561393,55.098601,85.178026,-81.262776,-32.254888,0,-0.03
4624.943,-76.265533,274.190277,287.581146,-149.370212,-85.645502,6.685214,118.135074,20.632267,55.026466,84.978121,-81.26587,-32.103054,0,-0.03
4640.376,-76.563965,274.146362,287.091614,-148.865551,-85.726919,6.390485,118.189906,20.703142,54.95433,84.778216,-81.268964,-31.951221,0,-0.03
4655.673,-76.862617,274.100983,286.601807,-148.349144,-85.807305,6.084468,118.244738,20.774017,54.882138,84.578368,-81.272001,-31.799387,0,-0.03
4671.136,-77.086754,274.06601,286.234253,-147.953803,-85.867008,5.847321,118.29957,20.844949,54.810002,84.378463,-81.275095,-31.647553,0,-0.03
4685.984,-77.38578,274.018127,285.743896,-147.415795,-85.945675,5.52062,118.354402,20.915824,54.737867,84.178558,-81.278189,-31.495719,0,-0.03
4701.656,-77.68502,273.968811,285.253296,-146.864954,-86.023368,5.181544,118.395483,20.968995,54.68378,84.028672,-81.28048,-31.381815,0,-0.03
4716.657,-77.984459,273.91803,284.76236,-146.30082,-86.100087,4.82969,118.450315,21.03987,54.611587,83.828767,-81.283574,-31.229981,0,-0.03
4732.158,-78.284096,273.865814,284.271149,-145.723049,-86.175717,4.464659,118.505147,21.110745,54.539451,83.628862,-81.286668,-31.078148,0,-0.03
4747.161,-78.583923,273.812134,283.779663,-145.131126,-86.250374,4.085991,118.559922,21.181619,54.467316,83.428958,-81.289762,-30.926314,0,-0.03
4762.678,-78.808914,273.770905,283.410858,-144.677687,-86.305721,3.792751,118.614754,21.252552,54.395181,83.22911,-81.292856,-30.77448,0,-0.03
4778.12,-79.109062,273.714661,282.918823,-144.060039,-86.378544,3.38916,118.655835,21.305722,54.341036,83.079167,-81.295148,-30.660576,0,-0.03
4792.277,-79.409386,273.656982,282.426544,-143.426978,-86.450336,2.970672,118.710667,21.376597,54.268901,82.879262,-81.298242,-30.508742,0,-0.03
4807.783,-79.709877,273.597809,281.93396,-142.77816,-86.521096,2.536885,118.765499,21.447472,54.196765,82.679357,-81.301336,-30.356908,0,-0.03
4823.748,-80.010529,273.53717,281.441071,-142.113071,-86.590768,2.087285,118.820331,21.518347,54.12463,82.479509,-81.30443,-30.205074,0,-0.04
4838.94,-80.31134,273.475037,280.947906,-141.431137,-86.659351,1.621299,118.875106,21.589279,54.052495,82.279604,-81.307524,-30.053241,0,-0.04
4854.368,-80.612305,273.411438,280.454437,-140.732014,-86.726845,1.138582,118.929938,21.660154,53.980302,82.079699,-81.310618,-29.901407,0,-0.04
4870.564,-80.838127,273.362793,280.084167,-140.196012,-86.776807,0.765185,118.98477,21.731029,53.908167,81.879794,-81.313655,-29.749573,0,-0.04
4885.737,-81.139343,273.29657,279.590179,-139.465376,-86.842354,0.251815,119.025909,21.784199,53.854079,81.729908,-81.316004,-29.635669,0,-0.04
4901.103,-81.440697,273.228882,279.095947,-138.716119,-86.906869,-0.279775,119.080683,21.855074,53.781944,81.530003,-81.319098,-29.483835,0,-0.04
4915.785,-81.74218,273.159698,278.60141,-137.947725,-86.97018,-0.830044,119.135515,21.925949,53.709751,81.330099,-81.322192,-29.332001,0,-0.04
4930.318,-82.043785,273.08902,278.106598,-137.159679,-87.032404,-1.399564,119.190347,21.996881,53.637616,81.130251,-81.325228,-29.180168,0,-0.04
4946.013,-82.270065,273.035034,277.735291,-136.555438,-87.078298,-1.839596,119.231429,22.050052,53.583529,80.980308,-81.327577,-29.066264,0,-0.04
4962.894,-82.647339,272.943146,277.116089,-135.522567,-87.153355,-2.598192,119.299954,22.138631,53.493345,80.730441,-81.331416,-28.8765,0,-0.04
4978.366,-82.873787,272.886902,276.744354,-134.887042,-87.19753,-3.068819,119.354786,22.209506,53.421152,80.530536,-81.33451,-28.724666,0,-0.04
4992.287,-83.175804,272.810577,276.248474,-134.020844,-87.255399,-3.714829,119.395867,22.262676,53.367065,80.38065,-81.336802,-28.610762,0,-0.04
5008.401,-83.477921,272.732727,275.752289,-133.132645,-87.312064,-4.382382,119.450699,22.333608,53.29493,80.180745,-81.339896,-28.458928,0,-0.04
5024.503,-83.780121,272.653351,275.255829,-132.222043,-87.367469,-5.07188,119.505532,22.404483,53.222794,79.98084,-81.34299,-28.307094,0,-0.04
5041.522,-84.082405,272.572479,274.759094,-131.288638,-87.421728,-5.783837,119.560306,22.475358,53.150602,79.780935,-81.346084,-28.155261,0,-0.04
5045.51,-84.15799,272.552002,274.634888,-131.051605,-87.435078,-5.96535,119.574057,22.493063,53.132611,79.730973,-81.346829,-28.117331,0,-0.04
5056.453,-84.384766,272.490051,274.262085,-130.33197,-87.474727,-6.518598,119.615138,22.546233,53.078466,79.581088,-81.349178,-28.003427,0,-0.04
5071.935,-84.687202,272.406097,273.764801,-129.351697,-87.526522,-7.276449,119.66997,22.617165,53.006331,79.381183,-81.352272,-27.851593,0,-0.04
5087.284,-84.91407,272.342133,273.391632,-128.600893,-87.56451,-7.860293,119.724803,22.68804,52.934196,79.181278,-81.355366,-27.699759,0,-0.04
5101.793,-85.216614,272.255493,272.89386,-127.578621,-87.614128,-8.659455,119.765884,22.741211,52.880051,79.031335,-81.357658,-27.585855,0,-0.04
5117.477,-85.519211,272.167328,272.395813,-126.532057,-87.662428,-9.482566,119.820716,22.812085,52.807916,78.831487,-81.360752,-27.434021,0,-0.04
5132.958,-85.821854,272.077606,271.897461,-125.461027,-87.709468,-10.329684,119.875548,22.88296,52.73578,78.631582,-81.363846,-27.282188,0,-0.04
5147.403,-86.124542,271.986359,271.398865,-124.36536,-87.75519,-11.201096,119.930322,22.953835,52.663645,78.431677,-81.36694,-27.130354,0,-0.04
5163.167,-86.427261,271.893524,270.899994,-123.245112,-87.799651,-12.096686,119.985155,23.024767,52.59151,78.231772,-81.369976,-26.97852,0,-0.04
5178.171,-86.730011,271.799164,270.400818,-122.100228,-87.842795,-13.016455,120.039987,23.095642,52.519317,78.031924,-81.37307,-26.826686,0,-0.04
5193.493,-86.957092,271.727356,270.026276,-121.225551,-87.874308,-13.722053,120.094819,23.166517,52.447181,77.832019,-81.376164,-26.674852,0,-0.04
5210.679,-87.259872,271.63028,269.526672,-120.038096,-87.91516,-14.683762,120.149593,23.237392,52.375046,77.632114,-81.379258,-26.523018,0,-0.04
5226.59,-87.562675,271.531616,269.026764,-118.826691,-87.954637,-15.669021,120.204425,23.308324,52.302911,77.432209,-81.382352,-26.371185,0,-0.04
5242.293,-87.865479,271.431366,268.526581,-117.591738,-87.992796,-16.677426,120.259258,23.379199,52.230775,77.232362,-81.385446,-26.219351,0,-0.04
5256.378,-88.168274,271.32959,268.026154,-116.333809,-88.029637,-17.708407,120.300339,23.43237,52.176631,77.082419,-81.387738,-26.105447,0,-0.04
5271.888,-88.471069,271.226227,267.525482,-115.053592,-88.06516,-18.761331,120.355171,23.503244,52.104495,76.882514,-81.390832,-25.953613,0,-0.04
5287.185,-88.773849,271.121277,267.024506,-113.751832,-88.099308,-19.835455,120.410003,23.574119,52.03236,76.682609,-81.393926,-25.801779,0,-0.04
5301.748,-89.000916,271.041504,266.648621,-112.761933,-88.12406,-20.654326,120.464835,23.644994,51.960167,76.482761,-81.39702,-25.649945,0,-0.04
5316.882,-89.303658,270.933807,266.147186,-111.424821,-88.155859,-21.763114,120.505916,23.698165,51.90608,76.332818,-81.399312,-25.536041,0,-0.04
5332.309,-89.606361,270.824493,265.645508,-110.069031,-88.186398,-22.890237,120.560748,23.769097,51.833945,76.132913,-81.402406,-25.384208,0,-0.04
5347.672,-89.909035,270.713593,265.143585,-108.695881,-88.215562,-24.034319,120.61558,23.839972,51.761809,75.933065,-81.4055,-25.232374,0,-0.04
5363.203,-90.211655,270.601105,264.641388,-107.306802,-88.243407,-25.194043,120.670355,23.910847,51.689617,75.73316,-81.408594,-25.08054,0,-0.04
5378.239,-90.438591,270.515717,264.264557,-106.255481,-88.263403,-26.073075,120.725187,23.981721,51.617481,75.533255,-81.411688,-24.928706,0,-0.04
5393.7,-90.741119,270.400421,263.761902,-104.842338,-88.288957,-27.256233,120.780019,24.052654,51.545346,75.33335,-81.414724,-24.776872,0,-0.04
5409.283,-91.043579,270.283539,263.259033,-103.417793,-88.313251,-28.450391,120.8211,24.105824,51.491259,75.183465,-81.417074,-24.662968,0,-0.04
5426.147,-91.345978,270.165039,262.755859,-101.983795,-88.336284,-29.65366,120.875932,24.176699,51.419066,74.98356,-81.420167,-24.511134,0,-0.04
5442.063,-91.648293,270.044952,262.252472,-100.542347,-88.358056,-30.864091,120.944458,24.265278,51.328882,74.733693,-81.424006,-24.321371,0,-0.04
5457.824,-91.950531,269.923248,261.74881,-99.095457,-88.378625,-32.079563,120.985539,24.318449,51.274795,74.58375,-81.426298,-24.207467,0,-0.04
5472.088,-92.252678,269.799927,261.244934,-97.645244,-88.397991,-33.298073,121.040371,24.389324,51.20266,74.383902,-81.429392,-24.055633,0,-0.04
5487.197,-92.479225,269.70636,260.866852,-96.556738,-88.411742,-34.212513,121.095203,24.460256,51.130467,74.183997,-81.432486,-23.903799,0,-0.04
5502.77,-92.781197,269.580231,260.362518,-95.106124,-88.429046,-35.430851,121.150035,24.531131,51.058332,73.984092,-81.43558,-23.751965,0,-0.04
5517.256,-93.083061,269.452454,259.857971,-93.658374,-88.445318,-36.64598,121.191116,24.584301,51.004245,73.834206,-81.437872,-23.638061,0,-0.04
5532.195,-93.384804,269.323029,259.353149,-92.215666,-88.460444,-37.85578,121.245948,24.655176,50.932109,73.634301,-81.440966,-23.486228,0,-0.04
5546.927,-93.686432,269.192017,258.848114,-90.780292,-88.474596,-39.057845,121.30078,24.726051,50.859916,73.434396,-81.44406,-23.334394,0,-0.04
5562.69,-93.98793,269.059326,258.342834,-89.354544,-88.487659,-40.249999,121.355555,24.796983,50.787781,73.234491,-81.447154,-23.18256,0,-0.04
5579.56,-94.289299,268.925049,257.837341,-87.940542,-88.499863,-41.43012,121.410387,24.867858,50.715646,73.034586,-81.450248,-23.030726,0,-0.04
5593.546,-94.515221,268.823242,257.458038,-86.88905,-88.508343,-42.306,121.451525,24.921028,50.661558,72.884701,-81.45254,-22.916822,0,-0.04
5608.596,-94.81633,268.686066,256.952118,-85.500658,-88.518943,-43.459937,121.5063,24.991903,50.589366,72.684796,-81.455634,-22.764988,0,-0.04
5624.1,-95.117287,268.547241,256.445984,-84.129742,-88.528683,-44.59617,121.561132,25.062778,50.51723,72.484891,-81.458728,-22.613154,0,-0.04
5640.992,-95.418083,268.406799,255.939606,-82.778077,-88.537678,-45.712807,121.615964,25.13371,50.445095,72.285043,-81.461822,-22.461321,0,-0.04
5656.201,-95.718704,268.264679,255.432999,-81.447498,-88.545929,-46.808074,121.670739,25.204585,50.37296,72.085138,-81.464915,-22.309487,0,-0.04
5671.805,-96.019157,268.120911,254.926178,-80.139664,-88.553435,-47.880307,121.725571,25.27546,50.300824,71.885233,-81.467952,-22.157653,0,-0.04
5686.622,-96.244377,268.012024,254.545914,-79.174631,-88.558649,-48.66841,121.780403,25.346335,50.228632,71.685328,-81.471046,-22.005819,0,-0.04
5702.935,-96.544502,267.865356,254.038712,-77.910285,-88.565066,-49.696698,121.835235,25.41721,50.156496,71.485423,-81.47414,-21.853985,0,-0.04
5716.988,-96.844437,267.717041,253.531281,-76.672582,-88.570967,-50.697941,121.876316,25.47038,50.102409,71.335537,-81.476432,-21.740081,0,-0.04
5731.617,-97.144165,267.567078,253.023636,-75.462896,-88.576296,-51.670996,121.931148,25.541313,50.030274,71.135632,-81.479526,-21.588248,0,-0.04
5746.63,-97.443695,267.415405,252.515793,-74.282145,-88.581223,-52.614772,121.98598,25.612187,49.958081,70.935727,-81.48262,-21.436414,0,-0.04
5762.558,-97.668198,267.300598,252.134766,-73.416234,-88.584604,-53.302779,122.040755,25.683062,49.885946,70.73588,-81.485714,-21.28458,0,-0.04
5777.774,-97.967339,267.146027,251.626541,-72.288538,-88.588844,-54.193098,122.095587,25.753937,49.81381,70.535975,-81.488808,-21.132746,0,-0.04
5793.278,-98.266251,266.989777,251.118118,-71.192298,-88.592682,-55.051676,122.150419,25.824869,49.741675,70.33607,-81.491902,-20.980912,0,-0.04
5808.764,-98.564934,266.831879,250.609482,-70.128029,-88.596235,-55.877995,122.1915,25.87804,49.68753,70.186184,-81.494194,-20.867008,0,-0.04
5824.715,-98.863373,266.672272,250.100662,-69.096476,-88.599558,-56.67137,122.246332,25.948915,49.615395,69.986279,-81.497288,-20.715174,0,-0.04
5840.722,-99.16156,266.511017,249.591629,-68.097982,-88.602709,-57.431399,122.301165,26.01979,49.543259,69.786374,-81.500382,-20.563341,0,-0.04
5855.969,-99.459496,266.348053,249.082397,-67.132949,-88.605688,-58.157737,122.355939,26.090665,49.471124,69.586469,-81.503476,-20.411507,0,-0.04
5870.996,-99.757172,266.183411,248.572983,-66.201778,-88.608496,-58.849928,122.410771,26.161539,49.398931,69.386564,-81.50657,-20.259673,0,-0.04
5885.679,-99.980247,266.058838,248.190781,-65.525745,-88.610559,-59.346625,122.465603,26.232472,49.326796,69.186716,-81.509606,-20.107839,0,-0.04
5900.897,-100.277443,265.891235,247.68103,-64.654334,-88.613252,-59.978654,122.506742,26.285642,49.272709,69.036773,-81.511955,-19.993935,0,-0.04
5916.458,-100.574348,265.721954,247.171097,-63.8173,-88.615944,-60.576135,122.561517,26.356517,49.200573,68.836868,-81.515049,-19.842101,0,-0.04
5931.374,-100.870972,265.550964,246.660965,-63.014758,-88.618695,-61.138837,122.616349,26.427392,49.128381,68.637021,-81.518143,-19.690268,0,-0.04
5946.76,-101.167297,265.378296,246.15065,-62.246822,-88.621445,-61.666703,122.671181,26.498267,49.056245,68.437116,-81.52118,-19.538434,0,-0.04
5962.854,-101.463318,265.203918,245.640167,-61.513494,-88.624252,-62.15979,122.726013,26.569199,48.98411,68.237211,-81.524274,-19.3866,0,-0.04
5977.732,-101.685127,265.072021,245.257187,-60.986258,-88.62643,-62.506659,122.767094,26.622369,48.930023,68.087268,-81.526623,-19.272753,0,-0.04
5993.118,-101.980598,264.894653,244.746384,-60.313663,-88.629466,-62.938554,122.821926,26.693244,48.85783,67.88742,-81.529717,-19.120919,0,-0.04
6008.123,-102.275749,264.715576,244.235428,-59.675789,-88.632675,-63.335557,122.876701,26.764119,48.785695,67.687515,-81.532754,-18.969028,0,-0.04
6024.472,-102.570564,264.534821,243.724289,-59.072636,-88.635998,-63.697609,122.931533,26.834994,48.713559,67.48761,-81.535848,-18.817194,0,-0.04
6041.042,-102.865044,264.352325,243.212982,-58.504262,-88.639608,-64.024653,122.986365,26.905869,48.641424,67.287705,-81.538942,-18.665361,0,-0.04
6058.458,-103.159172,264.168152,242.701523,-57.970781,-88.643389,-64.316632,123.041197,26.976801,48.569289,67.087857,-81.542036,-18.513527,0,-0.04
6060.911,-103.232651,264.121826,242.573624,-57.84284,-88.644363,-64.384184,123.054891,26.994505,48.55124,67.037838,-81.54278,-18.475597,0,-0.04
6071.738,-103.45295,263.982239,242.189896,-57.472193,-88.6474,-64.573547,123.095972,27.047676,48.497096,66.887952,-81.54513,-18.361693,0,-0.04
6087.138,-103.673042,263.841675,241.806076,-57.121199,-88.650608,-64.743142,123.150804,27.118551,48.42496,66.688047,-81.548224,-18.209859,0,-0.04
6101.892,-103.966187,263.652771,241.294174,-56.683918,-88.655135,-64.938349,123.205636,27.189426,48.352825,66.488142,-81.551318,-18.058025,0,-0.04
6117.773,-104.258957,263.462128,240.78212,-56.281873,-88.65989,-65.098147,123.246717,27.242596,48.298681,66.338257,-81.553609,-17.944121,0,-0.04
6132.229,-104.551346,263.269775,240.269913,-55.915295,-88.66499,-65.222307,123.301549,27.313528,48.226545,66.138352,-81.556703,-17.792288,0,-0.04
6146.903,-104.843346,263.075684,239.757568,-55.584355,-88.670433,-65.3106,123.356381,27.384403,48.15441,65.938447,-81.559797,-17.640454,0,-0.04
6162.402,-105.134949,262.879883,239.245071,-55.289396,-88.676162,-65.362796,123.411213,27.455278,48.082274,65.738542,-81.562891,-17.48862,0,-0.04
6177.902,-105.426147,262.682343,238.732452,-55.030705,-88.682236,-65.378495,123.465988,27.526153,48.010139,65.538694,-81.565928,-17.336786,0,-0.04
6193.405,-105.644279,262.533051,238.347885,-54.860766,-88.686991,-65.366119,123.507126,27.579323,47.955994,65.388751,-81.568277,-17.222939,0,-0.04
6209.409,-105.934761,262.332489,237.835022,-54.666591,-88.693695,-65.317017,123.575652,27.66796,47.865811,65.138884,-81.572116,-17.033119,0,-0.01
6224.561,-106.224815,262.130188,237.322021,-54.510001,-88.700742,-65.230214,123.616733,27.721131,47.811724,64.988998,-81.574465,-16.919215,0,-0.01
6240.569,-106.514442,261.926147,236.808884,-54.391514,-88.708133,-65.10508,123.671565,27.792005,47.739588,64.789093,-81.577502,-16.767381,0,-0.01
6256.048,-106.803635,261.720367,236.295639,-54.311815,-88.715868,-64.941042,123.726397,27.86288,47.667396,64.589188,-81.580596,-16.615547,0,-0.01
6271.329,-107.092377,261.512848,235.782257,-54.271708,-88.724004,-64.737241,123.781172,27.933755,47.59526,64.389283,-81.58369,-16.463713,0,-0.01
6286.788,-107.380661,261.303589,235.268768,-54.27188,-88.732484,-64.492989,123.836004,28.004687,47.523125,64.189436,-81.586784,-16.311879,0,-0.01
6303.083,-107.596581,261.145508,234.883575,-54.299096,-88.739016,-64.282656,123.890836,28.075562,47.450989,63.989531,-81.589878,-16.160045,0,-0.01
6318.424,-107.884056,260.933197,234.369873,-54.372205,-88.748126,-63.96518,123.945668,28.146437,47.378854,63.789626,-81.592972,-16.008212,0,-0.01
6331.932,-108.171066,260.719147,233.856079,-54.488458,-88.757522,-63.604503,123.986749,28.199608,47.32471,63.639683,-81.595263,-15.894308,0,-0.01
6347.164,-108.457588,260.503357,233.342178,-54.648944,-88.767263,-63.199422,124.041581,28.270482,47.252574,63.439835,-81.598357,-15.742474,0,-0.01
6363.669,-108.743622,260.285828,232.828171,-54.854979,-88.777347,-62.748619,124.096413,28.341415,47.180439,63.23993,-81.601451,-15.59064,0,-0.01
6379.14,-109.029167,260.066528,232.314056,-55.108055,-88.787717,-62.250719,124.151188,28.41229,47.108246,63.040025,-81.604545,-15.438806,0,-0.01
6393.867,-109.242989,259.900909,231.928421,-55.329503,-88.795681,-61.845523,124.20602,28.483164,47.036111,62.84012,-81.607639,-15.286972,0,-0.01
6409.613,-109.527649,259.678528,231.414139,-55.668407,-88.80651,-61.261564,124.247158,28.536335,46.982024,62.690234,-81.609931,-15.173126,0,-0.01
6425.094,-109.811783,259.454407,230.89978,-56.058649,-88.817626,-60.626154,124.301933,28.60721,46.909888,62.490329,-81.613025,-15.021235,0,-0.01
6439.798,-110.095398,259.228546,230.385345,-56.502004,-88.828913,-59.937459,124.356765,28.678085,46.837695,62.290425,-81.616119,-14.869401,0,-0.01
6456.122,-110.378479,259.000916,229.870819,-57.000477,-88.840429,-59.193588,124.411597,28.749017,46.76556,62.09052,-81.619156,-14.717567,0,-0.01
6471.031,-110.661026,258.771515,229.356201,-57.55596,-88.852118,-58.392535,124.466372,28.819892,46.693425,61.890672,-81.62225,-14.565733,0,-0.01
6485.527,-110.872574,258.598328,228.9702,-58.011347,-88.860941,-57.752943,124.521204,28.890767,46.621289,61.690767,-81.625344,-14.413899,0,-0.01
6502.358,-111.15416,258.365845,228.455475,-58.671795,-88.872801,-56.846695,124.576036,28.961641,46.549154,61.490862,-81.628438,-14.262065,0,-0.01
6517.569,-111.435181,258.131622,227.940674,-59.395383,-88.884776,-55.877365,124.617175,29.014812,46.495009,61.340976,-81.630729,-14.148219,0,-0.01
6533.575,-111.715637,257.89563,227.425812,-60.184289,-88.896694,-54.842489,124.671949,29.085744,46.422874,61.141071,-81.633823,-13.996328,0,-0.01
6547.882,-111.995514,257.657867,226.910889,-61.040861,-88.908611,-53.739889,124.726781,29.156619,46.350739,60.941166,-81.636917,-13.844494,0,-0.01
6563.393,-112.274818,257.418335,226.395905,-61.967505,-88.920414,-52.567216,124.781613,29.227494,46.278603,60.741261,-81.640011,-13.69266,0,-0.01
6577.68,-112.483902,257.237549,226.009644,-62.709772,-88.929123,-51.640285,124.822694,29.280664,46.224459,60.591375,-81.642303,-13.578813,0,-0.01
6593.544,-112.762161,256.994904,225.494568,-63.764358,-88.94064,-50.339442,124.89122,29.369301,46.134275,60.341509,-81.646199,-13.388992,0,-0.01
6608.549,-113.039818,256.750519,224.979462,-64.895033,-88.951812,-48.962452,124.932359,29.422414,46.080188,60.191566,-81.648491,-13.275146,0,-0.01
6625.999,-113.316864,256.504364,224.46431,-66.103688,-88.962698,-47.507426,124.987133,29.493346,46.008053,59.991661,-81.651585,-13.123312,0,-0.01
6641.384,-113.593292,256.256439,223.949112,-67.391983,-88.973069,-45.972586,125.041965,29.564221,45.93586,59.791813,-81.654679,-12.971421,0,-0.01
6657.346,-113.869095,256.006744,223.433884,-68.761295,-88.982981,-44.356788,125.096797,29.635096,45.863725,59.591908,-81.657773,-12.819587,0,-0.01
6672.446,-114.144264,255.75528,222.918625,-70.212425,-88.992263,-42.659057,125.15163,29.705971,45.791589,59.392003,-81.660867,-12.667753,0,-0.04
6687.968,-114.35022,255.565506,222.532166,-71.354731,-88.998795,-41.331743,125.206404,29.776903,45.719454,59.192098,-81.663904,-12.515919,0,-0.04
6702.525,-114.62426,255.310928,222.016876,-72.949559,-89.006759,-39.490199,125.261236,29.847778,45.647261,58.99225,-81.666998,-12.364085,0,-0.04
6716.803,-114.897644,255.054581,221.501556,-74.625633,-89.013806,-37.56741,125.302375,29.900948,45.593174,58.842307,-81.669347,-12.250239,0,-0.04
6732.028,-115.170372,254.796448,220.986237,-76.381176,-89.01988,-35.56498,125.35715,29.971823,45.521038,58.642402,-81.672383,-12.098405,0,-0.04
6748.093,-115.442421,254.53656,220.470901,-78.213666,-89.024864,-33.485602,125.411982,30.042698,45.448903,58.442555,-81.675477,-11.946514,0,-0.04
6763.1,-115.713799,254.274872,219.955551,-80.119553,-89.028589,-31.332827,125.466814,30.113573,45.37671,58.24265,-81.678571,-11.79468,0,-0.04
6778.5,-115.984489,254.011414,219.440216,-82.094138,-89.030995,-29.111298,125.521646,30.184505,45.304575,58.042745,-81.681665,-11.642846,0,-0.04
6794.499,-116.187057,253.812653,219.053711,-83.616773,-89.031854,-27.403483,125.57642,30.25538,45.23244,57.84284,-81.684759,-11.491012,0,-0.04
6809.397,-116.456528,253.546082,218.538376,-85.697126,-89.031683,-25.076071,125.631253,30.326255,45.160304,57.642935,-81.687853,-11.339179,0,-0.04
6825.13,-116.725296,253.27774,218.023041,-87.827898,-89.029849,-22.698239,125.672391,30.379426,45.10616,57.493049,-81.690145,-11.225332,0,-0.04
6841.636,-116.993347,253.007614,217.507736,-90.000554,-89.02624,-20.278523,125.727166,30.4503,45.034024,57.293144,-81.693239,-11.073498,0,-0.04
6856.131,-117.260681,252.735703,216.992447,-92.205754,-89.020854,-17.826264,125.781998,30.521233,44.961889,57.093239,-81.696333,-10.921607,0,-0.04
6871.509,-117.52729,252.462021,216.477188,-94.433529,-89.013577,-15.351373,125.83683,30.592107,44.889754,56.893391,-81.699427,-10.769773,0,-0.04
6888.054,-117.793152,252.186539,215.961945,-96.67345,-89.004238,-12.864278,125.891605,30.662982,44.817618,56.693486,-81.702521,-10.617939,0,-0.04
6901.693,-117.992065,251.978775,215.575546,-98.355081,-88.99593,-10.997295,125.932743,30.716153,44.763474,56.543543,-81.704813,-10.504093,0,-0.04
6916.993,-118.25663,251.70018,215.060364,-100.591049,-88.983038,-8.514153,125.987575,30.787028,44.691338,56.343638,-81.707907,-10.352259,0,-0.04
6932.249,-118.520432,251.419815,214.545227,-102.810573,-88.968027,-6.047455,126.04235,30.857903,44.619203,56.143791,-81.711001,-10.200425,0,-0.04
6948.656,-118.78347,251.137665,214.030136,-105.003855,-88.950838,-3.606999,126.097182,30.928835,44.54701,55.943886,-81.714095,-10.048591,0,-0.04
6964.16,-119.045731,250.853729,213.515106,-107.161901,-88.93153,-1.201836,126.152014,30.99971,44.474875,55.743981,-81.717132,-9.8967,0,-0.04
6979.096,-119.30722,250.568024,213.000122,-109.276459,-88.910044,1.159953,126.206846,31.070584,44.402739,55.544076,-81.720225,-9.744866,0,-0.04
6995.163,-119.567917,250.280518,212.485199,-111.340425,-88.886381,3.471036,126.261621,31.141459,44.330604,55.344228,-81.723319,-9.593032,0,-0.04
7011.084,-119.762917,250.063721,212.099045,-112.851429,-88.867244,5.167392,126.316453,31.212392,44.258469,55.144323,-81.726413,-9.441199,0,-0.04
7026.235,-120.022209,249.773102,211.584229,-114.812663,-88.839856,7.3758,126.371285,31.283266,44.186276,54.944418,-81.729507,-9.289365,0,-0.04
7042.292,-120.280701,249.480698,211.069504,-116.709039,-88.810349,9.519293,126.426117,31.354141,44.114141,54.744513,-81.732601,-9.137531,0,-0.04
7057.756,-120.538376,249.186523,210.55484,-118.537405,-88.778836,11.594775,126.467198,31.407312,44.060053,54.594627,-81.734893,-9.023627,0,-0.04
7072.17,-120.795227,248.890549,210.040253,-120.295583,-88.745261,13.600013,126.52203,31.478187,43.987918,54.394722,-81.737987,-8.871793,0,-0.04
7086.678,-121.051247,248.592804,209.525772,-121.982256,-88.709738,15.533803,126.576862,31.549119,43.915725,54.194817,-81.741081,-8.719959,0,-0.04
7101.57,-121.242706,248.368332,209.139969,-123.200078,-88.681835,16.936862,126.631637,31.619994,43.84359,53.994912,-81.744175,-8.568125,0,-0.04
7117.13,-121.497253,248.067459,208.625641,-124.76093,-88.642931,18.744715,126.672775,31.673164,43.789503,53.845027,-81.746467,-8.454279,0,-0.04
7132.135,-121.750938,247.764801,208.111404,-126.25062,-88.602251,20.48135,126.727607,31.744039,43.717367,53.645122,-81.749561,-8.302445,0,-0.07
7148.187,-122.003769,247.460373,207.59729,-127.670237,-88.55968,22.14797,126.782382,31.814914,43.645175,53.445217,-81.752655,-8.150611,0,-0.07
7163.275,-122.255737,247.15416,207.083267,-129.021501,-88.515448,23.746121,126.837214,31.885789,43.573039,53.245369,-81.755749,-7.99872,0,-0.07
7179.085,-122.506821,246.846176,206.569382,-130.306187,-88.469439,25.277637,126.892046,31.956721,43.500904,53.045464,-81.758786,-7.846886,0,-0.07
7194.09,-122.757027,246.536392,206.055603,-131.526587,-88.421826,26.74481,126.946878,32.027596,43.428768,52.845559,-81.76188,-7.695052,0,-0.07
7211.195,-123.00634,246.224838,205.541946,-132.684936,-88.372609,28.149932,127.001653,32.098471,43.356576,52.645654,-81.764973,-7.543219,0,-0.07
7226.609,-123.192741,245.990005,205.156799,-133.514464,-88.334622,29.164469,127.042791,32.151641,43.302489,52.495768,-81.767323,-7.429372,0,-0.07
7242.939,-123.440475,245.675339,204.643372,-134.570196,-88.282655,30.466916,127.111317,32.240278,43.212305,52.245901,-81.771161,-7.239551,0,-0.07
7256.879,-123.687302,245.358902,204.130096,-135.57081,-88.229198,31.714131,127.152398,32.293448,43.158218,52.095958,-81.773453,-7.125704,0,-0.07
7272.323,-123.933205,245.040665,203.616959,-136.518826,-88.174251,32.90869,127.20723,32.364323,43.086025,51.896053,-81.776547,-6.973813,0,-0.07
7287.688,-124.178192,244.720673,203.103973,-137.416822,-88.117872,34.053059,127.262062,32.435198,43.01389,51.696206,-81.779641,-6.821979,0,-0.07
7303.882,-124.422234,244.39888,202.591141,-138.267149,-88.060061,35.149815,127.316837,32.506073,42.941754,51.496301,-81.782735,-6.670145,0,-0.07
7318.959,-124.604652,244.156387,202.206619,-138.875115,-88.015828,35.942502,127.371669,32.577005,42.869619,51.296396,-81.785829,-6.518312,0,-0.07
7332.347,-124.847046,243.831497,201.694077,-139.647863,-87.955668,36.961565,127.412807,32.630118,42.815474,51.14651,-81.788121,-6.404465,0,-0.07
7348.252,-125.088486,243.504837,201.181702,-140.379415,-87.894132,37.939317,127.467582,32.70105,42.743339,50.946605,-81.791215,-6.252631,0,-0.07
7364.531,-125.328964,243.176407,200.669495,-141.071949,-87.831393,38.877937,127.522414,32.771925,42.671204,50.7467,-81.794309,-6.100797,0,-0.07
7378.559,-125.568474,242.846191,200.157471,-141.727528,-87.767279,39.779543,127.577246,32.8428,42.599068,50.546795,-81.797403,-5.948906,0,-0.07
7393.567,-125.747459,242.597382,199.77356,-142.19615,-87.718406,40.4326,127.618327,32.895971,42.544924,50.396909,-81.799695,-5.835059,0,-0.07
7409.23,-125.985252,242.264069,199.261871,-142.79174,-87.652172,41.274046,127.67316,32.966846,42.472788,50.197004,-81.802789,-5.683226,0,-0.07
7424.812,-126.222054,241.928986,198.750366,-143.35553,-87.584678,42.083578,127.727992,33.037778,42.400653,49.997099,-81.805883,-5.531392,0,-0.07
7440.32,-126.457863,241.592133,198.239059,-143.889298,-87.516037,42.86303,127.782824,33.108653,42.328518,49.797194,-81.808977,-5.379558,0,-0.07
7455.746,-126.692657,241.253525,197.727966,-144.394589,-87.446194,43.613891,127.837598,33.179528,42.256325,49.597347,-81.812071,-5.227724,0,-0.07
7470.915,-126.926445,240.913132,197.217072,-144.873009,-87.375147,44.337766,127.89243,33.250402,42.18419,49.397442,-81.815107,-5.07589,0,-0.07
7485.535,-127.10112,240.656693,196.834045,-145.215007,-87.321117,44.863856,127.947263,33.321335,42.112054,49.197537,-81.818201,-4.923999,0,-0.07
7500.812,-127.333115,240.313217,196.323547,-145.649768,-87.248122,45.543842,127.988344,33.374448,42.057967,49.047651,-81.82055,-4.810153,0,-0.07
7515.816,-127.564079,239.967972,195.813263,-146.061323,-87.173924,46.200624,128.043176,33.44538,41.985774,48.847746,-81.823644,-4.658319,0,-0.07
7531.189,-127.793999,239.620972,195.303223,-146.451049,-87.098695,46.835346,128.098008,33.516255,41.913639,48.647841,-81.826681,-4.506485,0,-0.07
7546.449,-128.022873,239.272217,194.793411,-146.819977,-87.02232,47.449213,128.152782,33.58713,41.841503,48.447936,-81.829775,-4.354651,0,-0.07
7562.108,-128.193848,239.009491,194.411209,-147.083709,-86.964279,47.896579,128.193921,33.6403,41.787416,48.29805,-81.832124,-4.240747,0,-0.07
7577.112,-128.420868,238.657654,193.901825,-147.418889,-86.886013,48.476469,128.248753,33.711175,41.715224,48.098145,-81.835161,-4.088913,0,-0.07
7593.057,-128.64682,238.304047,193.3927,-147.736136,-86.806658,49.038369,128.303585,33.782107,41.643088,47.89824,-81.838255,-3.937079,0,-0.03
7608.564,-128.871704,237.9487,192.88382,-148.036423,-86.726272,49.58308,128.35836,33.852982,41.570953,47.698335,-81.841349,-3.785246,0,-0.03
7624.493,-129.095505,237.591599,192.375214,-148.32061,-86.644798,50.111576,128.413192,33.923857,41.498817,47.498488,-81.844443,-3.633412,0,-0.03
7640.555,-129.318207,237.232742,191.866882,-148.589442,-86.562235,50.62466,128.468024,33.994732,41.426682,47.298583,-81.847537,-3.481578,0,-0.03
7655.563,-129.539825,236.872131,191.358826,-148.843778,-86.478697,51.123076,128.522799,34.065664,41.354489,47.098678,-81.850631,-3.329744,0,-0.03
7671.132,-129.705307,236.600525,190.977951,-149.025406,-86.415328,51.487649,128.577631,34.136539,41.282354,46.898773,-81.853725,-3.17791,0,-0.03
7687.207,-129.979721,236.14566,190.343552,-149.311713,-86.308471,52.078655,128.632463,34.207414,41.210219,46.698868,-81.856819,-3.026077,0,-0.03
7701.269,-130.143524,235.871429,189.96312,-149.474032,-86.243613,52.423747,128.673544,34.260584,41.156131,46.548982,-81.85911,-2.912173,0,-0.03
7716.579,-130.360962,235.504272,189.456131,-149.679953,-86.156237,52.873233,128.728376,34.331459,41.083939,46.349077,-81.862204,-2.760339,0,-0.03
7732.072,-130.577255,235.135376,188.949463,-149.874472,-86.067829,53.311087,128.783208,34.402334,41.011803,46.149172,-81.865298,-2.608505,0,-0.03
7747.312,-130.792419,234.764725,188.4431,-150.058162,-85.978448,53.737941,128.837983,34.473266,40.939668,45.949324,-81.868335,-2.456671,0,-0.03
7762.793,-131.006424,234.392349,187.937042,-150.231425,-85.888035,54.154309,128.892815,34.544141,40.867533,45.749419,-81.871429,-2.304837,0,-0.03
7778.568,-131.166183,234.111908,187.557724,-150.35484,-85.819567,54.459925,128.947647,34.615016,40.79534,45.549514,-81.874523,-2.153004,0,-0.03
7793.783,-131.378174,233.736496,187.052231,-150.511143,-85.727435,54.85899,129.002479,34.685891,40.723204,45.349609,-81.877617,-2.001112,0,-0.03
7809.479,-131.588989,233.359344,186.547073,-150.658393,-85.634329,55.24883,129.057311,34.756823,40.651069,45.149762,-81.880711,-1.849279,0,-0.03
7826.413,-131.798645,232.980453,186.042267,-150.796934,-85.54025,55.62979,129.098392,34.809994,40.596982,44.999819,-81.883003,-1.735432,0,-0.03
7843.48,-132.007111,232.599838,185.537796,-150.927167,-85.445196,56.002385,129.166918,34.898573,40.506798,44.749952,-81.886899,-1.545611,0,-0.03
7846.501,-132.059036,232.504425,185.411728,-150.958508,-85.421304,56.09423,129.180611,34.916277,40.48875,44.69999,-81.887644,-1.507681,0,-0.03
7857.551,-132.214386,232.217499,185.033661,-151.049551,-85.349168,56.366843,129.207999,34.951743,40.452654,44.600009,-81.889191,-1.431764,0,-0.03
7872.813,-132.420471,231.833435,184.529892,-151.164429,-85.252167,56.723624,129.262831,35.022618,40.380518,44.400161,-81.892285,-1.27993,0,-0.03
7886.485,-132.570923,231.550522,184.160477,-151.244128,-85.180432,56.98071,129.315543,35.0908,40.311133,44.207991,-81.895264,-1.133941,0,-0.03
7901.513,-132.738098,231.233658,183.748367,-151.328639,-85.099702,57.263121,129.357025,35.144429,40.256588,44.05673,-81.897556,-1.019063,0,-0.03
7916.708,-132.852859,231.014557,183.464447,-151.384216,-85.043667,57.455062,129.378912,35.172733,40.227768,43.976917,-81.898816,-0.958387,0,-0.03
7932.183,-132.91539,230.894623,183.309357,-151.413723,-85.012957,57.559054,129.395814,35.19462,40.20548,43.915267,-81.89979,-0.911576,0,-0.03
7946.704,-132.93071,230.865173,183.271332,-151.420885,-85.005394,57.584436,129.399997,35.199949,40.200037,43.900141,-81.90002,-0.900117,0,-0.03
7962.232,-132.930832,230.864944,183.271027,-151.420942,-85.005336,57.584665,129.399997,35.200006,40.199979,43.900026,-81.90002,-0.900002,0,-0.03
7978.799,-132.930832,230.864944,183.271027,-151.420942,-85.005336,57.584665,129.399997,35.200006,40.199979,43.900026,-81.90002,-0.900002,0,-0.03
7993.293,-132.930832,230.864944,183.271027,-151.420942,-85.005336,57.584665,129.399997,35.200006,40.199979,43.900026,-81.90002,-0.900002,0,-0.03
8008.981,-132.930832,230.864944,183.271027,-151.420942,-85.005336,57.584665,129.399997,35.200006,40.199979,43.900026,-81.90002,-0.900002,0,-0.03
8024.62,-132.930832,230.864944,183.271027,-151.420942,-85.005336,57.584665,129.399997,35.200006,40.199979,43.900026,-81.90002,-0.900002,0,-0.03
8040.644,-132.930832,230.864944,183.271027,-151.420942,-85.005336,57.584665,129.399997,35.200006,40.199979,43.900026,-81.90002,-0.900002,0,-0.03
8056.42,-132.930832,230.864944,183.271027,-151.420942,-85.005336,57.584665,129.399997,35.200006,40.199979,43.900026,-81.90002,-0.900002,0,-0.02
8072.949,-132.930832,230.864944,183.271027,-151.420942,-85.005336,57.584665,129.399997,35.200006,40.199979,43.900026,-81.90002,-0.900002,0,-0.02
8087.682,-132.930832,230.864944,183.271027,-151.420942,-85.005336,57.584665,129.399997,35.200006,40.199979,43.900026,-81.90002,-0.900002,0,-0.02
8101.713,-132.930832,230.864944,183.271027,-151.420942,-85.005336,57.584665,129.399997,35.200006,40.199979,43.900026,-81.90002,-0.900002,0,-0.02
8116.572,-132.930832,230.864944,183.271027,-151.420942,-85.005336,57.584665,129.399997,35.200006,40.199979,43.900026,-81.90002,-0.900002,0,-0.02
8131.576,-132.930832,230.864944,183.271027,-151.420942,-85.005336,57.584665,129.399997,35.200006,40.199979,43.900026,-81.90002,-0.900002,0,-0.02
8146.894,-132.930832,230.864944,183.271027,-151.420942,-85.005336,57.584665,129.399997,35.200006,40.199979,43.900026,-81.90002,-0.900002,0,-0.02
8163.704,-132.930832,230.864944,183.271027,-151.420942,-85.005336,57.584665,129.399997,35.200006,40.199979,43.900026,-81.90002,-0.900002,0,-0.02
8177.579,-132.930832,230.864944,183.271027,-151.420942,-85.005336,57.584665,129.399997,35.200006,40.199979,43.900026,-81.90002,-0.900002,0,-0.02
8192.796,-132.930832,230.864944,183.271027,-151.420942,-85.005336,57.584665,129.399997,35.200006,40.199979,43.900026,-81.90002,-0.900002,0,-0.02
8208.801,-132.930832,230.864944,183.271027,-151.420942,-85.005336,57.584665,129.399997,35.200006,40.199979,43.900026,-81.90002,-0.900002,0,-0.02
8224.525,-132.930832,230.864944,183.271027,-151.420942,-85.005336,57.584665,129.399997,35.200006,40.199979,43.900026,-81.90002,-0.900002,0,-0.02
8240.387,-132.930832,230.864944,183.271027,-151.420942,-85.005336,57.584665,129.399997,35.200006,40.199979,43.900026,-81.90002,-0.900002,0,-0.02
8255.586,-132.930832,230.864944,183.271027,-151.420942,-85.005336,57.584665,129.399997,35.200006,40.199979,43.900026,-81.90002,-0.900002,0,-0.02
8270.786,-132.930832,230.864944,183.271027,-151.420942,-85.005336,57.584665,129.399997,35.200006,40.199979,43.900026,-81.90002,-0.900002,0,-0.02
8287.216,-132.930832,230.864944,183.271027,-151.420942,-85.005336,57.584665,129.399997,35.200006,40.199979,43.900026,-81.90002,-0.900002,0,-0.02
8300.856,-132.930832,230.864944,183.271027,-151.420942,-85.005336,57.584665,129.399997,35.200006,40.199979,43.900026,-81.90002,-0.900002,0,-0.02
8316.069,-132.930832,230.864944,183.271027,-151.420942,-85.005336,57.584665,129.399997,35.200006,40.199979,43.900026,-81.90002,-0.900002,0,-0.02
8330.575,-132.930832,230.864944,183.271027,-151.420942,-85.005336,57.584665,129.399997,35.200006,40.199979,43.900026,-81.90002,-0.900002,0,-0.02
8348.113,-132.930832,230.864944,183.271027,-151.420942,-85.005336,57.584665,129.399997,35.200006,40.199979,43.900026,-81.90002,-0.900002,0,-0.02
8362.132,-132.930832,230.864944,183.271027,-151.420942,-85.005336,57.584665,129.399997,35.200006,40.199979,43.900026,-81.90002,-0.900002,0,-0.02
8377.632,-132.930832,230.864944,183.271027,-151.420942,-85.005336,57.584665,129.399997,35.200006,40.199979,43.900026,-81.90002,-0.900002,0,-0.02
8393.132,-132.930832,230.864944,183.271027,-151.420942,-85.005336,57.584665,129.399997,35.200006,40.199979,43.900026,-81.90002,-0.900002,0,-0.02
8409.632,-132.930832,230.864944,183.271027,-151.420942,-85.005336,57.584665,129.399997,35.200006,40.199979,43.900026,-81.90002,-0.900002,0,-0.02
8424.646,-132.930832,230.864944,183.271027,-151.420942,-85.005336,57.584665,129.399997,35.200006,40.199979,43.900026,-81.90002,-0.900002,0,-0.02
8440.615,-132.930832,230.864944,183.271027,-151.420942,-85.005336,57.584665,129.399997,35.200006,40.199979,43.900026,-81.90002,-0.900002,0,-0.02
8456.123,-132.930832,230.864944,183.271027,-151.420942,-85.005336,57.584665,129.399997,35.200006,40.199979,43.900026,-81.90002,-0.900002,0,-0.02
8470.777,-132.930832,230.864944,183.271027,-151.420942,-85.005336,57.584665,129.399997,35.200006,40.199979,43.900026,-81.90002,-0.900002,0,-0.02
8486.778,-132.930832,230.864944,183.271027,-151.420942,-85.005336,57.584665,129.399997,35.200006,40.199979,43.900026,-81.90002,-0.900002,0,-0.02
8501.072,-132.930832,230.864944,183.271027,-151.420942,-85.005336,57.584665,129.399997,35.200006,40.199979,43.900026,-81.90002,-0.900002,0,-0.02
8516.222,-132.930832,230.864944,183.271027,-151.420942,-85.005336,57.584665,129.399997,35.200006,40.199979,43.900026,-81.90002,-0.900002,0,-0.01
8532.725,-132.930832,230.864944,183.271027,-151.420942,-85.005336,57.584665,129.399997,35.200006,40.199979,43.900026,-81.90002,-0.900002,0,-0.01
8547.453,-132.930832,230.864944,183.271027,-151.420942,-85.005336,57.584665,129.399997,35.200006,40.199979,43.900026,-81.90002,-0.900002,0,-0.01
8557.048,-132.930832,230.864944,183.271027,-151.420942,-85.005336,57.584665,129.399997,35.200006,40.199979,43.900026,-81.90002,-0.900002,0,-0.01
8562.011,-132.930832,230.864944,183.271027,-151.420942,-85.005336,57.584665,129.399997,35.200006,40.199979,43.900026,-81.90002,-0.900002,0,-0.01
8577.511,-132.930832,230.864944,183.271027,-151.420942,-85.005336,57.584665,129.399997,35.200006,40.199979,43.900026,-81.90002,-0.900002,0,-0.01
8593.484,-132.930832,230.864944,183.271027,-151.420942,-85.005336,57.584665,129.399997,35.200006,40.199979,43.900026,-81.90002,-0.900002,0,-0.01
8608.529,-132.930832,230.864944,183.271027,-151.420942,-85.005336,57.584665,129.399997,35.200006,40.199979,43.900026,-81.90002,-0.900002,0,-0.01
8625.245,-132.930832,230.864944,183.271027,-151.420942,-85.005336,57.584665,129.399997,35.200006,40.199979,43.900026,-81.90002,-0.900002,0,-0.01
8640.836,-132.930832,230.864944,183.271027,-151.420942,-85.005336,57.584665,129.399997,35.200006,40.199979,43.900026,-81.90002,-0.900002,0,-0.01
8655.122,-132.930832,230.864944,183.271027,-151.420942,-85.005336,57.584665,129.399997,35.200006,40.199979,43.900026,-81.90002,-0.900002,0,-0.01
8671.041,-132.930832,230.864944,183.271027,-151.420942,-85.005336,57.584665,129.399997,35.200006,40.199979,43.900026,-81.90002,-0.900002,0,-0.01
8688.086,-132.930832,230.864944,183.271027,-151.420942,-85.005336,57.584665,129.399997,35.200006,40.199979,43.900026,-81.90002,-0.900002,0,-0.01
8702.665,-132.930832,230.864944,183.271027,-151.420942,-85.005336,57.584665,129.399997,35.200006,40.199979,43.900026,-81.90002,-0.900002,0,-0.01
8716.55,-132.930832,230.864944,183.271027,-151.420942,-85.005336,57.584665,129.399997,35.200006,40.199979,43.900026,-81.90002,-0.900002,0,-0.01
8732.079,-132.930832,230.864944,183.271027,-151.420942,-85.005336,57.584665,129.399997,35.200006,40.199979,43.900026,-81.90002,-0.900002,0,-0.01
8747.623,-132.930832,230.864944,183.271027,-151.420942,-85.005336,57.584665,129.399997,35.200006,40.199979,43.900026,-81.90002,-0.900002,0,-0.01
8763.488,-132.930832,230.864944,183.271027,-151.420942,-85.005336,57.584665,129.399997,35.200006,40.199979,43.900026,-81.90002,-0.900002,0,-0.01
8778.543,-132.930832,230.864944,183.271027,-151.420942,-85.005336,57.584665,129.399997,35.200006,40.199979,43.900026,-81.90002,-0.900002,0,-0.01
8794.135,-132.930832,230.864944,183.271027,-151.420942,-85.005336,57.584665,129.399997,35.200006,40.199979,43.900026,-81.90002,-0.900002,0,-0.01
8809.685,-132.930832,230.864944,183.271027,-151.420942,-85.005336,57.584665,129.399997,35.200006,40.199979,43.900026,-81.90002,-0.900002,0,-0.01
8825.28,-132.930832,230.864944,183.271027,-151.420942,-85.005336,57.584665,129.399997,35.200006,40.199979,43.900026,-81.90002,-0.900002,0,-0.01
8843.325,-132.930832,230.864944,183.271027,-151.420942,-85.005336,57.584665,129.399997,35.200006,40.199979,43.900026,-81.90002,-0.900002,0,-0.01
8857.832,-132.930832,230.864944,183.271027,-151.420942,-85.005336,57.584665,129.399997,35.200006,40.199979,43.900026,-81.90002,-0.900002,0,-0.01
8873.172,-132.930832,230.864944,183.271027,-151.420942,-85.005336,57.584665,129.399997,35.200006,40.199979,43.900026,-81.90002,-0.900002,0,-0.01
8888.167,-132.930832,230.864944,183.271027,-151.420942,-85.005336,57.584665,129.399997,35.200006,40.199979,43.900026,-81.90002,-0.900002,0,-0.01
8904.851,-132.930832,230.864944,183.271027,-151.420942,-85.005336,57.584665,129.399997,35.200006,40.199979,43.900026,-81.90002,-0.900002,0,-0.01
8919.341,-132.930832,230.864944,183.271027,-151.420942,-85.005336,57.584665,129.399997,35.200006,40.199979,43.900026,-81.90002,-0.900002,0,-0.01
8934.347,-132.930832,230.864944,183.271027,-151.420942,-85.005336,57.584665,129.399997,35.200006,40.199979,43.900026,-81.90002,-0.900002,0,-0.01
