BAEK26/lfd/test_main/pumping_interpolated_trajectory.csv
timestamp,x,y,z,roll,pitch,yaw,joint1,joint2,joint3,joint4,joint5,joint6
0.0,263.492462,194.015442,254.530624,-174.854515,-84.828579,18.44884,39.620891,25.963869,52.701632,19.083276,-59.207167,-7.965087
2.7777777777777777,263.4926348590786,194.01482193224933,254.53006864769645,-174.83197632791328,-84.82789191327913,18.425620460704607,39.620891,25.963867441734415,52.70161880216802,19.084019753387537,-59.20679434417344,-7.963300590785908
5.555555555555555,263.49280771815717,194.01420186449866,254.52951329539295,-174.80943765582654,-84.82720482655827,18.402400921409214,39.620891,25.963865883468834,52.70160560433604,19.08476350677507,-59.20642168834688,-7.961514181571816
8.333333333333332,263.49298057723576,194.01358179674799,254.5289579430894,-174.78689898373983,-84.8265177398374,18.37918138211382,39.620891,25.96386432520325,52.70159240650406,19.085507260162604,-59.206049032520326,-7.9597277723577236
11.11111111111111,263.49315343631434,194.0129617289973,254.5284025907859,-174.76436031165312,-84.82583065311654,18.355961842818427,39.620891,25.96386276693767,52.70157920867209,19.086251013550136,-59.205676376693766,-7.957941363143631
13.88888888888889,263.49332629539293,194.0123416612466,254.52784723848237,-174.74182163956638,-84.82514356639567,18.332742303523034,39.620891,25.963861208672085,52.701566010840104,19.08699476693767,-59.20530372086721,-7.956154953929539
16.666666666666664,263.4934991544715,194.01172159349593,254.52729188617886,-174.71928296747967,-84.82445647967481,18.309522764227644,39.620891,25.963859650406505,52.70155281300813,19.087738520325203,-59.20493106504065,-7.954368544715447
19.444444444444443,263.4936720135501,194.01110152574526,254.52673653387532,-174.69674429539293,-84.82376939295393,18.28630322493225,39.620891,25.96385809214092,52.701539615176145,19.08848227371274,-59.20455840921409,-7.952582135501355
22.22222222222222,263.4938448726287,194.0104814579946,254.52618118157181,-174.67420562330622,-84.82308230623306,18.263083685636857,39.620891,25.963856533875337,52.70152641734417,19.089226027100274,-59.204185753387534,-7.950795726287263
25.0,263.4940177317073,194.0098613902439,254.52562582926828,-174.6516669512195,-84.8223952195122,18.239864146341464,39.620891,25.963854975609756,52.701513219512194,19.089969780487806,-59.203813097560975,-7.949009317073171
27.77777777777778,263.4941905907859,194.00924132249324,254.52507047696477,-174.62912827913277,-84.82170813279133,18.21664460704607,39.620891,25.963853417344172,52.70150002168021,19.09071353387534,-59.203440441734415,-7.947222907859079
30.555555555555554,263.49436344986447,194.00862125474256,254.52451512466124,-174.60658960704606,-84.82102104607047,18.193425067750677,39.620891,25.96385185907859,52.701486823848235,19.091457287262873,-59.203067785907855,-7.945436498644986
33.33333333333333,263.49453630894305,194.0080011869919,254.52395977235773,-174.58405093495935,-84.8203339593496,18.170205528455284,39.620891,25.963850300813007,52.70147362601626,19.09220104065041,-59.2026951300813,-7.943650089430894
36.11111111111111,263.4947091680217,194.0073811192412,254.5234044200542,-174.5615122628726,-84.81964687262872,18.14698598915989,39.620891,25.963848742547423,52.70146042818428,19.09294479403794,-59.20232247425474,-7.941863680216802
38.888888888888886,263.4948820271003,194.0067610514905,254.52284906775068,-174.5389735907859,-84.81895978590786,18.123766449864497,39.620891,25.963847184281843,52.7014472303523,19.093688547425476,-59.20194981842818,-7.94007727100271
41.666666666666664,263.4950548861789,194.00614098373984,254.52229371544715,-174.5164349186992,-84.81827269918699,18.100546910569108,39.620891,25.96384562601626,52.701434032520325,19.094432300813008,-59.20157716260162,-7.938290861788618
44.44444444444444,263.49522774525747,194.00552091598917,254.5217383631436,-174.49389624661245,-84.81758561246613,18.077327371273714,39.620891,25.963844067750678,52.70142083468834,19.095176054200543,-59.20120450677506,-7.936504452574526
47.22222222222222,263.49540060433606,194.0049008482385,254.5211830108401,-174.47135757452574,-84.81689852574526,18.05410783197832,39.620891,25.963842509485094,52.701407636856366,19.09591980758808,-59.20083185094851,-7.934718043360434
50.0,263.49557346341464,194.00428078048782,254.52062765853657,-174.44881890243903,-84.8162114390244,18.030888292682928,39.620891,25.963840951219513,52.701394439024384,19.09666356097561,-59.20045919512195,-7.932931634146341
52.77777777777778,263.49574632249323,194.00366071273714,254.52007230623306,-174.4262802303523,-84.81552435230353,18.007668753387534,39.620891,25.96383939295393,52.70138124119241,19.097407314363146,-59.20008653929539,-7.931145224932249
55.55555555555556,263.4959191815718,194.00304064498647,254.51951695392953,-174.40374155826558,-84.81483726558265,17.98444921409214,39.620891,25.963837834688345,52.70136804336043,19.098151067750678,-59.19971388346883,-7.929358815718157
58.33333333333333,263.4960920406504,194.00242057723577,254.51896160162602,-174.38120288617884,-84.8141501788618,17.961229674796748,39.620891,25.963836276422764,52.70135484552845,19.098894821138213,-59.19934122764227,-7.927572406504065
61.11111111111111,263.496264899729,194.0018005094851,254.51840624932248,-174.35866421409213,-84.81346309214092,17.938010135501354,39.620891,25.96383471815718,52.701341647696474,19.099638574525745,-59.19896857181572,-7.925785997289973
63.888888888888886,263.4964377588076,194.00118044173442,254.51785089701897,-174.33612554200542,-84.81277600542006,17.91479059620596,39.620891,25.9638331598916,52.7013284498645,19.10038232791328,-59.19859591598916,-7.923999588075881
66.66666666666666,263.4966106178862,194.00056037398375,254.51729554471544,-174.31358686991868,-84.81208891869919,17.891571056910568,39.620891,25.963831601626016,52.701315252032515,19.101126081300816,-59.1982232601626,-7.922213178861788
69.44444444444444,263.49678347696477,193.99994030623307,254.51674019241193,-174.29104819783197,-84.81140183197833,17.868351517615174,39.620891,25.963830043360435,52.70130205420054,19.101869834688348,-59.19785060433604,-7.920426769647696
72.22222222222221,263.49695633604335,193.9993202384824,254.5161848401084,-174.26850952574526,-84.81071474525746,17.845131978319785,39.620891,25.96382848509485,52.70128885636856,19.102613588075883,-59.19747794850949,-7.918640360433604
75.0,263.49712919512194,193.99870017073172,254.5156294878049,-174.24597085365852,-84.81002765853658,17.82191243902439,39.620891,25.963826926829267,52.70127565853658,19.103357341463415,-59.19710529268293,-7.916853951219512
77.77777777777777,263.49730205420053,193.99808010298105,254.51507413550135,-174.2234321815718,-84.80934057181572,17.798692899728998,39.620891,25.963825368563686,52.701262460704605,19.10410109485095,-59.19673263685637,-7.91506754200542
80.55555555555556,263.4974749132791,193.99746003523035,254.51451878319784,-174.2008935094851,-84.80865348509485,17.775473360433605,39.620891,25.963823810298102,52.70124926287262,19.104844848238482,-59.19635998102981,-7.913281132791328
83.33333333333333,263.4976477723577,193.99683996747967,254.5139634308943,-174.17835483739836,-84.80796639837399,17.75225382113821,39.620891,25.96382225203252,52.701236065040646,19.105588601626017,-59.19598732520325,-7.911494723577236
86.11111111111111,263.4978206314363,193.996219899729,254.51340807859077,-174.15581616531165,-84.80727931165312,17.729034281842818,39.620891,25.963820693766937,52.70122286720867,19.106332355013553,-59.195614669376695,-7.909708314363143
88.88888888888889,263.4979934905149,193.99559983197832,254.51285272628726,-174.13327749322494,-84.80659222493226,17.705814742547425,39.620891,25.963819135501357,52.70120966937669,19.107076108401085,-59.195242013550136,-7.907921905149051
91.66666666666666,263.4981663495935,193.99497976422765,254.51229737398373,-174.1107388211382,-84.80590513821139,17.68259520325203,39.620891,25.963817577235773,52.70119647154471,19.10781986178862,-59.194869357723576,-7.906135495934959
94.44444444444444,263.49833920867206,193.99435969647698,254.51174202168022,-174.0882001490515,-84.80521805149051,17.659375663956638,39.620891,25.96381601897019,52.701183273712736,19.108563615176152,-59.194496701897016,-7.904349086720867
97.22222222222221,263.49851206775065,193.9937396287263,254.51118666937668,-174.06566147696475,-84.80453096476965,17.636156124661248,39.620891,25.963814460704608,52.70117007588075,19.109307368563687,-59.194124046070456,-7.902562677506775
100.0,263.49868492682924,193.99311956097563,254.51063131707318,-174.04312280487804,-84.80384387804878,17.612936585365855,39.620891,25.963812902439024,52.70115687804878,19.11005112195122,-59.193751390243904,-7.900776268292683
102.77777777777777,263.4988577859079,193.99249949322493,254.51007596476964,-174.02058413279133,-84.80315679132792,17.58971704607046,39.620891,25.963811344173443,52.7011436802168,19.110794875338755,-59.193378734417344,-7.898989859078591
105.55555555555556,263.4990306449865,193.99187942547425,254.50952061246613,-173.9980454607046,-84.80246970460705,17.566497506775068,39.620891,25.96380978590786,52.70113048238482,19.11153862872629,-59.193006078590784,-7.897203449864498
108.33333333333333,263.49920350406506,193.99125935772358,254.5089652601626,-173.97550678861788,-84.80178261788618,17.543277967479675,39.620891,25.963808227642275,52.70111728455284,19.112282382113822,-59.192633422764224,-7.895417040650406
111.11111111111111,263.49937636314365,193.9906392899729,254.5084099078591,-173.95296811653117,-84.80109553116532,17.52005842818428,39.620891,25.963806669376694,52.70110408672086,19.113026135501357,-59.19226076693767,-7.893630631436314
113.88888888888889,263.49954922222224,193.99001922222223,254.50785455555555,-173.93042944444443,-84.80040844444444,17.496838888888888,39.620891,25.96380511111111,52.701090888888885,19.11376988888889,-59.19188811111111,-7.891844222222222
116.66666666666666,263.49972208130083,193.98939915447156,254.50729920325205,-173.90789077235772,-84.79972135772358,17.473619349593495,39.620891,25.96380355284553,52.70107769105691,19.114513642276425,-59.19151545528455,-7.89005781300813
119.44444444444444,263.4998949403794,193.98877908672088,254.5067438509485,-173.885352100271,-84.79903427100271,17.4503998102981,39.620891,25.963801994579946,52.701064493224926,19.115257395663956,-59.19114279945799,-7.888271403794038
122.22222222222221,263.500067799458,193.9881590189702,254.506188498645,-173.86281342818427,-84.79834718428185,17.427180271002708,39.620891,25.963800436314365,52.70105129539295,19.116001149051492,-59.19077014363143,-7.886484994579946
125.0,263.5002406585366,193.98753895121953,254.50563314634147,-173.84027475609756,-84.79766009756098,17.403960731707315,39.620891,25.96379887804878,52.701038097560975,19.116744902439024,-59.19039748780488,-7.884698585365853
127.77777777777777,263.5004135176152,193.98691888346883,254.50507779403793,-173.81773608401085,-84.7969730108401,17.380741192411925,39.620891,25.963797319783197,52.70102489972899,19.11748865582656,-59.19002483197832,-7.882912176151761
130.55555555555554,263.5005863766938,193.98629881571816,254.50452244173442,-173.7951974119241,-84.79628592411925,17.35752165311653,39.620891,25.963795761517616,52.701011701897016,19.118232409214095,-59.18965217615176,-7.881125766937669
133.33333333333331,263.50075923577236,193.98567874796748,254.5039670894309,-173.7726587398374,-84.79559883739837,17.33430211382114,39.620891,25.963794203252032,52.70099850406504,19.118976162601626,-59.1892795203252,-7.879339357723577
136.11111111111111,263.50093209485095,193.9850586802168,254.50341173712738,-173.75012006775066,-84.79491175067751,17.311082574525745,39.620891,25.96379264498645,52.70098530623306,19.11971991598916,-59.18890686449864,-7.877552948509485
138.88888888888889,263.50110495392954,193.98443861246614,254.50285638482384,-173.72758139566395,-84.79422466395664,17.28786303523035,39.620891,25.963791086720867,52.70097210840108,19.120463669376694,-59.18853420867209,-7.875766539295393
141.66666666666666,263.50127781300813,193.98381854471546,254.50230103252034,-173.70504272357724,-84.79353757723578,17.26464349593496,39.620891,25.963789528455287,52.7009589105691,19.12120742276423,-59.18816155284553,-7.873980130081301
144.44444444444443,263.5014506720867,193.9831984769648,254.5017456802168,-173.6825040514905,-84.79285049051491,17.241423956639565,39.620891,25.963787970189703,52.70094571273712,19.12195117615176,-59.18778889701897,-7.872193720867208
147.22222222222223,263.5016235311653,193.9825784092141,254.5011903279133,-173.6599653794038,-84.79216340379404,17.21820441734417,39.620891,25.96378641192412,52.70093251490515,19.122694929539296,-59.18741624119241,-7.870407311653116
150.0,263.5017963902439,193.9819583414634,254.50063497560976,-173.63742670731708,-84.79147631707318,17.19498487804878,39.620891,25.963784853658538,52.700919317073165,19.12343868292683,-59.187043585365856,-7.868620902439024
152.77777777777777,263.5019692493225,193.98133827371274,254.50007962330625,-173.61488803523034,-84.7907892303523,17.17176533875339,39.620891,25.963783295392954,52.70090611924119,19.124182436314364,-59.1866709295393,-7.866834493224932
155.55555555555554,263.5021421084011,193.98071820596206,254.4995242710027,-173.59234936314363,-84.79010214363144,17.148545799457995,39.620891,25.963781737127373,52.70089292140921,19.1249261897019,-59.18629827371274,-7.86504808401084
158.33333333333331,263.50231496747966,193.9800981382114,254.4989689186992,-173.56981069105692,-84.78941505691057,17.125326260162602,39.620891,25.96378017886179,52.70087972357723,19.12566994308943,-59.18592561788618,-7.863261674796748
161.11111111111111,263.50248782655825,193.97947807046071,254.49841356639567,-173.54727201897018,-84.78872797018971,17.10210672086721,39.620891,25.96377862059621,52.700866525745255,19.126413696476966,-59.18555296205962,-7.861475265582656
163.88888888888889,263.50266068563684,193.97885800271004,254.49785821409216,-173.52473334688347,-84.78804088346884,17.078887181571815,39.620891,25.963777062330625,52.70085332791328,19.127157449864498,-59.185180306233065,-7.859688856368563
166.66666666666666,263.50283354471543,193.97823793495937,254.49730286178863,-173.50219467479675,-84.78735379674796,17.055667642276422,39.620891,25.96377550406504,52.700840130081296,19.127901203252033,-59.184807650406505,-7.857902447154471
169.44444444444443,263.503006403794,193.9776178672087,254.4967475094851,-173.47965600271002,-84.7866667100271,17.03244810298103,39.620891,25.96377394579946,52.70082693224932,19.12864495663957,-59.184434994579945,-7.856116037940379
172.22222222222223,263.50317926287266,193.976997799458,254.49619215718158,-173.4571173306233,-84.78597962330623,17.009228563685635,39.620891,25.963772387533876,52.70081373441734,19.1293887100271,-59.184062338753385,-7.854329628726287
175.0,263.50335212195125,193.97637773170732,254.49563680487805,-173.43457865853657,-84.78529253658537,16.986009024390242,39.620891,25.963770829268295,52.70080053658536,19.130132463414636,-59.183689682926826,-7.852543219512195
177.77777777777777,263.50352498102984,193.97575766395664,254.49508145257454,-173.41203998644986,-84.7846054498645,16.96278948509485,39.620891,25.96376927100271,52.700787338753386,19.130876216802168,-59.18331702710027,-7.850756810298103
180.55555555555554,263.50369784010843,193.97513759620597,254.494526100271,-173.38950131436314,-84.78391836314363,16.93956994579946,39.620891,25.963767712737127,52.7007741409214,19.131619970189703,-59.18294437127371,-7.84897040108401
183.33333333333331,263.503870699187,193.9745175284553,254.4939707479675,-173.3669626422764,-84.78323127642277,16.916350406504066,39.620891,25.963766154471546,52.70076094308943,19.132363723577235,-59.18257171544715,-7.847183991869918
186.11111111111111,263.5040435582656,193.97389746070462,254.49341539566396,-173.3444239701897,-84.7825441897019,16.893130867208672,39.620891,25.963764596205962,52.70074774525745,19.13310747696477,-59.182199059620594,-7.845397582655826
188.88888888888889,263.5042164173442,193.97327739295395,254.49286004336045,-173.32188529810298,-84.78185710298104,16.86991132791328,39.620891,25.96376303794038,52.70073454742547,19.133851230352306,-59.18182640379404,-7.843611173441734
191.66666666666666,263.5043892764228,193.97265732520327,254.49230469105692,-173.29934662601624,-84.78117001626016,16.846691788617886,39.620891,25.963761479674798,52.70072134959349,19.134594983739838,-59.18145374796748,-7.841824764227642
194.44444444444443,263.5045621355014,193.97203725745257,254.4917493387534,-173.27680795392953,-84.7804829295393,16.823472249322492,39.620891,25.963759921409217,52.70070815176152,19.135338737127373,-59.18108109214092,-7.84003835501355
197.22222222222223,263.50473499457996,193.9714171897019,254.49119398644987,-173.25426928184282,-84.77979584281843,16.8002527100271,39.620891,25.963758363143633,52.700694953929535,19.136082490514905,-59.18070843631436,-7.838251945799458
200.0,263.50490785365855,193.97079712195122,254.49063863414636,-173.23173060975608,-84.77910875609756,16.777033170731706,39.620891,25.96375680487805,52.70068175609756,19.13682624390244,-59.1803357804878,-7.836465536585365
202.77777777777777,263.50508071273714,193.97017705420055,254.49008328184283,-173.20919193766937,-84.7784216693767,16.753813631436312,39.620891,25.963755246612468,52.700668558265576,19.137569997289972,-59.17996312466125,-7.834679127371273
205.55555555555554,263.5052147447232,193.969679480685,254.4896238387097,-173.1911768582238,-84.7778617311828,16.735255112704102,39.620891,25.963754,52.70065663002787,19.138165,-59.17965598566308,-7.83325
208.33333333333331,263.5051934683393,193.9696718841099,254.48954803225809,-173.19125614934288,-84.77781038709678,16.73534067622461,39.620891,25.963754,52.70064978016726,19.138165,-59.17961091397849,-7.83325
211.11111111111111,263.5051721919554,193.96966428753487,254.48947222580645,-173.19133544046196,-84.77775904301076,16.73542623974512,39.620891,25.963754,52.70064293030665,19.138165,-59.179565842293904,-7.83325
213.88888888888889,263.5051509155715,193.9696566909598,254.48939641935485,-173.19141473158103,-84.77770769892473,16.73551180326563,39.620891,25.963754,52.70063608044603,19.138165,-59.17952077060932,-7.83325
216.66666666666666,263.5051296391876,193.96964909438472,254.48932061290324,-173.1914940227001,-84.77765635483871,16.73559736678614,39.620891,25.963754,52.70062923058542,19.138165,-59.17947569892473,-7.83325
219.44444444444443,263.5051083628037,193.96964149780965,254.4892448064516,-173.1915733138192,-84.7776050107527,16.73568293030665,39.620891,25.963754,52.70062238072481,19.138165,-59.179430627240144,-7.83325
222.22222222222223,263.5050870864198,193.96963390123457,254.489169,-173.19165260493827,-84.77755366666666,16.73576849382716,39.620891,25.963754,52.7006155308642,19.138165,-59.179385555555555,-7.83325
225.0,263.50506581003583,193.9696263046595,254.4890931935484,-173.19173189605735,-84.77750232258065,16.73585405734767,39.620891,25.963754,52.70060868100358,19.138165,-59.179340483870966,-7.83325
227.77777777777777,263.5050445336519,193.96961870808443,254.4890173870968,-173.19181118717643,-84.77745097849463,16.73593962086818,39.620891,25.963754,52.70060183114297,19.138165,-59.17929541218638,-7.83325
230.55555555555554,263.505023257268,193.96961111150938,254.48894158064516,-173.1918904782955,-84.77739963440861,16.73602518438869,39.620891,25.963754,52.70059498128236,19.138165,-59.179250340501795,-7.83325
233.33333333333331,263.5050019808841,193.9696035149343,254.48886577419356,-173.19196976941458,-84.77734829032258,16.736110747909198,39.620891,25.963754,52.70058813142174,19.138165,-59.179205268817206,-7.83325
236.11111111111111,263.5049807045002,193.96959591835923,254.48878996774195,-173.19204906053363,-84.77729694623656,16.73619631142971,39.620891,25.963754,52.70058128156113,19.138165,-59.17916019713262,-7.83325
238.88888888888889,263.5049594281163,193.96958832178416,254.48871416129032,-173.1921283516527,-84.77724560215054,16.73628187495022,39.620891,25.963754,52.70057443170052,19.138165,-59.17911512544803,-7.83325
241.66666666666666,263.5049381517324,193.96958072520908,254.4886383548387,-173.1922076427718,-84.77719425806451,16.73636743847073,39.620891,25.963754,52.7005675818399,19.138165,-59.17907005376344,-7.83325
244.44444444444443,263.5049168753485,193.969573128634,254.4885625483871,-173.19228693389087,-84.7771429139785,16.736453001991237,39.620891,25.963754,52.70056073197929,19.138165,-59.17902498207885,-7.83325
247.2222222222222,263.50489559896454,193.96956553205894,254.4884867419355,-173.19236622500995,-84.77709156989248,16.736538565511747,39.620891,25.963754,52.700553882118676,19.138165,-59.17897991039426,-7.83325
250.0,263.50487432258063,193.9695579354839,254.48841093548387,-173.19244551612903,-84.77704022580646,16.736624129032258,39.620891,25.963754,52.700547032258065,19.138165,-59.17893483870968,-7.83325
252.77777777777777,263.50485304619673,193.96955033890882,254.48833512903227,-173.1925248072481,-84.77698888172043,16.73670969255277,39.620891,25.963754,52.70054018239745,19.138165,-59.17888976702509,-7.83325
255.55555555555554,263.5048317698128,193.96954274233374,254.48825932258066,-173.19260409836718,-84.77693753763441,16.736795256073275,39.620891,25.963754,52.700533332536835,19.138165,-59.1788446953405,-7.83325
258.3333333333333,263.5048104934289,193.96953514575867,254.48818351612903,-173.19268338948626,-84.77688619354839,16.736880819593786,39.620891,25.963754,52.700526482676224,19.138165,-59.17879962365591,-7.83325
261.1111111111111,263.504789217045,193.9695275491836,254.48810770967742,-173.19276268060534,-84.77683484946238,16.736966383114297,39.620891,25.963754,52.700519632815606,19.138165,-59.17875455197132,-7.83325
263.88888888888886,263.5047679406611,193.96951995260852,254.48803190322582,-173.19284197172442,-84.77678350537634,16.737051946634807,39.620891,25.963754,52.700512782954995,19.138165,-59.178709480286734,-7.83325
266.66666666666663,263.5047466642772,193.96951235603345,254.4879560967742,-173.1929212628435,-84.77673216129033,16.737137510155318,39.620891,25.963754,52.700505933094384,19.138165,-59.17866440860215,-7.83325
269.44444444444446,263.5047253878933,193.9695047594584,254.48788029032258,-173.19300055396255,-84.77668081720431,16.737223073675825,39.620891,25.963754,52.70049908323377,19.138165,-59.17861933691756,-7.83325
272.22222222222223,263.50470411150934,193.96949716288333,254.48780448387097,-173.19307984508163,-84.77662947311828,16.737308637196335,39.620891,25.963754,52.700492233373154,19.138165,-59.178574265232974,-7.83325
275.0,263.50468283512544,193.96948956630825,254.48772867741937,-173.1931591362007,-84.77657812903226,16.737394200716846,39.620891,25.963754,52.70048538351254,19.138165,-59.178529193548385,-7.83325
277.77777777777777,263.50466155874153,193.96948196973318,254.48765287096774,-173.19323842731978,-84.77652678494624,16.737479764237357,39.620891,25.963754,52.70047853365193,19.138165,-59.1784841218638,-7.83325
280.55555555555554,263.5046402823576,193.9694743731581,254.48757706451613,-173.19331771843886,-84.77647544086022,16.737565327757864,39.620891,25.963754,52.700471683791314,19.138165,-59.17843905017921,-7.83325
283.3333333333333,263.5046190059737,193.96946677658303,254.48750125806453,-173.19339700955794,-84.77642409677419,16.737650891278374,39.620891,25.963754,52.7004648339307,19.138165,-59.178393978494626,-7.83325
286.1111111111111,263.5045977295898,193.96945918000796,254.48742545161292,-173.19347630067702,-84.77637275268818,16.737736454798885,39.620891,25.963754,52.70045798407009,19.138165,-59.17834890681004,-7.83325
288.88888888888886,263.5045764532059,193.9694515834329,254.4873496451613,-173.1935555917961,-84.77632140860216,16.737822018319395,39.620891,25.963754,52.70045113420947,19.138165,-59.17830383512545,-7.83325
291.66666666666663,263.504555176822,193.96944398685784,254.48727383870968,-173.19363488291518,-84.77627006451613,16.737907581839902,39.620891,25.963754,52.70044428434886,19.138165,-59.17825876344086,-7.83325
294.44444444444446,263.5045339004381,193.96943639028277,254.48719803225808,-173.19371417403426,-84.77621872043011,16.737993145360413,39.620891,25.963754,52.70043743448825,19.138165,-59.17821369175627,-7.83325
297.22222222222223,263.50451262405414,193.9694287937077,254.48712222580644,-173.19379346515333,-84.77616737634409,16.738078708880924,39.620891,25.963754,52.70043058462764,19.138165,-59.17816862007168,-7.83325
300.0,263.50449134767024,193.96942119713262,254.48704641935484,-173.1938727562724,-84.77611603225807,16.738164272401434,39.620891,25.963754,52.70042373476702,19.138165,-59.1781235483871,-7.83325
302.77777777777777,263.50447007128633,193.96941360055754,254.48697061290324,-173.19395204739146,-84.77606468817204,16.738249835921945,39.620891,25.963754,52.70041688490641,19.138165,-59.17807847670251,-7.83325
305.55555555555554,263.50444879490243,193.96940600398247,254.48689480645163,-173.19403133851054,-84.77601334408602,16.73833539944245,39.620891,25.963754,52.7004100350458,19.138165,-59.17803340501792,-7.83325
308.3333333333333,263.5044275185185,193.96939840740743,254.486819,-173.19411062962962,-84.775962,16.738420962962962,39.620891,25.963754,52.70040318518518,19.138165,-59.17798833333333,-7.83325
311.1111111111111,263.5044062421346,193.96939081083235,254.4867431935484,-173.1941899207487,-84.77591065591398,16.738506526483473,39.620891,25.963754,52.70039633532457,19.138165,-59.17794326164874,-7.83325
313.88888888888886,263.5043849657507,193.96938321425728,254.4866673870968,-173.19426921186778,-84.77585931182796,16.738592090003984,39.620891,25.963754,52.70038948546396,19.138165,-59.177898189964154,-7.83325
316.66666666666663,263.5043636893668,193.9693756176822,254.48659158064515,-173.19434850298686,-84.77580796774194,16.73867765352449,39.620891,25.963754,52.70038263560335,19.138165,-59.17785311827957,-7.83325
319.44444444444446,263.5043424129829,193.96936802110713,254.48651577419355,-173.19442779410593,-84.77575662365592,16.738763217045,39.620891,25.963754,52.70037578574273,19.138165,-59.17780804659498,-7.83325
322.22222222222223,263.50432113659895,193.96936042453206,254.48643996774194,-173.194507085225,-84.77570527956989,16.73884878056551,39.620891,25.963754,52.70036893588212,19.138165,-59.177762974910394,-7.83325
325.0,263.50429986021504,193.96935282795698,254.48636416129034,-173.1945863763441,-84.77565393548387,16.738934344086022,39.620891,25.963754,52.70036208602151,19.138165,-59.177717903225805,-7.83325
327.77777777777777,263.50427858383114,193.96934523138194,254.4862883548387,-173.19466566746317,-84.77560259139786,16.739019907606533,39.620891,25.963754,52.70035523616089,19.138165,-59.177672831541216,-7.83325
330.55555555555554,263.50425730744723,193.96933763480686,254.4862125483871,-173.19474495858225,-84.77555124731182,16.73910547112704,39.620891,25.963754,52.70034838630028,19.138165,-59.17762775985663,-7.83325
333.3333333333333,263.50423603106333,193.9693300382318,254.4861367419355,-173.19482424970133,-84.7754999032258,16.73919103464755,39.620891,25.963754,52.700341536439666,19.138165,-59.177582688172045,-7.83325
336.1111111111111,263.5042147546794,193.96932244165671,254.48606093548386,-173.1949035408204,-84.77544855913979,16.73927659816806,39.620891,25.963754,52.70033468657905,19.138165,-59.177537616487456,-7.83325
338.88888888888886,263.5041934782955,193.96931484508164,254.48598512903226,-173.19498283193946,-84.77539721505377,16.73936216168857,39.620891,25.963754,52.70032783671844,19.138165,-59.17749254480287,-7.83325
341.66666666666663,263.5041722019116,193.96930724850657,254.48590932258065,-173.19506212305853,-84.77534587096774,16.73944772520908,39.620891,25.963754,52.700320986857825,19.138165,-59.17744747311828,-7.83325
344.44444444444446,263.5041509255277,193.9692996519315,254.48583351612905,-173.1951414141776,-84.77529452688172,16.73953328872959,39.620891,25.963754,52.700314136997214,19.138165,-59.17740240143369,-7.83325
347.22222222222223,263.50412964914375,193.96929205535645,254.48575770967742,-173.1952207052967,-84.7752431827957,16.7396188522501,39.620891,25.963754,52.700307287136596,19.138165,-59.1773573297491,-7.83325
350.0,263.50410837275984,193.96928445878137,254.4856819032258,-173.19529999641577,-84.77519183870969,16.73970441577061,39.620891,25.963754,52.700300437275985,19.138165,-59.17731225806452,-7.83325
352.77777777777777,263.50408709637594,193.9692768622063,254.4856060967742,-173.19537928753485,-84.77514049462366,16.739789979291118,39.620891,25.963754,52.70029358741537,19.138165,-59.17726718637993,-7.83325
355.55555555555554,263.50406581999204,193.96926926563123,254.48553029032257,-173.19545857865393,-84.77508915053764,16.739875542811628,39.620891,25.963754,52.700286737554755,19.138165,-59.17722211469534,-7.83325
358.3333333333333,263.50404454360813,193.96926166905615,254.48545448387097,-173.195537869773,-84.77503780645162,16.73996110633214,39.620891,25.963754,52.700279887694144,19.138165,-59.17717704301075,-7.83325
361.1111111111111,263.5040232672242,193.96925407248108,254.48537867741936,-173.19561716089208,-84.77498646236559,16.74004666985265,39.620891,25.963754,52.70027303783353,19.138165,-59.17713197132616,-7.83325
363.88888888888886,263.5040019908403,193.969246475906,254.48530287096773,-173.19569645201116,-84.77493511827957,16.74013223337316,39.620891,25.963754,52.700266187972915,19.138165,-59.17708689964157,-7.83325
366.66666666666663,263.5039807144564,193.96923887933096,254.48522706451612,-173.19577574313024,-84.77488377419355,16.740217796893667,39.620891,25.963754,52.7002593381123,19.138165,-59.17704182795699,-7.83325
369.44444444444446,263.5039594380725,193.96923128275589,254.48515125806452,-173.19585503424932,-84.77483243010754,16.740303360414178,39.620891,25.963754,52.70025248825169,19.138165,-59.1769967562724,-7.83325
372.22222222222223,263.50393816168855,193.9692236861808,254.48507545161291,-173.19593432536837,-84.7747810860215,16.740388923934688,39.620891,25.963754,52.70024563839108,19.138165,-59.17695168458781,-7.83325
375.0,263.50391688530465,193.96921608960574,254.48499964516128,-173.19601361648745,-84.77472974193549,16.7404744874552,39.620891,25.963754,52.70023878853046,19.138165,-59.176906612903224,-7.83325
377.77777777777777,263.50389560892074,193.96920849303066,254.48492383870968,-173.19609290760653,-84.77467839784947,16.740560050975706,39.620891,25.963754,52.70023193866985,19.138165,-59.176861541218635,-7.83325
380.55555555555554,263.50387433253684,193.9692008964556,254.48484803225807,-173.1961721987256,-84.77462705376344,16.740645614496216,39.620891,25.963754,52.70022508880924,19.138165,-59.176816469534046,-7.83325
383.3333333333333,263.50385305615293,193.96919329988054,254.48477222580644,-173.19625148984468,-84.77457570967742,16.740731178016727,39.620891,25.963754,52.70021823894862,19.138165,-59.17677139784946,-7.83325
386.1111111111111,263.50383177976903,193.96918570330547,254.48469641935483,-173.19633078096376,-84.7745243655914,16.740816741537238,39.620891,25.963754,52.70021138908801,19.138165,-59.176726326164875,-7.83325
388.88888888888886,263.5038105033851,193.9691781067304,254.48462061290323,-173.19641007208284,-84.77447302150539,16.740902305057745,39.620891,25.963754,52.7002045392274,19.138165,-59.176681254480286,-7.83325
391.66666666666663,263.5037892270012,193.96917051015532,254.48454480645162,-173.19648936320192,-84.77442167741935,16.740987868578255,39.620891,25.963754,52.70019768936679,19.138165,-59.1766361827957,-7.83325
394.44444444444446,263.5037679506173,193.96916291358025,254.484469,-173.196568654321,-84.77437033333334,16.741073432098766,39.620891,25.963754,52.70019083950617,19.138165,-59.17659111111111,-7.83325
397.22222222222223,263.50374667423335,193.96915531700517,254.48439319354839,-173.19664794544008,-84.77431898924732,16.741158995619276,39.620891,25.963754,52.70018398964556,19.138165,-59.17654603942652,-7.83325
400.0,263.50372539784945,193.9691477204301,254.48431738709678,-173.19672723655916,-84.77426764516129,16.741244559139787,39.620891,25.963754,52.70017713978495,19.138165,-59.17650096774193,-7.83325
402.77777777777777,263.50370412146555,193.96914012385506,254.48424158064515,-173.19680652767823,-84.77421630107527,16.741330122660294,39.620891,25.963754,52.70017028992433,19.138165,-59.17645589605735,-7.83325
405.55555555555554,263.50368284508164,193.96913252727998,254.48416577419354,-173.19688581879728,-84.77416495698925,16.741415686180805,39.620891,25.963754,52.70016344006372,19.138165,-59.17641082437276,-7.83325
408.3333333333333,263.50366156869774,193.9691249307049,254.48408996774194,-173.19696510991636,-84.77411361290324,16.741501249701315,39.620891,25.963754,52.70015659020311,19.138165,-59.17636575268817,-7.83325
411.1111111111111,263.50364029231383,193.96911733412983,254.48401416129033,-173.19704440103544,-84.7740622688172,16.741586813221826,39.620891,25.963754,52.70014974034249,19.138165,-59.17632068100358,-7.83325
413.88888888888886,263.5036190159299,193.96910973755476,254.4839383548387,-173.19712369215452,-84.77401092473119,16.741672376742333,39.620891,25.963754,52.70014289048188,19.138165,-59.17627560931899,-7.83325
416.66666666666663,263.503597739546,193.9691021409797,254.4838625483871,-173.1972029832736,-84.77395958064517,16.741757940262843,39.620891,25.963754,52.70013604062127,19.138165,-59.1762305376344,-7.83325
419.44444444444446,263.5035764631621,193.9690945444046,254.4837867419355,-173.19728227439268,-84.77390823655914,16.741843503783354,39.620891,25.963754,52.700129190760656,19.138165,-59.17618546594982,-7.83325
422.22222222222223,263.50355518677816,193.96908694782957,254.48371093548386,-173.19736156551176,-84.77385689247312,16.741929067303865,39.620891,25.963754,52.70012234090004,19.138165,-59.17614039426523,-7.83325
425.0,263.50353391039425,193.9690793512545,254.48363512903225,-173.19744085663083,-84.7738055483871,16.742014630824375,39.620891,25.963754,52.700115491039426,19.138165,-59.17609532258064,-7.83325
427.77777777777777,263.50351263401035,193.96907175467942,254.48355932258065,-173.1975201477499,-84.77375420430108,16.742100194344882,39.620891,25.963754,52.700108641178815,19.138165,-59.176050250896054,-7.83325
430.55555555555554,263.50349135762644,193.96906415810435,254.48348351612904,-173.197599438869,-84.77370286021505,16.742185757865393,39.620891,25.963754,52.7001017913182,19.138165,-59.176005179211465,-7.83325
433.3333333333333,263.50347008124254,193.96905656152927,254.4834077096774,-173.19767872998807,-84.77365151612904,16.742271321385903,39.620891,25.963754,52.700094941457586,19.138165,-59.175960107526876,-7.83325
436.1111111111111,263.50344880485864,193.9690489649542,254.4833319032258,-173.19775802110715,-84.77360017204302,16.742356884906414,39.620891,25.963754,52.700088091596974,19.138165,-59.175915035842294,-7.83325
438.88888888888886,263.50342752847473,193.96904136837912,254.4832560967742,-173.1978373122262,-84.773548827957,16.74244244842692,39.620891,25.963754,52.70008124173636,19.138165,-59.175869964157705,-7.83325
441.66666666666663,263.5034062520908,193.96903377180408,254.48318029032257,-173.19791660334528,-84.77349748387097,16.74252801194743,39.620891,25.963754,52.700074391875745,19.138165,-59.175824892473116,-7.83325
444.44444444444446,263.5033849757069,193.969026175229,254.48310448387096,-173.19799589446436,-84.77344613978495,16.742613575467942,39.620891,25.963754,52.700067542015134,19.138165,-59.17577982078853,-7.83325
447.22222222222223,263.50336369932296,193.96901857865393,254.48302867741936,-173.19807518558343,-84.77339479569893,16.742699138988453,39.620891,25.963754,52.70006069215452,19.138165,-59.17573474910394,-7.83325
450.0,263.50334242293906,193.96901098207886,254.48295287096775,-173.1981544767025,-84.7733434516129,16.74278470250896,39.620891,25.963754,52.700053842293904,19.138165,-59.17568967741935,-7.83325
452.77777777777777,263.50332114655515,193.96900338550378,254.48287706451612,-173.1982337678216,-84.77329210752688,16.74287026602947,39.620891,25.963754,52.70004699243329,19.138165,-59.17564460573477,-7.83325
455.55555555555554,263.50329987017125,193.9689957889287,254.4828012580645,-173.19831305894067,-84.77324076344087,16.74295582954998,39.620891,25.963754,52.70004014257268,19.138165,-59.17559953405018,-7.83325
458.3333333333333,263.50327859378734,193.96898819235363,254.4827254516129,-173.19839235005975,-84.77318941935485,16.74304139307049,39.620891,25.963754,52.700033292712064,19.138165,-59.17555446236559,-7.83325
461.1111111111111,263.50325731740344,193.9689805957786,254.48264964516127,-173.19847164117883,-84.77313807526882,16.743126956591002,39.620891,25.963754,52.70002644285145,19.138165,-59.175509390681,-7.83325
463.88888888888886,263.50323604101953,193.96897299920352,254.48257383870967,-173.1985509322979,-84.7730867311828,16.74321252011151,39.620891,25.963754,52.70001959299084,19.138165,-59.17546431899641,-7.83325
466.66666666666663,263.50321476463563,193.96896540262844,254.48249803225806,-173.19863022341698,-84.77303538709678,16.74329808363202,39.620891,25.963754,52.70001274313023,19.138165,-59.17541924731182,-7.83325
469.4444444444444,263.5031934882517,193.96895780605337,254.48242222580646,-173.19870951453606,-84.77298404301075,16.74338364715253,39.620891,25.963754,52.70000589326961,19.138165,-59.17537417562724,-7.83325
472.22222222222223,263.50317221186776,193.9689502094783,254.48234641935483,-173.1987888056551,-84.77293269892473,16.74346921067304,39.620891,25.963754,52.699999043409,19.138165,-59.17532910394265,-7.83325
475.0,263.50315093548386,193.96894261290322,254.48227061290322,-173.1988680967742,-84.77288135483872,16.743554774193548,39.620891,25.963754,52.69999219354839,19.138165,-59.17528403225806,-7.83325
477.77777777777777,263.50312965909995,193.96893501632815,254.48219480645162,-173.19894738789327,-84.7728300107527,16.74364033771406,39.620891,25.963754,52.69998534368777,19.138165,-59.17523896057347,-7.83325
480.55555555555554,263.50310838271605,193.9689274197531,254.48211899999998,-173.19902667901235,-84.77277866666667,16.74372590123457,39.620891,25.963754,52.69997849382716,19.138165,-59.175193888888884,-7.83325
483.3333333333333,263.50308710633215,193.96891982317803,254.48204319354838,-173.19910597013143,-84.77272732258065,16.74381146475508,39.620891,25.963754,52.69997164396655,19.138165,-59.175148817204295,-7.83325
486.1111111111111,263.50307152764094,193.96890927476738,254.48200595840174,-173.199144665572,-84.77271082977559,16.743851665571977,39.620891,25.963754,52.699965829775586,19.138165,-59.175138,-7.83325
488.88888888888886,263.5030577482211,193.96889779419814,254.48198090366722,-173.19917054132458,-84.7727053426382,16.743877541324576,39.620891,25.963754,52.69996034263821,19.138165,-59.175138,-7.83325
491.66666666666663,263.5030439688013,193.9688863136289,254.48195584893267,-173.1991964170772,-84.77269985550083,16.743903417077178,39.620891,25.963754,52.69995485550082,19.138165,-59.175138,-7.83325
494.4444444444444,263.5030301893815,193.96887483305966,254.48193079419812,-173.19922229282977,-84.77269436836345,16.743929292829776,39.620891,25.963754,52.699949368363434,19.138165,-59.175138,-7.83325
497.22222222222223,263.5030164099617,193.96886335249042,254.4819057394636,-173.1992481685824,-84.77268888122606,16.743955168582378,39.620891,25.963754,52.699943881226055,19.138165,-59.175138,-7.83325
500.0,263.50300263054186,193.96885187192117,254.48188068472905,-173.199274044335,-84.77268339408867,16.743981044334976,39.620891,25.963754,52.69993839408867,19.138165,-59.175138,-7.83325
502.77777777777777,263.50298885112204,193.96884039135193,254.48185562999453,-173.19929992008758,-84.77267790695129,16.744006920087575,39.620891,25.963754,52.69993290695129,19.138165,-59.175138,-7.83325
505.55555555555554,263.5029750717022,193.96882891078272,254.48183057525998,-173.1993257958402,-84.7726724198139,16.744032795840177,39.620891,25.963754,52.6999274198139,19.138165,-59.175138,-7.83325
508.3333333333333,263.5029612922824,193.96881743021348,254.48180552052546,-173.19935167159278,-84.77266693267653,16.744058671592775,39.620891,25.963754,52.69992193267652,19.138165,-59.175138,-7.83325
511.1111111111111,263.50294751286265,193.96880594964423,254.4817804657909,-173.1993775473454,-84.77266144553914,16.744084547345377,39.620891,25.963754,52.69991644553914,19.138165,-59.175138,-7.83325
513.8888888888889,263.50293373344283,193.968794469075,254.48175541105638,-173.19940342309798,-84.77265595840176,16.744110423097975,39.620891,25.963754,52.69991095840175,19.138165,-59.175138,-7.83325
516.6666666666666,263.502919954023,193.96878298850575,254.48173035632183,-173.1994292988506,-84.77265047126437,16.744136298850577,39.620891,25.963754,52.699905471264366,19.138165,-59.175138,-7.83325
519.4444444444445,263.5029061746032,193.9687715079365,254.4817053015873,-173.19945517460317,-84.77264498412698,16.744162174603176,39.620891,25.963754,52.699899984126986,19.138165,-59.175138,-7.83325
522.2222222222222,263.5028923951834,193.96876002736727,254.48168024685276,-173.19948105035579,-84.7726394969896,16.744188050355774,39.620891,25.963754,52.6998944969896,19.138165,-59.175138,-7.83325
525.0,263.50287861576356,193.96874854679803,254.4816551921182,-173.19950692610837,-84.77263400985223,16.744213926108376,39.620891,25.963754,52.699889009852214,19.138165,-59.175138,-7.83325
527.7777777777777,263.50286483634375,193.96873706622878,254.4816301373837,-173.19953280186098,-84.77262852271484,16.744239801860974,39.620891,25.963754,52.699883522714835,19.138165,-59.175138,-7.83325
530.5555555555555,263.50285105692393,193.96872558565954,254.48160508264914,-173.1995586776136,-84.77262303557745,16.744265677613576,39.620891,25.963754,52.69987803557745,19.138165,-59.175138,-7.83325
533.3333333333333,263.5028372775041,193.9687141050903,254.48158002791462,-173.19958455336618,-84.77261754844007,16.744291553366175,39.620891,25.963754,52.69987254844006,19.138165,-59.175138,-7.83325
536.1111111111111,263.5028234980843,193.96870262452106,254.48155497318007,-173.1996104291188,-84.77261206130268,16.744317429118777,39.620891,25.963754,52.69986706130268,19.138165,-59.175138,-7.83325
538.8888888888889,263.5028097186645,193.96869114395184,254.48152991844555,-173.19963630487138,-84.7726065741653,16.744343304871375,39.620891,25.963754,52.6998615741653,19.138165,-59.175138,-7.83325
541.6666666666666,263.50279593924466,193.9686796633826,254.481504863711,-173.199662180624,-84.77260108702792,16.744369180623973,39.620891,25.963754,52.69985608702791,19.138165,-59.175138,-7.83325
544.4444444444445,263.50278215982485,193.96866818281336,254.48147980897647,-173.19968805637657,-84.77259559989054,16.744395056376575,39.620891,25.963754,52.69985059989053,19.138165,-59.175138,-7.83325
547.2222222222222,263.50276838040503,193.96865670224412,254.48145475424192,-173.19971393212919,-84.77259011275315,16.744420932129174,39.620891,25.963754,52.699845112753145,19.138165,-59.175138,-7.83325
550.0,263.5027546009852,193.96864522167488,254.4814296995074,-173.19973980788177,-84.77258462561576,16.744446807881776,39.620891,25.963754,52.699839625615766,19.138165,-59.175138,-7.83325
552.7777777777777,263.5027408215654,193.96863374110563,254.48140464477285,-173.19976568363438,-84.77257913847838,16.744472683634374,39.620891,25.963754,52.69983413847838,19.138165,-59.175138,-7.83325
555.5555555555555,263.5027270421456,193.9686222605364,254.4813795900383,-173.199791559387,-84.77257365134099,16.744498559386976,39.620891,25.963754,52.699828651340994,19.138165,-59.175138,-7.83325
558.3333333333333,263.50271326272576,193.96861077996715,254.48135453530378,-173.19981743513958,-84.77256816420362,16.744524435139574,39.620891,25.963754,52.699823164203615,19.138165,-59.175138,-7.83325
561.1111111111111,263.50269948330595,193.9685992993979,254.48132948056923,-173.1998433108922,-84.77256267706623,16.744550310892173,39.620891,25.963754,52.69981767706623,19.138165,-59.175138,-7.83325
563.8888888888889,263.50268570388613,193.96858781882867,254.4813044258347,-173.19986918664478,-84.77255718992885,16.744576186644775,39.620891,25.963754,52.69981218992884,19.138165,-59.175138,-7.83325
566.6666666666666,263.5026719244663,193.96857633825942,254.48127937110016,-173.1998950623974,-84.77255170279146,16.744602062397373,39.620891,25.963754,52.69980670279146,19.138165,-59.175138,-7.83325
569.4444444444445,263.5026581450465,193.9685648576902,254.48125431636564,-173.19992093814997,-84.77254621565407,16.744627938149975,39.620891,25.963754,52.69980121565408,19.138165,-59.175138,-7.83325
572.2222222222222,263.50264436562674,193.96855337712097,254.48122926163109,-173.19994681390259,-84.77254072851669,16.744653813902573,39.620891,25.963754,52.69979572851669,19.138165,-59.175138,-7.83325
575.0,263.5026305862069,193.96854189655173,254.48120420689656,-173.19997268965517,-84.77253524137932,16.744679689655175,39.620891,25.963754,52.69979024137931,19.138165,-59.175138,-7.83325
577.7777777777777,263.5026168067871,193.96853041598249,254.481179152162,-173.19999856540778,-84.77252975424193,16.744705565407774,39.620891,25.963754,52.699784754241925,19.138165,-59.175138,-7.83325
580.5555555555555,263.5026030273673,193.96851893541324,254.4811540974275,-173.2000244411604,-84.77252426710454,16.744731441160372,39.620891,25.963754,52.69977926710454,19.138165,-59.175138,-7.83325
583.3333333333333,263.50258924794747,193.968507454844,254.48112904269294,-173.20005031691298,-84.77251877996716,16.744757316912974,39.620891,25.963754,52.69977377996716,19.138165,-59.175138,-7.83325
586.1111111111111,263.50257546852765,193.96849597427476,254.4811039879584,-173.2000761926656,-84.77251329282977,16.744783192665572,39.620891,25.963754,52.69976829282977,19.138165,-59.175138,-7.83325
588.8888888888889,263.50256168910784,193.96848449370552,254.48107893322387,-173.20010206841818,-84.77250780569238,16.744809068418174,39.620891,25.963754,52.69976280569239,19.138165,-59.175138,-7.83325
591.6666666666666,263.502547909688,193.96847301313628,254.48105387848932,-173.2001279441708,-84.77250231855501,16.744834944170773,39.620891,25.963754,52.69975731855501,19.138165,-59.175138,-7.83325
594.4444444444445,263.5025341302682,193.96846153256703,254.4810288237548,-173.20015381992337,-84.77249683141763,16.744860819923375,39.620891,25.963754,52.69975183141762,19.138165,-59.175138,-7.83325
597.2222222222222,263.5025203508484,193.9684500519978,254.48100376902025,-173.20017969567598,-84.77249134428024,16.744886695675973,39.620891,25.963754,52.69974634428024,19.138165,-59.175138,-7.83325
600.0,263.50250657142857,193.96843857142858,254.48097871428573,-173.20020557142857,-84.77248585714285,16.74491257142857,39.620891,25.963754,52.69974085714286,19.138165,-59.175138,-7.83325
602.7777777777777,263.50249279200875,193.96842709085934,254.48095365955118,-173.20023144718118,-84.77248037000547,16.744938447181173,39.620891,25.963754,52.69973537000547,19.138165,-59.175138,-7.83325
605.5555555555555,263.50247901258894,193.9684156102901,254.48092860481665,-173.2002573229338,-84.77247488286808,16.74496432293377,39.620891,25.963754,52.69972988286809,19.138165,-59.175138,-7.83325
608.3333333333333,263.5024652331691,193.96840412972085,254.4809035500821,-173.20028319868638,-84.77246939573071,16.744990198686374,39.620891,25.963754,52.699724395730705,19.138165,-59.175138,-7.83325
611.1111111111111,263.5024514537493,193.9683926491516,254.48087849534758,-173.200309074439,-84.77246390859332,16.745016074438972,39.620891,25.963754,52.69971890859332,19.138165,-59.175138,-7.83325
613.8888888888889,263.5024376743295,193.96838116858237,254.48085344061303,-173.20033495019157,-84.77245842145594,16.745041950191574,39.620891,25.963754,52.69971342145594,19.138165,-59.175138,-7.83325
616.6666666666666,263.50242389490967,193.96836968801313,254.48082838587848,-173.2003608259442,-84.77245293431855,16.745067825944172,39.620891,25.963754,52.69970793431855,19.138165,-59.175138,-7.83325
619.4444444444445,263.50241011548985,193.96835820744388,254.48080333114396,-173.20038670169677,-84.77244744718116,16.74509370169677,39.620891,25.963754,52.69970244718117,19.138165,-59.175138,-7.83325
622.2222222222222,263.50239633607003,193.96834672687464,254.4807782764094,-173.20041257744938,-84.77244196004378,16.745119577449373,39.620891,25.963754,52.69969696004379,19.138165,-59.175138,-7.83325
625.0,263.5023825566502,193.9683352463054,254.4807532216749,-173.20043845320197,-84.7724364729064,16.74514545320197,39.620891,25.963754,52.6996914729064,19.138165,-59.175138,-7.83325
627.7777777777777,263.5023687772304,193.96832376573616,254.48072816694034,-173.20046432895458,-84.77243098576902,16.745171328954573,39.620891,25.963754,52.699685985769015,19.138165,-59.175138,-7.83325
630.5555555555555,263.50235499781064,193.96831228516695,254.48070311220582,-173.2004902047072,-84.77242549863163,16.74519720470717,39.620891,25.963754,52.699680498631636,19.138165,-59.175138,-7.83325
633.3333333333333,263.5023412183908,193.9683008045977,254.48067805747127,-173.20051608045978,-84.77242001149425,16.745223080459773,39.620891,25.963754,52.69967501149425,19.138165,-59.175138,-7.83325
636.1111111111111,263.502327438971,193.96828932402846,254.48065300273674,-173.2005419562124,-84.77241452435686,16.74524895621237,39.620891,25.963754,52.699669524356864,19.138165,-59.175138,-7.83325
638.8888888888889,263.5023136595512,193.96827784345922,254.4806279480022,-173.20056783196497,-84.77240903721949,16.74527483196497,39.620891,25.963754,52.699664037219485,19.138165,-59.175138,-7.83325
641.6666666666666,263.5022998801314,193.96826636288998,254.48060289326767,-173.2005937077176,-84.7724035500821,16.745300707717572,39.620891,25.963754,52.6996585500821,19.138165,-59.175138,-7.83325
644.4444444444445,263.50228610071156,193.96825488232074,254.48057783853312,-173.20061958347017,-84.77239806294472,16.74532658347017,39.620891,25.963754,52.69965306294471,19.138165,-59.175138,-7.83325
647.2222222222222,263.50227232129174,193.9682434017515,254.48055278379857,-173.20064545922278,-84.77239257580733,16.745352459222772,39.620891,25.963754,52.69964757580733,19.138165,-59.175138,-7.83325
650.0,263.5022585418719,193.96823192118225,254.48052772906405,-173.20067133497537,-84.77238708866994,16.74537833497537,39.620891,25.963754,52.69964208866995,19.138165,-59.175138,-7.83325
652.7777777777777,263.5022447624521,193.968220440613,254.4805026743295,-173.20069721072798,-84.77238160153256,16.745404210727973,39.620891,25.963754,52.69963660153257,19.138165,-59.175138,-7.83325
655.5555555555555,263.5022309830323,193.96820896004377,254.48047761959498,-173.20072308648056,-84.77237611439519,16.74543008648057,39.620891,25.963754,52.69963111439518,19.138165,-59.175138,-7.83325
658.3333333333333,263.5022172036125,193.96819747947453,254.48045256486043,-173.20074896223318,-84.7723706272578,16.74545596223317,39.620891,25.963754,52.699625627257795,19.138165,-59.175138,-7.83325
661.1111111111111,263.50220342419266,193.9681859989053,254.4804275101259,-173.2007748379858,-84.77236514012041,16.74548183798577,39.620891,25.963754,52.699620140120416,19.138165,-59.175138,-7.83325
663.8888888888889,263.50218964477284,193.96817451833607,254.48040245539136,-173.20080071373837,-84.77235965298303,16.74550771373837,39.620891,25.963754,52.69961465298303,19.138165,-59.175138,-7.83325
666.6666666666666,263.502175865353,193.96816303776683,254.48037740065683,-173.200826589491,-84.77235416584564,16.74553358949097,39.620891,25.963754,52.699609165845644,19.138165,-59.175138,-7.83325
669.4444444444445,263.5021620859332,193.9681515571976,254.48035234592228,-173.20085246524357,-84.77234867870825,16.74555946524357,39.620891,25.963754,52.699603678708264,19.138165,-59.175138,-7.83325
672.2222222222222,263.5021483065134,193.96814007662834,254.48032729118776,-173.20087834099618,-84.77234319157088,16.745585340996172,39.620891,25.963754,52.69959819157088,19.138165,-59.175138,-7.83325
675.0,263.5021345270936,193.9681285960591,254.4803022364532,-173.20090421674877,-84.7723377044335,16.74561121674877,39.620891,25.963754,52.69959270443349,19.138165,-59.175138,-7.83325
677.7777777777777,263.50212074767376,193.96811711548986,254.48027718171866,-173.20093009250138,-84.77233221729611,16.74563709250137,39.620891,25.963754,52.69958721729611,19.138165,-59.175138,-7.83325
680.5555555555555,263.50210696825394,193.96810563492062,254.48025212698414,-173.20095596825396,-84.77232673015872,16.74566296825397,39.620891,25.963754,52.69958173015873,19.138165,-59.175138,-7.83325
683.3333333333333,263.5020931888341,193.96809415435138,254.4802270722496,-173.20098184400658,-84.77232124302134,16.74568884400657,39.620891,25.963754,52.69957624302134,19.138165,-59.175138,-7.83325
686.1111111111111,263.5020794094143,193.96808267378213,254.48020201751507,-173.2010077197592,-84.77231575588395,16.74571471975917,39.620891,25.963754,52.69957075588396,19.138165,-59.175138,-7.83325
688.8888888888889,263.5020704814815,193.96807503703704,254.4801855277778,-173.20102449074076,-84.7723124074074,16.74573201851852,39.620891,25.963754,52.69956687962963,19.138165,-59.175138,-7.83325
691.6666666666666,263.5020638366013,193.96806920915031,254.48017306862747,-173.2010369771242,-84.77231006535948,16.745745281045753,39.620891,25.963754,52.69956376143791,19.138165,-59.175138,-7.83325
694.4444444444445,263.5020571917211,193.96806338126362,254.48016060947714,-173.20104946350764,-84.77230772331154,16.745758543572986,39.620891,25.963754,52.69956064324619,19.138165,-59.175138,-7.83325
697.2222222222222,263.50205054684096,193.9680575533769,254.4801481503268,-173.20106194989108,-84.7723053812636,16.74577180610022,39.620891,25.963754,52.699557525054466,19.138165,-59.175138,-7.83325
700.0,263.50204390196075,193.9680517254902,254.48013569117649,-173.20107443627452,-84.77230303921569,16.745785068627452,39.620891,25.963754,52.699554406862745,19.138165,-59.175138,-7.83325
702.7777777777777,263.5020372570806,193.96804589760347,254.48012323202616,-173.20108692265796,-84.77230069716775,16.745798331154685,39.620891,25.963754,52.699551288671024,19.138165,-59.175138,-7.83325
705.5555555555555,263.50203061220043,193.96804006971678,254.48011077287583,-173.2010994090414,-84.77229835511982,16.745811593681918,39.620891,25.963754,52.6995481704793,19.138165,-59.175138,-7.83325
708.3333333333333,263.50202396732027,193.96803424183005,254.4800983137255,-173.20111189542484,-84.7722960130719,16.74582485620915,39.620891,25.963754,52.699545052287576,19.138165,-59.175138,-7.83325
711.1111111111111,263.50201732244005,193.96802841394336,254.48008585457518,-173.20112438180828,-84.77229367102396,16.745838118736383,39.620891,25.963754,52.699541934095855,19.138165,-59.175138,-7.83325
713.8888888888889,263.5020106775599,193.96802258605663,254.48007339542485,-173.20113686819172,-84.77229132897602,16.74585138126362,39.620891,25.963754,52.699538815904134,19.138165,-59.175138,-7.83325
716.6666666666666,263.50200403267974,193.9680167581699,254.48006093627453,-173.20114935457516,-84.7722889869281,16.745864643790853,39.620891,25.963754,52.69953569771241,19.138165,-59.175138,-7.83325
719.4444444444445,263.5019973877996,193.9680109302832,254.4800484771242,-173.2011618409586,-84.77228664488017,16.745877906318086,39.620891,25.963754,52.69953257952069,19.138165,-59.175138,-7.83325
722.2222222222222,263.50199074291936,193.9680051023965,254.48003601797387,-173.20117432734204,-84.77228430283223,16.74589116884532,39.620891,25.963754,52.69952946132897,19.138165,-59.175138,-7.83325
725.0,263.5019840980392,193.9679992745098,254.48002355882355,-173.20118681372549,-84.77228196078431,16.74590443137255,39.620891,25.963754,52.69952634313725,19.138165,-59.175138,-7.83325
727.7777777777777,263.50197745315904,193.96799344662307,254.48001109967322,-173.20119930010895,-84.77227961873638,16.745917693899784,39.620891,25.963754,52.69952322494553,19.138165,-59.175138,-7.83325
730.5555555555555,263.5019708082788,193.96798761873637,254.4799986405229,-173.2012117864924,-84.77227727668846,16.745930956427017,39.620891,25.963754,52.69952010675381,19.138165,-59.175138,-7.83325
733.3333333333333,263.50196416339867,193.96798179084965,254.47998618137257,-173.20122427287583,-84.77227493464052,16.74594421895425,39.620891,25.963754,52.69951698856209,19.138165,-59.175138,-7.83325
736.1111111111111,263.5019575185185,193.96797596296295,254.47997372222224,-173.20123675925927,-84.77227259259259,16.745957481481483,39.620891,25.963754,52.69951387037037,19.138165,-59.175138,-7.83325
738.8888888888889,263.50195087363835,193.96797013507623,254.4799612630719,-173.2012492456427,-84.77227025054466,16.745970744008716,39.620891,25.963754,52.69951075217865,19.138165,-59.175138,-7.83325
741.6666666666666,263.50194422875813,193.96796430718953,254.4799488039216,-173.20126173202615,-84.77226790849673,16.74598400653595,39.620891,25.963754,52.699507633986926,19.138165,-59.175138,-7.83325
744.4444444444445,263.501937583878,193.9679584793028,254.47993634477126,-173.2012742184096,-84.7722655664488,16.74599726906318,39.620891,25.963754,52.699504515795205,19.138165,-59.175138,-7.83325
747.2222222222222,263.5019309389978,193.9679526514161,254.47992388562093,-173.20128670479303,-84.77226322440087,16.746010531590414,39.620891,25.963754,52.699501397603484,19.138165,-59.175138,-7.83325
750.0,263.50192429411766,193.9679468235294,254.4799114264706,-173.20129919117647,-84.77226088235294,16.746023794117647,39.620891,25.963754,52.69949827941176,19.138165,-59.175138,-7.83325
752.7777777777777,263.50191764923744,193.9679409956427,254.47989896732025,-173.20131167755991,-84.772258540305,16.74603705664488,39.620891,25.963754,52.69949516122004,19.138165,-59.175138,-7.83325
755.5555555555555,263.5019110043573,193.96793516775597,254.47988650816993,-173.20132416394335,-84.77225619825708,16.746050319172113,39.620891,25.963754,52.69949204302832,19.138165,-59.175138,-7.83325
758.3333333333333,263.5019043594771,193.96792933986927,254.4798740490196,-173.2013366503268,-84.77225385620915,16.74606358169935,39.620891,25.963754,52.6994889248366,19.138165,-59.175138,-7.83325
761.1111111111111,263.5018977145969,193.96792351198255,254.47986158986927,-173.20134913671023,-84.77225151416121,16.746076844226582,39.620891,25.963754,52.69948580664488,19.138165,-59.175138,-7.83325
763.8888888888889,263.50189106971675,193.96791768409585,254.47984913071895,-173.20136162309367,-84.77224917211329,16.746090106753815,39.620891,25.963754,52.69948268845316,19.138165,-59.175138,-7.83325
766.6666666666666,263.5018844248366,193.96791185620913,254.47983667156862,-173.20137410947711,-84.77224683006536,16.746103369281048,39.620891,25.963754,52.69947957026144,19.138165,-59.175138,-7.83325
769.4444444444445,263.50187777995643,193.96790602832243,254.4798242124183,-173.20138659586058,-84.77224448801742,16.74611663180828,39.620891,25.963754,52.69947645206972,19.138165,-59.175138,-7.83325
772.2222222222222,263.5018711350762,193.9679002004357,254.47981175326797,-173.20139908224402,-84.7722421459695,16.746129894335514,39.620891,25.963754,52.699473333878,19.138165,-59.175138,-7.83325
775.0,263.50186449019606,193.967894372549,254.47979929411764,-173.20141156862746,-84.77223980392156,16.746143156862747,39.620891,25.963754,52.699470215686276,19.138165,-59.175138,-7.83325
777.7777777777777,263.5018578453159,193.9678885446623,254.4797868349673,-173.2014240550109,-84.77223746187363,16.74615641938998,39.620891,25.963754,52.69946709749455,19.138165,-59.175138,-7.83325
780.5555555555555,263.50185120043574,193.9678827167756,254.479774375817,-173.20143654139434,-84.77223511982571,16.746169681917213,39.620891,25.963754,52.69946397930283,19.138165,-59.175138,-7.83325
783.3333333333333,263.5018445555555,193.96787688888887,254.47976191666666,-173.20144902777778,-84.77223277777777,16.746182944444445,39.620891,25.963754,52.699460861111106,19.138165,-59.175138,-7.83325
786.1111111111111,263.50183791067536,193.96787106100217,254.47974945751633,-173.20146151416122,-84.77223043572985,16.74619620697168,39.620891,25.963754,52.699457742919385,19.138165,-59.175138,-7.83325
788.8888888888889,263.5018312657952,193.96786523311545,254.479736998366,-173.20147400054466,-84.77222809368192,16.74620946949891,39.620891,25.963754,52.699454624727665,19.138165,-59.175138,-7.83325
791.6666666666666,263.501824620915,193.96785940522875,254.47972453921568,-173.2014864869281,-84.77222575163398,16.746222732026144,39.620891,25.963754,52.699451506535944,19.138165,-59.175138,-7.83325
794.4444444444445,263.50181797603483,193.96785357734203,254.47971208006535,-173.20149897331154,-84.77222340958606,16.746235994553377,39.620891,25.963754,52.69944838834422,19.138165,-59.175138,-7.83325
797.2222222222222,263.50181133115467,193.96784774945533,254.47969962091503,-173.20151145969498,-84.77222106753813,16.74624925708061,39.620891,25.963754,52.6994452701525,19.138165,-59.175138,-7.83325
800.0,263.5018046862745,193.9678419215686,254.4796871617647,-173.20152394607842,-84.77221872549019,16.746262519607843,39.620891,25.963754,52.69944215196078,19.138165,-59.175138,-7.83325
802.7777777777777,263.5017980413943,193.9678360936819,254.47967470261437,-173.20153643246186,-84.77221638344227,16.74627578213508,39.620891,25.963754,52.69943903376906,19.138165,-59.175138,-7.83325
805.5555555555555,263.50179139651414,193.9678302657952,254.47966224346405,-173.2015489188453,-84.77221404139434,16.746289044662312,39.620891,25.963754,52.69943591557734,19.138165,-59.175138,-7.83325
808.3333333333333,263.501784751634,193.9678244379085,254.47964978431372,-173.20156140522877,-84.7722116993464,16.746302307189545,39.620891,25.963754,52.69943279738562,19.138165,-59.175138,-7.83325
811.1111111111111,263.5017781067538,193.96781861002177,254.4796373251634,-173.2015738916122,-84.77220935729848,16.746315569716778,39.620891,25.963754,52.6994296791939,19.138165,-59.175138,-7.83325
813.8888888888889,263.5017714618736,193.96781278213507,254.47962486601307,-173.20158637799565,-84.77220701525054,16.74632883224401,39.620891,25.963754,52.69942656100218,19.138165,-59.175138,-7.83325
816.6666666666666,263.50176481699344,193.96780695424835,254.47961240686274,-173.2015988643791,-84.77220467320261,16.746342094771244,39.620891,25.963754,52.699423442810456,19.138165,-59.175138,-7.83325
819.4444444444445,263.5017581721133,193.96780112636165,254.47959994771242,-173.20161135076253,-84.77220233115469,16.746355357298476,39.620891,25.963754,52.699420324618735,19.138165,-59.175138,-7.83325
822.2222222222222,263.50175152723307,193.96779529847493,254.4795874885621,-173.20162383714597,-84.77219998910675,16.74636861982571,39.620891,25.963754,52.699417206427015,19.138165,-59.175138,-7.83325
825.0,263.5017448823529,193.96778947058823,254.47957502941176,-173.2016363235294,-84.77219764705882,16.746381882352942,39.620891,25.963754,52.699414088235294,19.138165,-59.175138,-7.83325
827.7777777777777,263.50173823747275,193.9677836427015,254.47956257026144,-173.20164880991285,-84.7721953050109,16.746395144880175,39.620891,25.963754,52.69941097004357,19.138165,-59.175138,-7.83325
830.5555555555555,263.5017315925926,193.9677778148148,254.4795501111111,-173.2016612962963,-84.77219296296296,16.746408407407408,39.620891,25.963754,52.69940785185185,19.138165,-59.175138,-7.83325
833.3333333333333,263.5017249477124,193.96777198692808,254.47953765196078,-173.20167378267973,-84.77219062091503,16.74642166993464,39.620891,25.963754,52.69940473366013,19.138165,-59.175138,-7.83325
836.1111111111111,263.5017183028322,193.9677661590414,254.47952519281046,-173.20168626906317,-84.7721882788671,16.746434932461874,39.620891,25.963754,52.69940161546841,19.138165,-59.175138,-7.83325
838.8888888888889,263.50171165795206,193.96776033115466,254.47951273366013,-173.2016987554466,-84.77218593681917,16.746448194989107,39.620891,25.963754,52.69939849727669,19.138165,-59.175138,-7.83325
841.6666666666666,263.5017050130719,193.96775450326797,254.4795002745098,-173.20171124183005,-84.77218359477125,16.74646145751634,39.620891,25.963754,52.69939537908497,19.138165,-59.175138,-7.83325
844.4444444444445,263.5016983681917,193.96774867538124,254.47948781535948,-173.2017237282135,-84.77218125272331,16.746474720043576,39.620891,25.963754,52.69939226089325,19.138165,-59.175138,-7.83325
847.2222222222222,263.5016917233115,193.96774284749455,254.47947535620915,-173.20173621459696,-84.77217891067538,16.74648798257081,39.620891,25.963754,52.69938914270153,19.138165,-59.175138,-7.83325
850.0,263.50168507843136,193.96773701960782,254.47946289705882,-173.2017487009804,-84.77217656862746,16.74650124509804,39.620891,25.963754,52.699386024509806,19.138165,-59.175138,-7.83325
852.7777777777777,263.50167843355115,193.96773119172113,254.4794504379085,-173.20176118736384,-84.77217422657952,16.746514507625275,39.620891,25.963754,52.69938290631808,19.138165,-59.175138,-7.83325
855.5555555555555,263.501671788671,193.9677253638344,254.47943797875817,-173.20177367374728,-84.77217188453159,16.746527770152507,39.620891,25.963754,52.69937978812636,19.138165,-59.175138,-7.83325
858.3333333333333,263.50166514379083,193.9677195359477,254.47942551960784,-173.20178616013072,-84.77216954248367,16.74654103267974,39.620891,25.963754,52.69937666993464,19.138165,-59.175138,-7.83325
861.1111111111111,263.5016584989107,193.96771370806098,254.47941306045752,-173.20179864651416,-84.77216720043573,16.746554295206973,39.620891,25.963754,52.699373551742916,19.138165,-59.175138,-7.83325
863.8888888888889,263.50165185403046,193.9677078801743,254.4794006013072,-173.2018111328976,-84.7721648583878,16.746567557734206,39.620891,25.963754,52.699370433551195,19.138165,-59.175138,-7.83325
866.6666666666666,263.5016452091503,193.96770205228756,254.47938814215686,-173.20182361928104,-84.77216251633988,16.74658082026144,39.620891,25.963754,52.699367315359474,19.138165,-59.175138,-7.83325
869.4444444444445,263.50163856427014,193.96769622440087,254.47937568300654,-173.20183610566448,-84.77216017429194,16.746594082788672,39.620891,25.963754,52.69936419716775,19.138165,-59.175138,-7.83325
872.2222222222222,263.50163191939,193.96769039651414,254.4793632238562,-173.20184859204792,-84.772157832244,16.746607345315905,39.620891,25.963754,52.69936107897603,19.138165,-59.175138,-7.83325
875.0,263.50162527450976,193.96768456862745,254.47935076470588,-173.20186107843136,-84.77215549019608,16.746620607843138,39.620891,25.963754,52.69935796078431,19.138165,-59.175138,-7.83325
877.7777777777777,263.5016186296296,193.96767874074072,254.47933830555556,-173.2018735648148,-84.77215314814815,16.74663387037037,39.620891,25.963754,52.69935484259259,19.138165,-59.175138,-7.83325
880.5555555555555,263.50161198474945,193.96767291285403,254.47932584640523,-173.20188605119824,-84.77215080610021,16.746647132897603,39.620891,25.963754,52.69935172440087,19.138165,-59.175138,-7.83325
883.3333333333333,263.50160533986923,193.9676670849673,254.4793133872549,-173.20189853758168,-84.7721484640523,16.746660395424836,39.620891,25.963754,52.69934860620915,19.138165,-59.175138,-7.83325
886.1111111111111,263.50159869498907,193.9676612570806,254.47930092810458,-173.20191102396515,-84.77214612200436,16.74667365795207,39.620891,25.963754,52.69934548801743,19.138165,-59.175138,-7.83325
888.8888888888889,263.5015920501089,193.96765542919388,254.47928846895425,-173.2019235103486,-84.77214377995642,16.746686920479306,39.620891,25.963754,52.69934236982571,19.138165,-59.175138,-7.83325
891.6666666666666,263.5015848736383,193.96764913943355,254.47927500871458,-173.20193724400872,-84.77214100217866,16.7467009956427,39.620891,25.963754,52.69933900217865,19.138165,-59.175138,-7.83325
894.4444444444445,263.50157601379806,193.96764138707334,254.47925837835874,-173.20195492737835,-84.7721368445897,16.746717644153957,39.620891,25.963754,52.699334844589686,19.138165,-59.175138,-7.83325
897.2222222222222,263.50156715395786,193.96763363471314,254.4792417480029,-173.201972610748,-84.77213268700073,16.746734292665217,39.620891,25.963754,52.699330687000725,19.138165,-59.175138,-7.83325
900.0,263.5015582941176,193.96762588235293,254.47922511764705,-173.20199029411765,-84.77212852941177,16.746750941176472,39.620891,25.963754,52.69932652941176,19.138165,-59.175138,-7.83325
902.7777777777777,263.50154943427736,193.96761812999273,254.4792084872912,-173.20200797748728,-84.7721243718228,16.746767589687728,39.620891,25.963754,52.6993223718228,19.138165,-59.175138,-7.83325
905.5555555555555,263.5015405744372,193.96761037763252,254.47919185693536,-173.20202566085695,-84.77212021423384,16.746784238198984,39.620891,25.963754,52.69931821423384,19.138165,-59.175138,-7.83325
908.3333333333333,263.5015317145969,193.96760262527232,254.4791752265795,-173.20204334422658,-84.77211605664488,16.74680088671024,39.620891,25.963754,52.69931405664488,19.138165,-59.175138,-7.83325
911.1111111111111,263.5015228547567,193.96759487291212,254.47915859622367,-173.20206102759622,-84.77211189905591,16.746817535221496,39.620891,25.963754,52.69930989905592,19.138165,-59.175138,-7.83325
913.8888888888888,263.5015139949165,193.9675871205519,254.47914196586783,-173.20207871096588,-84.77210774146695,16.74683418373275,39.620891,25.963754,52.69930574146696,19.138165,-59.175138,-7.83325
916.6666666666666,263.50150513507623,193.9675793681917,254.47912533551198,-173.2020963943355,-84.77210358387799,16.74685083224401,39.620891,25.963754,52.699301583878,19.138165,-59.175138,-7.83325
919.4444444444445,263.501496275236,193.9675716158315,254.47910870515614,-173.20211407770515,-84.77209942628903,16.746867480755267,39.620891,25.963754,52.699297426289036,19.138165,-59.175138,-7.83325
922.2222222222222,263.5014874153958,193.9675638634713,254.4790920748003,-173.2021317610748,-84.77209526870007,16.746884129266522,39.620891,25.963754,52.699293268700075,19.138165,-59.175138,-7.83325
925.0,263.50147855555554,193.9675561111111,254.47907544444445,-173.20214944444444,-84.77209111111111,16.74690077777778,39.620891,25.963754,52.69928911111111,19.138165,-59.175138,-7.83325
927.7777777777777,263.5014696957153,193.9675483587509,254.4790588140886,-173.20216712781408,-84.77208695352215,16.746917426289034,39.620891,25.963754,52.69928495352215,19.138165,-59.175138,-7.83325
930.5555555555555,263.5014608358751,193.96754060639068,254.47904218373276,-173.20218481118374,-84.77208279593319,16.74693407480029,39.620891,25.963754,52.69928079593319,19.138165,-59.175138,-7.83325
933.3333333333333,263.50145197603484,193.96753285403048,254.4790255533769,-173.20220249455338,-84.77207863834423,16.746950723311546,39.620891,25.963754,52.69927663834423,19.138165,-59.175138,-7.83325
936.1111111111111,263.5014431161946,193.96752510167028,254.47900892302104,-173.202220177923,-84.77207448075526,16.746967371822805,39.620891,25.963754,52.69927248075526,19.138165,-59.175138,-7.83325
938.8888888888888,263.5014342563544,193.96751734931007,254.4789922926652,-173.20223786129267,-84.7720703231663,16.74698402033406,39.620891,25.963754,52.6992683231663,19.138165,-59.175138,-7.83325
941.6666666666666,263.50142539651415,193.96750959694987,254.47897566230935,-173.2022555446623,-84.77206616557734,16.747000668845317,39.620891,25.963754,52.69926416557734,19.138165,-59.175138,-7.83325
944.4444444444445,263.5014165366739,193.96750184458966,254.4789590319535,-173.20227322803194,-84.77206200798838,16.747017317356573,39.620891,25.963754,52.69926000798838,19.138165,-59.175138,-7.83325
947.2222222222222,263.5014076768337,193.9674940922295,254.47894240159766,-173.2022909114016,-84.77205785039942,16.74703396586783,39.620891,25.963754,52.69925585039942,19.138165,-59.175138,-7.83325
950.0,263.50139881699346,193.96748633986928,254.47892577124182,-173.20230859477124,-84.77205369281046,16.747050614379084,39.620891,25.963754,52.699251692810456,19.138165,-59.175138,-7.83325
952.7777777777777,263.5013899571532,193.96747858750908,254.47890914088597,-173.2023262781409,-84.7720495352215,16.74706726289034,39.620891,25.963754,52.699247535221495,19.138165,-59.175138,-7.83325
955.5555555555555,263.501381097313,193.96747083514887,254.47889251053013,-173.20234396151054,-84.77204537763254,16.7470839114016,39.620891,25.963754,52.699243377632534,19.138165,-59.175138,-7.83325
958.3333333333333,263.50137223747276,193.96746308278867,254.4788758801743,-173.20236164488017,-84.77204122004358,16.747100559912855,39.620891,25.963754,52.69923922004357,19.138165,-59.175138,-7.83325
961.1111111111111,263.5013633776325,193.96745533042846,254.47885924981844,-173.20237932824983,-84.77203706245461,16.74711720842411,39.620891,25.963754,52.69923506245461,19.138165,-59.175138,-7.83325
963.8888888888888,263.50135451779227,193.96744757806826,254.4788426194626,-173.20239701161947,-84.77203290486565,16.747133856935367,39.620891,25.963754,52.69923090486565,19.138165,-59.175138,-7.83325
966.6666666666666,263.5013456579521,193.96743982570806,254.47882598910675,-173.2024146949891,-84.77202874727669,16.747150505446623,39.620891,25.963754,52.69922674727669,19.138165,-59.175138,-7.83325
969.4444444444445,263.5013367981118,193.96743207334785,254.4788093587509,-173.20243237835876,-84.77202458968773,16.74716715395788,39.620891,25.963754,52.69922258968773,19.138165,-59.175138,-7.83325
972.2222222222222,263.5013279382716,193.96742432098765,254.47879272839506,-173.2024500617284,-84.77202043209877,16.747183802469134,39.620891,25.963754,52.69921843209877,19.138165,-59.175138,-7.83325
975.0,263.5013190784314,193.96741656862744,254.47877609803922,-173.20246774509803,-84.77201627450981,16.74720045098039,39.620891,25.963754,52.699214274509806,19.138165,-59.175138,-7.83325
977.7777777777777,263.50131021859113,193.96740881626724,254.47875946768337,-173.2024854284677,-84.77201211692085,16.74721709949165,39.620891,25.963754,52.699210116920845,19.138165,-59.175138,-7.83325
980.5555555555555,263.5013013587509,193.96740106390703,254.47874283732753,-173.20250311183733,-84.77200795933189,16.747233748002905,39.620891,25.963754,52.699205959331884,19.138165,-59.175138,-7.83325
983.3333333333333,263.5012924989107,193.96739331154683,254.4787262069717,-173.20252079520696,-84.77200380174293,16.74725039651416,39.620891,25.963754,52.69920180174292,19.138165,-59.175138,-7.83325
986.1111111111111,263.50128363907044,193.96738555918662,254.47870957661584,-173.20253847857663,-84.77199964415395,16.747267045025417,39.620891,25.963754,52.69919764415396,19.138165,-59.175138,-7.83325
988.8888888888888,263.5012747792302,193.96737780682642,254.47869294626,-173.20255616194626,-84.77199548656499,16.747283693536673,39.620891,25.963754,52.699193486565,19.138165,-59.175138,-7.83325
991.6666666666666,263.50126591939,193.96737005446622,254.47867631590412,-173.2025738453159,-84.77199132897603,16.74730034204793,39.620891,25.963754,52.69918932897603,19.138165,-59.175138,-7.83325
994.4444444444445,263.50125705954974,193.967362302106,254.47865968554828,-173.20259152868556,-84.77198717138707,16.747316990559185,39.620891,25.963754,52.69918517138707,19.138165,-59.175138,-7.83325
997.2222222222222,263.5012481997095,193.9673545497458,254.47864305519244,-173.2026092120552,-84.7719830137981,16.747333639070444,39.620891,25.963754,52.69918101379811,19.138165,-59.175138,-7.83325
1000.0,263.5012393398693,193.9673467973856,254.4786264248366,-173.20262689542486,-84.77197885620915,16.7473502875817,39.620891,25.963754,52.69917685620915,19.138165,-59.175138,-7.83325
1002.7777777777777,263.50123048002905,193.9673390450254,254.47860979448075,-173.2026445787945,-84.77197469862018,16.747366936092956,39.620891,25.963754,52.69917269862019,19.138165,-59.175138,-7.83325
1005.5555555555555,263.5012216201888,193.9673312926652,254.4785931641249,-173.20266226216413,-84.77197054103122,16.74738358460421,39.620891,25.963754,52.69916854103123,19.138165,-59.175138,-7.83325
1008.3333333333333,263.5012127603486,193.967323540305,254.47857653376906,-173.2026799455338,-84.77196638344226,16.747400233115467,39.620891,25.963754,52.699164383442266,19.138165,-59.175138,-7.83325
1011.1111111111111,263.50120390050836,193.96731578794478,254.4785599034132,-173.20269762890342,-84.7719622258533,16.747416881626723,39.620891,25.963754,52.699160225853305,19.138165,-59.175138,-7.83325
1013.8888888888888,263.5011950406681,193.96730803558458,254.47854327305737,-173.20271531227306,-84.77195806826434,16.74743353013798,39.620891,25.963754,52.699156068264344,19.138165,-59.175138,-7.83325
1016.6666666666666,263.5011861808279,193.96730028322438,254.47852664270152,-173.20273299564272,-84.77195391067538,16.74745017864924,39.620891,25.963754,52.69915191067538,19.138165,-59.175138,-7.83325
1019.4444444444445,263.50117732098767,193.9672925308642,254.47851001234568,-173.20275067901235,-84.77194975308642,16.747466827160494,39.620891,25.963754,52.69914775308642,19.138165,-59.175138,-7.83325
1022.2222222222222,263.5011684611474,193.967284778504,254.47849338198984,-173.202768362382,-84.77194559549746,16.74748347567175,39.620891,25.963754,52.69914359549746,19.138165,-59.175138,-7.83325
1025.0,263.5011596013072,193.9672770261438,254.478476751634,-173.20278604575165,-84.7719414379085,16.747500124183006,39.620891,25.963754,52.6991394379085,19.138165,-59.175138,-7.83325
1027.7777777777778,263.501150741467,193.9672692737836,254.47846012127815,-173.20280372912129,-84.77193728031953,16.74751677269426,39.620891,25.963754,52.69913528031954,19.138165,-59.175138,-7.83325
1030.5555555555554,263.5011418816267,193.96726152142338,254.4784434909223,-173.20282141249092,-84.77193312273057,16.747533421205517,39.620891,25.963754,52.69913112273058,19.138165,-59.175138,-7.83325
1033.3333333333333,263.5011330217865,193.96725376906318,254.47842686056646,-173.20283909586058,-84.77192896514161,16.747550069716773,39.620891,25.963754,52.699126965141616,19.138165,-59.175138,-7.83325
1036.111111111111,263.5011241619463,193.96724601670297,254.4784102302106,-173.20285677923022,-84.77192480755265,16.74756671822803,39.620891,25.963754,52.699122807552655,19.138165,-59.175138,-7.83325
1038.888888888889,263.50111530210603,193.96723826434277,254.47839359985477,-173.20287446259985,-84.77192064996369,16.74758336673929,39.620891,25.963754,52.699118649963694,19.138165,-59.175138,-7.83325
1041.6666666666667,263.5011064422658,193.96723051198256,254.47837696949892,-173.2028921459695,-84.77191649237473,16.747600015250544,39.620891,25.963754,52.69911449237473,19.138165,-59.175138,-7.83325
1044.4444444444443,263.5010976575654,193.9672241152825,254.47836256010618,-173.20290769472888,-84.77191282707622,16.74761486916951,39.62089117444065,25.963753827076225,52.699110652635575,19.138165,-59.175138,-7.83325
1047.2222222222222,263.50108926734924,193.96722483579825,254.4783598107698,-173.20291203678423,-84.77191174630262,16.747620301478953,39.62089226469473,25.963752746302617,52.69910848160789,19.138165,-59.175138,-7.83325
1050.0,263.5010808771331,193.967225556314,254.47835706143346,-173.2029163788396,-84.771910665529,16.747625733788393,39.620893354948805,25.963751665529013,52.699106310580206,19.138165,-59.175138,-7.83325
1052.7777777777778,263.50107248691694,193.9672262768297,254.47835431209708,-173.20292072089498,-84.7719095847554,16.747631166097836,39.620894445202886,25.963750584755406,52.699104139552524,19.138165,-59.175138,-7.83325
1055.5555555555554,263.5010640967008,193.96722699734545,254.4783515627607,-173.20292506295033,-84.77190850398179,16.74763659840728,39.62089553545696,25.9637495039818,52.69910196852484,19.138165,-59.175138,-7.83325
1058.3333333333333,263.50105570648464,193.9672277178612,254.47834881342436,-173.2029294050057,-84.77190742320819,16.747642030716722,39.62089662571103,25.96374842320819,52.699099797497155,19.138165,-59.175138,-7.83325
1061.111111111111,263.5010473162685,193.96722843837694,254.478346064088,-173.20293374706105,-84.77190634243458,16.747647463026166,39.620897715965114,25.963747342434587,52.699097626469474,19.138165,-59.175138,-7.83325
1063.888888888889,263.50103892605233,193.96722915889268,254.4783433147516,-173.20293808911643,-84.77190526166098,16.74765289533561,39.62089880621919,25.96374626166098,52.69909545544179,19.138165,-59.175138,-7.83325
1066.6666666666665,263.5010305358362,193.9672298794084,254.47834056541524,-173.2029424311718,-84.77190418088738,16.74765832764505,39.62089989647327,25.963745180887372,52.69909328441411,19.138165,-59.175138,-7.83325
1069.4444444444443,263.50102214562,193.96723059992414,254.4783378160789,-173.20294677322715,-84.77190310011376,16.74766375995449,39.62090098672734,25.963744100113768,52.69909111338642,19.138165,-59.175138,-7.83325
1072.2222222222222,263.5010137554039,193.96723132043988,254.47833506674252,-173.20295111528253,-84.77190201934016,16.747669192263935,39.620902076981416,25.96374301934016,52.69908894235874,19.138165,-59.175138,-7.83325
1075.0,263.5010053651877,193.96723204095562,254.47833231740614,-173.20295545733788,-84.77190093856655,16.747674624573378,39.6209031672355,25.963741938566553,52.69908677133106,19.138165,-59.175138,-7.83325
1077.7777777777778,263.5009969749716,193.96723276147137,254.47832956806977,-173.20295979939326,-84.77189985779295,16.74768005688282,39.62090425748957,25.96374085779295,52.69908460030338,19.138165,-59.175138,-7.83325
1080.5555555555554,263.5009885847554,193.9672334819871,254.47832681873342,-173.20296414144863,-84.77189877701935,16.747685489192264,39.62090534774365,25.96373977701934,52.69908242927569,19.138165,-59.175138,-7.83325
1083.3333333333333,263.50098019453924,193.96723420250282,254.47832406939705,-173.20296848350398,-84.77189769624573,16.747690921501704,39.620906437997725,25.963738696245734,52.69908025824801,19.138165,-59.175138,-7.83325
1086.111111111111,263.5009718043231,193.96723492301857,254.47832132006067,-173.20297282555936,-84.77189661547213,16.747696353811147,39.6209075282518,25.96373761547213,52.69907808722033,19.138165,-59.175138,-7.83325
1088.888888888889,263.50096341410693,193.9672356435343,254.4783185707243,-173.20297716761473,-84.77189553469852,16.74770178612059,39.62090861850588,25.963736534698523,52.69907591619265,19.138165,-59.175138,-7.83325
1091.6666666666665,263.5009550238908,193.96723636405005,254.47831582138795,-173.20298150967008,-84.77189445392492,16.747707218430033,39.62090970875995,25.963735453924915,52.69907374516496,19.138165,-59.175138,-7.83325
1094.4444444444443,263.50094663367463,193.9672370845658,254.47831307205158,-173.20298585172546,-84.7718933731513,16.747712650739476,39.620910799014034,25.96373437315131,52.69907157413728,19.138165,-59.175138,-7.83325
1097.2222222222222,263.5009382434585,193.9672378050815,254.4783103227152,-173.2029901937808,-84.7718922923777,16.74771808304892,39.62091188926811,25.963733292377704,52.6990694031096,19.138165,-59.175138,-7.83325
1100.0,263.5009298532423,193.96723852559725,254.47830757337883,-173.20299453583618,-84.7718912116041,16.74772351535836,39.62091297952218,25.963732211604096,52.699067232081916,19.138165,-59.175138,-7.83325
1102.7777777777778,263.5009214630262,193.967239246113,254.47830482404248,-173.20299887789156,-84.77189013083049,16.747728947667802,39.62091406977626,25.963731130830492,52.69906506105423,19.138165,-59.175138,-7.83325
1105.5555555555554,263.50091307281,193.96723996662874,254.4783020747061,-173.2030032199469,-84.77188905005688,16.747734379977246,39.620915160030336,25.963730050056885,52.699062890026546,19.138165,-59.175138,-7.83325
1108.3333333333333,263.5009046825939,193.96724068714448,254.47829932536973,-173.20300756200228,-84.77188796928327,16.74773981228669,39.62091625028442,25.963728969283277,52.699060718998865,19.138165,-59.175138,-7.83325
1111.111111111111,263.5008962923777,193.9672414076602,254.47829657603336,-173.20301190405766,-84.77188688850967,16.747745244596132,39.62091734053849,25.963727888509673,52.69905854797118,19.138165,-59.175138,-7.83325
1113.888888888889,263.50088790216154,193.96724212817594,254.478293826697,-173.203016246113,-84.77188580773607,16.747750676905575,39.62091843079257,25.963726807736066,52.699056376943496,19.138165,-59.175138,-7.83325
1116.6666666666665,263.5008795119454,193.96724284869168,254.47829107736064,-173.20302058816839,-84.77188472696245,16.747756109215015,39.620919521046645,25.96372572696246,52.699054205915814,19.138165,-59.175138,-7.83325
1119.4444444444443,263.50087112172923,193.96724356920743,254.47828832802426,-173.20302493022373,-84.77188364618885,16.747761541524458,39.62092061130072,25.96372464618885,52.69905203488813,19.138165,-59.175138,-7.83325
1122.2222222222222,263.5008627315131,193.96724428972317,254.47828557868792,-173.2030292722791,-84.77188256541524,16.7477669738339,39.6209217015548,25.963723565415247,52.699049863860445,19.138165,-59.175138,-7.83325
1125.0,263.50085434129693,193.96724501023888,254.47828282935154,-173.2030336143345,-84.77188148464164,16.747772406143344,39.62092279180887,25.96372248464164,52.699047692832764,19.138165,-59.175138,-7.83325
1127.7777777777778,263.5008459510808,193.96724573075463,254.47828008001517,-173.20303795638984,-84.77188040386802,16.747777838452787,39.620923882062954,25.963721403868032,52.69904552180508,19.138165,-59.175138,-7.83325
1130.5555555555554,263.5008375608646,193.96724645127037,254.4782773306788,-173.2030422984452,-84.77187932309442,16.74778327076223,39.62092497231703,25.963720323094428,52.6990433507774,19.138165,-59.175138,-7.83325
1133.3333333333333,263.5008291706485,193.9672471717861,254.47827458134245,-173.20304664050056,-84.77187824232082,16.74778870307167,39.6209260625711,25.96371924232082,52.69904117974971,19.138165,-59.175138,-7.83325
1136.111111111111,263.5008207804323,193.96724789230186,254.47827183200607,-173.20305098255594,-84.77187716154721,16.747794135381113,39.62092715282518,25.963718161547213,52.69903900872203,19.138165,-59.175138,-7.83325
1138.888888888889,263.5008123902162,193.9672486128176,254.4782690826697,-173.2030553246113,-84.77187608077361,16.747799567690556,39.620928243079256,25.96371708077361,52.69903683769435,19.138165,-59.175138,-7.83325
1141.6666666666665,263.500804,193.9672493333333,254.47826633333332,-173.20305966666666,-84.771875,16.747805,39.620929333333336,25.963716,52.69903466666667,19.138165,-59.175138,-7.83325
1144.4444444444443,263.50079560978384,193.96725005384906,254.47826358399698,-173.20306400872204,-84.7718739192264,16.747810432309443,39.62093042358741,25.963714919226394,52.69903249563898,19.138165,-59.175138,-7.83325
1147.2222222222222,263.5007872195677,193.9672507743648,254.4782608346606,-173.20306835077741,-84.77187283845278,16.747815864618886,39.620931513841484,25.96371383845279,52.6990303246113,19.138165,-59.175138,-7.83325
1150.0,263.50077882935153,193.96725149488054,254.47825808532423,-173.20307269283276,-84.77187175767918,16.74782129692833,39.620932604095564,25.963712757679183,52.69902815358362,19.138165,-59.175138,-7.83325
1152.7777777777778,263.5007704391354,193.9672522153963,254.47825533598785,-173.20307703488814,-84.77187067690558,16.74782672923777,39.62093369434964,25.963711676905575,52.69902598255594,19.138165,-59.175138,-7.83325
1155.5555555555554,263.5007620489192,193.967252935912,254.4782525866515,-173.2030813769435,-84.77186959613196,16.747832161547212,39.62093478460372,25.96371059613197,52.69902381152825,19.138165,-59.175138,-7.83325
1158.3333333333333,263.5007536587031,193.96725365642774,254.47824983731513,-173.20308571899886,-84.77186851535836,16.747837593856655,39.62093587485779,25.963709515358364,52.69902164050057,19.138165,-59.175138,-7.83325
1161.111111111111,263.5007452684869,193.9672543769435,254.47824708797876,-173.20309006105424,-84.77186743458475,16.747843026166098,39.62093696511187,25.963708434584756,52.69901946947289,19.138165,-59.175138,-7.83325
1163.888888888889,263.5007368782708,193.96725509745923,254.47824433864238,-173.2030944031096,-84.77186635381115,16.74784845847554,39.62093805536595,25.963707353811152,52.699017298445206,19.138165,-59.175138,-7.83325
1166.6666666666665,263.5007284880546,193.96725581797497,254.47824158930604,-173.20309874516497,-84.77186527303755,16.747853890784985,39.62093914562002,25.963706273037545,52.69901512741752,19.138165,-59.175138,-7.83325
1169.4444444444443,263.5007200978385,193.9672565384907,254.47823883996966,-173.20310308722034,-84.77186419226393,16.747859323094424,39.6209402358741,25.963705192263937,52.699012956389836,19.138165,-59.175138,-7.83325
1172.2222222222222,263.5007117076223,193.96725725900643,254.4782360906333,-173.2031074292757,-84.77186311149033,16.747864755403867,39.620941326128175,25.96370411149033,52.699010785362155,19.138165,-59.175138,-7.83325
1175.0,263.50070331740613,193.96725797952217,254.4782333412969,-173.20311177133107,-84.77186203071672,16.74787018771331,39.620942416382256,25.963703030716726,52.699008614334474,19.138165,-59.175138,-7.83325
1177.7777777777778,263.50069492719,193.96725870003792,254.47823059196057,-173.20311611338641,-84.77186094994312,16.747875620022754,39.62094350663633,25.96370194994312,52.699006443306786,19.138165,-59.175138,-7.83325
1180.5555555555554,263.50068653697383,193.96725942055366,254.4782278426242,-173.2031204554418,-84.7718598691695,16.747881052332197,39.6209445968904,25.96370086916951,52.699004272279105,19.138165,-59.175138,-7.83325
1183.3333333333333,263.5006781467577,193.96726014106937,254.47822509328782,-173.20312479749717,-84.7718587883959,16.74788648464164,39.620945687144484,25.963699788395907,52.69900210125142,19.138165,-59.175138,-7.83325
1186.111111111111,263.5006697565415,193.96726086158512,254.47822234395147,-173.20312913955252,-84.7718577076223,16.74789191695108,39.62094677739856,25.9636987076223,52.69899993022374,19.138165,-59.175138,-7.83325
1188.888888888889,263.5006613663254,193.96726158210086,254.4782195946151,-173.2031334816079,-84.77185662684869,16.747897349260523,39.62094786765264,25.963697626848692,52.698997759196054,19.138165,-59.175138,-7.83325
1191.6666666666665,263.5006529761092,193.9672623026166,254.47821684527872,-173.20313782366324,-84.77185554607509,16.747902781569966,39.62094895790671,25.963696546075088,52.69899558816837,19.138165,-59.175138,-7.83325
1194.4444444444443,263.5006445858931,193.96726302313235,254.47821409594235,-173.20314216571862,-84.77185446530147,16.74790821387941,39.620950048160786,25.96369546530148,52.69899341714069,19.138165,-59.175138,-7.83325
1197.2222222222222,263.5006361956769,193.9672637436481,254.478211346606,-173.203146507774,-84.77185338452787,16.747913646188852,39.62095113841487,25.963694384527873,52.69899124611301,19.138165,-59.175138,-7.83325
1200.0,263.5006278054608,193.9672644641638,254.47820859726963,-173.20315084982934,-84.77185230375427,16.747919078498295,39.62095222866894,25.96369330375427,52.69898907508532,19.138165,-59.175138,-7.83325
1202.7777777777778,263.5006194152446,193.96726518467955,254.47820584793325,-173.20315519188472,-84.77185122298066,16.747924510807735,39.62095331892302,25.96369222298066,52.69898690405764,19.138165,-59.175138,-7.83325
1205.5555555555554,263.50061102502843,193.9672659051953,254.47820309859688,-173.2031595339401,-84.77185014220706,16.747929943117178,39.620954409177095,25.963691142207054,52.69898473302996,19.138165,-59.175138,-7.83325
1208.3333333333333,263.5006026348123,193.96726662571103,254.47820034926053,-173.20316387599544,-84.77184906143344,16.74793537542662,39.620955499431176,25.96369006143345,52.69898256200227,19.138165,-59.175138,-7.83325
1211.111111111111,263.50059424459613,193.96726734622678,254.47819759992416,-173.20316821805082,-84.77184798065984,16.747940807736065,39.62095658968525,25.963688980659843,52.69898039097459,19.138165,-59.175138,-7.83325
1213.888888888889,263.50058585438,193.9672680667425,254.47819485058778,-173.20317256010617,-84.77184689988623,16.747946240045508,39.62095767993932,25.963687899886235,52.69897821994691,19.138165,-59.175138,-7.83325
1216.6666666666665,263.5005774641638,193.96726878725823,254.4781921012514,-173.20317690216154,-84.77184581911263,16.74795167235495,39.620958770193404,25.96368681911263,52.69897604891923,19.138165,-59.175138,-7.83325
1219.4444444444443,263.5005690739477,193.96726950777398,254.47818935191506,-173.20318124421692,-84.77184473833903,16.74795710466439,39.62095986044748,25.963685738339024,52.69897387789154,19.138165,-59.175138,-7.83325
1222.2222222222222,263.5005606837315,193.96727022828972,254.4781866025787,-173.20318558627227,-84.77184365756541,16.747962536973834,39.62096095070156,25.963684657565416,52.69897170686386,19.138165,-59.175138,-7.83325
1225.0,263.5005522935154,193.96727094880546,254.4781838532423,-173.20318992832765,-84.77184257679181,16.747967969283277,39.62096204095563,25.963683576791812,52.69896953583618,19.138165,-59.175138,-7.83325
1227.7777777777778,263.5005439032992,193.96727166932118,254.47818110390594,-173.20319427038302,-84.7718414960182,16.74797340159272,39.620963131209706,25.963682496018205,52.698967364808496,19.138165,-59.175138,-7.83325
1230.5555555555554,263.5005355130831,193.96727238983692,254.4781783545696,-173.20319861243837,-84.7718404152446,16.747978833902163,39.62096422146379,25.963681415244597,52.69896519378081,19.138165,-59.175138,-7.83325
1233.3333333333333,263.5005271228669,193.96727311035266,254.47817560523322,-173.20320295449375,-84.771839334471,16.747984266211606,39.62096531171786,25.96368033447099,52.69896302275313,19.138165,-59.175138,-7.83325
1236.111111111111,263.5005187326508,193.9672738308684,254.47817285589684,-173.2032072965491,-84.77183825369738,16.747989698521046,39.62096640197194,25.963679253697386,52.698960851725445,19.138165,-59.175138,-7.83325
1238.888888888889,263.5005103424346,193.96727455138415,254.47817010656047,-173.20321163860447,-84.77183717292378,16.74799513083049,39.620967492226015,25.963678172923778,52.698958680697764,19.138165,-59.175138,-7.83325
1241.6666666666665,263.5005019522184,193.96727527189987,254.47816735722412,-173.20321598065985,-84.77183609215017,16.748000563139932,39.62096858248009,25.96367709215017,52.698956509670076,19.138165,-59.175138,-7.83325
1244.4444444444443,263.5004935620023,193.9672759924156,254.47816460788775,-173.2032203227152,-84.77183501137657,16.748005995449375,39.62096967273417,25.963676011376567,52.698954338642395,19.138165,-59.175138,-7.83325
1247.2222222222222,263.5004851717861,193.96727671293135,254.47816185855137,-173.20322466477057,-84.77183393060295,16.74801142775882,39.62097076298824,25.96367493060296,52.69895216761471,19.138165,-59.175138,-7.83325
1250.0,263.50047678157,193.9672774334471,254.47815910921503,-173.20322900682592,-84.77183284982935,16.74801686006826,39.620971853242324,25.963673849829352,52.69894999658703,19.138165,-59.175138,-7.83325
1252.7777777777778,263.5004683913538,193.96727815396284,254.47815635987865,-173.2032333488813,-84.77183176905575,16.7480222923777,39.6209729434964,25.963672769055748,52.698947825559344,19.138165,-59.175138,-7.83325
1255.5555555555554,263.5004600011377,193.96727887447858,254.47815361054228,-173.20323769093667,-84.77183068828214,16.748027724687145,39.62097403375048,25.96367168828214,52.69894565453166,19.138165,-59.175138,-7.83325
1258.3333333333333,263.5004516109215,193.9672795949943,254.4781508612059,-173.20324203299202,-84.77182960750854,16.748033156996588,39.62097512400455,25.963670607508533,52.69894348350398,19.138165,-59.175138,-7.83325
1261.111111111111,263.5004432207054,193.96728031551004,254.47814811186956,-173.2032463750474,-84.77182852673492,16.74803858930603,39.620976214258626,25.96366952673493,52.6989413124763,19.138165,-59.175138,-7.83325
1263.888888888889,263.5004348304892,193.96728103602578,254.47814536253318,-173.20325071710278,-84.77182744596132,16.748044021615474,39.62097730451271,25.96366844596132,52.69893914144861,19.138165,-59.175138,-7.83325
1266.6666666666665,263.5004264402731,193.96728175654152,254.4781426131968,-173.20325505915812,-84.77182636518772,16.748049453924917,39.62097839476678,25.963667365187714,52.69893697042093,19.138165,-59.175138,-7.83325
1269.4444444444443,263.5004180500569,193.96728247705727,254.47813986386043,-173.2032594012135,-84.7718252844141,16.748054886234357,39.62097948502086,25.96366628441411,52.69893479939325,19.138165,-59.175138,-7.83325
1272.2222222222222,263.5004096598407,193.96728319757298,254.4781371145241,-173.20326374326885,-84.7718242036405,16.7480603185438,39.620980575274935,25.963665203640502,52.69893262836557,19.138165,-59.175138,-7.83325
1275.0,263.5004012696246,193.96728391808873,254.4781343651877,-173.20326808532423,-84.77182312286689,16.748065750853243,39.62098166552901,25.963664122866895,52.69893045733788,19.138165,-59.175138,-7.83325
1277.7777777777778,263.5003928794084,193.96728463860447,254.47813161585134,-173.2032724273796,-84.77182204209329,16.748071183162686,39.62098275578309,25.96366304209329,52.6989282863102,19.138165,-59.175138,-7.83325
1280.5555555555554,263.5003844891923,193.9672853591202,254.47812886651496,-173.20327676943495,-84.77182096131968,16.74807661547213,39.62098384603716,25.963661961319684,52.69892611528252,19.138165,-59.175138,-7.83325
1283.3333333333333,263.5003760989761,193.96728607963595,254.47812611717862,-173.20328111149033,-84.77181988054608,16.748082047781573,39.620984936291244,25.963660880546076,52.69892394425484,19.138165,-59.175138,-7.83325
1286.111111111111,263.50036770876,193.96728680015167,254.47812336784224,-173.2032854535457,-84.77181879977248,16.748087480091012,39.62098602654532,25.963659799772472,52.69892177322715,19.138165,-59.175138,-7.83325
1288.888888888889,263.5003593185438,193.9672875206674,254.47812061850587,-173.20328979560105,-84.77181771899886,16.748092912400455,39.62098711679939,25.963658718998865,52.69891960219947,19.138165,-59.175138,-7.83325
1291.6666666666665,263.5003509283277,193.96728824118316,254.4781178691695,-173.20329413765643,-84.77181663822526,16.7480983447099,39.62098820705347,25.963657638225257,52.698917431171786,19.138165,-59.175138,-7.83325
1294.4444444444443,263.5003425381115,193.9672889616989,254.47811511983315,-173.20329847971178,-84.77181555745165,16.74810377701934,39.620989297307545,25.96365655745165,52.698915260144105,19.138165,-59.175138,-7.83325
1297.2222222222222,263.5003341478954,193.96728968221464,254.47811237049677,-173.20330282176715,-84.77181447667805,16.748109209328785,39.620990387561626,25.963655476678046,52.69891308911642,19.138165,-59.175138,-7.83325
1300.0,263.5003257576792,193.96729040273036,254.4781096211604,-173.20330716382253,-84.77181339590443,16.748114641638228,39.6209914778157,25.963654395904438,52.698910918088735,19.138165,-59.175138,-7.83325
1302.7777777777778,263.500317367463,193.9672911232461,254.47810687182402,-173.20331150587788,-84.77181231513083,16.748120073947668,39.62099256806978,25.96365331513083,52.698908747061054,19.138165,-59.175138,-7.83325
1305.5555555555554,263.5003089772469,193.96729184376184,254.47810412248768,-173.20331584793325,-84.77181123435723,16.74812550625711,39.620993658323854,25.963652234357227,52.698906576033366,19.138165,-59.175138,-7.83325
1308.3333333333333,263.5003005870307,193.96729256427759,254.4781013731513,-173.2033201899886,-84.77181015358362,16.748130938566554,39.62099474857793,25.96365115358362,52.698904405005685,19.138165,-59.175138,-7.83325
1311.111111111111,263.5002921968146,193.96729328479333,254.47809862381493,-173.20332453204398,-84.77180907281002,16.748136370875997,39.62099583883201,25.96365007281001,52.698902233978,19.138165,-59.175138,-7.83325
1313.888888888889,263.5002838065984,193.96729400530907,254.47809587447858,-173.20332887409936,-84.7718079920364,16.74814180318544,39.62099692908608,25.963648992036408,52.69890006295032,19.138165,-59.175138,-7.83325
1316.6666666666665,263.5002754163823,193.9672947258248,254.4780931251422,-173.2033332161547,-84.7718069112628,16.748147235494883,39.62099801934016,25.9636479112628,52.698897891922634,19.138165,-59.175138,-7.83325
1319.4444444444443,263.5002670261661,193.96729544634053,254.47809037580583,-173.20333755821008,-84.7718058304892,16.748152667804323,39.62099910959424,25.963646830489193,52.69889572089495,19.138165,-59.175138,-7.83325
